P2
256 256
255
255 251 250 255 255 253 249 247 252 255 254 254 254 254 255 255 255 255 255 255 255 255 254 254 254 253 252 252 251 250 249 249 249 252 251 251 250 249 249 249 250 251 251 252 254 255 255 255 255 255 255 255 255 255 255 253 253 253 254 254 254 255 255 255 255 255 253 252 252 253 254 254 253 252 251 251 251 250 250 250 251 252 252 252 251 250 250 250 250 252 253 252 250 250 252 255 253 250 246 253 255 255 255 255 255 254 254 253 253 253 255 255 255 255 255 255 255 255 255 255 255 252 251 251 251 251 251 251 251 250 250 250 254 255 255 255 255 255 255 255 255 255 255 255 255 255 255 255 255 255 255 255 255 255 253 254 255 255 255 255 254 252 252 252 253 254 255 255 255 255 255 255 255 255 254 253 254 255 255 255 255 255 255 255 255 255 255 254 254 253 252 251 251 251 252 253 253 254 250 250 251 253 252 251 250 249 250 252 253 254 255 254 252 252 252 253 254 253 251 249 253 254 255 255 255 255 254 252 250 249 247 253 255 255 255 254 254 254 253 252 252 252 254 255 255 255 255 255 255 255 255 255 254 255 255 255
249 250 249 244 252 254 252 252 252 250 247 251 252 252 253 253 253 253 254 254 254 254 255 255 255 254 254 254 253 253 252 252 252 254 253 253 253 252 252 252 253 253 253 254 254 254 254 254 254 254 254 254 254 254 254 254 254 254 255 255 255 255 255 255 255 255 254 254 254 254 255 255 254 254 253 253 253 253 253 253 253 254 254 254 253 253 253 253 253 254 254 254 253 253 254 255 254 252 250 254 255 255 255 255 255 255 255 254 254 254 255 255 255 255 255 255 255 255 255 255 255 254 253 253 253 253 253 253 253 253 253 253 253 254 254 254 254 254 254 254 254 254 254 253 252 252 252 253 253 253 253 253 253 254 253 253 254 255 254 253 252 251 251 252 253 253 253 252 251 252 252 252 253 252 251 249 253 254 254 254 254 254 254 253 253 253 253 254 255 254 254 253 253 253 254 254 254 255 253 253 253 254 254 253 253 252 253 254 254 255 255 255 254 254 254 254 255 254 253 252 254 255 255 255 255 255 255 254 253 252 252 252 252 252 253 253 253 254 254 254 254 254 251 250 250 252 252 253 254 255 255 255 255 255 255 255
247 250 234 195 202 203 201 201 200 196 193 199 200 200 200 201 201 201 202 203 203 203 205 205 206 206 207 207 208 209 209 210 210 210 210 210 210 210 210 210 210 210 210 211 211 212 212 212 212 212 212 212 212 212 212 212 212 212 212 211 211 211 211 211 211 210 209 209 209 210 210 210 210 210 209 209 209 210 210 210 210 210 210 210 210 210 210 210 209 210 210 210 209 209 209 210 209 208 206 206 206 206 206 206 206 206 206 207 207 207 208 208 208 208 208 208 209 209 209 209 209 209 209 209 209 210 210 210 210 210 210 210 210 211 211 211 211 211 211 211 211 211 211 212 212 212 212 213 213 213 214 214 214 215 213 212 213 213 212 210 209 208 209 211 212 213 213 212 210 211 211 212 213 212 210 208 211 212 212 212 211 211 211 210 210 210 210 209 209 209 208 208 208 208 208 209 209 209 210 210 210 210 210 209 209 208 208 208 208 207 207 207 206 207 207 208 208 208 208 208 208 208 207 207 207 207 207 208 208 208 208 207 206 206 208 209 211 213 214 215 215 216 211 209 211 213 214 217 218 221 222 222 223 245 255 255
255 250 198 91 79 68 61 63 66 69 71 70 69 69 69 69 69 69 70 71 72 72 75 77 79 80 83 85 88 91 92 94 95 96 95 95 94 93 93 93 94 95 95 97 102 103 103 103 103 103 103 103 103 103 103 102 102 102 101 100 100 99 98 98 98 96 92 92 92 93 93 93 93 93 92 92 91 93 94 94 95 95 95 95 95 94 94 93 91 93 94 93 90 90 91 94 92 89 84 79 79 79 80 80 80 81 82 83 83 83 87 88 88 88 89 89 90 90 91 91 91 92 92 92 92 93 93 93 93 93 93 93 100 102 102 102 102 102 102 102 102 102 102 113 116 116 116 117 117 117 118 118 118 118 110 107 107 105 103 101 100 100 102 105 107 115 117 115 113 114 114 115 116 115 113 111 106 104 103 103 102 102 102 101 101 101 101 94 91 90 89 88 88 88 89 90 90 91 93 94 95 96 94 92 90 88 87 88 89 85 84 83 82 83 85 87 89 88 88 87 86 86 85 84 84 84 84 86 87 88 89 92 94 95 98 100 104 107 110 113 114 115 115 116 118 120 123 126 129 133 136 137 139 218 255 255
245 247 188 58 61 59 58 64 67 70 73 67 66 66 65 65 65 65 67 68 69 69 68 70 72 75 79 82 86 90 93 95 96 99 99 99 98 97 97 97 98 99 99 100 101 101 101 101 102 102 102 102 102 102 102 102 101 101 100 99 98 97 96 95 95 94 93 94 94 95 96 96 97 97 96 96 95 97 98 98 99 99 99 99 99 98 98 97 95 96 97 96 94 93 94 97 95 92 86 80 79 79 80 81 82 83 84 85 85 86 88 90 90 90 91 91 92 93 94 94 94 96 96 96 96 97 97 97 97 97 97 97 101 102 102 103 103 103 103 103 103 103 103 106 107 107 107 108 108 108 109 109 109 109 110 111 109 106 104 102 100 101 104 107 111 108 107 105 103 104 104 105 106 105 103 101 103 104 104 104 103 103 103 102 102 102 102 97 95 94 93 92 92 92 93 94 94 95 98 99 100 100 98 96 93 90 89 89 90 86 84 83 83 84 86 89 91 92 92 91 90 88 86 84 83 83 83 85 86 88 90 87 86 88 91 94 98 101 105 108 109 111 109 109 110 113 117 121 125 129 133 135 137 218 255 255
246 249 188 52 65 66 64 67 62 60 63 62 62 61 60 59 59 60 62 63 64 65 61 62 65 68 73 77 82 87 90 93 95 98 98 98 98 97 97 97 98 98 98 99 96 95 95 95 96 96 96 97 97 97 98 100 100 99 98 97 95 94 93 92 91 91 92 93 93 94 95 95 96 96 96 96 95 97 99 99 100 100 100 100 100 99 99 98 96 96 97 96 93 92 93 96 94 91 85 79 78 78 79 80 82 83 84 85 85 86 88 89 89 90 91 91 92 93 94 94 94 96 97 97 97 97 97 98 98 98 98 98 99 99 99 100 100 100 101 102 102 102 102 106 107 107 107 108 108 108 109 109 109 109 109 109 107 104 101 99 97 99 102 106 110 107 106 104 103 103 103 104 105 104 102 101 101 101 101 100 100 100 99 99 98 98 98 97 97 96 95 94 94 94 95 96 96 97 99 100 101 101 98 95 92 89 88 88 89 84 82 81 81 83 86 89 91 92 92 91 90 88 86 82 80 79 78 80 82 84 86 85 86 88 91 94 98 101 104 107 109 111 108 107 108 111 115 119 123 128 132 135 137 218 255 255
252 254 193 61 77 77 70 67 54 47 49 56 57 55 54 53 53 54 56 58 59 59 54 54 57 61 66 71 76 82 85 88 91 94 94 94 93 92 92 92 93 94 94 94 88 87 87 87 88 88 89 89 90 90 91 96 97 96 95 94 92 91 89 88 88 87 88 88 89 90 91 91 92 92 92 92 91 93 95 95 96 97 97 97 96 95 95 94 92 92 93 92 89 88 89 92 90 86 80 75 74 74 75 76 78 79 81 82 83 84 85 85 85 86 87 88 89 90 91 91 91 92 93 93 93 94 94 94 95 96 96 96 95 95 95 96 97 97 98 99 99 99 99 108 110 110 111 111 111 112 112 112 112 113 108 105 103 100 97 94 92 94 98 102 106 109 109 107 106 106 106 107 108 107 105 104 99 96 96 95 95 95 94 94 93 93 93 95 95 94 93 93 93 93 93 94 94 95 96 97 98 97 94 91 88 85 83 83 84 79 77 76 76 78 82 85 87 88 88 87 86 85 82 78 75 73 72 74 76 78 80 85 88 89 92 94 98 101 104 107 108 110 108 107 108 111 113 117 121 126 131 134 136 218 255 255
250 253 189 48 58 58 56 61 58 59 64 59 57 56 54 52 52 54 56 58 60 60 56 56 59 63 68 72 77 83 86 89 91 92 92 92 91 90 90 90 91 92 92 92 91 92 92 92 93 93 94 95 96 96 97 101 101 101 100 99 97 96 94 93 93 91 88 88 88 89 90 91 92 92 92 92 92 94 95 95 96 96 96 96 96 95 95 94 92 93 93 92 89 88 88 91 89 85 80 76 76 76 77 78 80 81 82 83 84 84 85 86 86 87 88 89 90 91 92 93 93 93 93 93 94 95 95 96 97 98 98 98 102 104 104 105 106 106 107 108 108 108 109 106 106 107 107 108 108 108 109 109 109 109 112 112 110 107 104 102 100 102 105 109 113 107 104 103 101 101 102 103 103 102 100 99 102 103 103 103 102 102 102 101 101 101 100 98 97 97 96 95 95 95 96 97 97 97 98 98 99 98 95 92 88 85 83 83 84 79 77 76 76 78 82 85 87 89 89 88 87 85 82 79 76 73 72 73 75 76 78 79 78 79 82 84 87 90 92 95 96 97 102 103 104 105 107 111 115 120 124 128 130 216 255 255
252 253 190 55 60 58 56 61 56 54 57 57 56 54 52 50 50 52 54 56 58 59 56 56 59 62 67 71 75 81 84 86 88 89 88 88 87 87 87 87 87 88 88 88 87 87 87 88 89 89 90 91 92 92 92 93 93 93 92 91 90 89 87 86 86 85 85 86 87 88 89 90 91 91 91 91 91 92 93 93 94 94 94 94 94 93 93 92 90 91 92 91 87 86 87 89 87 83 78 74 74 74 75 76 77 78 80 81 81 81 83 84 84 85 86 87 88 90 91 91 92 92 92 92 93 94 94 95 96 97 97 97 100 101 102 103 104 104 105 106 106 106 107 107 107 108 108 109 109 109 110 110 110 110 108 107 106 104 101 99 97 98 101 104 108 106 105 104 102 102 103 104 104 103 101 100 100 100 100 99 99 99 98 98 97 97 97 97 97 97 96 95 95 95 96 97 97 97 97 96 97 96 94 91 87 84 82 82 83 77 75 74 74 76 80 83 85 86 86 85 84 82 80 77 75 73 73 74 75 76 77 81 84 85 87 89 92 94 97 99 100 102 103 104 104 106 108 111 114 119 124 128 131 216 255 255
255 251 189 62 62 59 58 62 55 49 49 55 55 53 50 48 48 50 52 55 57 59 56 56 59 62 65 69 73 78 81 83 84 85 85 85 84 83 83 83 84 85 85 85 83 83 83 84 85 85 86 87 88 88 88 88 88 88 87 86 85 84 83 82 82 81 84 85 86 87 88 89 90 90 90 90 90 91 92 92 93 93 93 93 93 92 92 91 89 90 91 90 86 85 86 88 86 82 77 73 72 72 73 74 74 75 77 78 78 78 81 83 83 84 85 86 87 89 90 90 91 91 91 91 92 93 94 95 96 97 97 97 98 98 99 100 101 101 102 103 104 104 105 108 108 109 109 110 110 110 111 111 111 111 104 103 102 100 97 95 93 94 97 100 103 106 105 104 102 102 103 104 104 103 101 100 97 96 96 95 95 95 94 94 93 93 93 96 97 97 96 95 95 95 96 97 97 97 96 95 96 95 93 90 86 84 82 82 83 76 73 72 73 75 78 81 83 84 84 83 81 80 79 76 74 74 74 75 76 77 78 83 87 88 90 92 95 98 101 103 104 106 104 103 103 105 107 110 113 118 124 128 131 215 255 255
255 245 182 60 52 49 51 60 56 52 52 54 54 52 49 47 47 49 51 54 56 58 55 56 58 61 64 67 71 75 78 80 81 84 84 84 83 82 82 82 83 84 84 85 85 86 86 87 88 88 89 91 92 92 92 93 93 93 92 91 91 90 89 88 88 88 85 85 86 87 88 89 90 91 91 91 90 91 92 92 93 93 93 93 93 92 92 91 90 91 91 90 87 86 86 89 87 82 77 72 71 71 72 73 73 74 75 76 76 76 80 82 82 83 84 86 87 88 89 90 90 92 92 92 93 94 95 96 97 98 98 98 101 102 103 104 105 105 106 107 108 108 109 107 107 108 108 109 109 109 110 110 110 110 105 104 104 102 100 98 96 97 99 102 104 105 104 103 101 101 102 103 103 102 100 99 98 98 98 98 97 97 97 96 96 96 96 97 98 97 96 96 96 96 96 97 97 98 96 95 96 96 93 90 87 85 83 83 84 76 73 72 72 74 77 80 82 83 83 82 80 79 78 76 75 75 76 77 79 80 81 79 79 80 83 85 88 91 94 97 98 99 97 96 96 98 100 103 107 113 119 123 126 214 255 255
255 251 189 62 55 52 52 51 51 51 50 51 52 51 50 50 50 52 52 54 55 55 52 53 54 57 61 66 71 76 77 79 78 81 81 81 81 81 81 82 82 83 83 84 84 85 85 86 87 88 89 91 92 92 92 92 92 92 91 90 88 87 86 85 84 83 82 82 84 85 87 88 89 90 91 91 91 90 91 91 91 91 91 91 91 91 91 90 91 90 90 89 88 87 87 86 84 79 76 73 72 72 73 74 75 76 77 78 78 79 81 82 83 83 83 83 83 85 89 93 96 95 93 93 94 94 94 95 96 97 97 98 98 99 100 101 102 104 105 105 106 106 106 107 107 108 109 110 110 110 109 109 109 108 106 105 103 101 98 95 93 96 99 103 107 106 105 104 103 103 103 103 102 102 101 101 100 99 99 98 97 97 96 95 95 95 94 96 97 97 97 97 97 97 96 96 96 95 95 95 94 93 90 87 85 83 82 82 81 76 71 67 65 69 73 77 79 80 80 81 80 79 78 77 76 76 76 77 78 79 80 77 76 77 80 82 86 89 92 95 96 98 96 95 94 95 97 102 107 114 119 122 125 214 255 255
255 254 193 63 56 54 52 47 49 50 49 50 51 51 51 52 52 53 53 54 54 54 51 51 52 55 60 66 71 76 77 78 77 80 80 80 80 81 81 82 82 82 82 83 84 85 85 86 87 88 89 91 92 92 92 92 91 91 90 89 87 86 84 83 82 81 80 81 83 84 86 88 89 90 91 91 91 90 90 90 90 90 90 90 90 90 90 90 91 90 89 88 88 88 88 85 82 78 75 73 72 72 73 74 76 77 78 79 79 80 81 82 83 83 82 81 81 84 89 94 98 96 94 94 94 94 94 94 95 96 97 98 96 97 98 100 101 103 104 104 105 105 105 107 107 108 109 109 109 109 109 108 108 107 107 106 103 100 97 94 92 95 99 104 108 106 105 104 104 104 104 103 102 102 102 102 101 100 99 98 97 97 96 95 94 94 93 96 97 97 98 98 98 97 96 95 95 94 95 95 93 91 88 86 84 82 81 81 80 76 70 64 62 66 71 76 78 78 79 80 79 78 77 76 75 75 75 76 77 77 78 76 75 76 79 81 85 88 91 94 95 97 95 93 92 93 96 101 107 114 119 122 124 214 255 255
255 254 193 63 57 54 52 48 49 50 50 51 51 51 51 52 52 53 53 54 54 53 50 50 51 54 59 65 70 75 76 77 77 79 80 80 80 81 81 81 82 82 82 82 84 84 84 85 86 88 89 90 91 91 92 92 91 91 90 89 87 85 83 82 82 81 80 81 83 84 86 88 89 90 91 91 91 90 90 90 90 90 90 90 90 90 90 90 90 89 89 88 88 88 87 85 82 78 75 73 72 72 73 74 76 77 78 79 79 80 81 82 82 83 82 82 82 85 89 93 97 95 94 94 93 93 93 94 95 96 96 97 97 97 98 100 101 103 104 105 105 105 105 106 106 107 108 108 108 108 108 107 107 106 106 105 103 100 97 94 92 95 98 103 107 105 104 104 103 103 103 102 102 101 101 101 100 99 99 98 97 97 96 94 94 94 93 95 96 97 97 97 97 97 96 95 94 93 94 94 92 90 88 86 84 82 81 81 80 76 71 65 63 67 72 76 77 77 78 79 78 77 76 75 74 74 74 75 76 76 77 75 74 75 78 81 84 87 90 93 94 96 94 92 91 92 95 100 107 114 119 122 124 214 255 255
255 254 193 63 57 54 52 48 50 51 51 51 51 51 51 52 52 52 52 53 53 52 49 49 50 53 58 64 69 74 75 76 75 78 79 79 79 80 80 80 81 81 81 81 83 83 84 85 86 87 88 89 90 90 91 92 91 90 89 88 86 85 83 82 81 81 80 81 83 84 86 88 89 90 91 91 91 90 90 90 90 90 90 90 90 90 90 90 89 88 88 87 87 87 87 85 82 79 76 73 72 72 73 74 76 77 78 79 79 80 80 81 82 84 84 84 84 86 88 91 94 94 93 93 93 92 92 93 94 95 95 96 97 97 98 100 101 103 104 105 105 105 105 105 105 106 107 108 108 108 107 106 106 105 105 105 103 100 97 94 92 94 97 101 105 104 103 103 102 102 102 101 101 100 100 100 99 98 98 97 96 96 95 94 94 94 93 94 95 96 96 97 97 96 95 94 94 93 93 93 91 89 87 85 83 81 80 80 80 77 72 66 64 68 73 76 75 75 76 77 76 75 74 73 72 72 72 73 74 74 75 73 73 74 77 79 83 86 89 92 93 95 92 90 89 90 93 98 106 113 118 122 124 214 255 255
255 254 193 63 57 55 53 49 51 52 52 51 51 51 51 51 51 51 52 52 52 51 48 48 49 52 57 63 68 73 74 75 74 77 78 78 78 79 79 79 80 80 80 80 82 82 83 84 85 86 87 88 89 89 90 91 90 90 89 88 86 85 83 82 81 80 80 81 83 84 86 88 89 90 91 91 91 90 90 90 90 90 90 90 90 90 90 90 88 87 87 86 86 86 87 85 82 79 76 73 72 72 73 74 76 77 78 79 79 80 80 81 82 83 84 85 85 87 88 90 91 93 92 92 92 91 91 92 93 94 94 95 96 97 98 100 101 103 104 104 105 105 105 106 106 107 108 108 108 108 108 107 107 106 104 104 102 99 96 94 92 93 96 100 104 103 102 102 101 101 101 100 100 99 99 99 98 97 97 96 96 96 95 94 94 94 94 94 94 95 95 96 96 95 94 93 93 92 92 92 90 88 86 84 82 81 80 80 80 78 73 67 65 69 73 76 74 73 73 74 73 72 71 70 70 70 70 70 71 71 72 72 72 73 76 78 82 85 88 91 92 94 91 88 87 88 92 97 105 112 117 121 123 213 255 255
255 254 193 63 57 55 53 49 51 52 52 51 51 51 51 51 51 51 52 52 52 51 48 48 49 51 56 62 68 72 73 74 74 77 78 78 78 79 79 79 80 80 80 80 82 82 83 84 85 86 87 88 89 89 90 91 90 90 89 88 86 85 83 82 81 80 80 81 83 84 86 88 89 90 91 91 91 90 90 90 90 90 90 90 90 90 90 90 88 87 87 86 86 86 87 85 82 79 76 73 72 72 73 74 76 77 78 79 79 80 80 81 82 83 84 85 86 87 88 89 90 92 92 92 92 91 91 92 93 94 94 95 96 97 98 100 101 103 104 104 105 105 105 106 106 107 108 108 108 108 108 107 107 106 104 104 102 99 96 94 92 93 96 99 102 102 101 101 101 100 100 100 99 99 99 99 98 97 97 96 96 96 95 94 94 94 94 94 94 95 95 96 96 95 94 93 93 92 92 91 89 87 86 84 82 81 80 80 80 78 73 67 65 69 73 76 74 73 72 72 71 71 70 69 68 68 68 69 70 70 71 71 72 73 76 78 81 84 87 90 91 93 90 87 86 87 91 96 103 110 116 120 122 213 255 255
255 254 193 63 58 56 54 50 53 54 53 51 51 51 51 51 51 51 50 50 50 49 46 46 47 50 55 61 66 71 72 73 73 76 77 77 77 78 78 78 79 79 79 79 81 81 81 82 83 85 86 87 88 88 89 91 90 89 88 87 85 84 82 81 80 80 80 81 83 84 86 88 89 90 91 91 91 90 90 90 90 90 90 90 90 90 90 90 88 86 86 85 86 86 86 84 82 79 76 73 72 72 73 74 76 77 78 79 79 80 82 82 82 83 84 85 87 88 89 89 89 91 91 91 90 90 90 91 92 93 93 94 95 95 96 98 99 101 102 103 103 103 103 106 107 108 109 109 109 109 109 108 108 107 104 103 101 99 96 93 91 92 94 97 100 100 100 99 99 99 99 98 98 97 97 97 96 96 96 95 95 95 95 94 94 94 94 93 93 94 94 94 94 94 93 92 91 91 90 89 88 86 84 82 81 80 80 80 79 77 72 67 65 69 73 76 74 71 70 70 69 69 68 67 66 66 66 67 68 68 69 69 70 71 74 76 80 83 86 89 90 92 88 86 85 86 89 94 101 108 114 118 120 212 255 255
255 253 192 63 58 56 54 51 54 55 54 51 51 51 51 50 50 50 50 49 49 48 45 45 46 49 54 60 65 70 71 72 72 75 76 76 76 77 77 77 78 78 78 78 80 80 80 81 82 84 85 86 87 87 88 90 89 89 88 87 85 83 81 80 80 79 80 81 83 84 86 88 89 90 91 91 91 90 90 90 90 90 90 90 90 90 90 90 87 85 85 84 85 85 86 84 82 79 76 73 72 72 73 74 76 77 78 79 79 80 83 83 83 82 83 84 86 88 89 89 88 90 90 90 89 89 89 90 91 92 92 93 93 93 95 97 98 99 100 101 101 101 101 105 106 107 108 108 108 108 108 107 107 106 103 102 101 99 96 93 91 91 93 96 98 99 99 98 98 98 98 97 97 96 96 96 95 95 95 94 94 94 94 94 94 94 94 93 92 93 93 93 93 93 92 91 90 90 89 88 87 85 83 81 80 79 79 79 79 76 71 67 65 69 74 77 75 72 70 69 68 68 67 66 65 65 65 66 67 67 68 68 69 70 73 75 79 82 85 88 89 91 87 85 84 85 88 93 99 106 111 115 117 211 255 255
255 253 192 63 58 56 54 51 54 55 54 51 51 51 51 50 50 50 50 49 49 48 44 44 45 48 53 59 64 69 70 71 72 75 76 76 76 77 77 77 78 78 78 78 80 80 80 81 82 84 85 86 87 87 88 90 89 89 88 87 85 83 81 80 80 79 80 81 83 84 86 88 89 90 91 91 91 90 90 90 90 90 90 90 90 90 90 90 87 85 85 84 85 85 86 84 82 79 76 73 72 72 73 74 76 77 78 79 79 80 85 85 83 81 81 83 86 88 89 89 88 90 90 90 89 89 89 90 91 92 92 93 91 91 93 95 96 97 98 99 99 99 99 104 105 105 106 107 107 107 106 105 105 105 102 102 101 99 96 93 91 91 92 94 96 97 98 98 97 97 97 96 96 95 95 95 95 95 94 94 94 94 94 94 94 94 94 93 92 93 93 93 93 93 92 91 90 90 89 87 86 84 83 81 80 79 79 79 79 75 70 66 65 69 74 77 75 72 70 69 68 68 67 66 65 65 65 66 67 67 68 68 68 69 72 75 78 81 84 87 88 90 87 85 84 85 87 92 97 104 109 113 115 211 255 255
255 253 192 63 58 56 55 52 55 56 54 52 51 51 51 50 50 49 49 48 48 47 43 43 44 47 52 58 63 68 69 70 71 74 75 75 75 76 76 76 77 77 77 78 79 80 80 81 82 83 84 85 86 87 87 89 89 88 87 86 84 83 81 80 79 79 80 81 83 84 86 88 89 90 91 91 91 90 90 90 90 90 90 90 90 90 90 90 86 84 84 83 84 85 86 84 82 79 76 73 72 72 73 74 76 77 78 79 79 80 86 86 83 80 80 82 85 87 89 89 89 90 89 89 89 88 88 89 90 91 92 92 90 90 91 93 94 96 97 98 98 98 98 101 102 103 104 104 104 104 104 103 103 102 101 101 101 99 96 93 91 90 91 93 95 96 97 97 96 96 96 95 95 94 94 94 94 94 94 94 94 94 94 94 94 94 94 93 92 92 93 93 93 92 91 90 90 89 88 86 85 83 82 81 80 79 79 79 79 74 69 65 64 69 74 77 75 72 70 69 68 67 67 66 65 65 65 66 67 67 67 67 67 68 71 74 77 80 83 86 87 89 88 86 85 84 86 91 96 102 107 110 112 210 255 255
255 253 193 64 58 56 55 52 55 56 55 53 51 51 51 50 50 49 49 48 48 47 43 43 44 46 51 57 63 67 68 69 70 73 75 75 75 75 75 76 77 77 77 77 78 79 79 80 81 82 83 85 86 86 87 89 89 88 87 86 84 83 81 80 79 78 80 81 83 84 86 88 89 90 91 91 91 90 90 90 90 90 90 90 90 90 90 90 85 83 83 83 84 85 86 84 82 79 76 73 72 72 73 74 76 77 78 79 79 81 88 87 84 79 79 81 84 87 89 90 90 89 89 89 88 88 88 89 90 91 91 92 89 88 89 91 93 94 95 96 96 96 96 99 100 101 102 102 102 102 102 101 101 100 100 100 100 99 96 93 91 89 91 93 94 95 96 96 96 95 95 95 94 94 94 94 93 93 93 93 94 94 94 94 94 94 94 92 91 92 92 92 92 92 91 90 89 88 87 86 85 83 82 80 79 79 79 79 79 73 67 64 64 69 74 77 75 72 70 70 68 67 67 66 65 65 65 66 67 67 67 66 67 68 71 73 76 79 82 85 87 88 87 86 85 84 86 90 95 101 106 108 110 209 255 255
255 253 192 62 57 56 56 53 55 56 54 52 51 51 51 50 50 50 49 48 48 47 43 43 44 47 52 57 63 67 68 68 69 73 75 75 76 76 77 78 78 78 77 77 78 79 79 80 81 83 84 86 87 87 88 89 89 89 89 88 85 83 81 80 79 79 82 83 84 84 87 90 92 94 93 92 91 91 90 89 88 88 89 90 91 90 90 89 87 87 88 88 87 85 84 82 83 84 85 82 77 72 68 70 75 80 83 82 79 77 87 88 87 82 79 79 81 85 88 90 90 88 87 86 86 87 88 88 88 88 88 89 87 87 89 91 93 93 94 95 96 97 98 98 99 99 100 100 100 100 100 99 99 98 100 100 99 97 94 91 88 87 89 91 92 95 96 95 95 94 94 93 93 93 93 93 93 93 93 93 94 94 93 93 93 93 93 91 90 91 91 91 91 91 91 90 89 89 87 86 85 83 82 80 79 78 78 78 77 71 66 63 63 67 72 75 75 74 72 70 71 69 67 64 63 63 65 66 66 65 63 65 67 68 71 73 76 79 82 84 86 87 86 85 85 85 86 89 92 98 103 107 110 209 255 255
255 253 191 60 56 56 57 55 56 55 52 50 50 50 51 51 51 51 50 49 48 47 44 44 45 48 53 58 63 67 67 67 67 72 74 76 77 78 79 80 80 79 78 77 78 79 80 81 82 84 86 88 89 89 90 88 89 90 91 90 87 83 81 80 80 81 86 85 85 84 87 91 95 97 95 93 91 93 92 90 88 90 92 94 95 94 91 89 90 92 95 97 94 91 88 86 90 94 99 97 89 79 70 72 78 86 91 88 81 76 84 89 91 90 83 79 77 80 85 87 89 86 85 84 85 86 87 87 85 85 86 88 85 85 88 90 91 91 92 93 95 97 99 98 98 98 98 98 98 98 98 97 97 97 99 99 97 95 92 88 85 84 86 88 90 94 95 94 93 92 92 91 91 92 92 92 93 93 93 93 93 93 92 92 92 92 92 90 89 89 89 89 89 90 90 90 90 90 88 86 85 83 81 79 78 76 76 76 75 68 64 62 62 65 69 73 76 76 74 71 74 72 67 62 60 61 64 66 64 62 59 64 66 67 70 72 75 78 81 83 84 86 84 83 84 86 87 88 89 93 99 105 110 209 255 255
255 253 192 61 56 56 57 55 56 55 53 50 50 50 50 50 50 50 49 48 48 46 43 43 45 47 52 58 63 67 67 67 67 71 73 75 76 77 78 79 79 78 78 77 78 79 80 81 82 84 85 87 88 89 90 88 89 89 90 88 85 81 79 79 79 81 88 87 83 80 82 86 91 94 92 90 88 98 99 99 100 103 105 107 106 103 99 96 95 97 101 106 107 108 108 108 110 113 116 114 108 101 94 93 93 96 96 94 90 86 80 87 96 103 95 85 76 73 76 80 84 86 87 87 87 86 86 85 85 88 91 94 85 83 86 88 89 89 90 91 93 95 97 97 97 97 97 98 98 97 97 97 97 97 98 98 96 94 91 87 85 84 85 87 90 93 94 93 92 91 90 90 90 91 91 91 92 92 92 92 91 91 91 91 90 90 90 89 88 88 89 89 89 89 89 89 89 89 87 85 84 82 81 79 78 76 75 75 75 67 63 62 61 64 68 73 76 75 73 71 74 72 67 62 61 62 64 66 64 62 59 63 65 66 69 71 74 77 80 83 84 86 85 84 84 85 85 86 87 91 96 100 105 208 255 255
255 253 192 62 57 57 57 54 55 54 52 50 50 50 49 49 49 49 48 47 47 46 43 43 44 46 51 57 62 66 67 68 67 70 72 74 75 76 77 78 78 78 78 77 78 79 80 81 82 84 85 87 88 88 89 91 92 92 92 90 87 84 82 82 83 85 92 90 86 82 83 87 91 95 93 92 90 95 98 101 105 110 115 117 117 114 110 107 109 112 118 124 128 132 134 135 135 135 136 134 131 128 123 120 116 113 111 110 109 108 96 99 105 109 102 93 85 81 81 81 80 82 84 84 86 84 82 81 81 83 86 89 82 81 84 86 87 87 87 88 90 92 94 96 96 96 96 97 97 97 97 96 96 96 97 97 95 93 90 86 84 83 85 87 89 92 93 92 91 90 89 89 89 90 90 90 91 91 91 91 90 90 90 89 89 89 88 88 87 87 88 88 88 88 88 88 88 88 86 84 83 82 81 79 77 75 74 74 74 66 62 61 60 63 67 72 75 75 73 71 73 71 67 63 61 62 63 65 63 61 59 62 64 65 68 70 74 77 80 83 84 86 84 83 84 85 84 85 86 88 93 97 102 207 255 255
255 253 193 64 59 57 57 54 55 54 52 50 50 50 49 48 48 47 47 47 47 46 43 43 44 46 51 57 62 66 67 68 67 70 72 73 74 75 76 77 78 78 78 78 79 79 80 81 82 84 85 87 88 88 89 93 94 94 93 91 88 85 83 84 85 87 92 91 88 85 86 88 91 94 95 95 93 93 96 101 108 116 123 128 129 128 126 124 129 133 138 144 150 155 158 158 156 154 153 152 151 151 149 144 139 133 130 130 131 132 124 121 118 113 107 104 103 103 98 92 84 83 84 84 85 82 80 78 78 79 80 81 79 80 83 85 86 86 85 86 88 90 92 94 94 94 96 97 97 97 97 96 96 95 95 95 94 92 89 85 83 83 85 87 89 91 92 91 89 88 88 88 88 88 88 89 90 90 90 89 89 89 88 87 87 87 86 87 87 87 87 86 86 86 86 86 86 86 84 84 83 82 81 79 77 75 74 73 72 65 61 60 60 63 67 72 75 75 73 71 72 71 67 63 61 62 63 64 63 61 59 62 64 65 68 70 74 77 80 83 84 86 83 82 83 85 84 84 85 87 92 96 100 206 255 255
255 254 194 65 60 58 57 53 54 53 52 51 50 50 49 47 47 46 46 46 46 46 43 42 43 45 50 56 61 66 67 68 68 71 72 72 73 74 75 76 78 78 78 79 80 80 81 82 83 84 85 87 88 88 89 93 94 94 93 90 87 85 83 84 85 86 87 89 89 89 90 90 91 93 96 98 99 93 95 102 112 122 131 138 142 144 145 146 154 158 161 165 170 174 177 177 174 170 167 168 169 170 169 165 160 154 151 152 154 157 162 152 135 117 114 119 129 137 128 113 96 90 88 87 84 81 79 78 78 77 74 70 76 79 82 84 85 85 84 85 87 89 91 92 92 93 95 96 96 96 96 95 95 94 94 94 93 91 88 84 82 82 84 86 88 90 91 90 88 87 87 87 87 87 87 88 89 89 89 88 88 88 87 86 85 85 85 86 86 86 86 85 85 85 85 84 84 84 83 83 82 81 80 78 77 75 74 72 71 64 60 59 59 62 67 72 74 74 73 70 71 70 67 64 62 61 62 63 62 62 60 61 63 64 67 69 73 76 79 82 83 85 82 81 82 84 84 84 85 88 92 96 100 206 255 255
255 254 194 67 62 59 56 51 52 52 51 51 50 49 47 45 45 44 44 44 44 45 42 41 42 44 49 54 60 65 68 69 69 72 72 72 73 74 75 76 78 79 80 81 82 82 83 84 85 86 87 88 89 89 90 90 91 91 90 88 85 82 80 81 81 82 80 84 88 93 93 92 90 91 96 101 106 103 107 113 122 132 141 150 156 161 165 168 174 175 176 178 180 183 185 185 183 180 177 180 180 180 179 176 174 172 170 169 170 171 187 177 157 137 136 147 163 172 162 143 121 112 106 100 89 80 77 79 84 84 81 76 78 79 81 83 84 84 83 84 85 87 89 89 90 91 93 94 95 96 95 94 93 92 92 92 91 89 86 83 81 80 82 85 87 89 90 89 88 87 87 86 86 87 87 87 88 89 89 88 87 86 85 84 83 83 83 84 85 84 84 83 83 83 83 82 82 82 81 81 81 80 79 78 77 75 72 70 69 62 58 57 57 61 66 71 74 74 72 70 71 69 66 63 62 61 61 61 61 61 60 62 63 64 67 69 72 74 77 80 81 83 80 79 80 83 85 86 87 90 95 99 102 207 255 255
255 254 194 67 62 59 56 51 52 52 51 51 50 49 47 45 44 43 43 44 44 45 42 41 42 44 49 54 60 65 68 69 69 72 72 72 73 74 75 77 79 80 81 82 83 84 84 85 86 87 88 89 90 90 91 91 92 92 92 91 88 85 82 82 82 83 80 84 90 97 97 95 92 93 100 107 114 115 119 124 131 139 146 154 161 167 172 176 180 181 181 182 184 186 187 188 187 186 186 189 189 187 185 183 183 183 182 180 178 178 195 190 177 164 165 174 188 195 185 169 150 137 128 116 98 83 76 77 86 89 87 82 78 79 81 83 83 83 82 83 84 86 88 87 88 90 92 94 95 96 95 94 92 91 91 91 90 88 85 82 80 80 82 85 87 89 90 89 88 87 87 86 86 87 87 87 88 89 89 88 87 86 85 84 83 83 83 84 84 84 83 82 82 82 81 80 80 80 80 80 80 80 79 78 77 75 72 70 69 61 57 56 57 61 66 71 74 74 72 70 70 69 66 63 62 61 61 60 61 61 60 62 64 65 67 69 72 74 76 78 79 80 78 77 80 83 85 87 88 91 96 100 103 207 255 255
254 254 195 68 63 60 56 50 51 52 51 52 51 49 47 45 43 42 42 43 43 44 41 41 42 43 48 53 59 64 68 69 70 73 73 73 74 75 76 78 80 82 84 85 86 87 87 88 88 88 89 90 91 91 92 93 95 96 97 96 93 90 87 86 86 86 85 88 93 99 98 97 95 97 105 112 120 124 128 132 137 142 147 152 158 165 170 175 177 179 180 182 183 184 185 187 188 190 191 195 194 191 188 188 188 189 188 185 183 181 194 196 194 191 192 197 205 208 201 190 177 162 151 136 113 92 78 76 84 89 89 85 78 77 79 81 81 81 80 81 82 84 86 85 86 89 91 93 94 95 94 93 91 90 89 89 89 87 84 81 79 79 81 84 86 90 91 90 88 87 87 87 87 87 87 88 89 90 89 88 87 86 85 84 83 83 82 83 83 83 82 81 81 80 79 79 79 78 79 79 79 80 79 78 77 74 71 69 68 60 56 55 56 60 65 70 73 73 72 70 69 68 67 64 62 61 60 59 60 60 61 63 65 66 67 69 71 73 75 76 76 77 76 76 79 82 85 87 89 91 95 99 103 207 255 255
253 254 196 70 65 61 56 49 50 51 50 52 51 49 46 43 42 41 41 42 42 43 41 40 41 42 47 52 58 64 68 70 71 74 75 75 75 76 77 79 81 84 86 87 88 89 89 90 90 90 91 92 93 93 93 95 97 99 101 100 98 95 91 89 88 88 92 93 93 93 92 93 94 99 107 114 120 125 129 133 137 139 142 145 148 154 159 163 166 169 174 178 179 180 180 182 185 188 191 193 193 192 190 190 190 190 189 187 185 184 191 197 201 205 205 207 208 211 208 202 195 181 173 161 140 113 92 80 81 82 80 75 75 75 77 79 79 79 78 78 79 81 83 83 84 87 90 93 94 95 94 92 90 89 88 88 87 85 82 80 78 78 80 83 86 90 92 91 89 88 88 88 88 88 88 89 90 91 90 89 88 87 86 84 83 83 82 82 82 82 81 80 80 79 78 77 77 76 77 77 78 79 79 78 77 74 71 68 66 59 55 54 55 59 64 69 73 73 72 69 68 68 67 64 62 60 59 58 59 59 61 64 66 67 68 69 70 71 73 74 74 75 75 76 79 81 84 86 87 89 93 96 99 205 255 255
252 253 196 71 65 61 56 49 50 50 50 52 50 48 45 43 41 40 40 41 42 43 40 40 40 41 46 51 58 63 68 71 72 75 76 76 76 77 78 80 82 85 87 88 89 90 90 91 91 91 92 93 94 94 94 91 92 94 98 98 96 92 88 85 83 83 93 92 86 80 79 81 86 94 101 107 112 123 128 132 136 138 140 142 144 148 152 156 157 162 168 174 176 176 175 176 180 184 187 189 189 190 191 191 190 189 188 188 187 188 195 199 201 202 201 203 205 210 211 208 203 194 191 186 171 141 115 93 84 77 70 63 70 74 75 77 77 77 76 76 77 79 81 82 83 86 89 92 94 95 93 91 89 88 87 87 86 84 82 80 78 78 80 83 85 90 92 91 90 89 89 88 88 89 89 90 91 92 91 90 89 87 86 84 83 83 82 82 82 81 80 79 79 78 77 76 76 75 76 77 78 79 79 78 77 74 70 67 65 58 54 53 54 58 63 69 72 72 71 69 68 67 67 65 63 60 58 57 58 59 61 65 67 68 69 70 70 71 72 73 73 74 74 76 79 81 83 84 85 87 90 93 95 204 255 255
252 253 196 71 66 62 58 51 51 51 51 52 50 48 46 44 43 42 41 42 43 43 40 40 40 41 46 51 58 63 68 71 72 75 76 76 76 76 77 80 83 85 87 89 90 91 92 92 93 92 93 94 95 96 97 91 91 92 94 94 92 88 84 80 77 77 88 87 81 77 80 84 91 99 104 109 114 123 128 131 135 137 140 142 145 148 150 152 155 159 164 169 172 174 174 175 177 179 182 183 184 187 190 191 191 191 191 191 191 192 197 199 198 197 198 200 202 206 208 207 208 205 205 202 193 172 150 129 111 91 72 57 69 73 74 77 76 74 71 72 75 78 77 79 83 87 91 92 93 93 93 92 90 89 87 87 86 83 81 79 77 77 80 83 85 89 91 91 90 90 89 88 88 89 89 90 91 92 91 90 89 87 86 84 83 83 82 82 82 81 80 79 79 78 77 76 76 75 76 76 77 77 77 77 76 73 70 67 65 57 53 51 52 58 64 70 72 71 71 70 68 66 66 65 63 60 58 57 58 58 60 64 66 66 67 68 69 70 72 72 72 73 74 76 79 81 83 83 84 86 88 91 93 204 255 255
253 254 197 72 67 65 61 54 54 54 53 52 51 49 48 46 46 45 44 44 44 44 41 39 40 41 46 51 58 64 69 72 73 76 76 76 75 75 76 79 82 85 88 90 90 92 94 95 94 93 92 93 96 99 102 99 96 94 92 90 88 85 81 77 74 72 78 80 82 89 100 108 115 118 120 124 129 126 127 129 132 136 141 146 151 153 153 153 158 160 161 164 168 173 176 179 178 176 175 175 178 182 187 191 194 196 196 195 194 193 196 195 193 195 200 202 200 197 198 202 209 216 213 206 201 202 199 191 167 128 91 61 71 74 74 79 76 69 62 67 74 77 72 76 83 90 95 92 90 90 93 95 93 90 88 87 85 82 79 76 74 76 79 82 86 87 89 90 91 91 90 88 88 89 90 91 91 91 91 89 88 87 86 84 83 83 82 81 81 81 80 79 79 78 77 77 77 76 75 75 74 73 74 74 74 72 70 67 64 56 50 46 48 57 66 72 71 70 71 73 67 64 65 64 62 60 58 56 57 57 59 61 62 63 64 65 67 69 71 72 72 73 74 75 78 80 83 84 85 87 89 92 94 204 255 255
253 254 197 72 67 65 61 55 55 54 53 52 51 50 49 47 46 45 44 44 44 43 40 39 39 40 45 51 58 63 68 71 73 76 76 76 75 76 77 80 83 86 88 90 90 92 95 96 97 97 96 96 98 100 103 103 102 99 95 89 84 81 81 86 91 96 106 109 111 116 124 130 132 131 131 133 136 136 137 139 142 143 145 147 149 149 148 148 154 158 161 165 167 170 172 175 177 179 181 182 183 184 185 187 188 190 192 194 196 197 199 196 194 194 197 198 197 195 198 203 210 218 217 212 208 211 212 208 192 164 136 112 104 91 78 75 76 74 70 70 73 73 68 71 77 84 89 89 91 92 95 94 89 83 87 87 85 82 79 76 74 76 79 82 86 87 89 90 91 90 89 88 87 88 90 91 91 91 90 89 88 87 86 84 83 83 82 81 81 80 79 79 78 77 77 76 76 75 75 75 74 73 73 73 74 72 69 66 63 56 50 47 49 57 65 71 71 70 71 72 66 64 65 64 62 60 57 55 56 57 59 60 61 62 64 65 67 68 70 71 72 72 73 75 78 80 82 83 84 86 88 91 93 203 255 255
253 254 197 72 67 65 61 55 55 54 53 52 51 50 49 47 46 45 44 44 44 43 40 39 39 40 45 51 58 63 68 71 73 76 76 76 76 77 78 81 84 87 89 90 91 93 95 97 98 98 97 97 99 100 102 105 101 96 90 86 85 86 90 95 100 105 117 120 121 125 132 135 136 133 132 132 134 137 141 144 148 150 150 150 149 149 149 150 153 158 163 168 169 169 170 172 177 181 186 187 187 187 185 185 186 188 190 193 195 197 200 198 195 194 195 195 194 194 198 203 211 217 216 213 210 214 217 219 210 195 177 161 148 124 100 85 83 77 70 66 69 72 74 73 77 82 85 86 89 92 95 92 87 80 86 87 85 82 79 76 74 76 79 82 85 87 89 90 91 90 89 88 87 88 90 91 91 91 90 89 88 87 86 84 83 83 82 81 81 80 79 79 78 77 76 75 75 75 75 75 74 73 73 73 74 72 69 66 63 56 50 47 49 57 64 70 71 70 71 72 66 64 65 64 62 60 57 55 56 57 59 60 61 62 64 65 67 68 70 71 71 72 73 75 78 80 82 82 83 84 86 89 91 203 255 255
254 255 197 72 68 66 62 55 55 54 53 52 51 50 49 47 46 45 44 44 44 43 39 38 38 39 44 50 57 62 67 70 72 76 77 77 77 78 79 82 85 88 90 91 93 94 96 98 99 99 98 97 98 99 100 104 98 90 83 83 88 96 103 105 106 107 121 123 122 123 128 130 130 127 127 128 130 135 139 145 151 154 154 153 151 151 153 154 155 160 165 171 172 171 170 172 177 183 190 189 189 189 188 187 188 188 189 191 192 193 200 200 196 194 193 193 192 193 197 203 210 213 212 210 209 212 217 222 221 217 209 202 193 166 134 112 100 86 71 61 66 74 82 80 81 82 83 84 86 89 92 90 85 80 85 87 85 82 79 76 74 75 78 81 84 86 88 89 91 90 89 88 87 88 90 91 90 90 89 88 87 86 85 84 83 83 82 81 80 80 79 78 77 76 75 74 74 74 75 74 73 72 73 73 74 72 69 66 63 56 51 48 50 56 63 69 71 70 70 71 65 63 64 63 61 59 56 55 56 56 58 59 60 61 63 64 66 67 69 70 70 71 72 74 77 79 81 81 82 83 85 87 89 202 255 255
254 255 197 73 68 66 62 55 55 55 54 53 52 51 49 47 46 45 43 43 43 42 39 37 38 39 44 49 56 62 66 69 72 76 77 77 78 79 81 84 87 90 92 93 96 97 97 97 96 96 96 96 97 97 98 102 98 92 85 86 92 101 110 115 119 121 128 125 122 119 120 121 122 120 123 127 132 132 137 143 151 155 156 153 148 149 151 156 158 162 168 174 174 174 173 174 179 183 187 186 187 189 192 194 195 194 192 189 187 186 198 199 197 195 194 193 192 194 198 202 207 210 209 208 206 209 212 216 219 220 220 220 217 202 181 163 142 116 86 68 69 76 82 89 91 89 85 82 82 83 86 88 88 86 86 86 85 83 80 76 74 75 77 79 82 86 88 89 90 89 88 87 86 87 89 90 89 89 88 87 86 86 85 84 83 83 82 81 80 80 79 78 77 76 74 73 73 73 74 74 73 72 73 73 73 71 68 65 62 56 52 50 51 55 61 66 69 70 69 68 64 62 63 62 60 58 55 54 55 55 57 58 59 59 61 62 64 65 67 68 69 70 71 73 75 78 79 80 80 81 83 85 87 202 255 255
255 255 197 73 69 67 63 56 56 55 54 54 53 51 50 48 46 45 43 42 42 42 39 38 38 39 44 50 57 63 67 70 72 76 78 78 79 80 83 86 88 91 93 94 97 97 97 97 97 98 99 101 102 103 104 104 103 101 99 98 100 105 114 126 136 142 127 117 110 103 101 100 101 103 109 117 125 133 138 142 149 153 152 147 139 138 141 147 153 157 162 167 171 174 176 178 180 182 184 184 187 189 192 194 195 194 191 188 185 184 193 196 195 195 194 193 192 194 197 200 203 208 209 209 209 210 211 213 216 219 222 224 216 211 209 208 191 163 131 109 96 86 75 89 92 89 86 84 83 82 83 85 88 89 87 86 85 83 80 77 75 74 76 78 81 85 87 88 90 89 88 87 86 87 88 89 88 88 87 86 86 86 85 84 83 83 83 82 81 81 80 79 77 76 75 74 73 73 73 73 72 71 72 72 73 71 68 65 62 56 53 52 52 54 59 65 69 69 68 67 63 61 62 61 59 57 54 53 54 54 56 57 58 58 60 61 63 64 66 67 68 69 70 72 74 77 78 79 80 81 83 86 88 202 255 255
255 255 197 73 69 67 63 56 56 55 54 54 53 51 50 48 46 45 43 42 42 42 39 38 39 40 45 50 57 63 67 70 72 76 78 79 80 82 85 88 90 92 94 95 97 97 98 98 100 102 105 107 108 109 109 104 104 105 107 109 112 117 124 131 138 138 109 95 86 78 76 76 79 85 94 105 116 129 135 137 143 148 146 141 131 129 132 138 145 148 151 156 163 169 175 179 180 180 180 184 187 188 189 189 190 189 188 186 185 184 188 190 192 194 192 191 191 193 195 198 198 205 208 209 211 211 211 210 213 216 220 222 211 214 223 233 223 202 177 157 135 109 81 88 89 87 86 86 85 84 83 84 87 89 86 86 85 83 80 77 75 74 75 77 79 84 87 88 90 89 88 87 86 87 88 89 88 87 87 86 86 86 85 84 83 83 83 83 83 82 81 80 78 77 75 74 73 73 73 73 72 71 72 72 73 71 68 65 62 56 54 54 52 54 57 63 68 69 68 65 62 61 62 61 59 57 54 53 54 54 56 56 56 57 59 60 62 63 65 66 67 68 70 72 74 77 78 79 80 81 84 87 89 202 255 255
255 255 198 74 69 67 63 56 57 56 55 55 54 52 50 48 46 44 43 42 42 41 40 39 40 41 46 51 58 64 68 71 73 76 78 79 81 84 86 89 92 93 95 96 97 98 99 101 105 109 113 115 114 114 111 100 96 97 102 116 130 141 143 130 115 98 69 56 49 44 46 51 58 68 81 94 107 121 124 126 131 137 139 135 126 125 128 134 134 135 138 143 151 161 169 175 177 178 178 185 186 184 182 181 180 180 182 184 186 187 182 184 188 190 188 187 188 190 193 194 193 200 204 207 210 211 210 209 210 212 215 218 210 213 222 232 230 222 213 205 182 148 107 90 83 81 82 85 87 88 85 83 84 85 85 85 85 83 80 77 75 73 74 76 78 84 87 88 89 88 87 86 85 86 88 89 87 86 86 86 85 85 84 84 83 83 83 84 84 83 82 81 79 78 76 75 74 73 73 73 72 71 72 72 72 70 67 64 61 57 55 55 53 53 55 61 67 69 68 64 61 60 61 60 58 56 53 52 53 53 55 55 55 56 58 59 61 62 64 65 66 67 69 71 74 76 78 79 80 82 85 88 90 203 255 255
255 255 198 74 70 68 64 57 57 56 55 55 54 52 50 48 46 44 42 41 41 41 41 40 41 42 47 52 59 65 69 72 74 77 78 80 82 85 87 90 93 94 96 97 98 100 103 107 111 115 117 114 110 105 99 91 89 91 99 117 131 137 128 100 71 46 42 39 38 39 47 55 64 74 85 97 106 113 113 112 117 126 131 131 125 124 128 134 130 131 134 139 145 151 158 164 170 174 177 179 178 178 176 175 174 175 178 180 182 183 176 178 182 183 180 178 179 185 189 190 189 193 197 200 204 205 206 205 206 208 210 212 216 214 213 216 216 216 216 219 208 188 157 115 94 84 77 79 83 87 86 84 83 82 84 84 85 83 80 77 75 73 74 75 77 83 86 87 89 88 87 86 85 86 88 89 86 85 85 85 84 84 84 84 83 83 83 85 85 84 83 82 80 79 77 76 75 74 74 72 71 70 71 71 72 70 67 64 61 57 56 56 54 52 54 60 67 69 67 63 60 59 60 59 57 55 52 51 52 52 54 54 54 55 57 58 60 61 63 64 65 66 68 70 73 76 79 80 81 83 87 90 92 204 255 255
255 255 198 74 70 68 64 57 57 56 55 55 54 52 50 48 46 44 42 41 41 41 42 41 42 43 48 53 60 66 70 73 74 77 78 80 82 85 88 91 94 95 96 97 100 103 106 112 117 119 118 111 101 91 83 84 90 100 112 119 118 109 90 65 42 26 31 32 35 40 51 60 68 75 81 89 96 110 109 107 109 119 125 126 121 120 123 129 130 133 136 139 142 144 148 154 163 170 176 170 169 170 171 172 173 174 176 176 176 176 171 173 176 177 172 170 172 180 185 188 188 190 193 196 200 202 203 204 204 206 207 209 215 212 206 208 212 215 216 221 219 211 193 141 110 91 73 72 77 84 87 85 83 82 83 84 85 83 80 77 75 73 74 75 76 83 86 87 89 88 87 86 85 86 88 89 86 85 85 85 84 84 84 84 83 83 83 86 87 86 84 83 81 79 77 76 75 75 74 72 71 70 71 71 72 70 67 64 61 57 56 56 54 52 53 59 67 69 67 62 60 59 60 59 57 55 52 51 52 52 54 54 54 55 57 58 60 61 63 64 65 65 67 70 73 76 79 81 82 85 89 92 94 204 255 255
254 255 198 75 70 68 64 57 58 57 55 55 54 53 51 48 46 44 42 41 41 41 43 42 43 44 49 55 62 68 72 75 76 77 79 81 84 87 90 93 94 95 96 98 101 105 110 115 118 117 112 102 89 78 72 82 99 116 131 119 96 68 42 31 27 27 31 35 40 47 59 67 74 76 77 78 82 106 109 107 107 114 120 122 117 114 116 122 131 136 139 142 141 139 139 145 153 162 168 160 159 162 167 170 173 174 174 172 171 169 167 169 171 169 164 163 166 174 181 185 186 189 191 194 198 200 200 202 203 204 206 207 211 206 201 205 212 215 213 215 218 220 216 168 132 103 74 67 71 80 86 86 83 81 83 84 85 83 80 77 74 72 73 74 75 82 86 87 89 88 87 86 85 86 87 87 86 85 85 84 84 84 84 84 83 83 83 87 87 87 85 84 82 80 78 77 76 75 74 73 71 70 71 71 71 69 67 64 61 57 57 57 54 52 54 58 66 68 67 61 60 58 58 58 57 55 52 50 51 52 54 54 54 55 56 57 59 60 62 63 64 65 67 69 71 74 77 80 82 85 89 92 94 204 255 255
251 253 199 78 72 68 65 60 60 59 57 56 55 54 52 50 49 46 44 43 42 41 42 42 43 45 51 57 64 70 74 77 78 80 81 84 89 93 94 95 94 96 99 101 99 105 112 117 109 96 83 73 74 79 85 94 113 128 133 103 70 39 24 21 20 21 37 46 53 62 74 84 93 97 92 85 80 87 100 109 107 103 110 121 123 117 114 117 128 135 140 143 139 135 132 132 133 134 134 143 148 153 158 162 165 167 168 170 171 171 165 162 159 155 154 156 161 169 175 181 184 188 191 191 193 193 193 195 196 201 204 207 205 202 198 201 206 209 210 208 212 218 223 198 164 126 87 74 73 81 87 84 79 72 79 81 82 81 78 74 70 69 70 73 77 83 85 85 86 87 87 86 86 85 84 85 85 85 84 83 83 83 83 83 84 84 85 84 85 84 84 83 83 82 80 78 77 76 76 76 74 72 71 71 70 69 67 65 63 59 56 55 54 55 56 60 63 65 64 63 57 55 55 55 54 54 53 53 53 53 53 54 55 56 57 58 59 60 62 63 63 63 65 67 69 72 74 77 80 83 86 87 89 202 255 255
250 253 199 79 72 68 65 61 62 60 58 56 55 54 53 51 49 47 45 44 42 41 42 43 44 46 52 59 66 72 76 79 80 81 83 86 89 93 94 95 95 98 100 102 102 104 105 103 93 83 73 69 75 82 92 110 118 115 103 72 47 30 28 31 32 34 55 69 82 97 110 118 122 120 113 108 102 101 107 111 104 97 100 108 110 105 102 105 115 126 134 142 143 141 139 139 138 135 133 139 144 148 152 155 157 160 163 166 168 170 164 160 157 153 153 156 161 167 173 178 181 188 191 192 193 193 193 194 196 199 203 206 202 200 198 200 206 209 210 208 209 214 218 203 175 140 104 86 78 79 81 80 79 76 80 82 83 81 78 73 69 68 70 73 77 83 85 86 86 87 87 87 86 85 85 84 85 86 85 84 83 83 83 84 85 85 86 85 85 85 85 84 83 81 79 77 76 75 76 76 73 71 70 70 69 68 66 64 62 59 57 56 54 55 57 60 62 64 64 63 58 55 55 55 54 53 52 52 51 51 51 53 55 56 57 58 59 60 62 63 63 63 65 67 68 71 73 76 79 82 84 85 87 202 255 255
250 253 199 79 72 68 65 61 62 60 58 56 55 54 53 51 49 47 45 44 43 42 42 43 44 46 52 59 66 72 77 80 81 83 85 86 89 91 94 95 97 100 102 104 109 106 99 89 77 70 67 72 84 95 107 125 118 96 68 43 31 30 40 47 50 53 73 87 103 122 137 144 143 136 129 125 123 122 118 111 100 92 90 92 94 94 93 95 107 119 131 143 147 149 149 149 146 142 138 142 145 147 149 152 153 156 159 163 166 169 164 160 158 155 155 158 162 167 172 175 179 187 190 192 194 195 195 195 198 200 202 205 201 199 198 200 206 210 212 209 208 208 209 201 179 149 117 96 83 78 76 77 79 82 81 82 83 81 78 73 69 68 70 73 77 83 85 86 86 87 87 87 86 85 85 85 86 86 85 84 84 84 84 84 85 85 86 87 87 87 86 85 83 81 79 77 75 74 75 75 72 70 69 69 69 68 66 64 62 59 57 56 54 55 57 60 62 64 64 63 59 57 57 56 55 53 52 51 50 50 49 53 55 56 57 58 59 60 62 63 63 63 65 67 68 71 73 76 79 82 84 85 86 202 255 255
250 253 199 79 72 68 65 61 62 61 59 56 55 54 53 51 50 48 46 45 44 43 43 43 44 47 53 60 67 73 78 81 82 85 86 87 88 90 93 96 100 103 104 107 118 113 99 81 65 57 59 74 100 122 140 137 112 78 42 25 23 34 52 64 69 73 84 93 105 123 141 149 149 138 131 128 130 140 127 109 94 88 81 78 81 87 91 93 108 121 134 147 151 153 154 153 150 146 142 149 152 152 153 153 153 155 158 162 167 170 165 161 159 157 158 160 164 168 171 173 175 184 189 192 195 196 197 198 199 201 203 205 200 198 197 199 205 210 213 211 207 203 201 199 181 153 121 100 87 80 77 78 80 83 82 82 83 82 78 74 70 68 70 73 77 83 85 86 87 88 88 88 87 86 86 86 87 87 86 85 85 85 85 85 86 86 87 88 89 88 87 86 84 81 79 76 74 73 74 73 71 69 68 68 68 67 65 63 61 59 57 56 55 56 57 60 62 63 63 63 61 60 59 57 56 54 53 51 50 49 48 53 55 56 57 58 59 60 62 63 63 63 65 67 69 71 74 77 79 81 83 84 85 201 255 255
250 253 199 79 73 69 66 62 63 62 59 57 55 55 54 52 51 49 47 46 45 44 44 44 45 48 54 61 68 74 79 82 84 87 88 88 89 89 92 97 102 104 104 104 114 105 89 71 64 67 78 98 117 131 138 113 90 67 45 42 48 60 72 83 92 100 104 104 106 117 136 150 155 150 145 143 144 149 128 105 91 88 82 78 84 97 105 107 117 127 137 147 149 150 151 153 153 152 150 156 159 159 160 159 159 158 159 162 166 168 165 163 162 160 161 164 167 170 171 172 172 181 186 190 194 197 199 200 202 203 205 206 201 199 197 198 204 209 214 213 209 204 200 198 177 144 109 92 85 84 85 84 81 77 82 83 84 83 79 74 70 68 70 73 77 83 85 86 87 88 89 89 88 87 87 87 88 88 87 86 86 86 86 86 87 87 88 89 90 89 88 86 84 82 78 75 73 72 73 72 70 68 67 67 67 66 64 62 60 59 58 57 55 56 57 60 62 63 63 62 61 61 60 58 57 56 55 53 52 52 51 54 55 56 57 58 59 60 62 63 63 63 65 67 69 72 74 77 79 81 82 83 83 200 255 255
250 253 199 79 73 69 66 62 63 62 59 57 55 55 54 52 51 50 48 47 46 45 44 44 45 48 54 62 70 76 81 84 86 89 90 90 90 89 93 98 104 105 102 98 99 87 72 58 65 81 103 120 125 123 115 92 76 64 58 68 80 91 97 104 112 118 115 111 110 118 136 151 160 159 157 157 158 154 129 103 90 90 85 80 88 104 115 117 119 127 137 145 147 149 151 155 158 158 158 159 161 162 164 164 163 162 162 164 165 167 167 166 165 164 165 168 170 173 172 171 171 178 183 188 193 197 200 201 203 205 206 207 204 201 199 198 202 208 214 215 212 208 203 198 174 140 105 89 85 86 88 85 80 75 82 84 85 83 79 74 70 68 70 73 77 83 85 86 87 88 89 89 89 89 89 88 89 89 88 87 87 87 87 87 88 88 89 91 92 90 88 86 84 82 78 75 72 71 72 71 69 67 66 66 66 65 64 62 60 59 58 57 55 56 57 60 62 63 63 62 61 61 60 59 59 58 57 56 55 55 55 55 55 56 57 58 59 60 62 63 63 63 65 67 69 72 74 77 79 81 81 81 81 200 255 255
249 253 199 79 73 70 67 63 64 63 60 58 56 55 54 53 52 51 49 48 47 46 44 45 46 49 55 63 71 77 82 85 87 90 92 92 91 90 94 100 105 104 98 89 77 64 54 49 69 97 124 136 125 105 86 80 74 73 80 99 114 123 123 123 125 126 115 111 115 124 140 152 160 162 164 167 170 155 128 105 93 93 88 83 92 108 119 121 117 123 133 143 147 150 153 158 163 164 163 159 159 162 166 167 168 167 166 167 168 169 170 169 169 169 170 173 175 176 175 173 172 176 181 186 192 197 200 202 204 206 207 208 206 204 202 199 201 206 213 217 216 214 209 197 173 142 110 94 87 87 86 83 79 76 83 85 86 84 80 75 70 68 70 73 77 84 86 87 88 89 89 90 90 90 90 89 90 90 89 88 88 88 88 88 89 89 90 92 93 91 89 87 85 82 78 75 72 71 71 70 68 66 65 65 66 65 64 62 60 60 59 57 56 57 58 60 62 62 62 61 61 61 61 60 60 60 59 59 59 59 59 56 55 56 57 58 59 60 62 63 63 63 66 68 70 72 75 78 79 80 80 80 79 199 255 255
249 253 199 79 74 70 67 64 65 64 61 58 56 56 55 53 53 52 50 49 49 48 45 46 47 50 57 64 72 79 84 87 89 91 93 94 93 92 96 102 107 101 91 77 59 54 57 65 82 99 114 120 116 108 103 112 109 106 110 125 137 143 137 126 118 110 95 99 112 128 138 144 147 149 154 161 165 149 128 110 97 92 86 82 89 102 112 116 115 124 135 148 153 156 157 160 160 159 157 158 161 165 170 173 175 176 176 177 178 179 175 173 173 173 175 177 179 180 179 177 176 177 180 185 191 195 198 200 202 204 205 206 208 207 205 202 202 204 210 217 219 219 215 199 180 156 130 110 95 85 78 77 79 83 85 86 87 85 80 75 71 68 70 73 77 84 86 87 89 90 90 91 92 91 91 91 92 92 91 90 89 89 89 90 91 91 92 93 93 92 90 88 86 83 79 76 73 72 71 70 68 66 66 66 66 66 65 63 61 60 59 58 56 57 58 60 62 62 61 60 60 60 60 60 60 60 60 61 61 61 61 57 55 56 57 58 59 60 62 63 63 63 66 68 70 73 76 78 79 79 78 78 77 198 255 255
249 253 200 80 74 71 68 65 66 65 62 58 57 57 56 54 54 53 51 50 50 49 46 47 48 51 58 65 73 80 85 88 90 91 94 96 96 95 99 104 108 97 83 66 50 54 67 82 95 103 110 115 123 129 136 147 145 142 141 147 150 148 137 122 109 99 95 104 116 129 134 138 142 149 155 158 157 136 124 114 99 88 81 80 86 95 105 112 119 129 140 152 155 157 157 159 158 157 155 163 168 171 176 178 180 181 181 183 185 185 180 177 177 177 179 181 183 184 183 182 181 180 183 187 192 194 196 198 199 200 202 203 207 209 209 206 204 205 208 215 218 219 216 205 189 168 143 121 102 87 78 77 80 86 87 87 88 86 81 76 71 68 70 73 76 83 86 87 89 90 91 92 93 92 92 92 93 93 92 91 90 90 90 91 92 92 93 92 92 91 89 88 86 83 80 77 74 73 72 70 69 67 66 67 67 67 66 64 62 61 60 58 56 57 58 59 61 61 61 60 61 61 60 60 59 59 59 59 59 59 58 56 55 56 57 58 59 60 62 63 63 63 66 68 71 73 76 79 80 78 77 77 75 198 255 255
249 253 200 80 74 71 68 65 66 65 62 58 57 57 56 54 54 53 51 50 50 49 46 47 48 51 58 66 74 81 86 89 90 91 94 97 98 97 100 105 108 94 76 57 46 55 72 91 104 113 121 127 139 149 159 170 172 170 168 164 157 146 132 117 104 97 107 115 121 123 123 129 140 154 158 155 146 122 119 115 99 82 76 78 84 91 100 112 123 134 143 152 154 155 156 159 161 161 161 171 176 177 180 180 181 181 182 184 187 188 183 181 180 180 181 184 186 188 187 186 185 184 186 189 192 194 195 195 196 197 198 199 205 209 212 210 207 205 207 213 216 217 215 212 197 175 148 126 108 93 83 80 80 84 87 87 88 86 81 76 71 68 70 73 76 83 86 87 89 90 91 92 93 93 93 92 93 93 92 91 91 91 91 91 92 92 93 92 92 91 89 88 86 83 80 77 75 74 72 70 69 67 66 67 68 67 66 64 63 62 60 58 56 57 58 59 61 61 61 60 61 61 60 60 59 58 57 56 56 56 55 55 55 56 57 58 59 60 62 63 63 63 66 68 71 73 76 79 80 78 77 76 74 198 255 255
249 253 200 80 74 71 68 65 67 66 63 58 57 57 56 55 54 53 52 51 51 50 47 47 48 51 59 66 74 82 87 90 91 90 95 99 100 99 102 106 108 92 71 50 47 52 64 82 108 133 154 166 163 158 154 168 178 183 186 174 159 141 126 117 111 109 127 127 119 107 103 114 135 161 161 150 131 109 111 113 96 75 71 78 86 92 102 117 125 133 140 145 146 148 153 162 169 174 177 179 181 181 180 178 176 175 176 178 181 184 184 183 183 182 183 186 188 190 190 190 189 188 190 192 194 194 194 193 192 193 194 195 203 210 214 214 209 206 206 211 214 214 212 220 204 175 143 123 110 101 94 87 81 77 85 88 88 86 81 76 71 68 70 73 76 83 87 88 90 91 92 93 93 93 93 93 93 93 93 92 91 91 91 92 93 93 93 92 91 90 89 88 86 84 81 78 76 75 73 71 69 67 67 67 68 68 67 65 64 62 60 58 56 57 58 59 61 61 61 60 61 61 61 59 58 56 55 53 52 52 51 54 55 56 57 58 59 60 62 63 63 63 66 68 71 74 77 79 80 78 76 75 73 197 255 255
253 253 200 86 78 71 67 70 68 67 64 62 61 60 58 56 55 54 53 52 52 51 46 46 48 51 59 67 75 83 89 92 93 86 92 100 105 108 109 107 95 73 56 44 46 61 79 97 126 147 161 166 174 177 175 181 180 178 175 170 162 154 145 137 132 128 121 117 112 107 109 121 138 154 151 139 124 122 108 94 90 78 70 71 90 101 107 110 122 134 145 152 151 153 158 169 172 172 167 171 171 170 169 171 175 180 185 187 190 191 191 190 190 190 191 192 193 193 193 193 193 191 193 195 199 200 200 198 195 194 192 192 200 205 209 214 217 217 214 209 207 207 209 212 209 201 187 159 129 101 90 86 82 76 82 83 84 83 80 76 73 71 72 74 75 81 84 85 87 88 89 90 90 90 90 90 92 93 92 91 90 90 89 89 90 90 90 90 89 88 86 86 85 85 83 81 78 76 76 74 72 70 69 68 68 67 64 62 59 58 57 57 55 55 57 60 64 65 63 59 58 58 59 58 57 55 52 50 51 51 52 55 56 57 58 59 59 60 61 62 62 62 63 65 69 72 75 77 78 78 78 78 79 199 255 255
255 253 200 89 80 71 67 72 69 67 65 64 63 61 59 57 56 54 53 52 52 51 47 47 49 52 60 68 77 85 91 94 96 94 94 99 107 114 110 95 71 51 40 37 46 73 100 119 142 157 166 170 181 182 175 178 176 173 171 170 167 163 155 146 139 131 113 108 107 107 115 127 141 151 146 134 121 115 101 91 93 77 67 69 93 102 104 102 115 131 146 157 156 155 156 162 164 161 156 171 173 173 172 176 181 187 192 194 195 194 190 189 189 189 190 190 190 191 191 191 191 190 192 195 200 201 202 201 199 198 197 197 201 202 205 212 220 224 222 214 209 207 209 210 214 216 212 186 151 114 92 83 80 78 83 84 84 83 81 77 74 72 73 74 75 80 82 83 85 86 88 89 89 89 89 89 92 93 92 90 89 89 88 88 88 88 89 89 88 87 85 85 85 85 84 82 79 76 76 75 73 71 70 69 68 66 62 59 57 56 56 57 55 54 56 61 66 67 64 59 58 57 58 58 56 54 51 49 50 50 52 55 56 57 58 59 59 60 61 62 62 62 62 64 68 71 74 76 77 78 79 80 82 200 255 255
255 253 200 89 80 72 68 73 70 68 66 64 63 61 60 58 56 55 53 52 52 52 49 49 51 54 62 70 79 87 93 96 99 110 101 97 108 117 102 73 41 32 30 33 51 88 122 142 153 161 167 176 183 174 156 160 164 167 170 170 167 161 152 140 129 117 106 101 103 107 118 131 143 150 145 135 123 95 96 103 103 75 65 72 94 95 94 97 109 127 145 160 159 154 148 146 148 149 151 177 183 184 185 188 190 192 195 194 194 192 185 183 183 183 184 183 183 184 184 184 184 186 189 192 195 196 198 199 200 203 205 207 203 201 202 208 218 226 229 224 217 212 209 213 217 220 218 202 175 139 100 81 76 83 89 91 89 87 83 79 75 72 73 74 75 80 82 83 85 86 88 89 90 90 90 90 92 93 92 91 90 89 89 89 89 89 90 90 89 88 86 86 86 86 84 82 79 76 75 74 72 70 69 68 67 65 61 58 56 55 55 56 54 54 56 61 67 68 65 60 59 58 58 58 56 54 51 49 50 51 53 55 56 57 57 58 59 60 61 61 61 62 63 65 68 72 75 76 77 78 80 81 83 201 255 255
255 253 200 90 82 74 69 74 71 68 66 64 63 62 60 58 57 56 54 54 54 54 51 51 53 56 64 72 81 89 95 98 101 112 103 101 112 113 89 57 34 38 44 53 81 114 138 148 154 159 163 169 171 160 137 129 130 133 133 126 118 112 108 103 95 88 94 96 99 107 122 135 145 148 143 137 130 107 109 115 111 90 84 87 87 79 89 117 129 140 149 156 154 150 146 147 153 161 167 168 170 172 176 177 178 179 179 178 178 179 189 192 191 189 188 186 185 182 182 181 180 180 181 182 183 182 182 184 187 191 196 200 205 204 201 204 215 224 231 228 219 209 201 209 214 216 214 210 193 163 111 80 73 90 96 97 94 91 86 81 77 74 73 74 75 80 82 83 85 87 88 89 90 91 91 91 93 94 93 91 90 90 90 90 91 91 91 92 91 89 87 86 86 86 84 82 79 77 75 73 70 68 67 66 65 63 60 57 54 53 53 54 53 53 56 62 68 69 67 62 59 58 59 58 56 54 51 50 51 51 53 55 56 56 57 58 58 59 60 61 61 61 63 66 69 72 75 76 77 79 80 82 84 201 255 255
255 253 201 91 83 75 70 75 72 69 67 64 63 62 61 59 58 57 55 55 55 55 52 53 55 58 66 74 83 91 97 100 101 104 107 110 112 96 70 47 41 53 63 74 109 131 142 144 155 160 159 152 149 138 121 119 124 127 125 113 104 100 102 102 98 93 94 96 100 109 125 137 144 144 142 140 137 116 112 112 107 89 82 81 77 72 89 124 136 138 137 137 140 143 147 152 158 165 170 169 172 176 182 184 185 185 186 187 189 191 197 198 198 196 194 192 191 188 187 187 186 183 182 181 180 177 176 176 177 181 186 190 202 202 198 199 209 219 227 228 220 210 201 206 210 212 208 210 204 183 128 91 79 98 101 101 98 93 88 82 78 75 74 75 76 81 82 83 85 87 89 90 91 92 92 92 93 94 94 92 91 91 91 91 92 92 93 93 92 90 88 87 87 87 85 83 80 77 74 72 69 67 66 65 64 62 59 56 53 52 52 53 52 53 56 62 69 70 68 63 60 59 59 59 57 55 52 50 51 51 53 54 55 56 57 58 58 59 60 61 61 61 64 66 69 72 74 75 76 78 80 83 85 201 255 255
255 253 201 91 83 75 71 76 73 69 67 64 63 62 61 59 58 57 56 55 55 55 52 53 55 58 66 74 83 91 97 100 101 97 111 118 107 73 52 43 50 63 76 92 127 140 144 142 157 161 153 131 124 116 107 114 122 127 126 114 106 103 107 110 108 103 97 98 103 113 127 138 143 142 141 142 142 119 111 109 106 84 71 67 76 81 97 122 131 128 123 122 132 143 154 159 161 164 165 166 170 175 182 185 187 188 191 195 200 203 200 199 199 198 197 196 196 195 195 195 194 190 188 187 185 182 179 177 177 179 183 186 196 198 195 195 204 214 223 227 222 214 207 204 208 211 205 209 211 201 150 107 89 102 102 101 98 94 89 83 78 75 75 76 77 81 82 83 85 87 89 90 91 92 92 92 93 94 94 93 92 92 92 92 93 93 94 93 92 90 88 88 88 87 85 83 80 77 73 71 69 67 66 65 64 62 58 55 52 51 51 52 52 53 56 62 69 71 69 64 60 59 59 59 57 55 52 50 51 51 53 54 55 56 57 58 58 59 60 61 61 61 64 66 69 72 74 75 76 78 80 83 85 201 255 255
255 253 202 93 85 77 73 78 75 71 68 65 64 62 61 59 59 58 57 57 57 56 53 53 56 59 66 74 83 91 97 100 102 99 118 121 91 49 37 42 50 58 74 100 125 140 149 152 164 159 141 111 105 102 99 101 110 119 123 117 111 108 108 105 102 97 100 103 108 118 129 137 141 142 143 146 145 114 110 114 120 82 58 56 97 116 118 108 116 117 119 128 146 159 170 168 162 156 150 145 146 151 157 160 163 166 171 179 185 190 188 189 189 191 192 194 196 199 200 201 202 201 201 201 200 198 195 193 192 193 195 196 191 190 191 193 200 209 218 226 227 225 221 205 207 213 207 212 217 217 176 128 99 97 99 98 96 93 88 83 79 76 76 77 78 80 82 84 86 87 89 91 92 93 93 93 94 95 95 94 93 93 93 94 95 95 96 95 94 92 90 89 89 88 86 83 80 77 73 71 68 66 65 64 63 61 58 55 52 51 51 52 51 52 56 62 69 71 69 65 61 59 60 59 57 55 52 51 52 52 54 55 55 55 56 57 57 58 59 60 60 60 63 66 68 71 72 73 74 76 79 82 84 201 255 255
255 253 202 94 86 78 74 79 76 72 68 66 64 63 62 60 60 59 58 58 58 57 54 54 57 60 67 75 84 92 98 101 104 110 117 106 69 41 39 48 49 56 82 119 130 149 162 161 153 136 117 103 113 120 122 134 138 138 135 127 118 111 107 103 101 99 103 109 116 124 131 137 142 147 149 150 148 132 122 120 128 99 76 70 105 121 117 101 116 126 136 149 159 164 165 163 160 160 159 153 153 156 160 163 166 169 175 182 188 192 190 190 190 191 191 192 193 194 195 195 195 196 198 199 200 200 199 199 199 200 203 204 197 196 199 202 205 210 215 221 223 223 219 202 204 211 208 211 217 217 183 135 99 83 93 96 95 93 89 84 80 77 77 77 78 80 82 84 86 88 90 91 93 94 94 94 95 96 96 95 94 94 94 95 96 96 97 96 95 93 91 90 90 89 87 83 80 78 74 71 69 67 66 65 64 62 58 55 52 51 51 52 52 53 56 62 69 71 69 64 61 60 60 60 58 56 53 51 52 53 55 54 54 55 56 57 57 58 59 59 59 60 62 65 67 70 71 71 72 74 78 81 83 201 255 255
255 253 202 94 86 79 75 80 76 72 68 66 64 63 62 60 60 59 59 59 59 59 56 56 58 61 69 77 85 94 99 102 106 117 109 87 54 41 43 52 53 68 100 138 142 158 165 154 137 120 108 109 130 143 146 159 155 145 134 124 114 105 99 97 99 101 105 113 123 131 133 138 145 153 156 154 150 146 128 115 121 107 92 83 99 104 101 95 116 131 144 156 156 154 151 152 157 162 166 163 162 164 166 169 172 176 181 186 190 194 194 194 194 193 192 191 190 190 189 188 188 189 192 193 195 196 196 196 197 199 202 204 200 202 206 209 210 211 214 218 219 217 213 201 202 207 206 209 212 208 178 136 99 76 90 95 95 94 91 86 82 79 77 77 77 80 82 84 86 88 90 91 93 94 94 94 95 96 96 95 95 95 95 97 98 98 99 98 96 94 92 91 90 89 87 83 80 78 74 71 69 67 66 65 64 62 58 55 52 51 51 52 52 53 56 62 69 71 69 64 61 60 60 60 58 56 53 51 52 53 55 54 54 55 56 57 57 58 59 59 59 60 62 64 65 68 69 69 70 72 76 79 83 201 255 255
255 253 202 95 87 80 76 81 77 73 69 66 64 64 63 61 61 60 60 60 60 60 57 57 60 63 71 79 87 95 101 104 108 119 95 67 46 46 47 51 62 93 126 155 160 163 156 132 120 115 118 130 153 165 164 168 154 135 117 108 100 93 86 88 95 103 104 115 128 137 136 140 149 162 164 158 149 151 127 104 101 102 99 92 82 71 74 91 114 130 141 148 140 135 132 142 154 164 170 171 170 170 172 175 179 184 187 190 191 192 198 199 198 197 195 192 189 187 186 184 183 184 185 185 187 187 187 187 188 190 193 195 200 205 210 213 213 213 215 218 215 210 203 204 203 201 201 204 201 192 165 132 102 79 91 95 96 96 93 89 84 80 77 76 75 79 82 84 86 88 90 92 94 95 95 95 96 97 96 96 96 96 96 98 99 99 100 99 97 95 93 92 91 90 88 84 81 78 74 72 70 68 67 66 65 63 59 56 53 52 52 53 52 53 56 62 68 70 68 63 61 60 61 60 58 56 53 52 53 53 55 54 54 54 55 56 56 57 58 59 59 59 61 63 64 66 67 68 69 71 75 78 82 200 255 255
255 253 202 95 88 81 77 82 77 73 69 66 64 64 63 61 61 60 60 61 61 61 59 59 62 65 73 81 89 97 103 106 109 114 84 58 51 50 40 38 68 115 143 152 167 154 130 102 120 141 158 163 168 164 153 139 123 108 97 102 103 101 94 94 100 109 102 115 131 142 139 143 153 169 169 160 146 140 127 112 99 90 91 97 90 75 79 102 114 127 138 144 140 141 147 162 170 172 169 171 171 171 173 177 183 188 191 191 189 187 190 191 191 192 192 191 191 191 191 191 191 192 191 190 189 186 183 182 181 183 185 188 188 193 199 205 208 213 219 224 220 214 205 215 210 199 197 199 193 177 154 132 113 99 96 97 98 98 95 91 86 81 77 74 73 79 82 84 86 88 90 92 94 95 95 96 97 97 97 96 96 96 97 98 99 100 101 100 98 95 93 92 91 90 88 84 81 78 75 73 70 68 67 67 66 64 60 57 54 53 53 54 53 53 56 62 68 69 67 62 61 60 61 60 58 56 53 52 53 53 55 54 54 54 55 56 56 57 58 59 59 59 60 62 63 65 66 66 67 69 73 77 81 200 255 255
255 253 202 96 89 82 78 82 77 72 68 66 65 64 63 61 61 60 60 61 62 62 59 63 66 68 71 79 91 106 113 114 110 107 83 60 45 33 40 60 91 129 148 150 148 131 117 114 143 162 169 160 151 139 121 104 98 96 98 106 109 108 102 96 93 94 100 112 124 134 140 149 159 166 161 155 149 144 133 117 98 90 93 99 80 80 87 98 108 123 133 128 139 147 152 155 171 178 172 175 175 173 171 170 173 179 187 191 191 190 189 190 192 194 193 191 189 188 188 189 190 189 191 193 193 190 187 186 187 187 186 185 182 185 190 194 197 203 210 217 216 213 207 220 214 203 199 198 186 162 134 124 124 131 107 99 99 99 94 89 84 80 77 74 73 80 83 84 86 89 91 92 94 95 95 96 98 98 97 96 96 96 97 98 100 102 103 100 98 95 94 92 91 90 87 84 81 79 75 73 70 68 67 67 66 64 61 58 55 56 54 53 51 51 56 62 68 69 67 62 61 60 60 59 58 56 54 53 53 53 55 54 55 55 55 55 55 56 57 58 58 58 60 62 63 65 66 66 67 69 73 76 79 200 255 255
254 253 203 97 90 83 79 82 76 70 66 67 66 64 63 61 61 61 61 62 63 63 60 65 70 72 71 79 93 113 120 119 110 99 83 61 36 21 49 92 117 136 146 146 124 114 119 140 161 162 150 133 120 105 88 78 84 95 106 111 112 110 105 95 84 78 99 109 117 124 138 152 163 158 150 148 154 153 141 122 101 96 99 99 70 85 94 90 101 119 128 115 139 152 154 145 167 178 170 175 174 171 165 160 160 165 174 183 189 192 190 191 194 197 195 191 185 183 183 184 185 184 189 194 197 194 194 194 198 196 192 186 183 184 187 188 188 192 197 205 208 209 208 220 216 208 203 198 181 152 120 116 128 151 112 99 100 99 92 86 80 77 76 75 75 81 84 85 87 90 92 93 95 96 96 97 99 99 98 96 95 95 96 98 101 103 104 99 97 96 95 93 91 89 86 83 81 80 76 73 70 68 67 66 66 64 62 59 57 59 56 51 48 49 55 63 68 68 67 63 60 59 59 58 57 57 56 55 54 54 54 55 56 56 55 54 54 54 55 56 56 56 59 61 63 65 66 66 67 69 72 75 77 199 255 255
254 253 203 97 92 85 81 84 78 72 68 68 67 66 64 62 62 62 63 64 64 65 62 63 67 72 78 87 97 106 110 111 107 92 71 48 27 44 75 107 128 131 134 135 120 127 142 155 142 118 95 84 84 80 76 80 90 101 110 108 103 97 92 88 85 85 105 114 120 123 133 145 154 151 147 149 157 158 145 127 112 101 103 104 82 89 91 86 98 116 127 122 141 153 158 155 168 168 154 156 155 152 153 155 154 152 150 157 167 179 188 192 192 192 190 187 183 181 181 182 183 184 188 193 196 195 196 198 203 204 202 198 196 198 200 199 193 190 190 196 203 207 210 215 213 210 206 196 178 155 131 120 118 123 99 93 96 98 93 86 78 75 75 77 79 82 84 86 88 90 92 94 95 96 96 97 99 100 99 98 97 97 98 99 100 101 102 98 96 95 94 93 91 89 87 84 82 81 77 75 72 69 68 68 67 65 63 61 59 60 58 53 50 51 56 64 69 69 67 64 60 59 59 58 57 57 56 55 54 54 54 55 56 55 54 54 54 54 54 55 55 56 59 61 62 65 66 66 66 68 71 74 77 199 255 255
253 252 204 98 93 87 83 86 80 74 70 69 68 67 65 64 64 63 64 65 65 66 66 64 65 70 81 92 99 104 107 110 109 85 57 34 22 69 100 121 135 125 121 123 118 128 136 135 113 93 79 76 76 75 76 93 103 108 110 103 95 89 87 86 86 87 105 114 119 122 130 142 151 149 148 152 161 161 146 130 122 106 105 108 96 93 90 85 94 110 124 130 143 153 160 161 163 156 141 152 158 163 169 171 169 165 163 168 177 187 190 190 190 189 187 184 182 181 181 181 182 185 189 192 195 194 196 199 204 206 205 203 201 202 206 206 205 204 205 209 208 205 202 214 219 220 215 199 181 161 143 124 107 92 88 90 95 99 95 88 80 74 75 78 82 83 84 86 88 90 92 94 96 97 97 97 99 100 100 100 99 99 99 99 99 99 100 97 95 94 94 93 91 89 87 85 83 82 78 76 73 70 69 69 68 66 64 62 60 61 59 54 51 53 57 64 69 70 68 65 61 59 59 58 57 57 56 55 54 54 54 55 56 55 54 53 53 53 54 55 55 56 58 60 61 64 65 65 65 67 70 73 76 198 255 255
253 252 204 100 95 90 86 89 83 77 73 71 70 69 67 66 66 65 66 67 67 68 70 67 65 68 81 93 102 106 109 112 111 76 45 26 28 89 119 131 136 119 110 109 111 117 119 109 94 87 85 83 79 80 87 109 114 112 107 98 91 88 89 88 86 84 99 109 116 121 128 139 149 150 151 156 165 161 145 132 131 110 105 109 108 97 89 87 91 104 120 136 145 152 158 160 154 146 138 153 165 175 184 183 181 178 180 185 190 193 188 187 188 188 187 185 184 182 183 183 184 187 190 192 193 193 194 196 200 202 202 202 202 202 203 204 207 213 220 224 217 206 196 214 224 228 222 204 187 171 157 134 107 81 87 91 95 99 97 91 83 76 76 78 82 83 84 86 88 90 92 94 96 97 97 97 99 100 101 102 102 102 101 100 98 97 97 95 95 94 94 93 91 89 87 85 83 82 80 78 75 72 71 71 70 68 66 64 62 62 60 56 53 55 59 64 69 70 69 67 61 59 59 58 57 57 56 55 54 54 54 55 56 55 54 53 53 53 54 55 55 56 58 60 61 64 65 65 65 67 70 73 76 198 255 255
253 253 205 101 97 92 88 92 86 80 75 73 71 70 68 67 67 66 67 68 68 70 74 70 67 66 77 91 104 113 116 116 109 63 34 26 45 105 130 134 128 113 100 93 94 96 94 86 90 100 107 98 88 91 106 124 122 114 102 94 91 93 96 92 85 78 89 101 110 117 125 137 148 153 154 160 168 158 142 133 137 113 104 106 115 100 90 91 90 98 115 140 147 150 151 151 143 139 144 157 172 183 189 185 183 186 195 199 198 190 182 182 187 191 191 190 188 185 186 188 189 191 191 191 191 190 189 190 193 194 195 195 199 197 193 191 199 213 228 236 227 211 195 214 226 230 226 210 196 184 172 149 121 92 95 95 97 99 98 94 88 80 77 77 80 83 85 87 89 91 93 94 96 97 97 98 99 101 102 103 104 104 103 101 98 95 94 94 94 94 93 92 91 89 87 85 83 82 81 79 76 73 72 72 71 69 67 65 63 63 61 57 55 56 60 65 69 70 69 68 62 59 59 58 57 57 56 55 54 54 54 55 55 55 54 53 53 53 54 55 55 55 57 59 60 63 64 64 64 66 69 72 75 198 255 255
253 254 206 102 99 94 90 94 88 82 77 74 72 71 70 68 68 67 68 69 70 71 71 71 70 69 75 89 106 120 116 106 87 43 29 42 79 115 131 131 115 105 90 72 69 85 101 107 106 103 97 80 77 90 114 119 117 113 105 97 92 90 90 86 80 76 84 94 102 106 112 124 138 146 151 158 167 157 144 137 139 118 105 102 113 98 90 95 93 100 114 141 149 149 143 138 135 143 160 165 164 160 158 161 165 170 171 169 168 165 166 172 182 192 196 196 193 191 192 195 197 194 192 190 189 188 187 187 188 189 190 193 203 201 191 183 183 193 207 220 222 218 210 213 218 220 220 213 205 195 184 168 150 132 111 100 95 91 93 92 90 84 80 78 78 82 85 87 89 91 93 95 97 98 98 98 100 101 103 105 106 105 104 101 98 95 93 94 95 95 94 93 91 89 87 84 83 82 81 80 77 74 73 73 72 70 68 66 64 64 62 59 57 58 61 64 68 70 70 69 62 59 59 58 57 57 56 55 54 54 54 55 55 54 53 52 52 52 53 54 54 55 56 58 59 62 63 63 63 65 68 71 74 198 255 255
253 254 206 103 100 95 91 95 88 82 77 74 72 71 70 68 68 67 68 69 70 71 67 70 73 73 77 89 105 118 107 87 61 27 34 64 111 123 128 123 102 95 79 58 60 87 111 122 107 93 81 72 76 90 108 106 109 112 110 100 89 81 78 77 76 76 82 89 93 93 96 108 124 137 144 153 163 157 147 138 134 120 107 101 110 96 89 94 95 103 117 138 148 147 139 130 133 146 165 161 141 122 113 127 135 136 122 116 119 130 145 159 172 186 194 198 197 196 197 199 202 196 193 191 189 189 190 190 189 190 192 195 203 204 200 194 190 192 198 208 214 218 217 215 216 217 219 216 211 201 188 177 167 159 125 105 95 87 89 91 91 85 81 78 78 82 85 87 89 91 93 95 97 98 98 98 100 101 103 105 106 105 104 101 98 95 94 95 96 95 94 93 91 89 87 84 82 81 81 80 77 74 73 73 72 70 68 66 64 64 62 59 57 58 61 64 67 69 70 69 62 59 59 58 57 57 56 55 54 54 54 55 55 54 53 52 52 52 53 54 54 55 56 58 59 62 63 63 63 65 68 71 74 198 255 255
253 254 207 104 101 96 92 95 88 82 76 74 72 71 70 68 68 67 68 69 70 70 64 69 75 77 80 90 101 109 92 67 39 19 46 89 137 128 122 111 90 84 70 52 67 95 117 124 97 77 67 73 84 92 97 93 101 109 112 100 84 71 65 67 71 75 79 84 85 80 81 93 112 128 137 146 156 154 147 136 122 120 111 102 106 94 86 90 96 108 121 132 142 142 135 127 135 148 157 141 108 78 66 87 96 91 65 58 68 92 124 143 157 174 186 195 198 200 201 202 204 198 195 193 191 193 194 195 193 194 197 200 201 205 211 212 207 202 199 203 209 214 217 217 218 219 222 220 215 204 190 181 177 176 137 113 98 86 87 89 89 85 81 79 80 83 86 88 90 92 94 96 97 98 98 99 100 102 103 105 105 105 104 102 99 96 95 96 97 96 95 93 91 89 86 83 81 80 81 80 77 75 74 73 72 70 68 66 64 63 62 60 58 59 60 63 66 68 69 68 62 59 59 58 57 57 56 55 54 54 54 54 54 53 52 52 52 52 52 53 53 54 55 57 58 61 62 62 62 64 67 70 73 197 255 255
254 255 207 104 101 96 93 95 88 80 75 73 72 70 69 67 67 67 67 68 69 70 67 69 74 78 83 88 93 93 76 57 36 29 69 115 147 127 108 92 80 74 65 61 92 104 103 96 75 65 69 91 103 102 91 93 99 104 104 90 76 65 61 63 66 69 69 74 75 71 75 90 110 128 134 140 146 144 138 124 99 113 113 105 103 92 83 80 90 110 124 120 128 132 133 130 141 143 128 97 66 42 32 48 53 44 20 19 33 64 107 127 138 153 170 185 195 202 203 202 201 200 197 195 194 198 200 201 198 199 201 205 198 202 214 222 223 220 215 214 212 209 207 215 221 225 228 225 218 206 193 184 180 178 149 128 110 95 91 90 87 81 78 78 82 84 86 88 90 92 94 96 98 99 99 99 101 102 103 104 104 104 103 101 100 98 97 98 99 98 96 94 91 88 85 82 79 78 79 79 76 74 73 72 72 70 68 65 63 62 61 60 58 59 60 62 64 66 67 68 62 59 59 58 57 57 56 55 54 54 54 54 54 53 52 51 51 51 52 53 53 54 55 56 57 60 61 61 62 64 66 69 72 197 255 255
254 255 208 105 101 96 92 94 87 79 74 72 71 70 68 67 67 66 67 68 69 71 73 73 73 76 82 85 85 79 68 57 49 47 92 133 145 122 94 73 72 66 66 75 111 103 85 72 64 63 71 93 107 107 97 106 105 99 90 79 71 68 68 66 64 60 57 62 69 69 78 96 119 135 137 137 137 132 125 108 76 104 113 107 102 92 81 74 84 109 124 109 115 123 131 134 146 135 98 66 51 45 43 43 39 31 23 31 47 69 102 115 123 135 155 174 191 202 203 201 198 202 200 197 197 202 204 204 200 200 202 206 200 201 205 208 212 216 220 223 218 210 201 207 214 223 229 226 219 211 204 196 190 183 163 144 125 107 100 94 86 77 74 76 83 85 86 88 90 92 94 96 98 99 99 99 101 102 103 103 103 103 103 102 101 99 99 100 100 99 97 94 91 88 84 81 78 77 79 79 76 73 72 72 71 69 67 65 63 62 60 59 58 58 59 61 63 65 66 67 61 59 59 58 57 57 56 55 54 54 54 54 54 53 52 51 51 51 52 53 53 54 55 56 57 59 60 61 61 63 66 69 72 197 255 255
253 255 208 107 103 97 93 95 88 80 76 73 72 70 68 67 67 66 68 69 70 72 76 74 74 76 82 79 75 71 73 68 60 59 108 145 142 108 78 60 67 66 74 91 110 94 72 56 58 69 83 101 110 109 104 113 106 94 81 76 73 72 68 63 59 54 50 55 62 65 84 104 121 129 134 135 131 123 113 97 71 97 110 109 102 91 78 69 83 104 118 109 111 120 132 140 142 127 95 69 65 66 61 57 56 54 43 52 65 78 99 107 114 126 144 163 181 195 200 200 196 204 204 202 202 205 205 204 201 201 202 205 200 198 198 197 199 206 217 226 222 212 199 202 212 222 229 226 221 217 215 206 195 182 167 151 133 117 107 99 91 81 76 77 83 85 87 89 91 93 95 97 99 100 100 100 103 104 104 104 104 104 104 102 101 100 100 101 100 99 97 94 91 88 84 81 78 76 79 79 76 74 73 72 71 69 67 65 64 62 60 59 58 57 57 60 63 65 66 66 60 58 58 58 57 57 56 55 54 54 54 54 54 53 52 51 51 51 51 52 52 53 55 56 57 59 60 62 62 64 67 69 71 197 255 255
252 254 209 111 107 100 94 96 91 86 83 75 73 71 69 67 67 67 69 71 73 74 74 73 75 79 83 71 60 69 92 88 63 62 115 151 140 84 60 57 67 74 89 106 84 77 68 51 57 81 109 120 113 110 112 112 100 87 80 84 83 75 58 50 50 55 53 54 55 57 92 110 113 104 123 133 127 117 104 93 86 94 102 108 103 89 75 66 89 96 103 121 119 126 138 148 128 120 128 113 108 100 81 87 105 116 72 73 81 86 97 104 113 129 141 151 162 180 193 198 196 207 210 210 210 207 204 202 201 202 203 203 194 193 196 193 189 194 205 221 221 213 198 205 215 225 230 225 223 223 223 211 193 172 159 146 133 121 113 107 101 93 86 83 82 86 89 91 93 95 97 99 101 102 102 102 106 107 107 107 106 106 105 103 102 101 100 100 100 99 97 94 91 88 84 81 78 77 78 78 77 76 74 72 71 69 67 66 65 62 61 60 58 55 54 58 63 66 66 63 58 56 57 57 58 58 57 56 55 55 54 53 53 52 51 50 50 50 50 51 51 52 55 56 57 59 61 63 65 67 68 69 70 196 255 255
252 254 210 112 108 101 95 97 92 87 83 76 74 72 70 68 68 67 69 71 72 74 78 79 79 80 82 72 64 78 101 97 72 73 108 129 109 66 59 72 86 86 90 99 84 72 60 48 61 83 105 109 105 105 108 95 88 81 76 73 68 62 54 50 51 51 38 46 58 66 95 111 115 111 122 121 106 102 101 101 102 105 106 104 97 86 76 69 77 85 96 110 110 118 131 145 140 139 147 123 127 133 122 101 104 120 121 113 101 87 88 95 106 121 137 152 165 176 186 194 198 198 199 201 204 206 207 207 205 204 202 199 188 175 163 157 168 186 205 217 220 218 215 209 215 224 229 225 222 219 218 210 198 184 162 147 135 123 114 107 100 92 87 85 86 88 90 92 94 96 98 99 101 102 102 103 106 107 107 107 107 107 106 104 103 102 101 100 100 99 97 94 91 88 85 82 79 78 78 78 77 75 73 71 70 68 66 65 64 62 61 60 58 55 54 58 63 66 66 63 58 56 57 58 58 58 57 56 55 55 54 54 54 53 52 51 51 51 51 52 52 53 56 57 58 60 61 63 65 67 68 69 70 196 255 255
252 254 210 112 109 102 95 97 92 87 83 77 75 73 71 69 68 67 69 71 72 74 79 81 80 77 77 70 67 86 108 102 76 81 102 106 79 50 55 78 93 86 83 85 78 65 55 55 75 91 99 92 86 84 86 74 74 74 71 65 58 53 52 51 52 50 35 48 65 72 88 99 105 110 118 112 92 93 100 107 113 113 111 105 98 87 76 66 62 75 90 99 101 111 125 140 147 153 158 135 131 129 119 89 85 102 125 113 101 94 86 91 100 109 125 144 162 170 175 182 192 194 195 197 200 202 205 205 203 199 194 189 186 167 143 128 142 165 190 205 213 217 221 212 215 223 228 225 221 217 213 209 203 197 167 149 137 123 113 104 95 88 86 86 89 89 90 92 94 96 98 100 102 103 103 103 106 107 107 107 107 107 106 104 103 103 102 101 100 99 97 94 91 88 85 82 80 79 78 78 77 75 73 71 70 68 66 65 64 62 61 60 58 55 54 58 63 66 66 63 58 56 57 58 58 58 57 56 55 55 54 54 54 53 52 52 52 52 53 54 54 55 56 57 58 60 61 63 65 67 68 69 70 196 255 255
252 254 210 113 110 103 96 98 92 87 83 78 76 74 72 70 69 68 70 71 73 75 78 80 79 72 70 67 70 91 111 104 78 86 94 86 55 39 53 79 91 78 71 70 69 58 55 67 93 99 92 73 64 59 58 55 60 65 66 58 51 48 51 52 52 49 42 58 73 74 75 80 90 102 109 102 83 88 99 110 119 117 114 110 104 90 74 58 49 68 87 89 95 106 121 134 149 159 158 140 117 97 85 62 59 73 94 83 81 96 87 91 96 94 105 127 153 163 163 168 182 193 195 195 196 197 199 199 196 189 182 175 178 157 126 102 109 131 160 184 201 212 220 214 215 220 225 225 221 216 210 208 207 208 175 154 139 122 110 100 91 84 84 86 90 90 91 93 95 97 99 101 103 104 104 104 107 108 108 108 108 108 107 105 104 104 103 102 101 99 97 94 92 89 86 83 81 80 78 77 76 74 73 71 69 67 65 64 63 62 61 60 58 55 54 58 63 66 66 63 59 57 57 58 58 58 57 56 55 55 54 55 55 54 53 53 53 53 54 55 55 56 57 57 58 60 62 64 65 67 69 70 71 197 255 255
253 254 210 114 111 104 98 99 93 88 83 80 78 76 74 72 71 70 71 72 74 75 77 80 78 69 67 67 75 95 111 101 75 82 83 73 48 42 56 76 81 69 64 68 66 59 62 82 100 94 77 60 57 56 53 51 53 58 59 56 53 51 50 50 48 46 55 71 80 74 67 68 78 92 96 90 79 91 102 111 116 115 116 117 114 95 71 46 45 69 88 82 92 106 122 130 147 152 140 112 74 45 41 38 45 53 42 34 41 66 85 97 98 81 79 99 133 151 154 160 175 193 196 192 189 190 190 190 188 180 172 163 142 119 95 68 60 73 105 148 182 203 213 216 217 218 221 223 223 218 212 209 210 211 187 166 145 123 108 97 89 86 86 87 90 91 92 94 96 98 100 102 104 105 105 105 108 109 109 109 109 109 109 107 106 106 105 103 102 100 97 94 92 89 87 84 83 82 79 77 76 74 72 70 68 66 64 63 62 61 61 60 58 55 54 58 63 66 66 63 59 58 58 58 58 58 57 56 55 54 53 53 53 53 52 52 52 52 53 54 55 55 57 58 59 61 62 64 66 68 69 70 71 197 255 255
253 254 211 115 112 105 99 100 94 88 83 81 79 77 75 73 72 71 72 73 75 76 79 82 80 69 69 74 84 101 112 101 77 78 74 62 43 47 64 82 83 73 72 76 70 66 70 86 87 73 56 56 72 83 84 73 64 58 53 54 55 53 48 46 46 49 62 72 78 75 71 76 86 92 86 81 79 92 103 112 117 115 115 116 114 94 69 45 55 78 91 79 90 107 125 132 145 146 128 96 80 81 100 109 122 126 90 76 65 55 83 105 111 90 71 77 104 129 142 158 178 187 188 186 185 186 188 188 184 175 165 154 121 100 82 58 43 46 68 109 148 176 195 212 216 215 217 221 224 222 215 211 209 210 198 179 153 126 109 98 91 88 87 86 88 91 93 95 97 99 101 103 105 106 106 106 108 109 110 110 110 110 110 108 107 107 106 104 103 100 97 94 92 89 87 85 85 84 80 78 77 75 73 71 69 66 64 63 62 61 61 60 58 55 54 58 63 66 66 63 60 59 59 59 58 58 57 55 54 53 52 52 52 51 51 51 51 51 52 53 54 54 57 58 59 61 63 65 66 68 70 71 72 197 255 255
253 254 211 116 114 107 101 101 94 88 83 81 79 77 75 73 72 72 74 75 77 78 80 83 80 67 71 80 92 104 111 100 80 78 68 54 37 49 69 87 86 78 77 80 70 70 75 84 71 53 39 53 81 101 108 99 82 65 53 56 58 56 49 46 49 57 68 72 74 72 73 84 95 94 82 79 88 93 105 115 122 118 114 110 106 90 70 52 72 89 94 78 89 108 129 136 142 138 120 96 98 113 134 141 151 154 117 115 102 70 90 116 131 114 79 67 78 101 125 152 179 181 182 182 184 187 188 186 177 164 151 138 103 85 72 54 43 39 47 74 111 146 177 206 215 212 214 219 223 224 220 215 210 207 206 188 160 130 111 99 94 89 86 84 83 91 94 96 98 101 103 104 106 107 107 108 109 109 110 111 111 111 111 110 109 109 108 105 103 100 97 94 92 89 87 86 86 86 82 80 78 76 74 72 69 66 64 63 62 61 61 60 58 55 54 58 63 66 66 63 60 59 59 59 58 58 57 55 54 53 52 51 50 50 50 50 50 51 52 53 53 54 57 58 59 61 63 65 66 68 70 71 72 197 255 255
253 254 211 117 115 108 102 102 95 88 83 81 79 77 75 73 73 73 75 77 79 80 80 82 77 62 71 84 96 102 105 98 84 87 69 48 31 46 68 86 86 77 73 74 64 69 76 78 57 39 30 47 75 96 108 122 104 80 60 62 63 62 54 54 60 70 76 73 68 65 69 83 99 97 83 87 107 97 106 121 131 124 113 101 91 82 73 68 94 103 98 81 90 110 133 140 137 128 115 117 116 109 90 78 76 80 76 116 134 116 106 131 155 150 106 73 57 70 100 136 172 177 181 184 189 191 189 181 165 145 126 111 87 71 59 53 54 50 45 47 76 116 161 199 211 211 213 217 221 225 224 219 212 206 207 190 164 134 115 103 95 88 82 78 75 90 95 97 99 102 104 105 107 108 108 109 110 110 111 112 112 112 112 111 110 110 110 106 104 101 98 95 92 90 88 87 87 88 83 81 79 77 75 73 70 67 65 63 62 61 61 60 58 55 54 58 63 66 66 63 60 59 59 59 58 58 57 55 54 53 51 50 49 49 49 49 49 50 52 53 53 54 57 59 60 62 63 65 67 69 70 71 72 197 255 255
253 254 212 118 116 109 103 103 96 89 84 80 78 76 75 74 74 75 77 79 81 83 81 79 72 56 70 85 98 98 102 100 94 91 72 50 32 44 59 72 73 69 69 71 63 68 71 67 50 38 30 33 43 54 67 100 95 79 64 65 66 67 63 64 67 72 74 68 62 57 57 72 93 96 83 89 115 107 112 122 130 123 112 98 87 81 77 79 109 111 102 94 101 118 136 136 116 98 87 72 57 43 27 44 46 40 49 71 85 90 100 125 150 159 130 96 68 63 87 120 154 177 185 187 188 184 175 160 139 117 98 82 49 32 25 27 35 38 36 39 68 107 152 189 205 210 214 214 216 220 225 223 218 211 207 193 173 151 133 119 107 95 86 81 79 91 96 98 100 103 105 106 108 109 109 110 111 111 112 113 113 113 113 112 111 111 111 107 105 102 98 95 92 90 89 88 88 89 84 82 80 78 76 74 71 68 66 64 63 62 61 60 58 55 54 58 63 66 66 63 61 60 60 59 59 58 57 55 53 52 51 50 50 50 50 50 50 51 53 54 54 55 58 59 60 62 64 66 67 69 71 72 73 197 255 255
253 254 212 118 116 110 103 103 96 89 84 80 78 76 75 74 74 76 78 81 83 85 84 81 71 54 71 89 102 99 104 106 105 90 70 52 38 45 53 61 62 66 74 81 72 71 67 55 40 33 28 21 19 25 40 68 72 67 63 63 64 67 68 68 67 65 61 57 55 55 53 70 93 98 80 82 109 116 120 121 123 119 111 100 88 83 80 83 118 117 107 109 114 127 138 129 92 66 57 45 28 12 1 37 38 25 57 60 65 83 91 108 130 150 142 118 88 71 86 113 142 174 184 183 179 171 156 139 117 97 81 67 42 31 28 28 30 29 28 35 63 97 133 178 200 210 214 212 211 215 224 226 224 217 210 200 187 172 156 140 124 107 97 91 90 95 97 99 101 103 105 107 108 109 109 110 111 111 112 113 113 113 113 113 112 112 111 107 105 102 98 95 92 90 89 89 89 90 86 83 81 79 77 75 72 69 66 64 63 62 61 60 58 55 54 58 63 66 66 63 61 60 60 59 59 58 57 55 53 52 51 51 51 51 51 51 51 52 54 55 56 57 58 59 60 62 64 66 67 69 71 72 73 197 255 255
253 254 212 119 117 110 104 104 96 89 84 79 77 76 75 74 75 77 79 82 84 86 88 83 72 58 76 93 105 101 108 116 116 87 67 52 43 50 52 53 57 70 85 96 82 76 65 41 30 26 24 15 8 13 27 36 44 50 55 56 58 60 64 62 58 52 43 44 50 58 58 75 96 99 76 73 94 120 125 121 118 115 111 103 93 89 86 89 125 122 113 122 129 138 140 118 69 38 33 38 25 9 3 40 41 32 92 82 75 86 85 89 101 128 139 132 113 94 97 113 138 172 181 178 170 150 132 117 103 88 78 70 63 58 56 55 47 33 22 37 63 88 112 168 196 209 215 211 208 211 222 227 229 224 215 210 203 192 178 162 143 122 110 104 104 98 97 99 101 103 105 107 109 110 110 110 111 111 112 113 114 114 114 114 113 113 112 109 106 103 98 95 92 90 89 90 90 91 87 84 82 80 78 76 73 70 67 65 64 62 61 60 58 55 55 58 63 66 66 63 61 60 60 60 59 58 57 55 53 52 51 52 52 52 52 52 52 53 55 56 57 58 59 59 60 62 64 66 68 70 71 72 73 197 255 255
250 253 211 117 116 111 105 105 98 91 86 80 77 74 72 72 74 78 82 85 87 88 86 77 72 73 86 92 98 104 116 124 123 89 64 45 35 61 57 46 59 79 91 91 73 74 63 29 23 18 16 25 28 33 38 30 33 36 40 40 38 36 35 36 36 36 33 38 48 62 74 86 92 89 83 81 87 100 117 131 140 128 113 99 96 103 111 120 144 137 124 125 145 152 138 89 52 38 48 52 39 22 9 10 26 62 138 151 124 72 104 95 84 101 110 124 137 139 119 118 147 179 188 184 174 117 95 103 111 107 103 104 105 90 85 119 122 81 24 43 65 88 112 167 194 207 216 214 211 209 215 221 226 227 212 212 213 199 183 171 159 136 117 108 114 101 96 98 101 104 107 110 111 110 108 107 112 114 115 116 117 117 117 116 116 116 115 113 109 105 101 97 94 93 92 91 90 89 87 85 82 79 77 76 75 73 70 67 65 64 63 60 58 57 57 60 62 63 63 62 59 58 58 59 58 58 57 55 54 54 53 52 51 51 52 53 53 54 55 56 56 57 58 59 61 64 65 66 66 68 70 73 75 198 255 255
250 253 211 117 116 111 105 105 98 91 86 79 76 73 71 71 73 77 81 84 86 87 84 74 69 75 90 98 102 108 120 127 125 96 66 44 36 61 55 45 67 85 96 97 79 81 70 31 26 20 17 30 36 41 43 32 31 34 36 35 35 33 31 32 33 34 36 44 56 73 86 91 90 82 78 79 82 99 113 126 137 129 117 104 102 112 126 140 154 147 135 130 141 138 119 77 63 72 99 97 72 43 25 37 69 117 178 188 161 110 120 111 105 121 117 125 140 148 130 130 163 189 198 195 185 122 99 108 115 103 90 82 69 58 58 83 94 94 85 63 80 108 139 181 202 210 215 212 208 207 211 216 220 220 211 213 214 200 186 177 169 145 121 107 108 103 102 102 103 104 106 108 109 110 109 109 113 115 116 117 117 117 117 117 116 116 115 114 111 107 102 98 95 94 93 92 91 90 88 86 83 80 78 77 76 74 71 68 65 64 62 59 57 57 58 59 61 62 62 61 59 58 58 59 58 58 57 55 54 54 53 52 51 52 52 53 53 54 56 56 56 57 58 59 62 64 66 66 67 69 71 73 75 198 255 255
250 253 211 117 116 111 105 105 98 91 86 79 75 73 71 71 73 77 81 83 84 85 83 71 66 73 93 103 108 112 120 126 126 103 69 44 40 56 49 45 75 90 100 103 86 88 76 35 30 23 21 34 40 45 46 36 33 34 34 34 34 34 33 34 35 35 37 47 60 77 87 88 83 74 72 75 82 98 107 117 129 132 128 120 115 124 139 155 159 155 148 141 138 127 107 79 81 104 141 146 119 87 70 95 130 168 198 198 178 148 138 136 140 151 131 126 135 147 135 141 176 196 206 206 197 139 115 118 117 94 68 46 35 32 35 42 48 88 136 84 98 134 175 199 210 213 213 209 205 204 208 211 213 211 211 213 213 201 190 184 177 154 125 104 98 106 108 107 105 104 105 105 107 110 111 112 115 116 116 117 118 118 117 117 116 116 115 114 111 107 103 99 97 96 95 93 91 90 89 87 84 81 79 77 76 74 71 68 65 64 62 59 57 56 57 58 60 61 61 60 59 58 58 59 58 58 57 55 54 54 53 52 51 52 52 53 53 54 56 56 56 57 58 59 62 64 66 66 67 69 71 73 75 198 255 255
250 253 211 117 116 111 105 105 98 91 86 78 74 72 70 71 73 76 80 82 83 84 84 70 63 71 94 106 111 112 119 125 127 111 70 43 45 49 42 44 83 94 101 105 90 90 77 36 29 22 22 37 43 46 47 41 37 35 33 32 32 33 34 34 34 33 30 38 52 67 74 73 68 61 66 76 88 89 94 106 126 145 152 151 141 144 152 165 162 163 163 159 151 136 117 94 98 117 151 185 180 164 161 180 194 199 188 175 165 161 163 173 179 177 138 123 129 143 136 145 178 196 208 213 206 156 132 129 121 87 49 15 42 49 47 41 22 68 141 97 113 157 214 216 217 215 211 206 204 203 206 207 206 204 210 213 212 202 196 192 187 164 131 103 88 109 114 111 108 105 104 104 106 109 112 115 116 117 117 118 119 119 118 118 117 117 116 115 112 108 104 100 98 97 96 94 92 91 90 88 85 82 80 78 77 75 72 69 66 64 61 58 56 55 56 57 59 60 60 59 58 58 58 59 58 58 57 55 54 54 53 52 52 52 53 54 54 55 56 57 57 57 58 60 62 65 66 67 68 69 71 74 76 198 255 255
250 253 211 117 116 111 105 105 98 91 85 77 73 71 70 71 73 76 79 81 82 83 87 72 64 70 93 103 106 105 115 124 130 115 73 46 56 50 42 49 93 99 104 106 92 93 79 36 29 24 26 43 47 47 46 42 37 33 29 28 28 30 31 31 31 29 29 35 42 49 52 50 47 48 60 75 91 92 91 90 92 101 109 119 129 147 166 180 159 158 161 158 154 149 141 124 113 111 117 112 121 137 152 162 168 169 165 168 175 187 185 188 186 168 130 120 132 146 138 144 173 188 204 214 211 173 151 142 134 103 65 28 27 31 47 87 57 59 88 103 121 155 209 213 214 213 210 207 206 205 206 206 205 204 209 212 211 205 200 196 190 169 139 109 89 108 113 112 109 106 105 105 107 110 113 116 117 118 118 119 120 120 119 119 118 118 117 115 112 109 105 101 100 99 97 96 94 92 91 90 87 83 81 79 78 76 73 70 67 64 61 58 55 54 55 56 58 59 59 58 58 58 58 59 58 58 57 55 54 54 53 52 52 52 53 54 54 55 56 57 57 58 59 61 63 66 67 68 69 70 72 75 77 199 255 255
250 253 211 117 116 111 105 105 98 91 85 77 73 71 70 71 73 76 79 80 81 82 89 75 66 72 91 98 100 100 113 126 134 113 72 50 67 53 46 57 102 108 111 111 101 101 85 39 31 28 32 52 53 49 42 38 32 27 23 22 23 26 29 30 30 29 38 40 40 40 40 38 36 40 53 68 84 92 93 91 87 88 94 106 123 138 150 155 146 149 152 147 146 149 154 148 132 118 107 87 100 121 135 134 135 139 144 152 163 177 183 184 176 155 128 126 141 149 140 145 171 183 201 216 216 190 170 156 150 128 97 62 37 41 71 136 101 66 48 98 125 158 206 209 211 212 212 211 209 207 205 204 204 204 207 209 209 207 203 197 188 170 145 118 95 106 110 110 110 109 108 107 108 111 113 116 119 120 120 121 121 121 120 119 118 118 117 115 112 109 106 103 102 101 99 98 96 94 93 92 89 85 83 81 80 78 74 71 68 64 61 58 55 54 55 56 58 58 58 57 58 58 58 59 58 58 57 55 54 54 53 52 52 52 53 54 54 55 56 57 57 58 59 61 63 66 67 68 69 70 72 75 77 199 255 255
250 253 211 117 116 111 105 105 98 91 85 77 74 72 71 72 73 76 79 80 80 81 90 78 71 74 89 93 93 96 112 128 135 105 67 52 76 57 51 65 109 119 120 116 115 113 93 43 34 33 39 61 58 49 37 29 23 19 15 16 19 23 28 31 32 34 51 51 45 39 37 35 34 37 46 56 68 85 95 100 100 97 100 112 127 130 125 115 132 141 141 133 131 141 156 164 152 136 121 109 114 121 119 110 110 118 129 135 139 144 164 165 157 144 136 141 153 150 141 146 171 179 199 216 219 206 187 170 167 157 139 112 74 81 119 182 148 88 33 84 127 168 207 206 208 211 215 215 213 208 203 200 201 203 203 204 206 209 203 195 183 168 149 127 104 104 104 108 110 111 111 110 110 112 114 116 120 121 122 122 122 122 121 120 119 119 118 116 113 110 107 105 104 103 101 99 97 95 95 94 91 87 85 83 81 79 75 72 69 65 62 59 56 55 55 56 58 57 57 57 58 58 58 59 58 58 57 55 54 54 53 53 53 53 54 55 55 56 57 58 58 58 60 62 64 67 68 69 70 71 73 76 78 199 255 255
250 253 211 117 116 111 105 105 98 91 86 78 75 73 72 74 75 78 80 80 80 81 91 81 74 76 87 89 90 94 110 122 123 83 53 47 74 55 51 65 105 124 126 119 129 126 99 41 31 31 41 64 60 46 28 17 13 11 10 14 18 24 30 35 38 42 53 52 45 40 41 41 42 41 43 46 51 60 69 75 75 75 89 118 156 177 183 174 146 145 150 144 138 145 159 171 166 157 149 146 142 138 136 139 143 147 147 147 145 146 154 153 151 154 161 164 160 141 135 142 165 173 192 209 213 214 197 174 171 172 165 150 141 160 187 205 178 132 84 75 133 188 217 208 208 211 216 217 214 208 200 196 195 198 198 198 200 206 199 188 173 163 151 133 110 102 101 106 111 113 114 113 112 114 116 117 121 123 124 124 124 124 123 121 120 119 118 116 114 111 109 107 106 105 103 101 99 97 97 96 93 89 87 85 83 80 76 73 71 67 63 60 57 56 56 57 58 58 58 57 58 58 58 59 58 58 57 55 54 54 53 53 53 54 54 55 55 56 57 58 58 59 61 63 65 68 69 70 71 72 74 77 79 199 255 255
250 253 211 117 116 111 105 105 98 91 86 78 76 74 73 75 76 79 81 80 80 81 92 84 77 78 84 85 86 91 99 101 94 63 45 47 73 56 51 62 95 124 130 119 140 135 101 36 24 25 40 68 64 49 28 12 9 10 12 16 20 26 33 39 44 48 50 47 41 38 43 46 48 46 44 44 45 47 54 62 66 73 91 120 154 169 172 163 148 157 167 165 156 158 165 173 168 162 156 159 153 149 156 164 162 152 143 144 145 147 159 158 157 167 179 175 157 133 131 140 157 164 182 198 203 217 204 174 168 173 173 164 154 169 190 198 195 176 143 97 149 199 210 208 208 208 211 213 211 206 198 193 192 194 194 193 194 200 193 181 164 158 149 134 110 101 102 108 113 116 116 115 114 115 117 119 123 124 125 125 125 125 124 122 121 120 119 116 114 112 110 109 108 107 105 103 101 98 99 97 94 90 88 86 84 81 77 74 72 68 64 61 58 57 57 58 59 59 59 58 58 58 58 59 58 58 57 55 54 54 53 54 54 54 55 56 56 57 58 59 59 59 62 64 66 69 70 71 72 73 75 78 80 200 255 255
250 253 211 117 116 111 105 105 98 91 86 78 76 75 74 76 77 79 81 80 80 81 92 86 79 78 81 82 82 87 85 75 60 49 44 52 76 58 53 60 86 125 134 120 150 143 103 31 17 21 41 75 72 56 33 12 9 12 16 20 23 28 34 41 48 51 49 44 40 39 44 48 51 49 47 46 46 41 44 51 58 70 91 117 143 154 154 148 152 168 181 181 169 167 169 171 165 158 153 159 152 151 165 172 162 142 134 143 151 155 172 170 165 175 187 177 151 128 134 144 150 157 173 188 193 219 209 175 165 170 172 166 155 159 171 184 203 203 181 126 170 207 202 208 207 203 203 206 206 204 197 192 190 191 191 189 188 193 187 174 157 154 147 132 106 101 104 110 115 117 117 116 114 116 118 122 124 125 125 125 125 125 124 122 121 120 119 116 114 112 110 109 109 108 106 104 101 99 100 98 95 91 88 86 85 82 78 75 72 68 65 62 59 58 57 58 59 59 59 58 58 58 58 59 58 58 57 55 54 54 53 54 54 54 55 56 56 57 58 59 59 59 62 64 66 69 70 71 72 73 75 78 80 200 255 255
250 253 211 117 116 111 105 105 98 91 86 79 77 76 76 77 78 80 82 81 80 81 93 88 80 77 77 77 78 80 68 47 26 45 53 64 84 65 59 62 81 128 139 123 158 149 105 29 14 22 46 85 84 69 44 18 14 18 22 25 27 29 34 41 47 52 55 51 47 44 46 48 50 48 49 50 51 42 37 34 36 52 78 108 138 159 171 176 165 174 183 179 167 163 165 165 158 151 146 149 142 139 150 149 134 118 131 159 175 177 192 181 169 173 182 170 144 130 144 154 151 155 168 181 187 223 216 180 163 166 168 163 168 155 149 177 201 197 173 151 190 216 205 210 205 198 194 199 201 202 198 193 190 190 189 185 182 188 182 169 152 151 145 129 99 103 107 112 117 119 118 116 115 117 120 124 125 126 126 126 126 125 124 123 122 120 119 117 115 113 111 110 110 110 108 105 102 100 101 99 96 92 89 87 85 82 78 75 72 69 66 63 60 59 58 59 60 59 59 58 58 58 58 59 58 58 57 55 54 54 53 54 54 54 55 56 56 57 58 59 59 59 62 64 67 69 71 71 72 74 76 78 80 200 255 255
253 254 213 121 113 110 107 101 98 92 85 78 76 75 75 75 76 78 81 82 84 85 87 93 93 84 72 73 80 88 74 52 32 44 57 69 80 75 65 61 79 128 150 148 176 154 100 24 20 25 46 94 109 90 45 24 17 19 27 27 31 38 48 48 51 57 51 48 46 45 45 46 47 47 48 49 51 51 54 53 46 54 79 113 139 152 160 169 177 181 180 174 166 164 165 170 173 176 177 170 165 164 171 172 166 156 158 174 189 199 194 180 169 174 176 164 144 140 153 161 159 162 173 184 184 214 217 194 156 153 161 170 178 188 195 189 214 209 177 133 167 201 206 207 204 199 198 199 196 192 193 192 189 184 182 181 179 176 167 161 158 162 151 131 102 101 105 112 119 122 121 120 118 120 123 127 125 124 123 124 126 128 130 129 126 122 118 119 119 118 116 112 110 110 111 108 101 94 100 98 93 93 94 92 86 81 77 74 69 68 66 63 59 58 57 58 60 60 59 58 59 59 59 59 58 58 58 56 56 56 56 56 57 57 59 59 59 59 59 60 61 62 63 65 68 70 72 72 73 75 77 79 81 200 255 255
254 255 214 123 112 109 108 99 98 93 85 77 75 75 74 74 75 77 80 83 86 87 85 95 98 88 73 75 85 93 76 53 33 42 58 71 74 77 68 60 77 130 159 164 182 157 101 21 16 22 46 103 125 102 46 26 18 20 31 33 39 47 53 45 45 54 48 46 45 44 45 46 47 48 48 49 50 52 59 62 53 58 80 111 132 141 150 164 179 183 181 178 175 171 169 171 175 179 183 180 179 179 183 186 184 180 176 185 198 210 188 169 159 165 169 160 145 141 150 155 154 162 173 182 182 208 217 204 161 151 155 168 179 200 213 194 218 216 185 133 161 194 206 205 200 196 197 195 190 183 186 189 189 183 176 173 171 162 154 152 156 161 150 130 105 102 105 112 119 122 123 122 121 122 124 128 128 127 125 125 127 129 131 131 128 125 121 119 118 118 115 110 106 106 108 107 102 95 101 98 91 90 91 90 85 82 78 75 71 69 66 63 59 57 56 57 59 60 61 61 60 59 59 59 58 58 58 57 57 57 57 57 58 59 61 61 61 60 60 61 62 64 64 65 68 70 72 73 73 75 77 80 82 200 255 255
254 255 213 122 111 109 108 98 98 93 85 78 76 75 74 74 75 77 80 83 86 88 87 95 97 88 78 83 92 96 73 47 27 40 60 71 66 74 67 59 73 134 166 168 178 159 106 20 5 13 45 111 131 108 52 25 16 20 33 40 49 56 50 33 32 45 46 45 44 43 44 47 49 50 49 48 47 45 52 58 55 61 79 102 117 128 144 163 174 181 187 191 190 184 176 168 165 164 165 177 181 183 187 188 186 185 185 192 202 209 175 152 142 149 161 159 146 135 137 139 140 157 169 175 181 204 216 211 178 158 151 156 172 191 201 190 215 218 198 157 175 198 206 202 195 189 188 187 182 175 178 184 188 186 170 162 156 147 142 142 147 151 142 127 108 106 107 113 118 121 122 122 122 123 125 127 132 133 131 129 128 127 128 128 128 128 128 116 113 114 111 105 100 98 100 102 102 101 101 98 90 85 84 84 85 83 81 78 77 70 66 63 59 56 55 56 58 61 64 65 61 59 59 58 58 58 57 57 56 56 56 56 57 59 61 61 61 60 60 61 63 65 65 66 68 71 72 73 73 75 77 80 82 200 255 255
254 255 213 122 111 108 107 98 97 92 84 78 76 76 75 75 76 78 81 84 86 89 91 97 97 90 86 93 100 95 68 40 22 42 65 75 60 73 67 57 65 136 171 169 179 164 114 22 6 12 42 102 127 121 86 38 21 18 24 35 51 65 59 36 32 46 46 44 42 41 44 49 52 54 51 48 45 43 45 49 49 60 78 97 108 121 140 162 169 176 183 189 188 182 174 169 168 170 175 184 189 192 194 193 191 190 193 195 198 197 173 150 138 142 155 156 147 137 139 144 150 160 166 170 183 199 213 218 199 168 146 143 167 181 188 189 215 227 221 197 205 216 220 204 190 180 179 179 174 166 168 177 186 191 166 152 142 132 130 132 137 139 133 124 113 111 111 114 117 119 121 123 124 125 126 127 130 131 131 131 129 127 125 124 124 125 126 117 115 117 115 107 100 94 94 96 97 98 85 86 95 98 97 96 94 85 79 77 82 73 68 65 62 58 55 54 56 59 63 67 61 58 58 57 57 57 56 56 56 56 55 55 56 58 60 60 60 60 60 61 63 65 65 66 69 71 73 73 74 76 78 80 82 200 255 255
253 254 213 122 111 108 107 97 97 92 84 78 76 76 75 75 76 78 81 84 87 90 94 98 99 94 94 100 102 90 61 36 23 45 73 81 59 76 70 58 58 134 171 167 178 166 117 24 9 13 34 75 107 126 122 63 39 28 19 23 43 65 69 45 37 46 45 43 40 39 43 50 55 57 53 48 43 45 42 39 39 56 76 94 105 119 139 162 167 173 179 185 184 180 176 174 176 179 184 185 189 195 198 196 195 197 200 199 194 186 164 146 138 141 150 150 143 134 137 143 151 161 164 169 187 195 208 222 216 179 149 140 159 167 171 181 204 218 223 214 212 214 216 201 186 175 173 175 170 161 161 171 183 190 166 149 135 124 124 127 131 130 126 122 119 115 115 115 116 118 121 124 126 127 127 126 127 128 129 131 131 130 128 126 124 122 120 113 111 111 108 100 92 86 84 84 85 86 75 81 94 97 94 92 92 86 79 75 79 73 70 68 65 60 56 54 54 56 60 64 59 57 57 56 56 56 55 55 55 55 54 54 55 57 59 60 60 59 60 61 63 65 66 67 69 72 73 74 74 76 78 81 83 201 255 255
253 254 213 122 111 108 107 97 97 92 84 78 76 76 75 75 76 78 81 84 87 90 95 100 102 99 100 103 100 83 55 34 27 48 79 88 62 82 75 58 52 131 170 165 176 165 117 26 12 13 24 45 81 118 142 87 63 47 27 16 31 57 71 51 41 44 44 42 39 38 43 50 57 59 54 48 43 48 41 33 33 54 73 89 100 117 139 163 168 173 178 182 184 183 182 181 182 184 186 181 185 193 197 197 199 203 207 202 192 178 155 145 144 146 149 145 138 131 133 139 147 159 163 169 190 192 203 222 228 191 159 146 158 159 162 176 192 205 215 217 209 204 205 196 184 173 171 173 168 159 157 167 178 186 167 150 134 122 122 125 127 123 120 120 121 118 118 117 117 118 121 124 126 127 127 126 126 127 128 131 132 133 133 129 125 121 116 110 107 103 98 92 86 83 82 83 84 87 87 95 102 98 87 84 87 87 82 77 77 72 70 68 65 62 57 55 54 55 58 61 58 57 57 56 56 56 55 55 55 55 54 54 55 57 59 60 60 59 60 61 63 65 66 67 69 72 73 74 74 76 78 81 83 201 255 255
253 254 213 121 110 107 106 97 96 91 83 79 77 77 76 76 77 79 82 85 87 90 95 102 106 105 104 102 95 74 51 36 32 49 81 92 70 90 80 60 50 129 169 165 169 161 118 28 12 10 16 24 54 91 124 96 87 76 55 23 20 36 57 46 37 36 42 41 38 37 43 50 57 60 55 49 44 49 41 33 37 56 68 77 85 110 137 165 171 176 181 187 192 194 194 190 183 177 171 169 175 185 193 195 201 207 211 205 192 175 152 153 161 164 156 146 135 127 128 131 138 153 161 171 191 188 199 219 234 206 179 168 173 170 170 183 189 197 206 213 204 195 194 192 182 173 173 174 169 161 158 164 173 178 168 153 136 124 124 125 124 118 115 115 119 120 120 119 119 120 123 125 127 128 127 126 129 130 129 129 131 133 135 133 129 123 118 115 109 101 94 90 91 95 102 109 116 121 144 148 136 112 89 79 81 90 91 87 81 70 65 65 63 61 59 57 56 57 59 60 57 56 56 55 55 55 54 54 53 53 53 53 54 55 58 59 59 59 60 61 63 65 66 67 70 72 74 74 75 77 79 81 83 201 255 255
252 253 212 120 109 107 106 96 96 91 83 80 78 77 76 76 77 79 82 85 88 90 94 103 110 110 104 99 89 69 49 37 36 49 79 94 81 99 85 61 52 127 170 171 167 163 124 35 13 9 17 30 47 64 77 72 81 90 90 49 26 22 43 42 39 36 41 40 38 38 42 49 56 59 55 51 47 45 40 38 49 63 65 63 69 100 134 166 177 180 182 184 188 191 193 193 187 182 178 176 180 187 193 197 202 206 206 197 184 170 165 168 169 158 138 121 108 101 107 120 138 149 160 173 187 185 195 215 233 217 201 193 187 184 184 192 193 199 208 219 213 205 201 190 181 174 174 173 168 160 160 164 167 166 162 151 137 127 125 124 122 115 111 111 114 119 120 121 122 123 125 126 127 127 127 127 130 131 130 128 128 129 129 127 125 122 119 118 110 100 92 94 102 116 133 150 165 177 192 196 188 171 135 102 75 75 79 79 72 65 61 59 57 57 56 57 59 60 61 61 57 55 55 54 54 54 53 53 52 52 52 52 53 54 57 58 59 58 60 62 63 65 66 68 70 73 74 75 75 77 79 82 84 201 255 255
252 253 212 120 109 107 106 96 96 91 83 80 78 77 76 76 77 79 82 85 88 90 92 104 111 112 103 96 85 68 49 38 37 51 79 97 94 106 88 61 54 124 169 178 167 164 128 40 14 9 18 35 44 47 44 49 69 93 116 76 39 18 35 42 43 38 41 40 38 39 42 48 54 57 55 53 50 43 38 41 57 68 64 56 63 98 132 163 180 182 180 179 182 185 189 193 193 192 191 187 188 190 195 199 202 203 199 189 178 169 172 170 159 135 109 88 75 66 78 101 134 147 163 177 183 184 194 212 227 224 218 211 194 189 189 191 190 194 205 218 217 210 200 186 178 173 173 170 164 158 162 164 162 154 154 147 138 129 127 124 121 115 111 109 110 117 120 123 126 127 127 127 127 127 127 127 129 131 133 134 133 131 127 123 121 119 119 113 104 96 91 98 112 131 153 175 195 211 213 218 221 219 181 131 77 68 74 78 68 64 61 56 52 51 52 56 59 61 61 61 56 55 55 54 54 54 53 53 52 52 52 52 53 54 57 58 59 58 60 62 63 65 66 68 70 73 74 75 75 77 79 82 84 201 255 255
252 253 212 120 109 106 105 96 95 90 82 80 78 77 76 77 78 80 83 86 88 90 90 103 112 112 101 93 84 70 52 39 36 56 81 101 108 111 88 60 55 120 167 184 170 163 126 40 17 10 16 35 43 41 31 34 55 88 130 100 58 25 36 46 48 39 40 39 39 40 43 47 51 54 55 55 53 43 37 39 57 69 66 60 72 104 133 155 176 179 177 175 176 179 185 192 199 203 206 201 197 195 195 200 202 200 192 185 178 173 172 158 134 99 75 57 44 28 43 76 124 146 169 184 180 183 193 209 218 226 228 221 192 186 187 179 178 184 196 209 213 205 189 178 174 171 170 163 157 155 163 165 159 143 144 142 137 131 128 125 122 118 113 109 107 114 120 124 129 131 130 128 126 126 127 128 126 130 139 147 147 141 131 122 117 115 116 101 93 89 92 103 119 138 159 180 200 217 209 213 228 247 217 160 91 77 86 92 74 71 65 56 48 46 47 53 58 60 60 59 55 54 54 54 53 53 53 52 52 52 51 51 52 54 57 58 58 58 59 61 63 65 66 68 71 73 75 75 76 78 80 82 84 201 255 255
252 253 212 120 109 106 105 96 95 90 82 80 78 78 77 77 78 80 83 86 88 90 88 101 110 110 98 91 85 75 55 39 33 62 87 106 119 116 87 55 53 115 163 186 171 155 113 31 15 7 5 17 34 46 49 47 57 85 132 113 73 36 42 49 45 32 38 39 40 41 43 46 49 52 54 56 56 48 37 33 46 64 71 75 93 120 138 148 165 172 177 182 187 189 191 192 194 195 196 198 193 189 189 196 201 202 195 192 191 191 170 147 121 92 83 75 63 34 37 67 119 151 178 191 178 184 194 206 210 222 228 219 203 202 201 184 181 186 195 204 208 198 175 171 169 167 165 157 151 150 163 166 157 137 137 137 136 134 131 128 126 123 118 113 108 113 119 126 131 133 132 128 125 125 126 129 124 133 151 169 171 164 147 130 120 116 117 103 100 103 113 129 143 156 167 181 195 210 217 218 221 241 225 186 137 144 158 158 125 93 72 61 47 42 42 48 53 56 55 54 54 54 54 53 53 53 52 52 51 51 51 50 51 53 56 57 58 58 59 61 64 66 67 68 71 73 75 75 76 78 80 82 84 201 255 255
252 253 212 119 111 106 102 98 95 91 85 80 78 77 77 79 80 81 82 84 87 90 92 102 108 104 97 92 84 66 46 37 41 71 92 106 113 115 81 46 57 101 148 189 183 152 104 40 16 7 6 9 29 45 54 56 67 88 123 114 78 37 30 42 43 31 36 39 41 41 43 47 51 52 51 51 53 47 40 39 46 58 68 77 92 116 138 155 165 171 177 184 189 191 190 187 188 189 192 191 193 194 187 192 199 204 199 192 182 169 148 132 118 104 108 107 95 58 47 64 108 149 175 186 184 189 196 203 206 217 225 224 214 211 206 186 180 183 194 202 199 188 169 166 164 162 160 155 153 156 164 162 152 134 133 132 131 129 130 130 129 125 119 114 109 119 120 121 126 131 132 128 126 126 127 128 121 140 167 179 187 185 173 144 128 118 113 110 107 110 134 158 167 166 177 193 205 202 213 212 207 213 205 190 174 189 202 201 179 148 127 115 102 92 86 83 82 74 59 40 51 55 53 44 52 57 56 54 46 42 52 53 54 54 58 57 57 58 61 60 62 71 71 70 71 72 73 73 74 76 79 81 83 201 255 255
252 254 211 117 113 106 99 100 95 92 89 81 77 76 77 82 83 83 81 82 85 89 96 103 104 100 97 93 82 56 37 35 49 76 92 102 108 111 74 39 65 86 128 186 194 153 99 49 17 10 14 7 23 41 56 63 77 94 115 111 77 34 15 35 43 34 36 41 43 41 42 48 54 52 47 46 48 44 44 48 50 56 65 75 86 108 135 163 165 168 172 180 186 188 186 182 182 185 189 185 194 201 190 192 199 203 195 180 158 129 112 112 120 127 140 142 126 82 61 66 100 145 169 180 190 194 198 202 207 214 221 229 221 217 208 188 178 180 192 199 190 178 166 164 161 158 155 154 157 162 164 157 148 137 134 130 126 123 128 130 131 125 118 113 109 122 122 119 122 126 129 128 129 130 128 123 123 148 179 182 194 201 197 159 135 118 108 113 113 119 153 178 184 176 188 206 213 198 201 195 183 174 177 186 199 209 213 214 212 198 185 174 167 158 151 143 137 116 84 44 50 54 52 41 52 58 56 56 46 40 52 54 54 54 60 57 56 58 63 60 60 75 74 73 72 70 70 71 72 74 77 80 82 200 255 255
252 254 211 117 113 106 99 100 95 92 89 81 78 76 77 81 83 83 81 82 85 89 94 99 101 102 100 93 80 57 41 37 44 65 80 98 121 107 71 46 75 78 111 168 189 157 102 33 15 18 25 11 8 31 70 66 79 98 118 110 75 34 19 39 47 37 39 43 45 41 42 49 56 54 48 45 47 47 45 46 52 62 71 80 92 112 132 150 148 151 159 170 181 185 186 182 180 181 185 188 194 198 195 204 204 192 164 144 123 96 67 84 119 154 172 166 137 84 63 70 105 147 172 185 191 191 198 210 219 222 223 225 221 219 211 192 180 180 189 192 181 168 158 168 166 160 153 151 153 157 160 157 154 150 140 134 128 124 127 128 128 122 115 110 107 109 120 133 135 124 119 123 136 136 126 110 137 157 170 179 191 202 206 175 136 108 104 96 116 145 164 171 180 193 199 201 201 204 184 160 138 138 166 191 203 187 178 177 188 194 190 184 185 196 208 219 220 197 159 110 58 43 53 65 57 47 42 56 67 67 49 43 42 44 58 58 56 56 64 63 60 66 70 71 71 71 72 73 74 76 79 81 82 200 255 255
252 254 211 117 113 106 99 100 95 92 89 81 78 76 76 81 82 83 81 82 85 90 93 96 100 106 104 94 79 62 52 46 47 72 83 100 130 100 74 64 87 67 81 129 173 164 114 28 10 15 27 22 8 28 70 65 80 101 120 112 79 39 21 39 45 36 41 44 45 40 41 49 57 56 49 46 48 51 47 47 57 72 81 88 102 120 133 138 137 140 147 159 170 177 180 179 179 181 184 187 192 196 197 204 196 177 153 138 117 86 51 68 108 150 175 178 159 115 88 83 100 139 170 189 193 186 188 198 207 211 217 226 223 223 218 201 189 187 193 192 181 167 158 170 168 159 153 153 154 154 152 150 151 153 140 133 127 123 126 127 127 121 114 110 108 108 122 140 138 124 122 132 143 134 117 98 139 158 167 182 182 184 189 168 124 90 90 94 118 149 163 175 191 211 202 186 179 192 154 138 138 146 163 174 176 167 163 165 173 182 183 183 190 202 214 224 233 223 203 171 99 50 29 46 59 73 90 105 126 134 108 67 44 42 57 58 54 49 62 65 62 61 66 69 70 72 73 75 76 78 81 82 83 201 255 255
252 254 211 117 113 106 99 100 95 92 89 81 78 76 76 81 82 83 81 82 85 90 94 95 100 109 108 95 79 69 65 59 57 86 92 102 128 91 81 86 95 57 53 87 149 165 130 42 11 9 23 31 14 25 60 61 78 100 120 118 89 49 24 35 39 34 41 45 45 39 41 49 58 58 51 47 49 54 49 49 64 82 90 95 112 130 136 130 132 134 139 147 159 167 173 175 178 182 186 188 191 193 193 193 180 162 154 147 125 83 53 65 95 130 159 172 168 139 110 93 91 124 157 181 188 180 182 190 195 199 208 223 222 224 223 211 198 194 197 194 182 169 160 170 167 158 155 159 158 154 144 140 141 146 135 129 124 123 126 128 127 121 115 111 110 112 125 138 132 125 131 145 141 120 100 89 131 153 167 183 167 157 155 143 103 74 76 99 123 146 164 183 202 216 198 174 161 164 134 134 151 161 157 152 150 158 165 170 169 177 181 185 193 199 204 208 221 227 227 215 135 69 30 51 85 117 143 149 172 190 178 104 58 44 56 57 51 43 57 64 64 59 64 67 69 72 74 77 79 81 82 82 83 201 255 255
252 254 211 117 113 106 99 100 95 92 89 82 78 76 76 80 81 82 81 82 85 90 97 96 99 112 111 97 80 76 81 78 74 107 105 102 111 82 91 108 95 50 30 47 119 160 149 77 22 3 12 35 22 22 40 55 72 94 116 126 104 65 27 28 31 30 40 45 44 38 40 49 59 60 54 50 52 57 51 52 73 92 98 102 121 140 143 129 134 134 134 138 148 157 165 171 178 184 191 189 192 192 183 170 156 148 165 169 140 81 71 74 83 99 123 143 156 148 123 98 80 101 132 159 172 174 181 191 190 189 197 214 216 223 226 218 206 201 201 197 184 173 165 167 162 157 159 166 165 156 138 128 125 130 126 123 120 122 126 129 129 123 118 114 113 120 126 128 119 128 143 155 128 95 76 83 113 144 170 180 148 122 108 99 76 61 67 108 129 142 170 194 206 204 189 169 147 125 130 149 171 172 148 132 133 163 183 190 179 185 188 190 195 192 186 181 196 216 232 238 158 99 67 93 140 175 188 176 194 223 245 149 83 49 53 55 50 39 52 61 65 62 63 65 68 71 75 78 81 83 83 83 83 201 255 255
252 254 211 117 113 106 99 100 95 92 89 83 79 77 76 79 80 81 80 83 86 91 97 94 96 108 108 96 81 81 91 93 94 119 115 103 93 83 101 115 77 45 29 33 85 134 155 131 56 18 8 20 26 27 28 45 60 80 104 130 119 83 33 26 28 34 38 42 42 37 39 48 59 61 56 54 56 56 52 57 81 99 105 108 131 150 152 136 130 126 125 128 140 152 163 171 178 185 192 195 192 182 168 158 149 149 168 163 123 54 62 65 68 75 83 92 97 99 93 84 75 86 106 128 145 164 181 195 191 186 188 200 203 213 222 219 208 202 199 192 180 169 163 163 159 156 160 167 166 156 136 124 120 124 122 120 119 123 129 132 132 125 119 114 113 118 124 128 125 136 144 143 100 68 60 84 106 137 163 155 130 104 81 59 57 66 84 118 144 166 191 195 191 180 174 163 146 124 157 161 149 137 138 150 168 187 196 200 198 195 192 188 188 187 184 182 195 209 219 217 168 150 155 164 180 189 189 191 194 201 213 156 97 50 48 54 54 44 51 57 61 64 62 64 67 70 75 79 82 83 83 83 83 201 255 255
252 254 211 117 113 106 99 100 95 92 89 83 79 77 76 79 80 81 80 83 86 91 96 92 92 101 103 94 82 83 95 104 112 134 130 113 91 90 107 112 58 39 29 28 56 103 144 163 96 47 17 9 23 29 25 36 47 64 87 121 119 90 37 27 30 39 37 40 41 37 39 48 57 59 56 55 58 54 53 62 86 101 109 116 140 157 157 139 120 113 114 120 135 150 164 172 178 183 187 194 186 171 156 160 162 165 171 154 108 42 49 49 47 50 50 49 49 57 66 69 68 79 94 112 130 147 159 166 165 169 179 193 193 205 220 222 212 204 198 188 176 166 162 161 158 155 158 164 162 153 136 126 123 127 122 121 121 126 132 134 133 125 118 113 112 115 127 139 141 142 136 121 79 55 56 85 106 133 149 130 117 98 72 39 50 78 111 136 162 186 198 192 181 168 151 142 142 153 170 160 137 129 149 174 198 204 205 207 212 197 187 181 179 177 172 169 178 190 198 196 181 189 207 196 190 186 184 204 201 193 194 148 95 48 44 54 57 51 51 52 56 63 62 63 66 70 75 78 81 83 83 83 82 201 255 255
252 254 211 117 113 106 99 100 95 92 89 84 80 76 75 78 80 81 80 83 87 91 94 90 89 94 98 93 86 82 94 109 126 147 142 122 94 97 106 99 42 35 30 25 34 72 119 168 127 79 33 5 17 27 27 27 35 48 65 101 106 85 38 28 33 43 37 39 42 39 40 47 54 56 53 55 60 51 54 67 87 101 112 125 149 162 159 140 109 100 103 113 131 150 166 174 177 179 181 186 176 161 150 170 183 187 175 148 105 50 44 37 32 34 30 23 17 27 44 54 58 76 89 102 120 127 126 123 130 150 170 184 182 197 216 223 215 206 197 185 173 164 162 162 159 156 155 157 155 149 138 132 130 132 126 124 125 129 134 135 132 124 118 113 112 116 133 150 154 141 120 94 64 53 60 84 107 127 135 113 108 96 72 34 52 92 139 158 180 198 195 185 174 161 127 117 136 187 168 151 140 145 172 196 215 212 209 210 217 193 178 171 169 165 157 150 156 168 178 180 191 212 229 206 189 179 179 208 206 194 187 132 82 44 42 53 59 56 53 49 51 61 61 62 65 69 73 76 79 81 81 81 81 200 255 255
252 254 211 117 113 106 99 100 95 92 89 84 80 76 75 77 79 80 80 83 87 92 94 92 90 91 97 98 94 83 91 110 135 150 136 113 89 88 88 80 43 33 26 19 25 49 83 125 119 90 49 14 15 21 26 21 27 36 42 67 74 62 30 26 32 41 35 40 44 42 42 45 51 50 49 52 59 48 55 69 84 97 114 134 158 162 154 135 105 96 99 109 128 148 165 173 175 176 176 171 167 163 157 180 197 202 185 163 132 95 73 56 47 45 40 29 17 21 35 44 45 68 80 89 106 105 97 91 117 146 161 157 164 186 209 220 214 205 195 183 172 165 165 161 159 156 153 151 148 144 140 135 132 130 128 127 127 129 132 133 130 123 120 117 118 127 139 146 142 118 93 71 59 58 63 70 94 116 128 120 105 87 65 41 59 99 154 176 189 193 186 176 163 145 114 110 131 178 148 149 171 191 199 202 202 204 206 207 207 187 172 163 160 155 147 140 148 163 177 183 188 200 214 216 208 194 178 185 190 192 193 113 64 45 47 51 54 54 55 50 49 62 62 62 65 67 71 74 76 78 79 79 80 200 255 255
252 254 211 117 113 106 99 100 95 92 89 85 80 76 75 77 79 80 80 83 88 92 95 94 92 91 99 104 101 85 89 110 140 138 109 81 64 59 61 63 55 38 21 12 26 41 56 71 87 80 60 41 23 16 18 16 24 30 25 36 40 36 18 21 28 35 34 41 46 45 43 44 47 45 46 50 58 45 55 70 81 93 115 142 165 161 148 129 109 101 102 107 125 143 160 170 174 177 176 160 166 174 169 179 190 196 190 181 165 140 116 99 90 89 76 51 23 14 24 33 36 54 57 60 79 90 100 115 157 172 155 111 139 170 196 212 207 200 190 179 169 164 165 159 157 156 153 149 145 142 139 134 127 121 126 127 126 127 130 131 129 124 123 124 127 142 139 124 106 85 67 56 55 55 54 49 71 102 131 142 106 71 46 45 62 97 151 175 188 191 192 166 136 110 123 134 135 116 138 164 190 208 205 197 190 192 195 193 188 175 157 141 134 138 145 154 169 179 182 176 189 194 197 220 221 212 197 184 173 152 113 75 55 51 54 49 45 48 53 51 52 65 63 63 64 67 70 73 75 77 78 78 79 199 255 255
253 254 211 115 112 105 98 98 93 91 89 85 81 77 76 77 79 80 81 84 89 92 95 96 96 94 100 105 105 94 101 121 144 117 80 51 35 33 41 53 64 45 25 11 23 32 36 37 56 61 56 50 29 17 15 15 25 29 19 16 15 16 14 21 27 29 36 44 49 49 45 43 43 42 44 49 56 46 56 69 77 91 116 146 165 155 139 120 110 105 105 109 122 138 154 164 168 172 175 157 169 182 175 176 179 183 188 187 181 172 153 139 132 132 112 80 44 27 28 31 33 39 40 48 76 104 130 158 199 196 156 90 123 154 181 204 204 197 185 174 166 163 163 156 154 154 152 148 144 141 137 131 123 116 123 126 126 123 129 132 129 112 120 132 135 143 126 97 70 58 53 53 51 46 40 34 72 112 144 153 104 61 36 42 55 83 131 158 179 189 180 137 104 93 128 137 120 71 124 166 196 212 203 192 184 183 181 175 170 146 126 113 121 140 158 171 181 184 183 179 193 193 194 220 225 223 218 201 174 129 58 47 48 54 56 50 44 41 51 54 55 61 62 63 65 68 70 73 75 76 77 78 79 199 255 255
255 255 210 112 110 103 95 93 90 89 89 84 82 80 78 77 78 80 83 86 90 92 95 97 100 101 99 100 104 114 132 148 149 88 54 29 7 13 31 52 65 54 38 20 12 17 25 32 33 34 33 32 28 23 19 21 28 31 25 9 2 5 21 29 30 28 40 48 54 56 49 42 39 41 45 50 53 52 59 68 74 90 116 144 155 142 125 110 102 102 107 114 120 133 147 154 153 159 173 165 175 183 172 173 170 167 178 174 175 186 180 170 164 166 141 112 83 70 53 42 38 26 35 63 111 155 189 213 228 207 164 109 122 141 166 198 207 200 181 168 165 163 160 153 151 151 149 147 144 139 133 128 123 120 118 125 129 117 131 139 130 82 110 141 141 123 97 68 41 44 54 63 48 31 23 30 109 155 170 146 99 63 42 31 35 54 89 122 163 185 140 85 73 104 124 102 77 63 102 147 188 205 196 189 187 179 165 154 153 97 74 84 133 171 189 185 174 170 177 201 196 199 208 215 218 224 234 237 200 138 61 40 41 53 48 57 54 35 50 58 57 47 57 63 66 70 73 75 76 77 78 79 81 200 255 255
254 255 210 112 110 103 95 93 89 88 88 84 82 80 78 77 78 80 83 86 89 91 94 98 100 99 97 101 111 126 129 128 112 48 26 17 8 10 19 29 38 40 39 33 18 18 22 24 21 21 21 23 21 17 15 19 24 27 24 13 9 10 21 27 28 26 36 45 52 55 50 44 40 42 45 48 50 56 63 70 75 92 117 140 146 132 116 103 98 92 88 91 109 135 161 171 159 149 147 168 176 171 145 149 157 166 180 167 158 164 173 171 165 167 149 130 113 102 83 73 73 75 88 113 153 182 198 208 218 210 186 149 136 145 165 189 194 186 170 164 164 162 156 152 150 150 148 146 143 138 132 127 123 120 117 121 127 122 135 139 128 99 125 152 154 120 79 41 17 37 57 66 41 34 48 84 143 174 173 133 82 51 43 42 37 38 49 72 92 104 93 86 94 110 96 70 52 53 95 143 187 206 197 190 186 170 133 94 62 65 90 132 185 184 164 140 148 163 181 202 208 209 209 211 212 216 224 236 229 206 169 95 55 44 41 46 48 47 49 54 58 60 61 63 67 70 73 74 75 77 78 79 81 200 255 255
254 255 210 112 110 103 95 93 89 87 87 84 82 80 78 77 78 80 83 86 89 91 93 97 99 96 94 102 114 129 118 99 70 21 10 11 12 12 13 13 17 24 29 31 18 16 17 15 12 11 13 16 15 12 10 17 21 23 23 18 16 16 21 24 25 25 33 42 50 54 50 45 41 42 44 46 47 56 62 68 74 93 117 138 141 128 114 105 99 93 89 91 108 131 152 159 151 142 140 169 176 163 128 135 152 170 184 164 150 154 171 172 166 165 152 145 141 134 115 108 115 120 132 152 181 198 204 204 211 212 204 184 158 158 172 188 186 176 163 163 165 163 154 150 149 148 147 144 141 136 132 127 123 120 116 119 124 127 138 136 122 116 141 162 166 128 79 33 8 34 56 65 39 42 73 130 164 184 181 139 84 51 43 44 38 33 33 49 62 74 86 94 97 91 68 50 42 46 72 111 152 177 172 159 139 107 73 48 37 82 122 156 183 156 126 112 150 175 188 188 196 194 188 189 194 199 204 218 228 230 223 139 77 45 47 50 57 68 56 50 51 61 61 63 67 70 73 74 75 77 78 79 81 200 255 255
253 254 209 111 109 102 94 92 88 86 86 84 82 80 78 77 77 79 82 85 88 90 90 94 96 94 92 100 112 121 98 66 29 6 5 11 18 18 13 7 5 10 15 20 13 11 10 7 5 5 9 14 12 8 5 15 18 19 21 22 23 21 20 21 22 25 31 40 48 52 49 46 42 42 43 44 45 55 60 64 71 91 114 135 137 125 115 110 102 101 103 107 117 125 129 130 134 139 144 166 172 158 119 129 151 175 186 162 148 154 173 174 166 158 151 155 165 163 145 141 158 159 165 177 196 205 205 203 207 214 215 208 183 178 185 192 182 170 160 164 168 164 152 147 147 146 145 142 139 135 131 127 123 121 117 117 122 132 139 129 113 133 155 171 176 143 93 44 12 30 49 60 42 57 98 163 172 188 193 160 105 66 48 47 44 42 44 54 70 88 107 103 86 60 46 43 43 41 45 66 96 122 122 103 67 25 13 26 62 127 155 155 145 103 80 92 158 189 193 173 177 171 159 160 168 175 178 189 206 222 234 171 108 61 70 72 83 102 74 51 42 57 61 64 67 70 73 74 75 76 78 80 82 200 255 255
252 254 209 111 110 103 94 92 87 85 86 83 82 80 78 76 77 79 81 84 87 89 87 90 93 92 90 93 96 94 66 34 6 8 10 13 18 21 21 19 14 9 6 4 6 5 4 3 2 6 11 16 15 9 4 15 16 16 19 25 26 24 18 18 21 27 32 38 45 50 47 43 40 42 44 45 45 53 57 62 66 85 107 125 124 115 109 108 99 108 121 133 135 127 110 101 117 136 149 149 154 150 121 130 148 169 179 158 151 167 181 176 163 149 144 157 177 175 159 161 186 181 179 182 190 198 203 206 210 211 210 206 201 201 202 199 185 169 158 166 168 162 146 145 144 143 142 140 137 133 130 127 124 122 119 119 121 135 132 116 100 144 162 174 183 160 120 71 26 23 32 48 55 80 119 168 169 188 205 191 146 107 82 74 74 80 92 109 126 139 134 100 67 43 47 51 49 36 39 40 42 46 46 35 16 5 25 65 124 158 153 122 93 56 43 60 123 163 185 189 188 173 152 143 145 147 148 158 176 194 207 188 145 103 121 131 144 159 125 79 49 63 63 64 67 69 72 73 74 76 78 80 82 200 255 255
251 253 210 112 111 104 95 93 88 85 86 83 82 80 78 76 76 78 80 83 86 88 85 88 91 93 90 84 74 58 35 14 1 10 10 10 11 17 22 26 25 19 14 9 11 11 8 4 2 5 10 16 15 11 6 17 17 14 17 24 27 24 17 17 22 29 34 39 44 47 43 40 39 42 45 47 47 59 63 66 67 80 95 109 107 97 93 94 92 104 120 135 145 138 118 101 115 127 128 128 137 139 115 121 133 148 161 150 151 171 181 174 158 144 144 160 182 177 160 163 191 193 192 191 191 196 201 207 209 206 203 201 207 207 205 200 184 168 157 161 162 155 139 142 143 142 140 139 136 133 130 128 125 124 123 121 122 133 123 106 97 153 171 180 190 174 135 83 26 13 21 46 72 100 131 164 178 193 204 199 178 157 139 128 124 125 133 149 153 143 112 80 60 52 49 42 38 36 32 30 28 21 15 9 5 26 64 105 143 145 121 84 60 36 25 32 74 112 146 174 166 152 137 131 129 127 125 134 149 162 168 175 158 134 155 170 181 186 159 100 56 66 65 65 67 70 71 72 73 75 78 81 83 201 255 255
251 253 210 112 112 105 97 94 88 85 86 83 82 80 78 76 76 78 80 83 86 88 86 87 89 91 86 72 52 26 12 5 5 12 11 9 8 14 20 27 31 30 28 26 27 25 18 10 4 5 8 14 15 13 9 19 17 14 16 23 26 23 17 18 23 31 35 40 43 44 40 38 38 42 47 49 50 64 71 74 73 79 88 97 94 84 80 81 88 101 116 131 149 144 122 100 110 112 101 114 127 130 111 112 116 125 144 144 149 167 174 165 149 139 145 164 183 173 154 155 185 194 198 199 194 193 197 203 205 202 201 203 208 207 204 200 185 170 157 157 157 150 135 140 142 141 139 138 135 133 130 129 127 126 127 125 124 129 113 100 102 162 179 186 197 185 144 85 22 7 21 54 87 113 136 160 184 195 198 199 199 196 188 176 166 160 163 169 160 133 88 62 53 57 44 33 31 48 36 31 27 18 10 10 19 60 101 132 142 120 87 54 41 30 21 18 38 65 96 131 118 109 105 104 100 95 92 106 123 136 139 161 164 159 175 190 195 190 170 108 56 63 64 65 67 70 71 72 73 75 78 81 83 201 255 255
252 254 210 113 113 106 98 95 89 86 86 84 82 80 78 76 76 77 80 83 85 87 90 88 87 86 77 57 31 4 1 7 17 14 14 14 15 16 18 23 30 39 47 53 53 47 38 24 11 6 5 10 14 14 13 19 17 15 16 22 24 22 18 19 24 32 36 40 42 43 39 37 38 43 48 50 53 67 78 85 85 84 88 93 91 82 76 75 91 104 117 127 147 138 110 83 93 92 76 111 128 129 110 105 101 104 132 141 147 154 160 148 134 134 149 166 179 163 141 141 168 182 194 201 197 189 188 193 197 200 207 216 208 203 200 199 189 174 159 155 153 149 139 141 141 140 138 137 135 133 131 130 129 128 129 129 128 125 104 99 116 171 186 193 204 195 148 81 17 11 34 74 100 118 135 156 182 188 186 194 209 216 215 201 188 180 178 162 146 124 80 54 44 45 30 26 40 77 58 44 33 27 26 35 55 95 125 137 128 94 62 39 37 34 29 24 29 34 41 55 44 43 48 53 48 43 42 68 97 122 132 156 172 179 182 186 181 167 152 97 49 53 61 65 67 70 71 71 72 74 78 81 84 201 255 255
253 254 211 114 115 108 99 96 90 87 87 85 82 80 78 76 75 77 79 82 84 87 91 87 80 70 56 37 19 5 7 15 23 20 24 29 35 37 38 40 45 55 66 74 73 68 60 48 33 23 17 17 17 15 12 16 16 16 19 22 23 22 20 21 24 29 34 39 42 43 40 39 41 46 49 50 52 66 83 95 97 92 92 96 95 84 74 68 86 104 120 132 147 128 86 52 69 74 61 95 115 123 118 109 94 84 115 127 130 127 137 122 107 115 136 151 157 140 124 128 155 165 181 193 189 177 176 184 191 197 204 215 207 202 199 202 197 182 164 153 151 150 147 142 141 140 138 137 135 134 132 131 131 131 131 135 135 123 98 102 135 174 185 191 198 183 135 74 18 24 52 92 110 120 132 150 169 177 183 197 208 209 200 188 182 178 177 158 151 144 120 87 62 50 56 73 94 116 118 90 51 35 57 89 125 151 154 139 110 70 47 42 56 51 37 19 15 13 16 26 28 26 20 17 14 18 30 73 120 160 180 186 196 203 190 176 162 150 128 87 55 59 63 66 67 69 70 71 72 74 78 81 85 201 255 255
253 254 211 116 116 109 101 97 91 88 87 85 82 80 78 76 75 77 79 82 84 87 92 85 72 54 35 20 10 9 15 21 25 22 30 41 53 60 64 66 70 78 86 91 85 82 78 69 55 43 33 27 22 16 11 12 14 18 21 22 23 22 23 23 24 25 32 37 42 44 42 42 44 49 50 50 50 65 87 103 107 97 93 94 92 78 63 52 72 95 115 131 149 127 80 40 56 59 41 67 92 111 121 112 85 62 91 106 107 98 116 99 82 95 119 132 132 117 109 118 147 157 176 190 183 168 168 180 189 191 194 200 203 201 198 203 201 187 165 148 146 149 150 143 141 140 138 137 135 134 133 133 133 133 133 140 141 122 94 106 150 173 181 185 190 160 114 63 19 30 61 102 119 125 133 146 163 173 182 197 203 200 189 183 180 177 171 165 161 155 147 123 100 84 104 128 145 144 143 115 80 69 95 126 156 174 164 136 95 59 40 36 52 48 35 17 10 4 3 9 14 12 7 9 23 44 69 112 153 184 197 196 202 207 184 155 138 133 102 74 58 62 64 66 67 69 70 71 72 74 78 81 85 201 255 255
254 255 211 118 117 111 103 97 92 89 87 86 82 80 77 77 76 76 77 81 85 88 90 79 61 37 16 7 8 17 25 28 29 26 35 49 67 81 90 95 97 99 101 100 89 89 91 88 78 66 51 38 27 20 14 10 13 19 22 23 23 23 25 24 23 23 30 36 41 45 44 45 47 50 50 50 49 65 89 108 112 100 94 91 86 68 49 36 56 81 104 126 149 131 86 41 48 45 24 35 61 91 115 108 76 43 64 78 78 67 91 78 63 76 95 103 99 91 93 110 139 153 172 183 175 160 162 175 186 183 179 180 198 200 198 203 201 187 163 144 142 145 151 144 141 140 138 137 136 135 134 134 134 135 134 143 145 117 93 112 161 171 176 177 176 130 86 48 21 35 66 105 124 129 133 143 164 175 183 195 197 191 183 182 180 175 163 179 174 162 164 159 148 137 160 181 186 164 144 126 115 117 131 146 159 172 161 132 86 61 41 28 33 31 25 17 12 5 1 2 5 7 14 34 70 107 141 169 185 193 188 191 195 193 166 130 111 111 74 60 58 63 65 66 67 69 70 70 71 74 78 82 85 201 255 255
254 253 210 121 118 116 110 92 90 87 86 89 84 80 80 86 85 79 71 78 91 101 82 55 29 7 7 13 22 29 39 48 56 49 54 64 79 96 104 104 97 90 86 86 86 89 94 101 100 87 65 39 29 30 34 16 14 17 19 21 23 24 25 24 24 25 32 37 39 42 43 44 45 46 47 48 49 60 82 100 106 103 104 102 86 64 51 48 59 79 100 123 135 123 90 42 23 21 30 28 39 57 75 81 71 54 45 43 44 46 44 53 63 70 56 43 36 49 72 95 116 133 145 151 153 150 151 155 163 169 173 178 190 195 197 198 191 178 161 149 145 145 148 142 139 138 137 136 136 136 136 137 137 138 130 140 139 90 99 132 173 169 173 167 146 108 59 23 39 62 82 102 121 120 124 145 162 173 180 189 194 193 189 183 175 168 161 181 186 184 183 179 176 177 184 190 190 183 155 145 142 136 133 139 153 169 160 136 101 76 59 45 25 16 17 23 13 5 1 4 20 44 76 116 149 174 189 191 187 181 173 185 182 166 139 111 88 70 54 52 57 66 68 69 70 72 72 72 73 76 80 83 87 202 255 255
255 253 209 119 113 112 107 89 90 90 90 92 89 84 80 80 82 84 86 85 82 76 53 32 15 4 13 24 35 41 49 58 66 57 59 66 81 99 110 111 103 92 83 79 86 93 100 109 109 100 81 56 40 31 26 18 16 17 18 20 23 25 26 24 23 23 32 36 38 42 43 43 43 43 45 46 49 56 73 91 101 104 107 105 88 66 52 47 53 70 90 114 125 116 88 43 20 19 36 34 38 47 57 63 61 52 40 37 39 43 35 44 55 57 40 26 20 33 53 70 83 101 111 119 128 135 140 145 153 162 172 181 184 187 190 192 184 173 160 149 145 145 146 140 138 137 136 136 136 136 137 138 139 140 134 138 131 88 110 146 183 174 170 156 129 86 46 28 64 83 95 104 122 120 123 141 153 162 170 180 185 186 183 176 170 164 159 182 192 194 194 192 191 193 195 196 195 191 157 146 147 144 143 148 159 169 160 142 117 89 73 60 37 20 12 11 7 16 34 59 95 124 146 171 184 192 195 194 189 181 172 176 159 127 91 70 58 56 58 61 63 65 68 70 71 73 73 73 74 76 80 83 86 202 255 255
255 253 209 117 109 107 103 89 91 94 94 93 94 90 82 75 79 88 99 87 67 43 26 18 14 15 26 36 45 50 56 62 67 60 60 65 76 95 108 114 108 96 84 77 86 95 103 110 107 100 88 72 51 32 17 20 20 19 18 20 23 25 27 24 22 20 30 34 38 42 43 42 41 41 43 46 49 52 66 82 97 105 109 107 94 74 57 45 47 61 80 105 117 110 85 45 27 28 44 44 45 46 48 52 52 49 44 45 49 53 43 45 50 49 38 31 29 36 46 54 60 78 90 100 110 117 124 131 143 158 171 183 177 178 182 184 179 169 158 149 145 144 145 140 138 137 136 135 135 136 137 138 139 140 141 135 119 91 119 154 184 174 158 135 106 65 41 43 87 100 105 109 128 125 124 135 147 156 165 174 179 179 175 169 164 160 158 179 191 196 200 200 199 199 199 198 196 192 158 147 148 150 154 159 165 165 155 143 128 100 79 62 38 20 8 6 17 48 86 127 164 185 194 199 195 192 191 192 187 177 163 150 123 87 50 37 40 53 65 69 67 64 67 70 71 73 73 73 74 76 80 83 86 202 255 255
255 253 210 118 110 107 104 90 93 95 95 92 95 94 88 80 84 92 99 77 47 16 13 17 24 33 41 46 51 55 58 62 64 64 61 61 66 84 98 109 108 97 85 77 84 93 99 100 90 82 77 73 58 39 22 27 25 21 18 19 23 26 28 25 21 19 27 33 38 42 43 41 39 38 41 45 49 51 59 74 95 108 113 111 104 88 68 48 44 54 73 99 113 107 84 50 37 40 54 56 53 48 43 46 50 55 59 65 70 74 62 56 54 50 50 54 58 60 60 59 59 79 94 104 107 99 97 103 127 151 170 179 168 168 172 175 172 165 156 148 145 143 144 139 137 136 135 134 134 135 137 139 140 141 147 125 99 90 123 155 174 159 129 96 66 49 45 59 103 111 114 118 138 135 127 126 149 162 170 177 179 176 170 162 157 155 154 170 182 192 201 203 202 200 198 194 190 185 165 157 156 158 164 166 164 154 143 133 128 106 74 39 8 2 6 21 61 109 154 187 188 191 195 193 189 189 192 193 179 158 133 96 69 51 36 36 44 56 64 66 66 65 68 70 71 72 73 73 73 75 79 83 86 202 255 255
252 252 211 123 116 114 111 96 96 95 92 91 94 96 96 92 88 81 71 51 32 18 23 32 40 46 46 47 49 56 62 65 67 74 70 66 65 76 89 100 105 101 94 87 77 82 88 89 79 72 69 69 61 50 38 32 26 21 16 18 22 27 30 27 22 20 25 30 36 41 42 40 37 35 39 43 48 50 54 65 86 102 108 108 109 98 78 51 47 55 74 103 120 116 94 64 55 57 66 71 67 60 54 55 59 66 74 80 85 88 79 69 60 54 60 67 73 72 68 64 64 75 94 109 108 82 68 68 97 122 136 138 155 163 167 170 167 162 155 148 144 142 141 138 137 136 134 133 133 134 137 139 141 142 154 122 87 97 134 162 171 155 119 84 60 62 63 71 101 107 115 127 150 142 129 121 151 166 173 180 180 176 169 162 158 158 158 161 171 184 196 200 199 195 191 185 180 174 170 168 165 164 166 166 163 151 137 124 115 78 42 12 2 18 45 82 129 167 193 200 194 191 190 189 189 190 187 173 145 111 79 51 41 46 53 59 62 61 58 59 63 69 69 69 70 72 72 72 73 75 79 82 85 201 255 255
250 252 213 127 120 119 116 102 100 97 93 93 95 97 98 91 79 62 44 33 26 25 31 40 48 52 47 47 50 61 69 72 73 83 80 75 72 78 88 98 106 107 105 99 77 75 79 81 79 78 77 76 69 60 49 35 26 20 14 16 21 27 31 29 25 21 24 28 34 39 39 38 35 34 37 41 45 46 46 54 73 89 97 99 108 102 83 54 47 53 74 107 128 126 106 81 75 76 81 82 79 75 70 70 72 76 83 88 92 93 88 76 63 55 62 69 73 69 64 60 61 70 92 110 112 85 64 58 79 98 108 110 148 162 165 166 164 161 155 148 144 141 139 138 137 136 134 133 133 133 136 138 141 142 151 111 71 95 137 161 164 149 113 82 68 77 79 81 98 106 118 136 153 143 128 119 148 162 169 175 176 173 168 163 162 163 164 157 164 179 193 198 197 192 186 179 172 166 169 170 169 168 168 168 166 157 139 119 100 51 21 12 32 65 99 131 164 190 203 200 199 193 186 182 178 172 159 132 102 73 52 40 39 48 60 66 67 61 56 57 63 72 69 69 70 72 72 72 73 75 79 82 85 201 255 255
251 253 215 129 122 120 119 106 106 102 97 99 99 97 91 77 58 40 24 24 28 34 35 42 49 51 47 47 54 67 76 79 78 88 89 87 85 87 93 101 109 113 115 111 84 76 76 78 87 94 96 92 79 68 55 36 25 19 13 15 20 26 31 30 27 23 23 27 32 36 37 36 34 33 36 40 43 41 39 44 59 72 80 87 101 101 84 57 45 50 71 110 135 135 119 100 96 96 96 91 90 90 89 88 87 88 91 93 93 94 92 80 67 57 61 65 66 59 54 53 56 70 92 111 119 103 84 70 73 83 91 99 149 164 164 164 163 160 155 149 145 141 138 138 137 135 133 132 132 132 135 137 140 141 141 94 53 84 129 152 152 137 108 87 84 91 90 89 97 108 124 142 148 137 126 121 142 152 159 166 169 169 167 165 167 169 171 156 161 177 191 196 195 191 185 176 167 160 160 164 168 170 171 172 174 168 145 116 85 32 19 41 90 133 156 162 166 178 189 192 199 194 182 171 159 140 113 79 58 48 50 56 57 55 58 59 59 59 57 60 65 73 70 69 70 71 72 72 72 74 78 82 85 201 255 255
254 255 215 128 118 116 116 108 111 111 106 104 100 90 72 46 30 23 27 34 38 38 37 44 51 54 52 55 60 70 75 75 73 81 87 92 96 98 102 106 111 113 113 110 107 94 81 72 80 91 100 98 85 72 57 35 25 19 14 14 18 24 28 29 28 25 24 26 29 32 33 34 33 34 35 38 39 38 38 42 50 58 68 80 97 99 86 63 40 41 62 106 136 139 125 113 114 114 109 94 95 100 106 107 107 108 110 111 111 111 107 98 89 82 85 86 85 80 79 81 88 109 117 122 129 124 108 87 71 81 102 131 160 168 166 164 161 158 155 151 146 141 138 140 139 137 134 132 131 131 133 135 138 140 136 89 47 72 114 133 129 112 90 79 85 87 91 97 106 118 131 141 134 124 122 130 146 154 159 164 168 169 169 167 168 168 169 157 161 175 187 192 191 187 181 172 163 155 147 153 163 172 176 177 178 168 140 106 70 60 73 106 150 170 167 145 132 143 165 188 182 176 169 158 142 116 81 51 43 49 67 67 63 58 56 55 55 56 56 59 63 69 68 68 69 71 71 71 72 74 78 81 84 201 255 255
255 255 215 129 116 114 115 109 114 114 107 99 88 72 50 30 21 23 33 41 43 42 44 50 57 62 62 64 66 70 72 71 70 77 85 92 99 101 103 106 110 110 108 107 117 108 92 75 72 76 84 88 81 71 57 34 26 20 15 15 16 20 24 26 26 26 25 25 26 28 30 32 34 35 35 35 35 35 40 44 46 49 60 77 95 96 87 70 38 36 56 102 134 138 126 120 125 126 118 102 104 113 122 124 126 129 133 134 133 131 126 122 119 118 120 121 120 118 119 121 127 141 141 136 134 125 106 82 64 82 115 155 169 171 167 163 160 157 155 152 148 143 140 142 140 138 134 131 130 130 132 134 137 139 144 102 59 71 107 124 118 96 79 74 84 83 92 104 111 120 129 135 124 118 122 137 154 162 164 167 170 172 172 171 168 165 163 158 162 173 182 186 185 182 177 169 159 150 141 147 160 175 181 182 177 161 135 107 81 101 123 145 168 172 163 142 128 138 162 192 187 185 183 176 161 139 111 86 71 64 64 62 59 58 59 60 60 57 54 56 60 66 66 68 69 70 71 71 71 73 77 81 84 201 255 255
253 254 215 129 118 116 117 111 115 114 105 89 70 49 30 25 27 32 37 41 44 46 51 57 63 69 72 72 71 70 71 72 74 78 85 92 99 100 102 106 109 109 106 104 115 113 103 87 70 63 64 73 73 66 55 34 26 22 17 15 15 17 20 23 24 26 25 24 24 24 27 31 34 36 35 34 31 32 40 47 44 41 54 75 93 92 85 74 39 34 53 99 131 136 125 123 132 133 125 114 118 127 136 138 142 146 151 152 149 145 142 143 146 150 152 152 151 150 152 152 155 161 159 153 144 124 98 73 66 93 131 173 175 172 167 161 158 157 155 153 149 145 142 143 141 138 134 131 130 129 131 133 136 139 151 115 70 68 100 115 109 83 70 68 81 80 93 109 111 115 121 127 118 117 125 141 160 166 166 168 171 174 175 174 169 164 160 160 165 173 179 181 181 179 176 168 158 148 139 145 159 176 186 186 175 154 135 120 110 136 154 163 167 165 162 155 146 152 170 200 198 199 202 199 191 180 168 151 122 89 58 56 56 57 61 64 64 60 55 55 58 65 66 68 69 70 71 71 71 73 77 81 84 201 255 255
247 252 216 131 123 122 123 115 115 110 99 75 47 26 18 36 47 49 35 33 40 52 56 60 66 74 78 78 75 73 77 82 88 86 91 95 98 97 99 104 110 112 109 104 95 106 114 110 83 63 53 59 62 59 49 34 28 24 19 15 14 14 16 19 22 24 26 25 22 21 25 30 35 38 35 32 29 26 37 46 39 34 48 71 88 85 79 73 42 36 53 98 129 134 123 123 134 137 128 131 136 142 147 147 149 153 157 157 152 145 147 153 160 167 167 166 164 161 159 157 154 159 169 174 166 131 100 78 88 120 154 182 178 172 166 159 156 155 155 154 151 147 144 144 143 140 135 132 129 128 130 132 135 137 146 112 67 54 84 101 98 69 59 61 73 80 98 112 105 103 109 120 118 122 130 143 156 160 160 162 166 172 177 177 173 168 162 166 171 176 180 182 182 181 178 170 160 150 141 145 158 178 191 191 177 155 146 149 160 147 149 157 160 167 179 192 187 184 190 210 205 206 211 209 211 220 235 230 188 127 59 62 62 57 55 57 59 62 61 61 63 65 66 67 68 70 70 70 71 73 77 80 84 201 255 255
252 247 209 135 124 122 125 125 112 91 67 47 34 25 24 36 43 45 41 40 45 52 61 67 73 78 78 78 79 81 85 86 88 94 94 92 92 94 95 97 100 105 110 114 111 104 101 105 102 88 72 63 65 64 57 36 29 26 22 18 16 14 14 16 19 21 23 23 21 21 24 29 32 35 33 31 28 27 34 41 40 35 42 57 74 79 80 75 45 41 58 93 121 129 124 120 128 134 136 140 141 144 149 156 162 168 170 171 172 172 172 174 175 176 177 178 178 177 177 176 176 178 178 176 173 130 95 81 124 160 180 178 177 174 169 163 159 156 155 153 150 148 146 145 143 140 136 132 128 127 129 132 136 139 149 115 67 38 68 77 64 54 55 59 64 79 86 92 105 107 113 120 126 124 127 143 158 162 161 160 163 167 171 173 172 168 163 163 167 175 181 181 180 177 173 167 159 151 146 146 153 170 196 196 168 163 165 162 149 162 176 188 195 197 201 206 207 204 201 201 205 206 208 215 210 207 209 215 212 178 93 67 57 58 59 61 62 62 61 62 63 65 66 67 68 71 71 71 72 74 77 80 83 201 255 255
255 245 207 140 129 124 121 117 96 70 45 34 30 29 30 36 41 43 44 46 49 54 64 72 77 80 78 78 82 87 90 89 88 97 95 91 89 91 92 93 92 99 107 115 118 103 95 104 114 106 87 71 68 64 57 41 34 31 27 24 20 15 10 12 16 21 22 21 20 20 23 27 30 32 31 29 27 28 33 38 39 35 38 47 63 72 76 71 45 42 56 84 110 121 120 118 126 134 141 144 144 147 154 166 174 180 181 182 185 190 194 193 191 190 191 193 193 192 193 193 193 190 183 176 170 129 103 101 152 180 188 177 176 173 169 164 160 157 155 152 150 148 147 145 143 140 136 132 128 126 128 131 136 139 150 120 73 32 54 57 42 46 54 59 58 72 73 76 100 105 109 115 125 122 124 141 158 163 162 159 160 162 167 172 172 169 164 160 164 173 181 181 179 176 172 166 160 154 152 150 152 164 195 197 168 167 169 160 132 170 194 207 215 211 208 206 211 211 208 201 204 202 200 210 206 201 198 204 217 199 113 70 55 58 61 63 62 61 61 62 63 65 66 67 68 71 72 72 72 74 77 80 83 201 255 255
255 246 210 145 139 127 111 91 69 51 37 36 34 34 35 40 42 44 44 47 51 58 67 73 76 78 76 79 83 89 91 90 89 96 95 91 89 90 91 90 88 93 98 106 111 102 98 109 120 113 98 82 71 60 48 47 43 38 34 31 24 15 6 8 14 22 21 20 19 19 21 24 27 29 28 27 26 28 33 37 38 34 36 42 56 64 67 62 43 39 47 70 96 108 112 116 126 135 142 142 146 152 163 176 184 189 187 188 191 196 206 208 208 207 208 208 207 205 204 204 204 193 186 177 161 130 123 138 171 177 179 181 173 169 166 162 159 157 156 153 151 148 146 144 142 140 137 133 129 127 128 130 134 137 149 127 84 36 43 43 35 46 55 59 56 60 62 67 91 95 99 104 116 117 121 137 155 162 161 158 157 159 166 174 174 170 162 157 162 172 180 181 180 177 173 169 164 159 159 155 153 161 187 194 177 164 156 142 112 168 198 209 215 207 199 195 200 206 210 211 205 196 190 196 199 203 205 201 204 184 115 73 57 59 62 62 61 60 60 61 63 65 65 66 68 70 71 71 72 74 77 80 83 201 255 255
254 248 210 141 134 115 90 62 45 37 36 40 40 41 42 44 46 46 45 49 55 62 67 70 71 70 71 74 80 87 89 87 85 91 90 89 88 89 89 88 86 89 94 99 104 100 101 111 121 117 106 92 76 55 36 44 47 47 42 29 18 9 8 12 15 18 21 21 20 19 20 22 25 27 27 27 26 26 31 35 36 32 33 38 48 54 55 50 41 35 39 56 78 90 97 105 118 128 134 138 143 150 162 174 182 187 187 190 194 199 200 202 203 205 204 204 203 203 203 203 202 193 186 174 150 132 145 176 191 175 169 181 169 164 162 160 158 158 157 154 151 148 145 143 142 140 138 135 131 128 127 129 132 134 145 132 98 42 34 32 33 47 53 54 49 53 59 69 91 93 94 99 112 116 123 137 155 164 166 163 158 157 162 172 172 167 156 154 160 170 179 179 178 174 171 167 164 160 171 168 157 151 165 173 170 142 127 110 82 140 174 190 201 198 191 185 189 196 202 206 203 196 189 192 193 193 189 167 159 141 97 71 60 61 62 61 59 58 59 61 63 65 65 66 67 70 71 71 72 74 76 79 82 200 255 255
254 249 207 124 115 94 68 45 36 37 43 46 46 47 48 49 49 47 45 51 58 66 69 69 68 66 69 74 81 87 89 87 85 88 88 88 89 90 90 89 87 89 93 97 99 99 101 108 114 113 109 100 82 59 37 43 52 55 48 25 11 7 18 23 20 14 21 22 21 20 20 22 24 26 27 27 26 25 29 32 33 30 31 34 42 46 46 42 40 34 35 47 64 74 80 90 103 115 121 130 136 142 151 161 170 177 182 187 192 197 198 201 203 205 204 203 202 202 203 202 200 191 182 168 146 138 158 193 201 177 166 179 168 164 161 159 158 157 156 154 151 148 146 143 142 140 138 135 131 128 127 129 130 132 139 133 107 49 31 30 38 47 47 45 41 50 61 74 93 93 93 95 107 115 124 136 154 165 171 171 163 158 159 168 167 161 149 151 159 169 178 178 175 171 168 164 160 156 173 168 150 132 132 140 149 114 97 83 64 110 141 163 181 184 181 175 174 175 176 176 172 169 169 168 165 159 150 124 112 100 81 69 63 63 62 61 59 58 59 61 63 65 65 66 67 70 71 71 72 74 76 79 82 200 255 255
255 252 203 101 89 69 49 39 38 44 52 52 51 52 53 54 52 48 46 52 61 69 72 70 67 66 70 77 86 91 93 92 89 86 87 90 92 92 93 92 91 92 95 96 94 96 99 101 103 105 107 107 91 70 49 49 57 60 50 22 9 11 30 35 27 13 21 23 22 21 21 22 22 24 25 25 26 23 26 29 30 29 29 32 37 40 39 37 38 34 34 44 56 61 64 73 87 99 105 121 127 131 136 145 156 166 175 182 187 191 197 201 204 205 203 201 200 202 201 199 195 187 174 161 148 147 164 192 201 181 170 176 170 166 163 159 157 156 155 153 151 149 147 143 142 141 139 136 132 129 127 128 129 130 136 134 113 56 31 31 45 45 40 37 35 48 62 78 93 94 92 92 101 113 124 134 150 165 176 180 170 162 157 162 161 155 144 149 158 168 177 177 173 169 165 161 155 151 164 157 135 108 97 104 121 84 70 63 55 80 103 126 148 156 156 150 144 137 130 125 119 122 129 127 120 111 102 85 76 71 71 69 66 65 62 60 58 57 58 60 63 65 64 65 67 69 70 70 71 73 76 79 82 200 255 255
255 255 199 79 63 48 39 45 49 53 57 55 55 55 56 56 54 50 48 54 62 71 77 75 72 71 78 86 95 100 102 101 99 91 92 95 97 97 98 97 96 97 97 95 89 92 94 92 90 96 105 112 104 92 78 69 65 57 42 24 18 23 36 38 32 20 20 21 21 21 20 20 20 20 21 21 22 21 23 26 27 27 28 31 34 36 36 35 36 34 37 47 54 55 53 60 74 86 92 111 117 119 124 133 145 158 170 177 180 181 192 198 200 199 195 193 194 197 196 192 186 179 164 154 160 159 161 171 189 186 179 171 173 171 166 160 157 154 153 152 151 150 149 144 143 142 140 137 133 130 128 129 130 131 139 138 118 61 33 32 48 39 34 32 36 43 57 73 86 89 89 88 94 108 122 131 144 160 176 185 177 167 159 158 156 153 146 150 158 167 175 176 174 170 166 160 153 146 142 131 113 83 68 74 94 62 54 54 54 52 60 75 91 97 98 92 82 71 58 49 45 52 64 61 55 53 58 67 68 68 76 72 68 65 62 59 57 57 59 61 62 64 64 65 66 69 70 70 70 72 75 78 81 200 255 255
254 254 195 65 53 44 41 54 54 52 51 54 54 54 55 56 55 51 49 54 61 68 73 71 70 72 82 90 98 102 104 105 104 98 100 104 105 102 101 98 97 97 95 92 86 90 93 88 85 91 104 114 112 108 104 91 69 46 27 26 28 30 27 24 24 25 18 18 19 20 19 19 18 17 17 17 18 20 22 23 25 26 27 30 33 35 35 35 33 33 36 48 53 53 49 55 68 77 82 97 105 110 117 126 138 150 162 168 170 169 175 179 180 179 176 179 185 194 195 192 184 167 150 146 170 169 157 148 170 183 183 170 173 171 166 161 158 155 154 152 151 149 148 145 144 143 141 138 134 131 129 131 133 134 144 144 125 70 34 28 42 32 32 36 40 40 52 67 77 88 92 92 92 107 124 134 140 153 170 182 179 172 163 159 157 156 154 154 159 167 174 176 176 174 169 161 150 140 124 114 103 75 61 64 76 50 42 41 41 33 32 35 39 40 40 37 32 26 19 15 17 23 28 22 18 24 42 74 76 71 72 71 69 65 61 59 58 58 60 62 63 64 63 64 66 68 69 69 70 72 75 78 81 200 255 255
252 254 192 56 51 46 45 57 53 49 47 54 53 52 52 55 55 53 51 54 59 65 66 65 66 71 82 91 98 101 103 105 107 103 105 109 110 105 102 99 98 97 94 91 84 90 94 88 84 90 102 110 111 114 118 104 73 42 19 28 33 33 20 15 19 28 17 16 19 21 21 20 18 15 15 15 16 19 21 21 23 24 26 29 31 33 34 35 31 31 34 45 50 49 46 51 62 68 69 81 90 97 105 111 121 132 145 154 158 159 161 163 163 160 160 166 176 191 193 189 179 150 133 137 174 174 152 128 148 170 177 168 170 168 165 161 158 156 155 153 151 148 147 146 146 144 141 138 134 131 131 133 136 138 146 147 132 82 38 25 37 28 35 40 39 40 50 63 70 88 97 97 91 107 126 137 141 151 164 176 178 175 167 161 159 160 162 159 162 168 174 176 177 176 170 157 143 129 109 103 98 72 60 59 61 43 36 32 29 25 21 17 13 12 12 12 12 10 8 7 12 15 13 6 6 15 36 81 83 72 68 69 68 65 61 59 59 60 62 63 63 64 63 64 66 68 69 69 70 72 75 78 81 200 255 255
251 253 191 52 56 53 49 53 46 45 48 53 51 49 49 53 54 54 52 53 56 60 57 58 61 68 81 90 96 98 100 104 107 104 108 111 111 106 101 98 99 98 95 91 83 91 97 93 88 93 100 100 99 106 117 107 78 46 23 29 32 31 19 14 19 27 17 17 20 24 24 23 20 16 15 15 15 20 20 20 21 22 24 26 28 30 32 34 30 28 30 38 42 42 41 47 54 57 55 63 72 81 88 89 94 102 117 132 143 150 154 154 151 146 145 153 167 184 186 181 168 128 114 127 172 173 147 114 126 148 163 165 164 163 162 160 159 159 157 155 151 147 144 147 147 145 142 138 134 132 132 135 139 142 143 147 139 97 44 24 32 29 40 45 33 41 51 61 66 89 104 104 92 107 127 139 146 152 158 168 175 176 171 164 162 164 169 165 166 170 173 175 176 175 166 149 130 112 97 96 96 70 63 57 49 42 36 28 20 28 27 22 17 15 16 19 21 22 22 21 24 21 15 12 17 25 39 85 84 70 66 68 67 64 61 59 60 61 63 64 64 63 63 64 65 68 69 69 70 72 74 77 80 200 255 255
253 254 189 49 61 57 48 45 39 44 55 53 49 47 46 51 54 56 54 53 54 57 54 56 61 71 84 93 98 99 102 106 110 101 104 108 109 103 99 98 101 100 98 93 85 94 102 100 94 95 96 87 82 88 103 100 86 66 44 32 28 29 33 33 31 28 19 20 25 29 30 28 25 21 19 18 18 21 21 20 19 20 22 24 26 28 30 32 31 26 25 30 34 35 34 41 47 46 40 49 58 65 68 63 62 67 85 110 130 145 150 148 141 130 124 128 139 152 151 142 126 103 100 119 165 167 143 110 110 127 146 162 157 156 157 158 161 161 160 157 151 145 141 147 148 146 142 138 134 132 134 137 141 145 135 142 144 111 53 27 32 34 47 47 23 40 53 59 61 89 106 106 88 102 121 134 153 157 156 162 170 174 173 165 162 164 171 170 171 172 172 173 172 170 159 138 114 92 83 86 88 60 58 52 41 49 47 40 29 28 26 24 24 26 28 28 25 20 15 12 12 10 8 19 30 35 40 81 82 74 79 72 66 63 60 59 60 63 65 65 65 63 63 64 65 68 69 69 69 71 74 77 80 200 255 255
253 253 189 54 59 56 50 44 41 44 50 46 48 50 53 54 56 57 58 59 60 60 61 64 70 81 92 98 100 97 99 104 109 100 104 109 111 104 99 97 98 98 97 94 91 95 98 96 95 97 99 92 86 86 91 92 90 81 63 42 35 38 49 47 37 23 18 19 23 28 31 30 26 20 17 17 19 20 21 21 21 22 23 24 25 25 24 24 29 26 23 25 30 32 33 35 38 38 36 43 49 53 55 50 49 52 65 81 94 104 116 115 111 111 111 110 110 115 112 103 87 83 88 106 140 162 153 120 88 100 126 158 159 156 155 160 166 164 159 157 155 150 142 147 147 145 141 138 134 133 134 137 139 142 135 139 140 125 60 26 24 34 44 43 24 41 57 68 69 89 105 110 94 99 116 140 157 163 163 161 166 171 174 164 160 163 176 175 175 175 173 168 163 156 145 128 109 91 75 70 67 47 46 43 39 47 46 41 32 31 25 18 25 35 37 29 18 15 14 16 9 8 14 32 50 62 67 86 82 75 76 72 68 65 62 60 59 60 62 63 64 64 63 64 65 68 69 69 70 72 75 78 81 200 255 255
254 252 190 60 54 52 51 47 46 44 42 39 47 55 61 59 59 59 64 66 65 64 70 73 79 89 100 104 104 98 98 101 106 101 106 111 113 108 102 99 98 96 93 90 92 92 90 90 93 96 99 99 95 90 87 88 92 91 80 58 49 50 60 54 38 19 17 18 21 27 29 28 23 16 15 16 19 20 20 22 22 23 24 25 25 23 19 16 26 25 22 22 27 31 32 29 31 33 37 40 41 41 42 41 41 43 48 52 55 57 70 70 70 83 91 87 77 74 74 69 58 69 80 93 113 156 163 133 69 74 106 151 161 157 152 161 170 167 158 156 158 156 145 147 147 144 141 138 136 135 135 136 137 138 140 138 136 136 69 27 16 32 39 38 31 43 62 78 81 88 102 115 103 100 114 150 160 168 171 164 163 165 172 163 159 162 180 178 179 179 174 163 153 142 132 119 105 91 66 52 44 36 34 35 39 41 39 35 30 32 23 12 23 39 42 28 14 14 19 23 12 15 30 52 72 87 95 89 82 75 69 72 71 68 64 61 58 57 59 61 63 65 64 65 66 69 70 70 71 73 76 79 82 200 255 255
255 251 189 58 52 50 49 45 46 45 42 40 46 54 60 60 61 62 66 65 63 61 70 71 75 84 98 108 114 111 106 102 102 104 108 109 110 111 112 113 111 100 87 75 74 79 86 92 91 86 82 81 85 92 97 96 97 96 91 79 70 63 58 48 36 25 25 28 31 34 31 26 20 16 17 18 21 23 22 21 20 20 21 22 23 22 20 17 23 22 21 20 22 23 22 22 25 29 34 35 31 27 23 20 19 21 26 33 39 44 36 30 28 35 40 37 32 32 41 49 55 65 76 89 103 146 156 131 66 63 89 134 151 150 146 153 165 168 164 158 156 154 151 150 149 146 143 140 138 137 137 138 139 140 144 144 142 142 84 39 18 32 39 40 34 45 64 81 84 90 102 116 109 109 123 155 163 171 174 168 161 159 162 163 165 168 177 178 181 181 175 160 148 137 127 109 88 66 45 38 38 36 34 33 33 34 32 29 25 22 17 15 23 32 37 34 31 31 29 25 20 33 58 80 87 87 82 79 79 78 78 75 71 68 65 61 58 57 59 61 63 65 64 65 66 69 70 70 71 73 76 79 81 200 255 255
255 251 188 56 49 47 46 43 45 45 43 44 49 55 60 61 63 64 65 62 58 54 66 70 74 82 95 104 109 108 103 101 100 103 104 106 108 110 112 114 112 102 88 75 76 84 92 99 96 89 83 81 89 99 108 104 100 98 96 92 82 69 51 39 32 30 34 40 44 44 34 25 18 18 20 22 22 25 24 22 19 19 20 21 22 21 21 19 20 20 21 21 18 17 16 17 22 26 29 32 27 20 15 16 18 19 18 19 21 25 36 43 49 60 72 77 74 64 62 67 75 68 73 83 91 131 147 132 69 53 70 112 134 139 137 140 152 161 165 160 155 153 155 153 151 148 145 142 140 139 139 140 140 141 147 148 147 146 101 54 19 30 36 38 36 49 69 86 89 91 100 113 112 115 129 157 167 172 174 171 162 155 154 163 171 174 173 177 180 181 175 161 149 139 129 109 83 57 41 40 47 51 49 46 42 41 37 32 26 16 15 18 19 22 32 47 58 55 44 29 39 60 84 100 96 85 74 75 78 80 79 74 71 68 65 62 59 58 59 61 62 64 64 65 66 69 70 70 70 72 75 78 80 200 255 255
255 251 187 53 45 43 43 40 43 45 45 50 54 57 60 62 63 64 63 58 51 48 63 70 78 87 94 98 98 96 97 100 103 98 99 102 105 106 107 106 105 100 93 86 85 89 94 97 94 90 86 85 91 99 106 108 103 99 98 98 89 72 48 35 31 35 43 52 56 54 39 26 18 21 24 25 23 26 25 22 19 19 20 21 21 21 21 21 18 19 21 21 16 13 12 16 20 23 23 25 22 20 20 20 17 14 10 17 29 46 73 88 98 110 126 135 133 106 84 75 79 68 70 76 78 114 137 136 77 49 54 91 115 126 129 127 135 147 161 162 157 155 158 156 154 151 147 144 142 140 140 141 141 142 148 148 148 147 116 70 21 27 32 35 38 55 75 92 96 93 98 108 112 119 132 156 170 173 171 171 163 155 149 162 174 178 171 176 179 179 174 164 155 147 135 114 91 67 54 55 66 72 70 65 60 55 48 38 29 16 20 31 27 24 32 53 71 68 55 39 63 84 101 108 97 84 73 76 79 79 75 73 71 68 65 62 59 58 59 61 62 64 64 65 66 69 70 70 70 72 75 78 80 200 255 255
255 251 186 50 42 39 40 38 42 44 47 58 59 59 59 61 62 62 60 53 46 44 60 73 86 98 97 91 83 79 88 100 108 92 94 99 103 100 95 90 90 95 101 105 97 92 88 84 84 85 87 89 88 87 88 107 105 100 99 99 90 75 52 40 37 40 51 62 68 64 44 29 21 25 27 26 22 27 25 21 20 22 23 24 22 21 21 22 19 20 21 20 15 13 13 19 21 20 17 11 17 25 35 27 14 1 2 32 72 117 144 159 166 172 187 195 190 144 95 64 57 64 69 69 64 96 127 141 91 52 43 71 97 114 122 115 114 128 151 164 161 158 160 157 155 152 148 145 143 141 141 142 142 143 145 145 146 145 128 85 27 24 27 32 41 62 83 98 101 96 96 103 110 120 133 152 172 172 165 168 165 158 149 160 173 179 170 175 176 174 172 171 167 160 145 126 109 96 82 83 92 96 94 91 85 76 62 46 30 20 34 55 53 41 40 52 64 63 59 58 90 104 105 100 91 83 80 82 80 75 67 70 70 68 65 62 60 59 59 60 61 63 64 65 66 69 69 69 69 71 74 77 79 199 255 255
255 250 185 49 41 38 38 37 41 45 48 59 59 56 55 57 58 58 56 52 47 47 59 74 89 103 101 94 85 80 88 99 106 93 94 98 100 96 90 85 85 94 103 110 103 96 89 83 85 90 95 97 92 87 84 104 108 107 107 105 100 91 78 64 53 47 57 66 72 68 48 34 27 30 30 26 21 26 24 20 21 26 28 29 25 22 22 23 20 19 19 16 14 14 17 21 20 17 13 18 13 8 9 7 12 24 53 100 147 188 182 174 165 152 161 175 180 146 100 66 53 62 64 60 51 78 112 138 104 60 40 56 84 108 121 113 99 108 134 160 165 165 163 158 156 153 149 146 143 141 140 141 141 142 141 142 144 141 136 100 43 26 25 32 48 69 86 99 102 97 96 99 109 121 135 151 173 168 155 160 168 167 158 159 168 174 172 178 175 170 171 177 177 167 145 130 122 124 112 109 109 108 107 104 99 86 66 43 22 26 51 83 90 72 54 42 37 43 59 85 105 105 95 87 86 86 86 81 76 70 66 69 70 67 64 62 61 60 60 61 61 62 63 65 66 68 69 69 69 71 73 76 78 199 255 255
255 250 184 48 40 37 37 36 41 45 48 56 55 51 50 52 54 55 54 52 51 52 56 70 84 98 100 97 93 90 91 94 97 98 98 98 98 96 93 91 90 94 100 104 101 97 94 91 93 97 101 102 99 96 92 100 105 109 111 109 107 105 100 86 68 54 61 68 70 66 50 39 33 35 32 27 20 24 21 19 20 27 31 32 26 23 22 24 21 18 16 13 14 16 19 19 18 15 13 19 13 7 11 26 52 86 124 160 190 210 193 172 149 123 130 149 166 151 115 84 64 61 57 52 43 62 95 128 112 68 40 44 75 104 121 115 93 92 112 145 161 167 166 160 156 153 149 146 143 141 140 141 141 142 140 141 144 139 141 114 65 31 25 33 54 75 88 97 103 100 99 99 109 124 140 155 172 165 150 154 168 172 165 159 163 169 174 181 176 169 170 179 179 166 141 128 126 135 131 125 118 112 112 111 104 87 63 39 19 35 60 86 95 79 61 45 37 47 69 101 108 101 89 82 86 89 87 76 70 68 71 70 70 67 64 62 61 60 60 61 61 62 63 65 66 68 69 69 69 71 73 75 78 199 255 255
255 250 184 48 39 36 36 36 41 45 47 51 49 47 46 49 51 53 51 52 54 56 55 65 78 90 97 100 102 101 96 90 87 104 104 100 97 99 101 101 98 96 95 95 95 96 98 99 100 101 102 103 105 106 105 96 100 106 110 109 111 115 117 102 82 61 64 67 65 61 50 43 39 38 34 28 21 22 19 16 18 27 32 33 27 23 22 26 23 17 13 12 16 17 18 14 14 15 18 19 22 31 48 80 117 157 187 201 206 204 192 165 132 100 105 125 150 154 131 102 76 59 50 45 40 50 78 113 115 76 44 36 68 99 120 119 94 82 87 121 148 165 169 161 158 155 151 147 144 142 141 142 142 143 139 142 145 138 144 128 90 38 26 35 61 81 90 95 103 105 104 102 110 128 145 161 170 161 149 150 164 173 171 161 160 166 176 183 178 171 172 178 176 162 138 126 125 135 139 132 120 112 114 112 103 80 56 35 22 45 62 72 77 71 62 55 56 67 85 106 104 95 86 83 89 91 85 70 65 68 78 72 69 68 65 63 61 60 60 61 61 61 64 66 67 68 69 69 68 70 72 74 77 199 255 255
255 251 185 49 40 37 38 37 42 45 46 47 45 44 46 51 52 51 47 48 51 56 61 70 81 92 97 100 103 104 99 92 89 107 107 103 102 106 108 106 101 96 94 93 85 85 88 90 91 92 94 96 101 105 107 93 94 99 101 101 106 113 119 109 94 75 69 64 58 52 47 45 42 41 36 31 25 22 16 13 14 23 29 30 24 22 24 28 26 20 15 14 20 20 16 7 12 20 32 27 58 105 155 176 186 187 188 192 196 199 202 177 142 111 108 119 136 144 124 93 56 50 45 43 46 45 64 94 112 83 51 34 65 92 114 124 101 77 63 85 122 152 171 164 160 157 153 150 147 145 144 144 144 145 141 145 148 136 143 138 115 44 25 34 64 89 97 98 106 113 112 109 113 130 150 167 165 159 152 148 157 166 172 164 161 164 176 180 180 177 176 176 170 159 143 133 128 127 133 126 114 110 112 109 94 65 45 35 37 53 55 52 52 54 59 66 80 93 100 99 98 93 88 87 89 88 83 73 69 71 79 72 69 68 65 64 62 61 60 60 60 61 64 66 67 68 68 68 68 69 71 73 76 198 255 255
255 251 186 50 41 38 39 38 42 44 45 46 45 46 49 54 53 49 43 42 45 53 72 86 98 107 105 102 100 102 104 105 104 105 106 107 109 110 107 101 93 94 99 105 94 91 88 86 88 92 98 103 108 110 110 99 96 95 93 94 99 107 116 113 106 94 75 62 52 44 43 44 44 42 37 33 28 22 15 10 10 19 25 27 22 21 25 31 30 24 18 19 25 22 14 4 11 27 52 87 125 161 193 196 190 183 185 189 193 195 203 180 146 119 114 119 131 144 132 103 62 49 44 46 54 45 56 82 110 87 58 36 61 85 107 126 106 74 43 54 96 138 169 165 163 160 155 152 149 147 145 146 146 146 142 146 148 135 140 143 129 47 23 32 64 97 104 103 112 120 120 113 114 131 151 169 160 157 158 150 151 159 170 167 163 165 175 176 178 181 180 174 167 160 155 146 136 124 123 115 105 104 109 102 82 49 34 34 50 52 51 51 56 58 57 58 77 94 102 94 98 97 92 88 86 85 83 82 79 75 73 70 68 67 65 64 62 61 61 60 60 60 63 66 67 68 68 68 67 69 71 73 75 198 255 255
255 252 186 47 42 39 39 40 41 43 46 47 45 46 50 55 53 46 39 40 44 53 83 97 106 112 105 100 97 101 106 110 111 105 106 109 114 113 109 101 94 98 104 111 101 97 94 89 88 93 101 110 113 111 107 99 97 96 95 91 93 99 112 118 117 110 90 71 55 43 42 42 42 44 43 38 31 21 14 9 8 17 22 22 17 17 22 29 29 26 21 19 23 21 15 5 13 34 67 134 168 186 198 191 182 176 178 185 191 194 198 183 156 122 111 110 119 143 135 108 68 48 44 48 58 48 54 74 105 92 66 38 57 75 94 117 106 76 39 38 77 122 161 166 166 162 157 154 150 147 145 146 146 148 146 146 145 135 139 146 138 53 25 32 68 101 112 116 124 128 126 119 118 134 154 174 158 157 161 153 149 153 165 168 166 164 168 174 179 183 180 170 163 161 164 159 148 132 120 108 100 99 101 91 67 35 26 34 57 53 52 55 59 58 57 59 78 92 99 90 98 98 94 88 84 82 83 85 82 76 69 69 68 67 65 64 62 61 61 60 60 61 64 66 67 67 67 68 67 69 71 73 75 198 255 255
255 255 187 41 41 39 38 46 40 41 48 50 44 43 49 54 49 41 38 45 50 59 92 100 100 99 94 94 96 102 104 104 103 106 108 110 113 114 115 114 112 109 107 105 98 101 103 99 89 89 97 111 112 104 91 89 95 102 108 97 89 90 110 125 127 119 119 95 68 50 44 39 38 49 55 49 33 20 13 10 12 19 21 18 9 9 14 22 20 22 22 13 12 15 20 13 18 38 75 147 169 172 176 177 175 172 169 177 187 197 189 191 177 118 95 88 98 135 128 101 64 46 45 49 54 53 58 72 98 97 75 38 52 62 73 95 98 82 55 42 67 104 144 165 170 166 161 156 149 144 141 142 145 150 154 147 138 137 142 148 140 65 33 37 76 97 120 139 146 139 131 127 129 142 161 183 162 158 161 157 150 149 155 167 169 163 151 176 185 182 173 163 158 159 166 167 164 155 130 112 101 95 88 73 49 24 21 33 57 57 59 60 49 47 56 78 94 96 93 89 94 94 91 88 85 83 81 79 75 72 69 68 67 66 64 63 63 62 61 61 61 62 65 67 66 66 66 67 68 70 72 73 75 198 255 255
254 254 187 40 40 38 37 45 39 40 47 46 42 42 48 53 49 41 38 44 49 53 67 73 79 89 99 104 105 102 100 100 103 108 108 106 105 105 107 110 112 112 112 112 108 112 116 114 103 98 98 103 103 100 92 84 86 93 104 105 101 99 106 114 114 108 110 104 95 86 70 55 44 47 51 47 37 26 17 13 13 21 25 25 18 17 19 24 22 17 12 10 20 25 24 12 25 54 99 153 170 172 177 179 179 176 172 176 182 189 188 187 172 124 88 73 78 103 112 100 68 45 40 43 51 52 55 66 95 99 81 45 55 66 78 95 96 81 58 41 56 86 125 158 167 164 161 157 153 150 147 146 147 149 155 150 143 141 143 147 140 71 37 36 65 98 121 137 142 140 138 139 142 148 159 172 162 161 164 162 159 160 166 176 176 172 162 178 182 178 174 172 171 168 164 158 151 146 133 130 130 117 88 60 37 31 32 35 36 46 54 59 57 58 65 77 83 87 93 105 98 94 91 88 85 83 82 79 75 72 70 68 67 66 64 63 62 61 61 61 61 62 64 66 65 65 65 66 67 69 71 72 74 197 255 255
253 254 186 39 39 37 36 44 37 38 46 44 41 41 48 53 49 41 38 44 46 47 54 59 68 85 104 111 109 97 92 93 100 106 105 102 99 100 104 108 112 114 115 115 112 117 121 123 115 107 101 100 101 102 101 93 90 93 103 108 106 101 101 106 109 107 110 115 118 112 90 70 56 54 52 47 41 35 25 17 12 18 22 23 18 15 16 19 24 16 9 10 22 25 22 18 45 84 129 158 167 169 174 180 181 180 176 176 178 183 189 186 172 138 93 68 64 74 98 101 74 47 36 38 48 50 53 61 92 102 88 53 55 66 80 91 90 78 61 40 46 68 104 151 165 163 161 158 155 152 150 149 148 149 151 147 142 142 141 142 134 70 37 32 54 93 119 135 142 143 146 151 154 157 163 172 165 163 165 165 166 169 175 182 182 178 172 179 181 178 179 181 178 169 157 150 148 151 136 139 146 129 85 47 23 31 39 40 32 43 50 53 54 62 72 84 84 85 93 108 99 94 91 88 85 83 82 79 75 72 70 68 67 66 64 63 62 61 61 61 61 62 63 64 64 64 65 65 66 68 70 71 73 197 255 255
252 253 185 38 38 36 35 43 36 37 45 43 40 42 50 54 49 42 39 43 44 43 50 55 66 86 107 113 106 88 82 86 96 100 99 97 96 99 104 108 112 115 116 115 111 115 120 125 122 115 107 101 103 106 111 111 103 99 103 109 107 100 96 102 108 112 112 125 134 127 103 85 73 66 56 51 47 46 35 22 12 14 15 16 13 11 11 13 23 17 11 14 20 19 17 32 76 121 160 163 163 165 170 178 183 183 181 177 176 178 189 186 176 159 109 74 55 50 85 100 80 51 35 33 45 49 51 58 91 106 96 62 53 64 79 83 80 73 63 41 37 51 85 143 163 164 163 160 156 153 151 150 149 148 145 141 140 143 140 137 127 65 35 29 47 87 115 134 145 149 153 160 163 165 170 179 168 165 164 165 171 176 181 184 184 183 180 180 180 180 185 187 181 167 150 145 149 160 139 140 146 126 77 36 15 31 43 48 40 44 45 46 48 62 79 95 92 89 92 104 98 94 91 88 85 83 82 80 76 73 70 68 67 66 64 63 62 61 61 61 61 61 62 63 63 63 64 65 66 68 69 70 72 197 255 255
253 254 186 39 38 36 36 43 37 38 46 45 43 44 52 57 52 44 42 43 41 40 52 61 73 89 100 100 92 79 79 85 94 88 89 94 99 103 106 109 109 108 109 108 109 108 108 113 117 116 111 103 101 104 110 121 115 109 110 112 106 97 95 102 107 109 108 122 133 126 107 95 86 73 63 60 64 56 44 31 19 17 18 19 18 19 22 25 16 13 15 24 20 16 21 59 111 149 168 161 157 158 163 172 180 186 183 180 176 175 183 184 181 177 138 94 54 40 73 93 82 59 42 34 42 49 53 60 93 111 103 69 48 57 72 70 66 65 64 44 35 43 73 133 157 163 167 163 158 151 148 147 147 147 147 144 142 151 149 143 125 62 37 39 63 89 115 136 150 151 153 155 156 161 169 182 170 164 161 163 168 175 179 180 181 181 183 182 182 181 183 185 180 171 157 147 142 140 137 128 112 84 55 37 31 44 54 59 56 38 36 43 52 67 84 100 99 94 92 97 95 93 90 87 84 82 81 79 76 73 71 68 66 65 63 62 62 61 60 60 60 61 63 64 64 65 66 67 68 70 71 71 72 197 255 255
254 255 187 40 39 37 37 44 38 39 47 48 46 48 56 59 53 46 44 44 40 36 43 57 72 87 90 86 81 78 85 92 98 85 88 96 103 107 108 106 104 104 105 106 112 106 100 100 109 114 114 105 99 96 98 109 110 110 115 116 111 104 103 104 102 96 98 111 121 119 110 105 99 81 68 67 76 70 61 51 41 34 28 22 16 14 13 15 7 8 15 29 29 30 40 82 126 154 162 161 158 155 158 168 177 183 182 178 174 172 175 179 181 181 158 110 54 36 60 79 78 69 52 39 41 48 55 65 97 113 107 75 46 52 65 59 54 55 60 45 35 39 64 113 140 155 168 168 164 156 152 150 149 149 149 143 141 153 151 141 116 52 36 47 79 103 124 141 149 148 148 151 152 156 162 173 169 166 162 162 167 172 176 176 177 179 182 183 183 180 178 178 181 183 176 156 131 105 123 109 75 42 35 42 57 68 67 61 52 24 30 55 74 82 88 93 92 91 93 99 95 91 88 85 83 81 80 78 75 72 70 67 66 65 63 62 61 60 60 60 60 60 64 65 65 67 68 69 70 72 72 72 73 198 255 255
255 255 187 41 40 38 38 45 39 40 48 50 49 51 58 60 54 47 46 46 41 33 35 53 73 88 83 78 75 81 91 98 100 89 93 101 108 110 108 104 100 102 105 108 115 105 95 90 103 113 118 112 102 94 90 97 102 108 118 119 114 109 111 110 102 90 94 100 105 104 108 114 115 98 80 72 76 77 75 70 64 58 48 37 27 20 16 16 18 17 21 33 41 48 61 96 131 153 160 165 162 157 157 166 174 180 179 175 171 168 169 175 181 179 171 124 58 36 50 66 75 77 62 47 42 47 56 70 99 112 107 82 49 50 60 52 44 47 54 44 35 37 55 88 115 140 163 169 167 161 157 154 153 152 153 145 139 151 148 134 107 46 40 60 96 118 134 143 144 142 145 152 156 157 159 165 169 168 165 165 168 171 173 174 176 179 182 181 182 182 177 174 178 187 187 163 129 89 101 81 46 18 25 46 71 79 70 55 40 19 36 72 95 94 89 86 87 89 92 98 93 89 86 83 81 80 79 77 74 71 69 67 66 65 63 62 61 60 60 60 60 60 64 66 66 69 70 71 72 73 73 73 74 198 255 255
255 255 188 42 41 39 39 46 40 41 48 51 50 52 58 59 54 48 49 49 43 33 31 53 77 94 86 79 78 87 95 98 97 100 104 108 112 111 107 103 101 106 111 115 116 104 92 86 100 115 126 125 115 104 96 96 99 106 115 115 112 110 117 119 113 101 103 95 87 81 97 120 137 131 102 75 58 72 79 83 86 85 80 71 61 52 46 45 60 50 38 37 53 66 79 97 125 150 169 174 170 164 161 167 173 178 175 171 166 163 168 176 181 173 176 135 69 41 44 57 74 81 71 56 44 46 56 74 98 106 103 89 56 52 57 49 40 40 45 42 35 34 43 59 85 117 148 161 165 164 163 161 159 156 162 152 140 146 139 124 100 53 57 81 114 132 140 140 135 136 147 164 174 172 168 166 170 172 172 172 172 173 174 177 180 181 182 177 181 188 186 175 170 172 178 166 144 113 71 45 31 23 31 45 59 61 52 39 26 36 61 92 105 95 87 85 91 92 91 89 88 87 84 81 80 79 78 76 73 70 68 66 65 64 62 61 61 60 59 59 59 60 64 66 67 70 71 72 73 74 74 74 74 198 255 255
254 255 187 41 40 38 38 45 39 40 47 47 46 49 55 56 51 47 51 52 46 36 37 55 76 92 88 82 77 79 84 86 87 95 97 98 99 99 98 97 97 98 100 100 100 93 86 83 94 107 118 122 116 108 102 104 102 102 107 112 111 109 114 119 119 114 110 98 88 79 91 114 137 149 127 93 57 57 62 73 85 98 109 117 124 127 129 128 124 107 88 75 83 94 105 112 131 154 179 180 175 170 167 173 177 179 176 170 165 163 169 175 179 174 177 148 96 51 45 53 68 76 73 63 46 44 54 73 90 95 97 97 62 55 56 50 41 38 39 39 36 33 33 43 65 92 118 131 139 146 155 160 163 162 167 153 136 134 119 107 99 79 92 113 131 126 130 136 136 139 151 167 174 172 169 168 169 173 178 181 179 179 180 185 186 185 181 176 181 189 189 176 164 156 155 147 134 117 51 26 28 33 37 39 37 32 31 31 35 81 107 115 106 90 84 88 96 94 88 82 85 85 82 79 78 77 76 74 72 69 67 65 65 64 62 61 60 59 59 59 59 59 63 65 66 69 70 72 73 74 73 73 73 197 255 255
253 254 187 39 39 37 36 44 38 39 46 43 42 45 51 52 49 47 52 55 50 39 37 50 66 81 82 78 72 68 71 75 79 81 80 80 80 83 86 88 88 84 80 77 83 82 80 80 86 94 102 106 104 99 95 103 97 94 101 114 116 113 110 112 114 112 103 100 98 98 97 105 121 147 142 116 78 57 57 65 76 93 111 129 147 157 163 165 161 152 139 122 122 128 137 137 142 156 177 180 177 173 172 177 181 182 178 172 167 164 167 171 174 176 177 159 120 59 45 47 59 68 73 68 48 42 52 72 83 85 91 103 66 56 55 52 44 38 35 38 37 32 26 36 53 72 89 99 110 124 143 157 165 166 155 135 113 104 82 75 82 87 109 125 127 112 118 134 141 145 151 158 160 158 157 161 165 173 183 188 185 184 186 192 192 189 180 180 182 184 182 174 165 155 143 123 101 79 41 24 22 27 34 35 30 21 23 32 47 117 144 137 114 93 83 86 90 89 87 87 85 83 81 78 77 76 75 73 71 68 66 65 65 64 62 61 60 59 59 59 59 59 62 64 65 68 70 72 73 73 72 72 72 197 255 255
252 253 186 39 38 36 35 43 37 38 44 40 39 43 49 50 48 47 52 57 53 44 35 42 53 65 70 68 63 57 60 66 73 63 60 60 62 68 74 79 80 71 61 54 69 75 77 80 80 80 82 85 86 84 82 94 87 82 93 115 121 116 103 98 99 99 90 99 112 124 109 98 98 129 145 140 113 72 61 62 67 77 94 118 139 151 158 163 174 182 181 169 162 164 168 164 157 158 167 176 176 174 175 180 184 185 181 174 170 167 164 164 168 175 174 166 140 65 44 42 48 60 70 69 49 41 50 69 76 78 88 105 70 56 53 52 45 38 33 38 37 31 23 35 47 57 65 70 81 100 126 147 161 164 128 99 77 68 41 39 57 83 111 122 108 93 108 135 148 149 146 141 136 137 143 154 160 171 182 188 187 187 190 197 197 192 181 187 184 176 169 170 170 164 136 95 54 19 38 33 17 13 24 31 32 23 26 38 59 140 168 156 129 102 85 79 79 81 86 96 87 82 80 77 76 75 74 72 70 67 65 65 64 63 62 61 60 59 59 59 59 59 61 63 64 67 69 71 72 72 71 71 71 197 255 255
254 255 188 43 40 35 33 40 35 39 46 39 41 48 54 53 51 49 49 54 59 60 51 52 56 59 59 56 54 55 58 63 64 53 59 69 76 76 80 87 96 91 79 68 82 85 90 102 98 86 76 80 92 94 88 84 72 64 67 88 98 98 86 82 85 92 100 100 102 114 116 109 103 113 134 147 147 99 75 70 81 68 84 116 137 140 142 149 172 179 179 180 182 181 176 167 164 168 176 176 175 174 173 174 176 178 178 176 173 172 167 163 162 162 161 162 150 79 51 43 48 57 60 59 51 47 50 60 74 84 91 95 80 59 43 45 36 32 31 35 25 21 29 32 40 51 59 64 70 80 98 118 134 142 88 52 42 79 51 42 58 86 117 124 94 78 109 149 143 145 136 122 126 142 161 179 166 163 164 166 173 181 189 195 199 198 196 191 190 189 173 171 168 160 118 73 35 10 33 30 16 20 22 21 18 26 34 46 64 130 165 171 151 113 86 75 82 85 84 80 82 81 78 75 74 73 72 70 68 67 65 66 66 65 64 63 62 61 61 62 62 62 62 63 64 67 69 71 72 72 71 71 71 197 255 255
255 255 189 45 43 38 35 41 34 36 44 41 43 45 48 47 46 46 50 57 65 70 59 58 61 64 62 57 52 50 58 68 76 67 72 80 84 82 84 91 101 101 96 88 98 98 101 111 109 97 87 95 108 111 103 96 85 76 73 80 81 77 69 75 88 104 105 96 88 87 98 105 108 108 124 146 165 124 91 74 79 71 81 103 117 126 134 142 163 172 178 185 186 184 180 175 174 175 178 174 173 172 170 171 173 176 178 178 177 176 169 162 158 158 159 163 154 85 53 42 48 54 56 56 51 47 48 56 71 83 92 95 84 62 44 45 37 33 33 37 25 21 32 29 34 45 53 58 63 70 79 88 94 96 52 31 41 94 57 45 64 98 129 127 81 77 112 153 149 146 132 114 126 145 165 182 167 159 154 152 159 169 178 184 188 191 194 190 191 188 172 161 147 124 79 43 21 13 28 26 17 23 22 20 21 30 32 38 54 102 139 160 151 114 84 71 80 86 86 82 83 82 79 76 74 73 72 71 69 68 66 65 64 63 62 61 61 60 61 61 61 62 63 65 66 68 69 71 72 72 72 72 72 197 255 255
255 255 189 45 44 41 38 43 33 32 39 44 44 42 41 40 42 45 53 62 70 75 67 63 63 64 64 60 55 51 61 74 86 80 82 85 86 83 84 90 99 104 106 105 109 106 106 112 112 105 100 110 122 125 118 112 105 98 92 86 76 65 57 69 87 106 102 93 82 68 80 98 113 108 115 139 173 150 113 81 71 75 79 84 92 109 123 132 147 161 175 185 183 181 180 182 183 181 177 174 173 171 169 170 173 175 178 179 179 178 170 162 156 158 160 165 155 89 53 41 48 53 55 55 52 47 47 53 67 81 92 97 85 64 47 46 39 36 37 39 28 24 33 26 29 38 46 53 59 65 68 65 58 51 24 23 49 107 62 48 72 110 139 130 70 80 115 151 157 146 126 107 128 147 163 176 163 153 147 146 154 164 172 173 175 178 182 184 186 182 170 149 119 81 40 18 12 16 21 22 19 24 22 24 33 36 28 25 41 73 113 148 152 117 85 68 76 84 88 87 84 81 78 75 74 73 72 71 70 68 66 64 64 63 62 61 61 60 61 61 61 62 64 66 67 68 69 70 71 71 72 72 72 197 255 255
255 255 189 45 46 44 42 46 32 28 34 47 48 44 41 41 44 50 58 66 72 77 81 71 58 51 56 61 65 67 70 76 81 78 77 77 77 77 79 84 91 98 105 110 107 102 100 104 105 105 106 117 127 129 123 121 122 121 118 108 91 73 59 59 65 76 88 95 91 72 76 96 118 111 107 128 168 180 144 97 62 74 72 64 68 87 101 108 124 145 166 180 175 173 176 187 190 185 174 179 178 175 171 170 171 172 175 176 176 176 171 162 154 156 162 167 157 94 54 39 48 52 55 56 54 49 46 49 62 78 91 100 86 66 49 44 40 39 40 39 30 26 32 23 23 30 37 46 56 64 65 55 39 24 10 21 56 114 66 53 82 115 141 128 64 85 115 145 163 143 116 95 126 146 158 166 151 143 141 149 164 176 180 171 166 163 166 170 173 174 170 137 92 43 15 8 8 12 13 18 24 25 22 31 49 46 26 15 31 55 101 150 165 129 93 66 71 78 83 84 82 79 76 73 72 71 70 69 68 67 65 66 66 66 64 63 63 63 63 63 63 64 66 67 67 67 67 67 68 69 70 70 71 197 255 255
255 255 188 42 44 43 43 48 34 29 34 42 45 46 47 49 51 53 55 57 59 63 79 72 59 49 51 59 69 77 78 76 74 77 74 71 71 76 80 83 81 84 88 93 93 91 92 97 102 104 107 114 120 120 117 121 125 127 129 125 117 104 88 70 56 48 62 85 99 93 87 97 114 117 114 123 147 183 168 125 66 73 70 64 71 84 91 93 108 129 150 165 164 164 169 181 185 182 174 178 177 174 170 169 169 171 174 176 177 177 172 162 153 155 163 167 158 101 56 37 47 54 58 59 58 53 49 50 59 75 89 100 84 65 48 39 37 38 39 37 29 26 29 26 26 28 31 39 49 59 64 57 45 31 23 33 59 103 63 59 92 110 130 119 66 90 114 138 164 138 106 87 127 147 155 156 137 132 137 152 171 182 181 167 160 159 166 164 165 167 163 119 67 20 13 16 17 12 12 20 30 28 27 43 71 62 31 11 27 59 110 163 179 141 99 67 68 73 77 77 78 76 73 70 69 68 68 67 66 65 63 65 66 65 64 63 63 62 63 63 63 64 65 66 66 64 64 64 65 66 68 69 70 196 255 255
255 255 186 39 41 41 42 49 37 33 36 36 40 46 51 54 53 51 48 47 47 50 68 71 69 63 58 60 67 78 81 79 75 83 78 73 71 80 84 85 79 75 76 79 83 86 90 97 104 109 112 114 114 113 112 117 121 123 125 126 126 123 113 92 71 53 53 74 93 98 89 93 104 118 121 123 130 168 178 154 87 80 74 73 83 88 90 91 101 118 136 151 154 158 164 174 179 181 177 174 172 169 166 166 167 171 175 178 180 180 174 162 153 155 163 166 157 110 60 36 46 57 62 64 63 59 54 52 57 72 87 99 83 66 49 35 36 38 39 36 31 28 29 29 29 28 27 32 40 51 58 55 46 35 35 45 63 89 60 65 100 111 122 109 65 95 116 133 162 131 100 86 129 148 154 149 127 123 132 148 165 172 167 155 154 160 175 170 165 161 158 111 57 10 11 18 22 19 14 24 38 36 40 61 94 77 35 8 25 67 121 171 184 144 100 68 69 73 75 74 76 75 72 69 68 67 67 67 66 64 62 64 65 64 63 62 61 61 61 62 62 62 65 66 65 63 63 63 64 66 68 69 70 196 255 255
255 254 185 37 38 38 40 48 39 37 40 31 35 44 53 55 52 46 40 39 39 42 54 70 83 88 73 64 62 73 81 83 83 93 87 79 76 85 89 90 81 74 71 73 77 85 93 102 110 116 119 115 109 107 108 110 111 111 110 112 118 125 128 118 104 87 64 66 75 84 82 83 91 113 126 127 119 140 175 180 122 96 85 86 96 96 95 97 102 112 125 139 148 154 160 167 174 180 183 171 166 163 161 162 166 171 175 180 183 183 175 163 154 156 162 163 155 120 65 35 45 59 66 68 69 66 61 57 59 71 85 98 85 69 52 33 35 40 42 35 34 32 31 33 33 30 26 27 33 41 49 49 44 36 42 56 70 76 58 70 108 118 120 102 63 99 118 131 156 123 97 91 131 149 152 143 119 116 125 140 150 151 144 137 148 166 191 182 169 158 159 117 66 18 12 13 21 32 20 30 47 50 59 84 117 88 38 7 26 81 135 176 181 139 98 69 71 75 77 75 76 76 73 70 69 68 68 68 67 65 63 63 63 62 61 60 59 59 59 60 60 60 64 66 65 64 64 64 65 67 69 70 71 197 255 255
255 255 186 37 36 36 37 46 40 41 45 35 39 47 55 54 50 45 42 44 48 54 59 74 87 93 78 71 70 79 84 84 80 88 82 74 70 77 83 86 83 81 82 84 77 84 93 100 107 115 119 111 101 99 102 98 98 99 100 100 102 106 114 119 120 118 108 86 69 64 72 77 84 101 117 124 119 116 160 189 161 124 102 92 91 85 86 93 101 110 121 134 144 152 158 165 175 183 188 176 170 167 164 164 165 167 170 172 173 173 172 165 158 158 159 157 151 129 71 37 42 59 67 70 73 72 69 64 63 72 83 95 90 77 58 35 38 44 47 39 41 41 38 31 29 28 27 28 33 41 48 47 42 35 38 61 81 71 62 80 117 136 126 99 60 101 120 129 142 111 93 97 127 144 146 131 106 106 120 138 145 143 135 132 146 166 189 180 166 157 178 160 121 69 33 12 13 40 32 42 60 69 84 107 130 91 40 14 42 107 154 181 174 131 94 71 75 78 79 76 78 78 75 72 71 70 70 70 69 68 66 66 66 65 64 63 63 62 62 63 63 63 66 67 67 66 67 68 69 71 72 73 74 198 255 255
255 255 187 39 38 35 35 44 38 41 48 40 43 50 54 54 52 48 47 51 56 62 67 73 78 80 75 74 76 80 79 77 72 77 75 71 70 74 77 80 80 84 88 91 83 87 92 93 99 109 116 108 97 95 101 95 95 99 101 100 99 97 101 109 117 124 128 108 84 69 75 80 87 93 105 115 120 112 142 173 181 151 125 104 88 78 75 81 92 104 118 131 137 144 152 164 176 183 186 178 174 171 167 165 164 164 165 164 163 163 169 166 162 161 156 151 147 138 77 38 39 57 65 68 74 77 75 71 68 74 82 92 94 84 64 37 41 47 51 43 48 50 44 33 29 29 27 29 36 44 51 50 44 36 43 70 89 63 72 96 128 146 126 98 72 108 126 132 130 103 95 108 125 139 141 123 97 100 119 138 142 140 134 135 147 163 180 166 154 155 191 189 167 125 77 36 21 48 49 60 76 89 104 121 131 87 46 37 84 136 170 182 164 121 88 69 73 76 77 75 77 76 74 71 70 69 70 70 69 68 66 67 68 67 65 64 64 64 64 64 64 65 64 64 64 66 67 69 71 72 73 73 74 198 255 255
255 255 187 42 40 35 34 41 36 39 48 43 45 49 52 53 53 51 52 55 59 63 71 68 65 64 70 74 75 71 67 67 68 72 75 77 80 79 76 76 77 82 88 93 92 95 95 87 92 105 116 110 99 98 105 101 101 104 107 106 102 97 94 101 111 121 128 121 107 89 85 87 93 90 93 105 121 118 124 145 186 173 150 121 93 79 71 70 79 96 114 129 129 133 144 163 175 180 178 175 173 170 166 165 164 163 162 161 159 158 167 167 166 164 153 146 143 144 82 39 37 54 62 66 73 79 80 77 73 76 82 91 98 90 69 37 42 49 53 45 52 56 48 38 34 31 28 30 37 46 53 51 44 35 53 81 93 54 83 114 137 148 122 98 92 119 137 140 124 100 101 123 126 139 140 119 95 99 120 137 137 134 130 136 148 160 170 149 141 151 194 199 191 169 127 72 41 59 69 80 91 105 118 126 124 81 56 68 136 161 176 176 151 109 79 65 69 73 75 75 75 74 72 69 68 67 68 68 67 66 65 65 66 65 63 62 62 62 62 62 62 63 60 59 61 63 66 68 70 71 72 72 73 198 255 255
254 255 189 45 43 37 33 39 34 37 46 41 41 44 47 49 51 53 53 52 51 52 62 57 54 59 70 70 61 45 46 58 74 81 91 98 104 97 87 79 74 77 82 88 107 110 103 89 92 107 122 120 110 109 118 120 117 113 112 112 110 106 102 106 113 119 101 116 128 116 98 95 100 92 87 98 122 131 108 110 175 188 175 146 111 95 82 69 65 85 109 124 119 121 134 160 173 175 165 163 162 161 161 161 163 165 167 166 165 164 168 169 168 166 151 142 140 149 86 40 35 50 57 62 71 80 84 82 77 78 82 90 100 93 72 37 42 50 53 45 54 59 52 49 45 37 30 28 33 42 49 46 39 29 68 94 93 43 93 131 145 143 111 96 117 136 152 153 126 105 113 140 134 144 145 123 103 107 122 129 122 118 116 130 147 161 168 138 131 146 179 177 176 181 168 116 75 75 90 98 104 115 123 123 113 75 68 102 189 172 166 160 132 93 68 59 64 69 73 77 73 70 67 64 63 63 64 64 63 62 60 59 58 57 56 55 54 54 54 55 55 55 54 54 56 58 62 65 67 69 69 69 69 196 255 255
255 254 188 50 42 38 35 36 36 38 40 38 40 43 46 48 48 49 50 51 53 56 67 65 60 58 60 59 57 53 56 62 69 69 84 92 88 80 83 90 88 80 80 88 98 96 91 86 95 108 118 118 114 115 119 119 116 113 111 110 108 106 105 107 110 114 114 118 118 111 105 106 107 102 95 96 105 124 116 117 152 187 189 167 140 112 91 77 72 86 102 108 109 118 133 145 152 159 167 162 162 163 163 161 160 160 163 165 166 165 167 167 168 171 152 144 145 148 96 52 33 44 53 59 65 72 78 81 78 75 76 84 95 88 70 45 42 46 54 58 62 60 53 47 42 37 36 33 38 49 56 46 37 35 83 95 83 63 91 122 141 115 96 98 126 141 153 148 109 113 132 152 134 142 146 130 110 114 128 132 131 125 119 144 153 151 142 129 134 153 175 154 156 183 182 141 99 81 100 111 119 131 130 120 104 95 110 141 186 172 149 124 111 86 65 52 60 62 62 66 65 63 61 58 57 56 57 57 56 56 54 51 50 50 50 49 49 48 48 48 48 47 47 48 49 50 52 55 57 61 63 65 66 195 255 255
255 252 187 51 42 38 36 33 36 37 36 38 40 44 46 47 47 47 48 51 55 59 69 68 62 57 54 54 56 60 63 66 66 59 77 89 82 73 80 90 86 76 78 89 87 85 85 90 100 108 111 112 114 119 124 121 119 117 114 112 109 107 107 108 109 112 119 115 108 105 109 113 116 113 107 103 102 114 112 116 135 181 191 179 164 133 105 87 79 86 96 98 104 116 129 132 137 148 165 162 163 165 165 160 157 157 160 163 165 164 167 166 166 171 152 145 148 148 104 60 31 40 50 57 62 67 74 81 78 73 72 79 91 85 68 49 41 44 54 65 66 62 54 45 39 35 38 36 41 52 57 46 42 53 93 88 68 74 96 120 133 95 90 104 133 146 152 141 100 116 136 150 138 144 140 113 111 122 136 138 136 127 119 148 153 144 127 126 141 161 167 141 144 177 178 148 113 87 108 119 127 138 137 129 118 123 141 159 170 157 128 98 96 80 61 46 55 55 52 55 57 57 54 51 50 50 50 50 49 49 47 45 44 45 45 45 45 44 43 42 42 41 43 43 44 45 46 48 51 55 59 62 64 195 255 255
255 251 186 50 41 37 35 32 34 35 35 40 43 45 47 48 48 47 49 52 55 58 65 63 59 55 54 56 59 63 66 69 68 55 74 91 90 79 79 80 70 64 74 91 79 81 88 98 105 107 104 102 110 122 133 126 125 124 122 118 114 111 109 110 112 114 112 107 103 102 111 118 125 125 121 116 112 102 96 102 124 170 184 179 181 156 126 98 84 85 91 97 106 116 122 124 131 144 159 161 163 165 164 159 156 155 158 161 162 162 170 166 162 167 151 145 147 149 110 65 29 38 48 56 61 66 74 81 78 72 71 76 87 82 66 47 40 43 53 65 66 63 55 45 36 32 37 38 43 49 51 46 53 78 98 75 51 75 109 127 124 86 93 113 137 151 150 134 105 112 124 135 146 152 131 76 107 129 142 144 134 122 117 141 149 142 125 132 151 167 152 137 142 165 160 142 118 95 117 126 128 138 145 149 151 156 157 154 144 128 105 85 89 74 56 41 50 49 46 45 51 52 49 46 45 45 45 45 44 43 41 40 40 40 40 40 40 40 39 38 38 37 40 42 43 45 46 48 51 54 57 60 62 194 255 255
255 251 186 52 44 40 38 34 35 34 34 37 39 41 42 43 44 45 48 52 56 58 62 60 57 55 56 58 61 64 66 67 67 62 78 92 92 84 84 82 68 64 74 92 84 86 93 102 104 103 99 96 102 113 123 119 120 121 121 117 112 108 105 108 110 114 115 112 108 107 116 123 130 128 124 119 114 99 91 94 114 156 171 173 192 177 148 114 101 94 94 102 115 122 123 125 136 150 162 159 161 163 162 157 154 153 156 160 162 162 172 164 157 162 152 145 142 148 115 72 27 34 45 54 59 64 73 80 78 71 68 71 82 77 61 45 38 41 51 64 67 64 57 48 38 31 36 38 41 42 38 38 54 90 116 90 60 96 135 142 118 77 91 115 131 146 139 126 122 127 127 126 148 158 141 91 114 134 147 149 130 120 125 144 156 153 135 142 159 168 136 136 147 160 152 143 131 115 135 143 143 146 151 157 162 161 148 130 107 94 84 79 88 76 59 46 55 54 51 47 53 55 52 49 47 47 47 46 45 43 41 42 42 42 42 42 42 42 41 41 41 40 45 47 48 50 51 53 56 59 62 65 67 196 255 255
255 252 188 55 47 43 41 36 37 36 34 33 34 36 37 38 40 43 47 51 55 57 60 59 57 56 57 59 61 63 64 63 64 71 81 86 83 82 86 88 77 69 74 87 90 89 90 92 95 99 100 101 102 105 109 114 118 122 125 122 117 113 110 114 118 122 119 116 114 114 121 125 128 125 122 119 117 108 97 95 111 149 162 165 191 185 163 130 111 94 86 93 108 114 113 117 133 146 155 156 158 160 159 155 153 153 156 161 163 163 172 163 154 160 153 145 138 145 120 80 31 32 42 53 58 63 72 80 78 70 65 66 76 71 58 42 37 41 51 64 67 64 57 49 38 31 36 38 40 41 37 37 54 91 112 87 62 101 138 143 118 82 101 127 141 156 138 115 120 128 130 132 153 154 136 100 124 141 152 154 129 123 136 151 162 160 140 152 164 165 129 139 151 155 145 134 125 118 133 140 141 140 139 139 141 134 118 100 81 74 75 83 95 83 68 56 64 66 63 58 61 62 59 56 54 53 52 51 50 48 46 47 48 48 47 47 47 47 47 47 47 47 52 54 55 57 58 60 63 66 69 70 72 197 255 255
255 253 191 58 50 46 44 39 39 38 35 31 30 31 32 34 36 40 44 48 51 54 58 58 57 56 58 60 61 62 61 59 60 78 81 77 70 75 85 93 86 76 73 79 91 88 82 77 83 94 103 110 107 102 98 109 116 122 127 127 122 118 116 120 125 130 119 117 118 120 123 124 122 118 118 120 123 121 108 100 111 147 157 158 185 185 172 146 120 93 77 79 94 100 101 109 127 140 146 153 156 158 157 154 152 152 157 162 165 165 169 160 152 159 154 144 133 139 123 88 39 31 38 50 56 61 69 78 77 69 61 60 69 65 54 40 36 40 50 63 66 63 56 47 37 32 37 37 39 44 44 43 55 84 97 79 63 97 126 133 120 93 111 137 151 166 142 112 119 129 137 146 158 144 126 111 137 151 158 157 129 127 148 157 163 159 138 162 169 159 130 145 154 147 135 114 101 105 111 118 122 118 112 107 104 94 82 72 68 64 75 93 104 91 77 66 73 77 76 69 69 68 65 62 60 59 58 57 55 53 51 53 53 52 51 51 51 51 51 52 52 53 56 58 59 61 63 65 68 70 73 74 75 198 255 255
255 253 191 58 50 46 44 39 39 38 35 33 31 31 31 33 35 38 41 44 46 48 54 54 54 54 56 58 60 61 59 57 57 74 72 65 59 67 79 89 88 79 72 71 82 78 70 65 74 89 105 117 115 108 100 103 109 115 122 122 118 114 112 116 121 125 110 109 113 118 121 120 116 113 118 125 133 128 113 105 115 151 161 159 177 180 175 162 133 102 79 73 84 91 96 108 127 138 142 153 158 159 157 152 150 150 155 160 163 164 164 158 154 159 156 143 129 132 124 96 48 30 35 47 53 57 66 76 76 67 58 54 62 60 50 39 36 40 50 61 63 60 52 42 35 33 38 35 40 52 60 55 57 72 83 78 74 92 102 113 119 100 109 128 146 157 146 131 145 148 152 158 156 132 119 131 153 163 163 155 129 130 155 157 154 144 124 168 171 153 142 153 152 135 117 80 57 69 67 72 78 74 69 67 68 59 55 60 73 69 84 105 109 94 80 70 74 79 80 73 70 67 64 61 59 58 57 56 54 53 51 51 51 50 48 48 48 48 49 50 50 51 53 54 55 58 60 62 64 66 69 70 70 196 255 255
255 252 188 55 47 43 41 36 37 36 34 38 37 36 35 37 37 39 40 41 40 41 47 48 48 50 54 57 59 61 60 58 58 63 65 65 66 70 76 81 84 81 77 74 79 78 75 72 77 87 98 109 110 108 102 100 105 111 117 118 116 112 110 112 115 117 107 108 113 119 121 118 113 108 113 121 129 117 108 106 114 151 164 164 177 176 175 174 151 123 99 85 88 92 99 114 129 139 142 154 159 159 156 151 148 148 152 157 159 160 158 157 157 157 154 142 130 129 125 101 57 31 33 45 51 54 62 73 75 66 56 50 57 55 48 40 37 41 51 60 61 56 48 40 36 35 39 33 36 48 57 48 44 51 52 53 55 55 51 62 82 62 61 71 92 111 116 118 136 139 148 161 162 138 127 143 154 159 157 143 126 132 157 156 147 135 123 168 166 146 151 158 150 126 99 57 34 51 46 47 48 42 46 55 67 59 54 61 83 78 92 111 104 87 74 67 65 68 69 64 62 59 56 53 52 51 50 49 47 46 44 43 42 41 39 39 39 39 41 42 43 44 45 46 47 50 52 54 56 58 59 60 60 194 255 255
255 251 186 52 44 40 38 33 35 34 34 40 40 39 38 40 40 41 41 39 36 36 42 43 44 46 51 55 58 60 59 59 57 54 60 68 75 73 73 74 81 84 82 78 80 83 84 84 83 86 91 99 103 104 102 104 108 114 120 122 121 118 116 116 117 119 111 112 116 122 123 120 113 105 107 112 118 103 103 108 112 144 160 165 177 173 174 181 161 140 119 98 90 91 98 112 123 130 134 150 156 156 154 148 144 144 149 155 157 158 154 158 160 153 149 141 132 128 125 105 64 31 32 44 48 50 59 70 73 65 54 47 53 52 46 40 39 43 51 58 57 51 42 39 36 35 39 33 34 42 48 38 34 42 41 46 49 41 33 48 76 57 50 56 77 91 91 88 100 113 133 157 162 143 129 136 149 154 151 132 126 136 159 157 144 134 134 166 160 142 156 160 147 117 78 42 26 45 43 40 35 27 38 58 78 67 60 66 94 87 99 114 97 79 68 64 57 60 61 56 55 53 50 47 46 45 44 44 42 41 39 37 36 35 33 32 32 33 35 36 38 39 40 42 43 46 48 50 52 54 54 54 55 192 255 255
255 251 186 50 41 37 35 32 34 35 35 39 39 39 39 41 42 43 42 39 35 33 39 40 41 43 48 52 56 58 58 58 56 49 58 71 82 76 70 69 80 88 87 80 87 93 96 96 90 87 87 92 96 98 99 113 118 123 129 132 134 133 131 130 130 130 121 120 122 126 127 123 116 105 101 101 103 91 101 111 109 130 147 160 176 170 172 183 163 151 135 109 90 84 90 101 107 112 119 141 149 150 149 143 141 141 148 154 158 158 151 159 163 147 143 139 136 131 126 106 69 32 31 43 46 47 56 68 72 64 53 45 50 49 45 40 40 44 51 57 53 46 37 38 36 34 39 34 33 36 35 27 30 49 59 63 64 59 59 80 111 95 89 96 115 108 79 50 48 78 112 144 154 141 124 113 140 152 148 125 130 144 161 159 145 139 156 163 153 142 157 159 142 107 53 32 32 49 55 51 40 28 45 72 97 80 68 73 106 95 103 114 88 72 65 64 54 55 57 53 52 50 47 44 43 42 43 42 41 40 38 36 35 34 32 31 30 31 33 35 37 39 42 44 45 48 50 53 55 56 56 56 56 192 255 255
255 253 188 52 42 38 36 34 36 37 36 32 31 32 34 38 40 43 44 41 37 34 41 42 43 43 46 50 52 54 53 53 51 46 53 65 74 68 63 65 82 89 82 70 90 96 96 93 88 89 92 100 102 100 97 105 109 113 119 124 127 129 129 128 128 127 123 121 121 125 129 128 124 113 104 99 96 90 108 119 104 113 128 147 171 167 170 182 170 167 157 129 101 92 95 101 102 107 115 133 140 142 141 138 137 140 149 157 162 163 152 161 165 141 137 138 141 134 127 107 71 31 30 42 44 45 54 66 71 63 53 44 48 48 45 42 42 46 52 55 51 42 32 33 29 28 37 39 40 41 35 35 49 85 101 100 94 95 101 120 142 120 116 123 140 143 115 85 96 126 133 115 97 107 126 147 156 163 160 133 142 154 163 161 144 142 169 161 153 148 155 153 134 93 27 19 32 44 60 59 47 35 53 80 103 81 68 78 119 102 105 114 83 70 68 72 60 60 62 60 57 55 52 49 48 48 48 49 48 47 45 44 42 41 39 38 37 38 40 43 44 46 50 53 55 58 60 63 64 65 65 65 65 195 255 255
255 254 189 51 44 38 35 38 38 37 36 32 31 32 33 37 39 41 42 41 38 37 41 43 44 45 48 51 53 55 54 54 54 52 56 61 62 60 63 71 83 85 81 74 82 89 95 98 95 95 96 101 103 102 101 102 108 114 119 121 125 129 133 131 127 122 122 121 121 124 128 130 128 121 114 110 106 92 100 108 104 107 115 131 159 166 170 171 171 174 167 138 107 97 99 103 101 103 111 117 125 133 139 140 142 145 151 157 158 157 152 157 160 144 138 138 140 135 124 105 76 38 31 38 43 48 53 60 65 61 53 43 48 48 43 39 42 46 52 53 49 42 37 33 32 33 39 38 37 39 45 60 82 112 122 121 118 122 127 129 127 111 120 134 143 150 134 115 121 149 148 119 87 92 104 110 126 153 170 147 146 157 172 161 143 142 172 163 149 142 159 153 124 73 22 19 36 56 74 65 45 44 64 89 106 83 80 94 126 104 101 106 88 79 76 75 67 66 67 66 65 63 61 58 57 57 57 57 55 54 52 53 52 51 49 49 48 49 50 52 53 55 59 62 63 66 68 71 73 74 75 75 75 198 255 255
254 255 190 49 47 39 33 43 39 36 36 34 34 34 35 37 37 38 39 40 40 41 41 43 44 46 49 51 54 56 58 58 60 62 63 60 53 55 65 77 82 80 81 83 75 81 91 101 102 101 99 99 100 103 104 103 110 117 121 120 121 127 136 133 126 117 121 121 121 122 126 129 131 129 126 124 121 99 89 89 100 105 107 115 142 163 169 160 168 175 169 142 112 102 102 104 100 100 107 103 112 125 138 142 145 148 152 153 152 149 150 152 153 148 140 137 136 134 120 102 80 46 33 34 42 51 54 55 58 58 53 41 47 45 40 37 42 48 51 50 47 44 43 36 37 42 42 34 32 37 57 84 107 123 120 125 132 139 138 121 94 88 112 134 135 141 138 133 131 154 158 139 105 98 88 65 83 123 157 148 144 159 184 164 144 143 171 165 147 136 166 155 114 53 27 27 43 73 91 72 42 53 76 99 111 88 94 110 128 103 95 97 96 91 85 79 76 75 74 74 74 73 71 68 67 67 67 65 63 61 59 62 63 62 61 61 61 61 62 63 63 64 67 70 71 74 76 79 81 83 85 85 86 202 255 255
254 255 190 49 47 39 33 43 39 36 36 34 34 34 35 36 37 38 39 40 40 40 43 42 41 40 41 43 48 53 60 64 68 71 71 67 59 58 66 75 79 78 81 86 85 84 84 88 95 98 98 94 94 97 101 103 108 113 113 110 111 117 126 127 123 116 122 123 123 124 128 131 133 132 131 130 127 113 92 77 78 91 99 107 125 147 160 165 162 170 171 151 122 109 104 101 97 98 106 104 111 122 131 132 135 138 143 147 149 147 147 148 147 142 135 132 132 131 117 99 78 46 33 34 42 51 54 55 57 57 52 41 40 39 38 41 48 52 53 49 46 44 45 38 39 42 40 36 35 41 58 75 91 100 90 101 119 134 132 111 81 74 101 124 129 124 123 126 128 151 161 155 134 132 128 111 73 66 79 97 135 171 194 172 152 149 174 166 155 152 174 150 104 46 32 38 55 79 103 84 52 59 85 109 125 97 96 107 122 100 97 103 106 101 95 90 89 89 88 85 84 83 81 78 77 77 77 75 73 71 69 70 70 70 70 70 70 70 72 73 73 74 77 79 81 83 86 89 91 93 95 95 96 205 255 255
254 255 190 49 47 39 33 43 39 36 36 34 35 35 35 36 36 37 38 39 39 39 42 41 39 38 38 40 45 51 58 63 66 68 70 67 60 58 64 72 77 79 84 93 102 94 85 82 92 98 99 92 91 94 100 103 109 114 117 115 116 121 128 127 121 115 123 124 124 125 127 130 134 135 136 135 133 125 101 79 71 80 87 94 111 136 157 168 162 171 177 165 138 118 105 95 90 91 99 104 111 119 125 126 128 132 140 146 150 152 144 142 140 134 128 126 126 125 112 95 75 46 34 33 41 50 54 54 56 56 51 42 38 37 40 45 50 51 48 41 39 39 42 42 44 46 45 44 46 52 64 73 79 82 80 97 120 135 133 117 92 88 111 128 127 113 116 127 129 148 162 166 155 155 152 143 106 79 65 80 98 117 138 161 168 172 180 160 154 159 173 136 86 37 34 45 61 78 107 90 56 61 88 116 134 101 94 100 115 96 97 108 113 107 100 94 95 95 94 89 91 90 88 85 84 84 84 83 81 79 77 76 75 75 75 75 76 76 78 79 80 81 83 85 87 90 93 96 99 101 103 104 105 207 255 255
254 255 190 49 47 39 33 43 39 36 36 34 35 35 35 36 36 37 38 39 39 39 39 39 38 38 39 41 44 48 53 56 59 63 66 66 60 56 60 68 72 75 83 95 114 104 90 82 90 96 97 91 90 92 100 107 114 119 122 121 123 126 131 130 125 119 124 126 126 127 127 130 134 137 138 137 136 133 115 94 80 77 77 82 102 131 156 171 163 172 181 176 151 128 109 94 88 89 95 103 109 115 120 121 124 128 137 145 152 156 142 137 133 126 121 119 121 120 107 91 72 46 34 33 41 50 54 53 55 55 51 42 37 37 41 46 49 48 43 36 35 37 42 42 43 44 45 47 52 58 65 68 69 68 76 95 116 126 125 116 104 105 121 127 115 101 111 128 131 145 159 172 168 166 163 159 135 107 86 98 83 73 81 139 166 174 170 150 152 163 166 121 71 31 36 49 63 74 108 92 58 61 89 120 140 103 92 96 112 96 100 114 119 111 102 94 97 97 95 89 93 93 91 88 87 87 87 86 84 83 81 79 78 78 78 78 79 80 82 84 85 86 88 90 92 94 98 101 104 106 108 109 110 209 255 255
254 255 190 49 47 39 33 43 39 36 36 34 35 35 35 36 36 37 37 38 38 38 35 36 38 40 42 44 45 46 46 46 47 56 63 64 59 55 57 62 64 67 75 90 117 112 97 86 88 91 92 90 91 93 99 116 123 127 128 126 126 128 133 135 133 129 127 128 129 128 127 129 133 137 139 138 136 136 132 123 106 84 71 73 99 132 158 172 163 171 180 181 160 138 116 100 93 92 95 101 105 109 114 117 121 126 135 144 153 159 141 132 126 118 114 113 115 114 103 88 70 47 35 32 40 50 54 53 54 54 50 42 38 38 41 45 47 46 41 35 36 39 45 36 34 36 39 43 49 55 59 60 59 58 74 92 103 100 101 105 110 118 124 116 91 89 106 127 132 139 153 171 173 166 160 159 149 137 133 154 103 59 43 107 137 146 138 138 151 164 154 106 61 30 37 50 62 71 105 92 60 62 90 121 143 104 91 95 115 101 106 120 125 114 101 92 96 96 93 86 90 91 89 87 86 86 86 85 83 82 80 79 78 78 78 79 80 81 83 85 86 87 89 91 93 95 99 102 105 107 109 110 111 209 255 255
254 255 190 49 47 39 33 43 39 36 36 35 35 35 35 35 35 36 36 37 37 37 34 35 37 39 41 42 43 44 43 43 44 55 64 65 61 56 56 58 56 57 63 75 99 102 97 90 83 81 84 91 95 96 98 123 128 126 121 116 114 116 125 133 137 138 133 133 133 132 130 130 134 139 140 139 135 139 144 143 131 106 87 81 96 126 156 177 162 163 170 173 161 146 128 117 111 107 104 97 98 103 109 113 117 122 128 136 144 150 139 130 122 111 108 108 110 109 98 84 69 48 35 31 39 49 54 53 52 52 49 42 35 34 37 43 48 50 48 42 41 43 46 35 33 37 41 46 50 54 57 60 63 67 74 85 92 81 83 93 109 119 121 108 79 77 94 116 127 134 150 172 180 171 163 162 144 136 143 176 140 98 65 80 83 93 119 142 163 169 142 94 57 37 40 51 65 78 107 97 70 69 91 120 143 105 92 98 122 113 118 129 131 119 106 96 99 100 98 93 91 90 88 86 85 85 86 85 84 82 80 80 80 80 81 82 83 84 86 88 89 90 91 93 95 97 100 103 106 108 110 111 112 210 255 255
254 255 190 49 47 39 33 43 39 36 36 35 35 35 35 35 35 36 36 36 36 36 35 35 36 35 36 37 38 42 43 45 47 51 59 62 59 55 55 58 57 57 62 73 84 92 96 93 83 79 83 95 101 101 100 117 122 122 119 116 115 117 122 128 132 134 134 137 138 137 133 133 136 142 143 140 135 142 148 151 144 126 109 96 94 116 148 180 165 162 164 169 164 153 138 128 121 113 103 96 97 102 108 114 118 121 124 130 137 143 138 128 118 106 102 103 105 104 93 80 66 48 35 31 37 49 54 53 50 51 48 42 34 32 36 42 48 51 49 43 40 40 42 38 39 43 47 51 52 52 54 59 66 74 76 86 93 79 81 93 110 119 119 108 85 78 89 108 125 133 151 173 186 176 165 163 151 144 145 168 148 123 99 89 71 68 94 136 164 169 129 82 51 39 38 48 65 83 107 99 78 74 89 115 139 105 92 97 121 119 123 129 129 120 109 101 101 103 101 98 94 92 90 88 87 87 88 88 86 85 83 84 85 85 85 86 87 88 90 91 92 93 94 96 98 100 103 106 108 110 112 113 114 210 255 255
254 255 190 49 47 39 33 43 39 36 36 35 35 35 35 35 35 35 35 35 35 35 37 36 34 31 30 31 34 40 45 49 51 46 51 55 53 52 55 60 62 63 69 77 74 83 93 96 87 83 88 101 107 107 102 105 109 114 120 122 124 124 123 123 122 123 131 138 141 141 136 135 139 145 145 141 135 144 148 149 146 142 131 116 96 107 138 179 171 164 161 167 167 158 145 135 126 113 97 97 99 103 110 117 122 123 124 128 134 140 137 127 114 101 97 98 101 99 89 76 63 49 36 30 36 48 53 52 49 50 48 43 34 33 37 43 48 50 47 41 39 40 43 51 55 56 58 59 56 53 52 59 68 78 79 91 100 87 88 98 113 116 116 110 98 88 90 102 124 135 153 174 190 180 167 162 163 154 145 148 141 138 137 123 91 66 67 118 154 162 115 69 43 39 35 45 62 85 104 99 82 75 84 108 135 104 91 94 117 119 122 124 123 117 110 104 103 103 102 101 97 94 93 90 90 90 91 91 89 88 86 88 89 89 89 89 90 91 92 93 94 95 96 98 100 102 105 107 109 111 113 113 114 211 255 255
254 255 190 49 47 39 33 43 39 36 36 35 35 35 35 35 35 35 35 34 34 34 37 36 34 31 30 31 33 38 43 48 49 42 45 48 46 46 53 61 65 69 76 83 74 81 91 97 94 95 98 104 107 104 99 92 96 107 119 127 131 129 124 118 113 111 124 133 138 138 134 133 137 145 145 139 133 140 144 144 142 144 143 133 109 110 130 165 168 162 159 166 170 163 150 139 127 110 90 96 100 104 112 120 125 127 126 131 138 144 137 124 110 96 92 94 97 94 84 72 60 49 37 30 35 48 53 51 48 48 47 45 37 36 39 44 46 45 43 43 52 63 74 85 85 82 79 75 69 61 57 61 71 81 84 97 107 91 92 100 112 107 105 103 97 101 97 99 122 137 153 171 188 179 164 156 160 158 152 147 143 149 165 172 140 91 40 77 119 143 102 60 40 41 36 43 58 78 96 94 81 72 77 101 134 110 95 94 110 116 116 114 112 112 111 107 101 97 96 97 96 95 93 91 91 91 92 92 91 89 87 88 88 87 87 87 87 88 90 91 92 93 94 96 97 100 101 103 105 106 107 107 107 208 255 255
254 255 190 49 47 39 33 43 39 36 36 35 35 35 35 35 35 34 34 34 34 34 36 36 36 35 35 36 36 39 40 42 43 47 51 50 45 43 49 56 61 64 70 78 75 79 86 93 98 101 102 100 98 94 92 92 96 102 109 113 115 114 113 112 113 115 120 127 132 134 130 130 135 143 143 137 129 133 141 145 141 140 143 142 128 120 127 146 155 151 148 161 170 166 154 145 133 115 93 92 94 98 106 115 123 126 127 133 141 148 138 123 107 92 89 90 93 90 80 68 57 49 37 30 35 48 53 51 47 47 46 45 39 38 39 42 43 43 46 58 82 108 131 141 139 131 124 116 107 97 90 91 97 106 106 115 120 100 102 111 123 112 105 99 95 105 96 91 117 134 150 165 186 178 165 154 159 161 160 156 149 146 150 169 162 130 73 51 84 126 96 59 44 49 43 48 58 73 91 92 81 70 75 101 140 121 106 100 111 117 115 110 108 112 114 111 101 94 91 93 93 92 91 88 88 89 90 90 89 87 85 84 83 83 82 82 82 83 84 85 85 86 88 89 90 93 94 96 97 98 99 99 99 206 255 255
254 254 189 51 47 40 35 41 39 36 36 36 36 36 36 36 36 35 35 35 35 35 35 35 36 37 38 38 38 38 38 38 39 50 54 52 46 42 46 52 56 60 66 73 75 76 79 87 97 100 98 94 91 90 90 96 97 98 100 103 104 104 104 106 110 116 118 123 129 134 131 128 128 134 136 130 121 128 138 144 140 139 142 144 137 128 126 132 142 139 137 150 164 166 160 152 138 119 97 92 93 97 104 112 117 121 124 131 139 146 135 120 105 90 87 87 89 86 76 66 57 49 38 31 36 48 52 51 48 48 47 44 37 37 40 43 40 42 52 77 105 134 159 166 164 158 152 146 138 130 124 124 127 132 130 133 131 114 118 128 136 124 112 103 98 106 98 92 116 134 149 162 182 178 167 155 156 163 169 168 156 145 141 161 169 153 108 44 60 103 91 65 53 55 50 54 62 73 97 98 84 71 73 94 128 121 113 111 119 117 112 107 107 114 116 110 95 88 86 85 86 85 84 82 81 82 83 82 81 80 78 76 75 75 74 74 74 73 74 75 75 76 78 79 80 82 83 84 85 86 86 86 86 202 255 255
255 252 188 55 47 43 41 37 38 37 36 37 37 37 37 37 37 37 38 38 38 38 35 34 34 34 34 34 35 37 38 39 41 48 48 48 47 46 47 49 54 62 68 73 71 67 68 79 90 91 87 86 92 97 99 100 97 95 97 105 108 107 100 97 99 105 119 123 129 143 142 129 115 117 122 119 109 129 134 135 139 143 144 140 133 128 127 128 133 130 128 132 148 161 167 158 138 118 101 101 103 106 110 111 111 112 116 123 130 134 126 114 101 90 87 86 85 80 72 65 59 50 39 33 37 47 51 51 52 52 49 40 31 35 44 49 36 40 61 96 111 123 138 136 139 144 148 148 149 150 153 155 154 151 150 144 137 135 144 150 150 139 125 115 110 106 105 110 124 140 154 165 176 178 172 156 152 164 178 180 165 154 152 163 160 148 126 63 53 72 84 78 67 55 54 62 72 81 118 117 93 72 69 75 87 100 113 126 138 114 105 106 108 118 116 100 80 79 80 72 73 73 72 71 70 70 69 68 67 67 66 65 64 63 62 61 60 59 59 60 60 60 63 64 65 66 67 67 68 68 67 67 67 196 255 255
255 252 188 55 47 44 42 37 38 38 37 37 37 37 37 37 37 37 38 38 38 38 35 34 34 34 34 35 36 37 38 39 41 46 47 47 47 46 47 49 53 59 64 68 64 59 60 71 81 83 81 85 94 101 105 104 100 96 96 102 104 104 99 98 103 109 116 118 121 128 127 123 119 124 129 127 120 125 125 125 129 134 136 134 130 127 128 131 132 130 129 128 133 141 150 153 142 127 111 105 106 107 110 111 111 113 116 123 130 134 120 107 96 86 86 87 86 80 71 63 58 50 40 34 38 47 51 51 52 52 49 41 35 35 40 46 39 44 62 85 94 105 122 114 116 123 127 127 126 128 135 142 147 149 151 149 145 146 151 154 152 145 137 132 130 117 112 117 132 147 159 168 179 180 173 157 153 161 172 171 159 152 153 165 165 156 139 79 56 54 55 57 56 52 48 49 55 63 89 89 75 66 70 78 88 99 111 125 138 118 109 106 105 116 114 96 71 66 64 56 60 60 59 59 58 57 56 55 54 54 54 54 54 53 52 51 51 50 50 51 51 51 51 51 52 54 55 56 57 57 56 56 56 192 255 255
255 252 188 55 47 44 42 37 38 38 37 37 37 37 37 37 37 37 38 38 38 38 35 34 34 34 34 35 36 37 38 39 41 44 45 46 47 47 47 49 53 57 61 64 63 59 59 67 75 76 75 80 92 101 105 107 103 97 95 101 103 103 99 101 107 114 115 116 116 115 114 117 123 131 135 135 131 122 118 118 121 126 128 129 126 126 128 131 129 130 130 126 122 125 135 146 144 134 119 109 107 108 108 109 109 111 115 121 128 131 113 100 91 84 86 87 87 79 70 61 55 50 41 34 38 47 51 51 52 52 49 42 38 35 36 43 42 49 63 77 79 89 108 94 94 101 106 105 103 105 114 126 136 142 143 146 148 151 152 150 148 144 142 141 141 123 118 123 138 153 164 171 181 182 175 160 156 159 164 161 153 150 155 167 169 164 152 93 58 40 33 42 49 51 41 39 45 57 76 80 75 75 82 89 94 97 106 118 132 122 113 106 104 117 116 97 67 58 55 47 51 52 52 51 50 50 49 48 47 47 47 47 47 47 45 44 44 44 44 45 45 45 45 46 47 49 50 51 52 53 53 53 53 191 255 255
255 252 189 56 48 45 43 38 39 39 38 38 38 38 38 38 38 38 38 38 38 38 35 35 35 35 35 35 36 37 38 39 40 43 44 46 47 48 49 50 52 55 59 61 66 63 62 68 72 71 70 76 89 98 103 108 104 99 96 101 103 103 99 103 110 117 115 116 114 105 104 113 127 137 138 139 139 121 115 114 115 120 123 125 123 123 126 129 125 128 130 126 117 116 124 139 142 137 124 111 107 106 105 105 106 108 112 118 124 127 106 95 87 82 84 85 85 77 68 59 53 51 42 35 39 47 51 51 53 53 50 43 40 35 33 40 44 53 65 73 69 75 95 77 76 82 87 83 81 82 93 108 121 130 129 136 143 150 147 142 138 139 141 142 142 125 121 127 143 157 167 174 183 184 177 163 160 158 157 152 148 149 157 168 172 170 164 102 59 32 21 35 47 51 36 34 42 62 79 86 89 95 102 105 102 96 99 108 121 124 118 106 103 119 122 102 68 56 52 45 49 50 50 49 48 48 47 47 46 46 45 45 45 45 43 42 42 42 42 43 43 44 45 47 48 50 52 54 55 56 57 57 57 193 255 255
255 253 189 56 48 46 44 40 41 41 40 39 39 39 39 39 39 38 38 37 37 37 36 36 36 35 35 35 36 38 39 39 40 41 43 46 49 51 51 52 53 54 56 59 67 65 64 70 75 73 72 78 92 100 103 106 102 97 97 103 105 105 102 102 107 114 112 116 116 106 105 116 130 135 131 132 136 123 117 116 116 120 123 123 120 120 121 122 118 122 126 126 119 118 122 131 133 130 123 110 104 102 100 100 102 105 110 115 119 121 104 92 85 79 82 83 82 74 65 58 53 53 44 37 40 48 52 51 53 54 51 44 37 34 34 41 43 52 67 75 71 73 87 73 70 74 74 69 66 68 78 90 101 109 108 117 129 138 135 131 128 131 133 133 130 122 122 130 145 160 169 174 182 185 180 165 164 160 154 148 147 152 159 168 171 171 167 99 60 40 35 47 55 53 38 41 56 84 99 106 109 116 121 119 109 98 96 100 110 122 116 103 100 121 127 110 75 62 58 53 55 56 56 55 55 55 54 53 53 53 52 52 52 52 50 50 50 50 50 51 51 52 54 56 57 60 62 64 66 67 68 68 69 196 255 255
255 253 190 57 49 47 45 41 42 42 41 40 40 40 40 39 39 39 38 37 37 37 37 37 37 36 36 36 37 38 39 39 40 41 43 47 50 53 54 54 54 55 55 56 58 57 59 68 74 75 75 85 98 106 107 100 95 93 95 103 107 106 100 98 100 105 104 112 116 110 110 119 129 128 120 121 128 121 118 117 118 123 126 126 122 118 117 117 114 115 117 120 121 121 121 120 122 123 125 111 104 101 98 98 101 105 110 113 116 117 105 94 86 78 78 78 76 70 63 58 55 54 45 38 41 49 52 51 53 54 51 44 35 35 38 44 40 48 64 79 75 73 79 69 66 66 63 58 56 58 66 74 81 84 88 99 113 123 124 125 127 132 132 129 123 124 128 135 150 163 170 173 180 183 179 167 167 163 155 150 151 155 162 167 168 167 164 95 62 51 51 59 63 58 46 52 68 94 104 108 110 116 121 119 110 99 96 99 109 117 110 98 96 119 128 114 79 67 65 61 61 61 61 60 60 60 60 59 59 59 59 60 60 60 59 58 58 59 59 60 60 61 61 62 63 66 68 71 73 75 76 77 77 199 255 255
255 253 190 57 49 47 45 42 43 43 42 41 41 41 40 39 39 39 38 37 37 37 38 37 37 36 36 36 37 38 39 39 40 40 43 47 51 54 55 55 55 55 56 56 50 50 55 66 73 75 77 89 101 108 107 94 89 89 93 102 106 105 97 92 93 96 95 105 114 114 116 122 126 119 111 111 119 119 117 116 118 125 129 129 125 120 116 115 113 110 109 113 120 122 119 111 112 118 128 112 105 102 98 99 103 107 112 115 116 115 106 96 85 76 74 72 70 65 61 58 57 56 47 39 41 49 52 51 53 54 51 45 35 36 43 48 38 43 61 83 78 72 73 64 60 58 53 48 48 51 58 61 63 61 70 81 94 106 112 119 125 133 132 127 119 129 135 142 157 167 172 172 178 181 178 167 169 166 159 154 156 159 165 167 165 162 158 92 64 60 61 66 66 62 56 62 75 92 101 104 104 109 114 114 108 98 96 99 109 113 106 95 95 119 128 115 82 73 72 68 68 68 68 67 67 67 67 66 66 66 66 66 66 66 65 65 65 65 66 67 67 68 67 68 69 72 74 77 79 81 82 83 83 201 255 255
255 253 191 58 50 48 46 43 44 44 43 42 42 42 41 40 40 39 38 37 37 37 39 38 38 37 37 37 37 38 39 39 39 39 42 46 51 54 55 56 56 56 57 57 49 49 56 67 72 73 75 85 96 101 98 90 86 86 91 100 104 102 93 88 87 90 88 96 107 116 121 123 121 110 105 106 112 116 115 115 117 126 131 133 130 124 120 118 116 110 105 107 117 119 115 104 106 117 132 116 108 104 100 102 107 114 119 120 119 116 106 95 84 74 70 67 64 61 59 58 59 58 49 40 42 49 52 51 53 54 52 46 38 40 47 50 38 42 60 84 79 69 66 56 52 49 44 41 41 45 51 51 49 44 55 64 73 85 97 109 120 129 130 126 120 136 145 152 165 172 173 171 176 179 177 168 169 168 164 161 161 163 166 167 163 158 151 93 68 64 62 64 65 65 64 67 71 77 91 96 95 99 105 107 103 96 96 100 109 111 106 98 99 120 128 115 86 79 79 75 76 76 76 75 75 75 75 75 75 75 75 72 70 69 69 69 69 69 70 71 71 72 73 74 75 78 80 83 85 87 88 88 88 202 255 255
255 253 191 58 50 48 47 44 45 45 44 43 42 42 42 40 40 39 38 37 37 37 40 39 39 38 37 37 37 38 39 39 39 38 41 45 49 52 54 55 55 56 57 58 55 57 61 71 73 70 70 79 88 91 89 96 94 91 93 100 103 101 94 91 92 97 95 97 105 118 126 124 118 109 109 110 113 121 120 118 120 128 134 137 135 131 128 126 124 120 117 119 122 122 116 107 108 115 124 114 108 104 101 104 110 118 122 123 120 116 103 90 80 70 67 64 61 59 58 58 60 59 50 41 43 50 52 51 54 55 53 47 42 42 46 50 43 50 69 87 79 70 68 56 51 50 47 43 42 44 48 48 46 42 49 53 58 65 78 91 103 111 116 118 120 136 145 151 164 171 171 168 174 179 179 172 168 167 168 166 163 162 164 166 164 159 150 92 67 62 60 63 64 64 61 62 65 71 86 92 94 100 107 108 103 94 93 97 107 108 105 101 103 121 125 112 87 84 84 79 81 81 81 81 81 81 81 81 81 81 81 76 73 73 72 72 72 73 74 75 75 76 78 81 82 85 87 89 90 92 93 93 93 204 255 255
255 253 191 58 50 48 47 44 45 46 45 43 42 42 42 40 40 39 38 37 37 37 40 39 39 38 37 37 37 38 39 39 39 36 39 43 47 50 52 53 54 56 57 58 57 59 64 72 72 68 67 77 87 89 88 106 104 99 97 101 102 100 96 96 101 107 105 103 106 121 130 126 116 110 115 116 116 128 127 124 124 131 138 141 140 137 135 134 132 132 133 134 132 128 121 113 111 112 114 111 106 103 100 105 112 120 124 124 120 114 98 85 76 66 64 62 60 58 57 58 60 60 51 42 43 50 52 51 54 55 53 47 46 44 44 50 50 61 80 91 80 72 75 59 55 56 53 48 45 45 47 48 47 45 50 50 49 52 64 76 87 94 103 111 120 133 141 147 161 167 167 165 173 180 182 177 166 166 170 170 164 161 162 166 166 161 152 91 65 61 61 64 65 61 54 55 62 74 80 85 90 100 108 110 104 93 92 96 106 102 100 100 103 117 120 106 85 84 86 80 82 83 83 83 83 83 83 84 84 84 84 80 78 77 77 77 77 78 79 80 80 81 83 85 86 89 91 93 94 96 96 96 96 205 255 255
255 253 191 58 51 49 47 45 46 46 45 43 43 43 42 41 40 39 38 37 37 37 40 40 39 38 38 38 37 38 39 39 38 35 37 41 45 48 50 51 53 55 57 58 57 59 62 70 69 67 67 77 88 91 92 114 113 105 101 101 102 102 99 103 110 116 117 112 112 123 132 128 118 114 121 124 123 136 136 132 130 135 140 143 144 142 141 141 139 142 147 150 145 137 129 120 114 108 103 108 105 102 101 105 112 120 125 123 118 110 93 80 72 63 61 60 58 56 56 57 59 60 52 43 43 50 52 52 55 55 53 48 49 45 43 50 57 72 90 95 83 77 82 65 61 64 64 60 56 52 52 52 52 50 55 51 44 47 56 65 72 80 90 103 120 128 134 141 155 161 164 164 172 179 183 181 166 166 172 172 164 160 160 167 168 163 151 87 61 59 63 67 67 58 47 50 62 80 75 77 86 98 108 111 105 94 91 95 105 95 93 96 99 111 112 99 82 82 85 79 82 82 82 82 82 82 82 83 83 83 83 82 82 81 82 82 82 83 83 84 85 86 87 87 88 91 93 95 96 98 98 98 98 205 255 255
255 252 189 58 50 47 45 43 45 46 45 42 41 41 41 40 40 40 39 39 39 39 39 39 39 39 39 39 39 39 39 39 39 38 39 41 43 45 48 51 54 57 59 60 66 63 59 60 64 66 67 67 72 77 86 103 103 99 103 91 96 107 104 113 116 112 117 125 129 125 122 125 130 130 131 136 146 146 144 142 140 140 139 139 141 142 144 146 144 142 143 148 152 149 139 122 111 106 106 111 111 110 113 114 114 115 123 124 117 104 91 80 69 58 55 54 53 53 54 57 60 56 51 46 45 48 54 58 61 57 53 48 45 46 50 56 63 74 87 94 91 84 79 70 69 74 83 93 97 93 81 69 59 53 58 49 39 51 53 55 60 70 76 92 122 129 134 138 145 156 167 175 171 169 172 182 171 172 177 171 166 163 162 168 171 162 134 77 55 55 58 62 64 59 53 53 59 68 73 78 84 94 104 109 108 100 94 91 92 92 92 94 100 108 109 101 88 83 83 88 86 85 84 83 82 81 81 82 83 84 85 84 84 84 85 85 85 86 86 87 87 88 86 86 89 93 96 99 102 103 103 103 102 207 255 255
255 253 190 59 51 48 46 42 45 46 46 43 42 42 41 41 41 40 40 39 39 39 39 39 39 39 39 39 39 39 39 39 39 38 39 40 41 43 46 50 53 56 58 60 64 63 62 62 65 67 68 69 72 74 79 97 101 100 100 94 98 106 111 119 120 118 119 124 127 122 120 125 133 133 130 132 139 144 144 142 140 138 137 138 141 143 146 148 147 146 147 150 151 148 141 130 120 114 111 116 114 110 112 111 108 107 114 117 113 101 88 77 66 56 54 53 53 52 52 54 57 54 52 49 47 49 52 56 58 56 54 51 46 48 54 61 67 74 81 85 84 80 77 82 86 92 104 117 123 121 109 96 86 81 75 58 44 53 50 50 54 63 67 82 112 126 135 139 142 152 163 174 169 165 168 180 170 172 176 169 166 165 164 170 175 165 132 75 53 53 57 62 63 61 56 57 62 69 78 83 86 94 102 106 105 98 92 89 89 94 97 99 105 110 109 103 93 88 88 93 89 88 87 85 84 84 84 85 85 86 87 86 85 86 86 86 86 87 88 88 88 88 89 90 92 95 99 101 103 103 103 103 102 206 255 255
255 253 190 59 51 48 46 42 45 46 46 43 42 42 41 41 41 40 40 39 39 39 39 39 39 39 39 39 39 39 39 39 39 38 39 40 41 43 46 49 52 55 57 58 59 62 65 67 65 66 69 75 77 76 75 93 100 101 96 100 101 104 119 122 124 126 124 122 121 118 121 126 133 134 130 126 125 141 143 140 136 135 136 138 141 144 147 148 148 151 152 152 147 143 141 139 134 127 119 124 118 111 109 108 103 101 105 109 108 99 84 73 63 55 54 54 54 52 51 51 53 53 52 51 50 51 51 53 54 54 55 55 50 51 57 65 72 77 78 77 77 79 83 96 104 111 124 136 142 141 132 124 118 115 102 80 61 59 52 49 49 57 59 71 98 122 135 141 143 149 158 169 169 166 169 178 169 171 175 168 166 165 165 172 177 166 133 74 52 52 56 61 62 61 58 60 66 73 84 88 89 94 100 102 101 94 90 89 90 97 101 105 109 111 108 102 96 92 92 94 91 89 89 88 88 88 88 88 88 88 89 87 86 87 87 87 87 88 89 89 89 89 92 94 96 98 101 102 103 103 102 102 101 206 255 255
255 253 191 60 52 49 47 43 46 47 46 44 43 43 43 42 42 42 41 41 41 40 40 40 40 40 40 40 40 40 40 40 40 38 38 39 40 42 44 47 50 53 55 56 54 61 67 68 62 62 67 80 84 82 77 87 97 101 92 105 103 101 124 124 126 133 134 126 117 116 123 128 132 136 135 128 120 141 143 138 134 133 135 139 142 144 145 144 148 153 155 151 142 138 141 149 148 140 130 136 127 116 111 110 105 100 100 103 103 97 79 68 61 54 55 55 54 52 50 49 50 51 52 53 54 53 52 51 52 55 59 62 55 56 62 72 82 85 84 79 83 91 103 111 117 126 138 149 154 154 149 145 145 146 140 118 93 78 62 51 44 47 49 60 83 117 137 145 147 148 154 166 171 171 172 176 169 171 174 166 165 165 165 172 175 163 128 69 48 50 54 57 59 59 58 62 68 75 87 91 91 93 96 97 96 91 90 91 95 98 103 108 110 106 101 96 94 93 92 90 91 91 91 92 93 93 93 92 92 92 91 90 89 90 90 90 90 91 91 92 92 92 96 99 100 102 103 103 103 102 101 100 99 206 255 255
255 253 192 61 53 50 48 44 47 48 47 45 44 44 44 43 43 43 42 42 42 41 41 41 41 41 41 41 41 41 41 41 41 38 38 38 39 41 43 46 49 51 53 55 56 60 62 61 59 60 66 78 85 87 86 82 90 98 95 106 105 104 121 121 123 130 140 129 116 115 122 125 126 135 140 137 129 142 143 139 135 136 138 141 143 143 141 139 144 147 147 143 137 138 144 153 153 148 140 150 141 129 124 124 118 110 105 104 102 96 78 67 60 53 54 54 55 52 51 50 51 50 51 53 55 55 55 54 55 57 60 61 54 52 56 67 80 85 83 77 82 94 109 115 121 129 140 148 152 152 149 150 152 155 163 149 125 106 85 65 49 43 47 60 82 108 128 140 144 144 150 163 172 173 172 171 169 172 175 166 164 164 164 169 169 154 117 67 50 53 57 58 60 60 61 65 70 76 85 88 88 91 94 96 95 92 92 95 101 99 102 108 108 101 95 91 93 93 91 87 90 91 92 93 94 95 95 94 93 93 92 92 92 93 93 93 93 94 94 95 95 95 97 99 100 101 102 102 102 101 100 99 98 205 255 255
255 253 192 62 55 52 50 45 47 48 47 45 45 45 45 44 44 44 43 43 43 43 41 41 41 41 41 41 41 41 41 41 41 38 38 38 39 40 43 46 48 49 51 53 58 58 56 56 60 63 68 73 80 86 90 79 85 95 102 106 108 110 117 120 121 124 138 126 113 114 122 123 122 131 141 142 136 141 140 138 137 139 142 144 145 143 139 136 140 139 137 134 135 140 147 154 153 151 148 157 150 139 137 138 132 121 112 107 100 91 78 68 59 53 52 53 54 52 52 51 53 51 51 53 54 55 56 55 55 56 56 56 54 52 53 63 77 84 84 77 82 94 109 115 121 130 140 145 147 148 148 152 156 160 168 162 148 131 110 85 62 46 49 62 82 96 114 132 138 138 145 160 172 173 170 166 169 173 175 166 165 165 164 168 165 146 107 67 54 57 61 62 62 62 64 67 72 77 82 84 86 90 93 95 94 92 93 97 104 101 103 108 107 99 92 88 93 94 92 87 89 90 91 93 94 95 96 95 94 93 92 93 94 94 95 95 95 96 96 97 97 97 97 98 99 100 101 101 101 100 99 99 98 205 255 255
255 254 193 63 56 53 51 46 47 48 47 46 46 46 46 45 45 45 44 44 44 44 42 42 42 42 42 42 42 42 42 42 42 39 39 39 40 41 42 45 47 48 50 52 61 56 51 52 65 71 72 66 70 77 87 77 81 93 111 107 112 120 114 119 119 116 129 119 110 115 124 123 121 126 138 143 140 136 135 137 138 142 146 148 148 144 139 135 137 131 126 125 135 144 151 151 150 151 153 159 154 147 148 149 143 131 121 111 98 85 78 69 60 52 51 52 53 52 53 54 57 54 52 52 52 53 55 56 54 51 48 46 54 54 53 60 74 82 85 79 83 92 104 111 120 128 136 140 143 144 147 153 158 163 159 159 159 151 135 111 81 55 55 65 79 82 99 120 130 132 141 157 171 171 167 161 168 174 176 167 167 167 168 169 163 142 98 67 59 63 67 66 66 65 67 70 73 76 79 81 84 89 94 96 95 92 93 97 104 102 105 107 105 98 91 89 94 96 94 89 88 89 90 92 93 94 95 94 93 93 92 93 94 94 95 95 95 96 96 97 97 97 96 95 96 97 98 98 99 100 100 100 99 206 255 255
255 254 193 64 58 55 52 47 48 48 47 48 48 48 47 47 47 46 46 45 45 45 43 43 43 43 43 43 43 43 43 43 43 40 40 40 41 42 43 44 46 48 49 51 60 54 49 54 71 79 76 61 58 63 74 75 81 94 115 109 116 126 116 120 119 111 120 117 115 123 133 134 130 128 133 138 139 129 129 133 138 143 146 147 146 144 141 139 135 129 124 126 139 149 153 149 146 148 153 153 150 149 153 152 145 134 126 116 100 82 76 68 58 50 50 51 52 52 53 56 59 56 54 52 50 51 51 52 50 46 43 40 46 46 45 51 65 75 81 81 84 90 99 106 115 123 131 135 138 142 148 154 158 159 147 153 163 163 155 135 103 67 59 59 61 72 91 113 125 132 144 162 173 173 170 166 168 172 174 167 169 172 173 173 164 139 93 62 55 61 65 64 62 61 63 65 68 68 76 81 85 91 96 98 95 90 91 95 102 100 100 101 98 93 89 87 90 92 91 88 87 87 88 90 91 91 92 92 92 92 91 91 92 92 92 93 93 93 94 94 94 94 94 94 94 95 96 97 98 99 100 101 101 206 255 255
255 254 194 65 59 56 53 48 49 48 47 49 49 49 48 48 48 47 47 46 46 46 44 44 44 44 44 44 44 44 44 44 44 41 41 41 42 43 44 45 47 48 49 51 58 53 50 54 69 75 72 58 54 57 66 74 82 92 109 107 115 124 120 121 118 111 120 122 123 128 137 140 136 129 127 131 136 126 128 133 139 141 142 141 140 139 139 139 137 134 132 135 145 151 153 149 147 148 150 148 148 150 155 151 144 136 134 125 109 87 75 65 56 49 50 52 53 52 52 54 56 55 53 53 51 51 50 50 51 50 49 49 50 49 51 56 66 74 81 83 86 89 93 105 115 122 128 132 136 140 147 152 154 152 145 153 163 161 162 149 123 86 73 65 55 68 87 107 120 130 144 162 173 173 172 170 167 170 172 166 170 173 175 173 160 132 83 55 50 57 62 61 59 58 60 62 63 62 73 79 84 90 95 96 94 90 92 97 105 98 95 93 91 89 88 87 87 87 87 87 87 87 87 88 88 89 90 91 91 92 92 92 92 92 92 93 93 93 94 94 94 94 95 96 96 96 97 98 99 100 101 101 102 207 255 255
255 254 194 65 59 56 54 49 49 48 47 49 49 49 48 48 48 47 47 46 46 46 44 44 44 44 44 44 44 44 44 44 44 42 42 42 42 43 44 45 47 48 49 51 56 53 50 53 62 65 65 57 55 57 64 73 82 89 98 105 112 118 124 122 116 111 124 129 130 129 135 139 138 126 120 122 133 127 130 134 140 140 137 134 131 133 135 138 140 143 145 148 150 152 152 151 150 149 147 146 149 152 157 150 142 137 142 137 123 97 74 61 54 49 50 52 54 52 52 52 53 52 53 53 53 52 51 50 54 57 62 67 70 71 75 80 83 87 91 93 95 95 95 108 118 124 130 132 136 141 148 150 149 145 146 154 160 152 160 156 140 108 95 82 63 69 83 101 114 125 142 160 169 169 170 172 166 168 171 166 169 172 173 170 154 123 71 49 48 56 63 62 60 59 61 63 62 60 71 77 82 88 93 94 93 90 94 101 109 100 93 88 86 88 90 89 86 85 86 89 88 87 87 87 87 88 89 90 91 92 93 93 93 93 93 94 94 94 95 95 95 96 97 98 98 98 97 98 99 100 101 101 102 207 255 255
255 254 195 66 60 57 54 49 50 49 48 50 49 49 49 49 49 48 47 47 47 47 44 44 44 44 44 44 44 44 44 44 44 44 44 44 44 44 44 45 47 48 49 51 54 53 51 49 49 51 53 57 62 65 68 72 81 86 84 102 108 110 128 120 113 113 129 135 133 124 125 130 132 118 108 113 128 131 134 139 142 138 133 126 123 125 129 134 143 152 160 162 155 151 150 155 155 151 144 146 152 157 160 149 141 139 151 151 137 111 73 56 51 48 51 53 55 52 50 49 49 48 51 54 56 55 53 53 58 69 80 91 118 129 133 135 131 127 124 122 120 117 112 120 126 131 135 137 139 144 150 149 145 139 148 153 152 137 148 155 153 132 124 111 88 72 77 92 103 116 134 152 159 161 163 168 164 167 169 164 167 169 169 163 145 111 57 47 51 61 67 67 66 65 68 69 68 65 69 73 78 84 89 92 91 91 97 106 117 105 96 89 87 93 95 94 90 87 89 94 90 88 87 86 86 86 87 89 92 93 95 96 96 97 97 98 98 98 99 99 99 99 100 101 101 100 99 99 100 100 101 101 102 207 255 255
255 254 195 67 61 60 57 52 51 49 47 51 50 50 49 48 48 47 46 46 46 47 46 46 46 46 46 46 46 46 46 46 46 46 45 45 45 44 44 45 47 48 50 51 53 54 53 52 52 54 56 60 62 65 67 71 74 76 75 86 93 99 112 112 112 113 123 127 127 121 123 128 132 123 115 116 125 127 130 134 138 135 131 125 123 125 127 132 142 153 160 162 152 147 147 155 156 152 145 142 148 156 161 155 150 147 151 151 147 134 87 60 48 47 54 55 54 56 60 59 52 49 52 53 49 52 54 57 69 90 103 105 122 129 133 138 145 149 151 147 141 134 129 124 131 142 148 145 143 143 148 150 150 146 148 150 152 148 154 157 155 145 138 131 120 79 68 77 100 114 126 136 148 156 163 174 168 170 170 165 174 177 171 158 143 111 53 53 57 63 67 67 66 65 67 71 74 76 77 76 75 78 86 93 97 95 98 103 110 98 91 86 83 85 87 89 89 88 88 89 87 88 88 88 87 84 83 85 89 94 99 99 98 99 101 102 102 103 103 102 102 102 102 102 103 103 103 103 103 101 100 100 99 206 255 255
255 254 195 67 62 61 59 53 52 49 47 51 51 50 49 48 48 47 46 46 46 47 47 47 47 47 47 47 47 47 47 47 47 47 46 46 45 44 44 45 47 48 50 51 53 54 54 54 55 57 59 61 62 64 65 69 68 68 68 74 83 92 102 109 113 116 120 123 124 121 124 129 133 127 121 121 127 125 127 130 133 132 128 124 122 123 125 129 141 151 156 156 147 142 143 153 157 155 149 142 148 156 163 160 156 153 153 155 156 152 103 71 52 49 57 60 61 72 85 89 83 80 74 62 44 50 56 64 72 90 99 95 106 113 120 131 143 152 158 157 151 145 139 129 136 148 155 150 145 143 148 151 152 148 147 149 152 156 158 158 156 152 147 143 138 89 68 72 99 112 120 126 143 152 161 173 169 169 169 165 176 179 172 156 138 105 51 55 59 63 66 66 65 64 65 70 76 81 81 77 74 76 85 93 99 98 98 100 103 94 88 85 82 82 83 86 88 89 88 87 87 89 90 89 87 83 80 82 86 93 99 101 101 102 104 105 106 107 106 105 105 104 103 102 103 104 103 103 102 100 99 98 96 205 255 255
255 254 195 68 63 62 60 54 53 50 48 52 52 51 50 48 48 47 47 47 47 47 47 47 47 47 47 47 47 47 47 47 47 48 47 47 46 45 45 46 48 49 50 51 53 53 53 54 55 56 58 60 62 63 64 66 64 63 63 69 77 88 101 110 117 121 122 125 126 123 125 130 135 130 124 125 132 127 127 128 128 127 124 121 119 120 121 124 139 147 149 147 140 137 139 149 156 158 156 147 151 159 164 161 158 156 159 162 164 162 121 89 67 59 65 71 79 100 124 138 140 138 118 85 46 50 62 71 66 68 68 65 74 86 101 117 127 135 143 149 149 147 143 135 140 149 154 150 146 146 152 153 150 144 146 148 151 155 157 158 157 154 150 147 144 101 79 78 98 110 118 126 143 150 155 164 165 165 166 164 172 175 171 155 129 94 49 52 56 60 64 64 64 63 64 68 73 78 78 76 75 77 84 91 96 97 98 99 100 93 89 87 85 85 86 87 89 90 90 90 89 90 91 90 87 83 80 81 85 90 96 102 104 105 107 108 109 109 108 107 106 105 102 100 101 101 100 100 99 97 96 96 95 204 255 255
255 255 196 70 65 64 62 55 54 52 50 53 53 52 51 49 49 48 48 48 48 48 49 49 49 49 49 49 49 49 49 49 49 49 48 48 48 47 47 48 49 50 50 51 53 53 53 54 55 56 58 60 61 63 64 66 63 61 60 64 71 82 95 106 115 120 122 124 125 122 124 129 133 129 125 127 134 129 126 124 123 122 122 122 122 123 123 124 137 143 144 145 142 142 144 148 154 157 158 150 153 157 159 156 153 152 157 161 165 164 140 119 104 100 105 110 115 130 147 157 159 164 152 123 76 67 71 76 65 64 66 70 57 64 81 97 104 111 120 131 138 140 137 131 135 143 148 147 148 152 159 160 157 151 150 150 153 155 156 157 158 156 155 153 151 118 96 89 104 116 128 140 157 160 159 160 162 162 161 165 167 169 169 153 115 77 48 51 54 58 63 65 66 65 66 68 71 76 74 74 77 80 83 87 92 96 98 97 95 91 89 89 90 89 89 89 90 91 92 94 92 92 93 92 89 85 82 82 85 88 93 100 102 103 105 106 107 107 105 104 103 101 100 98 98 96 95 95 94 93 93 93 93 203 255 255
255 255 196 71 67 66 63 56 55 53 52 54 53 53 52 50 50 49 49 49 49 49 49 49 49 49 49 49 49 49 49 49 49 49 49 49 49 48 48 49 49 50 50 51 53 53 53 54 55 56 58 60 61 63 64 67 65 62 60 62 68 76 88 98 107 113 119 123 124 121 122 127 130 126 123 127 135 130 126 123 120 120 122 126 129 130 129 129 137 141 143 146 149 151 151 149 151 153 155 152 154 156 156 151 148 148 153 158 162 162 155 145 138 136 138 137 136 141 149 153 154 164 166 151 106 86 84 91 86 88 91 94 69 68 76 85 89 95 104 116 124 129 130 128 132 141 146 147 150 155 161 162 160 155 154 154 155 156 157 157 158 158 158 158 156 130 107 95 108 121 136 153 171 170 164 159 161 161 159 166 164 165 168 149 103 64 49 52 56 60 64 67 68 68 68 70 73 75 72 74 80 83 83 85 89 96 98 96 90 89 89 91 92 91 91 89 90 91 94 96 94 93 94 93 91 88 85 85 87 90 93 98 99 100 102 103 103 102 100 99 98 96 98 98 97 94 93 93 92 91 92 92 92 203 255 255
254 255 197 74 70 68 65 58 57 56 55 55 54 54 53 51 51 50 50 50 50 50 50 50 50 50 50 50 50 50 50 50 50 50 50 50 50 50 50 50 50 51 51 51 52 53 53 53 54 56 57 59 61 62 64 68 67 64 62 63 66 71 80 89 96 102 115 121 122 119 120 124 127 123 121 125 134 131 127 122 118 120 125 131 136 137 136 134 136 137 140 147 154 157 155 149 147 147 149 154 156 156 152 146 144 145 151 156 159 159 165 164 162 160 156 148 140 138 139 141 144 154 169 168 127 103 101 114 116 120 123 123 99 88 83 79 82 87 95 104 112 119 123 126 133 142 148 151 152 155 158 160 159 156 157 158 158 158 158 158 159 160 161 161 161 139 115 100 109 123 139 158 178 176 168 160 163 160 158 167 163 163 165 143 93 55 52 55 58 62 66 69 70 71 72 73 75 76 71 75 83 87 84 84 87 95 97 94 87 87 89 92 94 93 92 90 89 92 95 98 95 94 95 96 94 92 91 90 92 93 96 96 96 97 98 99 99 98 96 95 94 92 96 97 96 93 92 91 90 90 91 91 92 203 255 255
253 254 198 76 73 71 67 60 59 58 57 57 56 55 54 53 52 51 51 51 51 52 52 52 52 52 52 52 52 52 52 52 52 52 52 52 52 52 52 52 52 51 51 51 52 52 52 53 54 55 57 59 60 62 63 66 66 65 64 65 66 69 75 81 86 92 111 119 121 118 119 122 125 121 119 124 134 133 129 124 120 122 127 134 139 140 139 136 132 132 135 141 148 151 150 144 142 142 145 154 155 154 149 144 143 147 155 160 162 161 167 169 167 157 144 131 123 122 129 139 150 155 166 164 127 114 121 142 144 143 141 139 138 122 101 83 84 89 95 99 105 112 120 130 140 149 156 156 154 151 148 149 149 149 159 162 162 160 159 159 159 161 162 163 164 147 122 102 105 114 129 148 171 172 167 162 165 161 159 169 165 162 160 133 84 51 57 58 60 63 67 70 72 73 74 75 76 77 73 77 85 89 86 86 88 94 96 93 86 85 87 91 94 94 93 91 90 92 95 98 96 96 97 98 98 97 96 96 97 98 100 98 97 98 100 100 100 100 98 96 95 93 97 98 97 94 93 92 91 91 92 92 93 204 255 255
252 253 199 77 75 72 68 61 61 60 59 58 57 56 55 54 53 52 52 52 52 53 53 53 53 53 53 53 53 53 53 53 53 53 53 53 53 54 54 53 53 52 52 51 51 51 51 52 53 54 56 58 60 61 62 62 63 64 64 65 67 69 73 78 81 87 107 116 119 118 120 124 127 123 121 126 137 135 131 126 122 124 127 132 136 135 133 130 127 127 128 130 132 133 134 135 139 142 146 147 146 145 142 139 141 147 156 161 162 160 165 168 166 153 135 123 120 121 130 143 157 159 162 156 131 133 142 148 127 121 125 137 150 138 114 93 88 88 90 92 97 104 113 123 134 144 154 156 153 149 146 147 149 152 161 164 163 161 160 160 160 162 163 164 165 157 133 111 108 112 121 137 160 166 166 166 167 162 158 165 166 161 150 117 77 53 60 60 61 63 66 68 70 72 73 75 76 76 75 79 86 90 90 90 91 95 95 93 88 87 88 91 94 95 94 93 93 94 96 98 97 97 98 100 100 100 101 101 101 101 102 102 101 102 104 105 105 105 103 102 101 99 99 99 98 96 95 94 93 93 93 93 94 204 255 255
251 253 199 79 77 74 70 63 63 63 62 60 58 57 56 54 54 53 53 53 53 53 54 54 54 54 54 54 54 54 54 54 54 53 54 54 55 56 56 55 53 52 52 51 51 51 51 52 53 54 56 58 60 61 62 60 61 63 64 65 66 68 71 75 78 83 100 110 115 116 119 124 128 124 123 129 140 137 133 129 125 126 128 131 133 131 128 125 124 125 126 125 121 120 123 130 138 143 147 140 138 137 135 134 139 147 156 160 161 158 162 166 164 148 129 122 124 127 132 143 156 159 157 151 139 152 155 143 102 94 103 125 145 141 125 108 94 86 83 85 91 98 105 114 124 135 146 151 152 150 149 150 154 158 162 163 162 161 160 161 162 163 164 166 167 163 142 121 118 118 122 132 153 161 165 169 167 161 155 160 165 159 138 99 69 56 62 62 62 64 65 67 69 72 74 76 77 77 79 82 87 92 95 96 95 95 93 93 92 90 89 91 94 95 96 97 97 97 98 98 98 98 99 101 103 103 104 104 103 103 102 103 103 104 106 107 108 108 106 105 104 103 101 100 99 98 97 96 95 95 94 94 94 204 255 255
250 253 200 80 78 75 71 64 64 64 63 61 59 58 57 55 55 54 54 54 54 54 55 55 55 55 55 55 55 55 55 55 55 54 55 55 56 57 57 56 54 53 52 51 51 51 51 52 53 54 56 58 59 61 62 59 60 62 64 65 65 66 69 73 77 81 93 103 109 112 117 123 128 125 126 132 143 138 134 131 128 128 129 130 130 128 125 122 124 128 130 127 118 115 119 130 140 146 146 135 132 132 130 131 137 146 156 159 158 154 159 164 162 143 127 125 134 136 135 138 147 154 152 149 148 166 160 129 77 68 81 104 123 133 135 127 104 84 74 79 88 94 97 103 111 122 134 144 150 153 155 157 161 165 162 161 161 160 161 162 163 165 167 168 169 165 147 131 134 133 133 135 151 158 164 170 166 159 152 153 164 156 124 78 62 59 62 64 65 65 66 67 70 73 76 78 79 80 83 85 88 93 98 101 99 94 92 92 95 93 92 92 93 95 98 100 101 100 99 98 99 100 101 102 104 105 106 105 103 102 100 101 102 103 105 106 107 107 106 105 105 104 101 99 99 99 98 98 97 96 95 94 93 204 255 255
250 253 200 81 79 76 72 65 65 65 64 61 59 59 58 56 56 55 54 55 55 55 55 55 55 55 55 55 55 55 55 55 55 55 56 56 57 58 58 57 55 54 52 51 51 51 51 52 53 54 56 58 59 61 62 62 63 63 65 64 63 63 65 70 75 79 84 93 102 107 113 121 127 124 125 133 144 135 132 131 130 131 131 131 131 129 127 126 129 136 140 139 128 124 126 138 145 146 142 138 136 136 134 136 142 151 160 161 158 153 158 160 152 126 110 113 127 136 134 136 144 155 151 144 140 156 152 128 89 77 74 75 100 127 147 150 118 89 72 81 92 98 96 104 110 118 128 140 149 154 156 157 158 160 158 158 158 159 160 162 164 166 168 170 170 155 140 132 144 147 146 145 155 157 159 163 163 156 148 146 162 152 114 64 58 61 61 67 69 69 68 70 72 75 79 82 83 84 87 87 88 94 102 105 103 94 91 93 99 96 94 93 94 96 99 104 105 104 101 98 100 101 102 103 104 105 105 104 102 99 96 96 96 97 99 100 101 102 102 101 100 99 98 98 98 99 99 99 98 97 94 93 92 203 255 255
249 252 200 81 79 77 72 67 65 64 64 61 59 59 58 57 57 56 56 56 56 56 55 55 55 55 55 55 55 55 55 55 55 57 57 57 58 58 58 58 57 56 55 54 52 52 52 53 54 54 56 58 59 60 61 63 65 65 66 66 65 65 67 70 73 75 73 80 90 99 107 114 119 120 123 130 138 138 134 131 130 132 133 133 130 130 132 134 134 139 143 143 136 132 131 136 140 141 140 143 143 144 144 146 149 155 160 159 157 153 159 154 140 118 109 113 125 131 133 136 145 158 150 137 132 149 149 131 93 75 68 68 91 116 139 151 131 106 82 77 85 94 103 106 109 115 125 138 149 154 154 155 158 163 162 161 159 158 158 159 161 166 170 174 175 156 142 137 146 149 149 149 158 161 162 160 158 155 152 154 161 143 103 61 56 59 61 65 67 68 68 70 72 75 79 82 83 84 87 88 90 94 101 103 102 95 93 93 96 95 95 94 94 95 97 100 101 100 98 96 100 101 101 101 101 100 100 98 96 94 92 91 91 92 94 95 95 96 97 97 96 96 96 96 96 97 97 97 97 96 94 93 93 203 255 255
248 252 199 80 79 76 72 70 65 64 65 61 60 60 59 59 59 58 58 57 57 57 56 56 56 56 56 56 56 56 56 56 56 58 58 58 58 58 58 58 58 58 58 58 53 53 53 54 55 56 57 58 59 59 60 64 65 65 66 67 67 68 69 70 70 70 65 71 81 92 100 106 110 114 120 125 131 141 137 130 128 133 135 134 128 129 136 143 138 139 142 144 141 137 133 130 132 135 139 146 149 152 154 156 157 158 158 157 155 155 158 146 128 113 115 119 123 125 131 138 146 157 144 128 126 145 149 134 94 70 62 71 87 103 120 139 141 127 101 77 78 90 111 107 107 111 122 137 148 152 149 151 159 168 167 165 162 157 156 156 158 164 170 176 179 161 149 145 146 147 149 152 161 168 167 157 156 156 158 166 158 131 92 63 54 55 62 62 63 65 67 69 71 74 77 80 81 82 86 90 93 96 98 99 99 97 95 93 92 93 94 94 94 94 94 94 94 94 94 94 97 99 98 97 96 94 93 91 90 89 89 88 88 88 89 90 90 91 92 93 93 94 94 95 95 95 95 95 95 95 95 95 95 204 255 255
254 255 200 80 75 72 69 70 67 66 67 63 62 62 61 61 61 60 60 59 59 59 58 58 58 58 58 58 58 58 58 58 58 56 56 56 56 56 56 56 56 56 56 56 55 55 55 56 57 58 59 60 61 61 61 62 62 62 63 64 64 65 66 67 67 68 71 77 84 92 97 102 105 110 117 123 129 138 134 128 127 133 135 134 129 129 134 141 136 138 141 142 140 136 133 130 132 134 137 143 147 151 156 159 162 163 161 159 156 153 148 134 118 107 110 116 121 123 129 136 144 142 130 119 123 143 147 132 92 68 60 68 80 93 108 129 139 137 123 102 93 93 102 105 105 108 116 131 142 147 144 147 153 162 162 162 160 159 159 159 161 165 168 172 174 163 155 152 155 156 158 158 166 171 167 155 163 164 162 163 148 119 82 57 51 52 56 61 64 65 67 69 71 74 76 79 80 81 88 92 95 98 100 101 101 99 97 95 94 95 95 95 95 95 95 95 95 95 95 95 94 95 95 94 93 91 90 88 87 87 87 86 86 86 87 88 88 89 90 91 91 92 96 98 98 98 98 98 98 98 98 98 98 205 255 255
251 248 194 83 78 76 74 75 71 68 67 65 64 64 63 63 63 62 62 61 61 61 60 60 60 60 60 60 60 60 60 60 60 61 61 61 61 61 61 61 61 61 61 61 59 58 58 59 60 60 61 62 63 63 63 65 65 65 66 67 67 68 69 69 69 70 68 72 78 84 89 95 99 107 115 124 131 138 135 130 129 135 138 138 133 133 136 142 142 144 147 148 146 143 140 138 139 141 142 135 136 141 148 153 157 158 155 151 147 144 138 126 113 105 110 117 123 126 131 138 145 143 126 110 109 134 149 147 115 86 66 61 71 79 91 110 130 142 143 130 118 110 108 110 109 108 114 127 137 144 142 144 149 156 156 156 158 160 161 163 164 166 166 166 167 160 155 154 158 160 160 160 165 167 162 149 157 158 155 152 133 106 75 61 60 63 63 67 69 70 72 74 76 78 80 83 84 85 88 91 93 96 98 99 99 97 95 93 92 93 93 93 93 93 93 93 93 93 93 93 93 94 94 93 93 92 91 90 89 89 89 88 88 88 89 90 90 91 92 93 93 94 96 97 97 97 97 97 97 97 97 97 97 205 255 255
250 245 192 89 78 73 71 72 71 70 70 65 65 65 64 64 64 63 63 62 62 62 61 61 61 61 61 61 61 61 61 61 61 63 63 63 63 63 63 63 63 63 63 63 60 59 59 60 61 61 62 63 63 63 64 66 66 66 67 68 68 69 69 70 70 70 68 70 75 80 85 91 97 105 115 124 132 135 133 130 130 136 139 139 134 134 136 141 145 148 150 151 150 147 144 142 143 145 145 132 132 137 144 150 153 154 151 147 143 139 131 120 111 105 111 118 125 128 132 137 144 144 125 104 98 126 149 159 136 105 78 61 70 74 80 95 119 140 152 147 136 126 118 117 113 110 114 123 133 139 139 141 144 149 152 155 158 162 165 167 168 168 167 164 163 160 156 156 161 164 163 162 165 165 160 146 156 157 152 146 124 98 71 65 67 68 64 70 72 73 74 76 78 79 81 83 84 85 89 92 93 95 97 98 98 97 96 94 93 93 93 93 93 93 93 93 93 93 93 93 95 97 97 96 96 96 95 95 95 95 95 94 94 94 95 96 96 97 98 98 98 99 98 98 98 98 98 98 98 98 98 98 98 205 255 255
255 249 199 99 75 62 57 59 67 75 79 66 64 64 64 63 63 63 62 62 62 62 61 61 61 61 61 61 61 61 61 61 61 64 64 64 64 64 64 64 64 64 64 64 61 60 60 60 61 61 62 62 63 63 63 65 66 66 66 67 67 68 68 69 69 70 75 78 81 85 89 95 101 108 117 125 130 130 128 128 129 135 137 137 134 132 134 138 143 146 148 149 148 146 144 142 143 144 145 138 139 144 150 154 157 157 154 150 147 143 128 119 113 109 115 121 127 129 131 135 139 144 126 105 97 123 147 163 149 122 95 74 82 83 82 90 111 131 148 151 145 137 131 126 120 115 115 122 129 134 135 136 137 140 154 161 164 169 172 174 175 173 171 168 166 165 163 163 168 170 169 166 169 169 164 151 167 168 161 150 126 99 73 68 68 64 54 66 71 72 73 74 76 77 79 80 81 81 92 97 98 100 101 102 103 102 101 100 99 99 99 99 99 99 99 99 99 99 99 99 103 105 105 105 105 105 105 106 106 106 106 105 105 105 106 106 106 107 108 108 108 109 105 103 103 103 103 103 103 103 103 103 103 207 255 255
241 248 234 195 201 201 200 200 202 201 198 201 201 201 201 201 201 201 201 201 201 201 201 201 201 201 201 201 201 201 201 201 201 201 201 201 201 201 201 201 201 201 201 201 201 200 200 200 201 201 201 201 201 201 201 202 202 202 202 202 202 203 203 203 203 202 201 202 203 205 206 208 209 211 214 218 220 218 216 217 219 221 222 222 221 221 221 222 224 224 225 225 225 224 224 223 224 224 224 218 218 220 223 225 226 226 224 221 219 218 218 215 211 208 212 216 219 220 220 221 223 222 216 209 211 218 225 229 223 213 205 201 205 204 201 204 213 220 225 226 224 222 220 219 216 212 211 215 218 221 221 222 222 223 222 223 225 228 230 232 232 231 229 228 226 227 226 225 230 231 229 226 230 231 227 219 222 223 223 223 215 204 195 201 203 201 199 202 203 204 204 204 205 205 206 206 206 206 206 206 207 209 210 211 212 211 210 209 208 209 210 210 210 210 210 210 210 210 210 210 210 211 211 211 211 211 211 212 212 212 212 212 212 212 212 212 212 213 214 214 214 214 213 212 212 212 212 212 212 212 212 212 212 241 255 255
244 250 250 238 250 253 252 250 252 252 249 254 255 255 255 255 255 254 254 254 254 254 254 254 254 254 254 254 254 254 254 254 254 254 254 254 254 254 254 254 254 254 254 254 254 254 254 254 254 254 254 254 254 254 254 254 254 254 254 254 254 254 254 254 254 254 252 252 253 253 253 253 253 253 253 254 254 250 249 250 253 254 254 255 254 254 254 254 253 253 253 253 253 253 253 253 253 253 253 251 252 252 253 254 254 254 253 252 250 250 254 253 252 250 252 253 255 255 254 253 252 252 251 251 255 255 254 253 250 249 251 253 253 252 251 251 254 255 253 252 252 253 254 255 254 252 250 252 253 255 255 254 254 254 251 250 252 253 254 254 254 254 253 253 252 253 252 251 254 255 252 249 254 255 253 249 248 249 250 253 252 249 246 253 255 253 248 252 253 253 253 253 253 254 254 254 254 254 252 251 252 253 254 254 254 254 253 253 253 253 254 254 254 254 254 254 254 254 254 254 253 253 253 253 253 253 254 254 254 254 254 254 254 254 254 254 254 255 255 255 255 255 255 255 255 255 255 255 255 255 255 255 255 255 255 255
255 255 252 245 249 250 249 244 250 254 255 255 255 255 254 254 254 253 253 252 252 252 253 253 253 253 253 253 253 253 253 253 253 252 252 252 252 252 252 252 252 252 252 252 253 253 253 253 253 253 253 253 253 253 253 252 252 252 252 253 253 253 253 253 253 253 255 255 255 255 255 255 255 255 254 253 252 248 248 249 251 252 253 254 253 252 252 252 251 251 251 251 251 251 251 251 251 251 251 254 255 255 255 255 255 255 255 255 255 255 255 255 255 254 254 254 255 254 252 250 249 250 251 253 255 255 253 251 248 251 254 255 254 254 255 255 255 254 251 247 247 250 253 255 255 255 253 253 253 254 254 253 253 252 254 255 255 255 255 255 255 255 255 255 255 255 254 253 255 255 253 250 254 255 255 254 255 255 255 255 255 254 251 253 254 250 240 248 251 251 251 251 251 252 252 252 252 253 254 254 254 255 255 255 255 255 255 255 255 255 255 255 255 255 255 255 255 255 255 255 255 255 255 255 255 255 255 255 255 255 255 255 255 255 255 255 255 255 255 255 255 255 255 255 255 255 255 255 255 255 255 255 255 255 255 255
