P2
256 256
255
253 253 253 253 253 252 240 237 237 237 237 238 249 253 253 253 253 253 242 237 237 237 237 237 247 253 253 253 253 253 245 237 237 237 237 237 244 253 253 253 253 253 248 237 237 237 237 237 242 253 253 253 253 253 250 238 237 237 237 237 240 252 253 253 253 253 252 240 237 237 237 237 238 250 253 253 253 253 253 242 237 237 237 237 237 248 253 253 253 253 253 244 237 237 237 237 237 245 253 253 253 253 253 247 237 237 237 237 237 242 253 253 253 253 253 249 238 237 237 237 237 240 252 253 253 253 253 251 239 237 237 237 237 238 250 253 253 253 253 252 241 237 237 237 237 237 248 253 253 253 253 253 243 237 237 237 237 237 246 253 253 253 253 253 246 237 237 237 237 237 243 253 253 253 253 253 249 238 237 237 237 237 241 252 253 253 253 253 251 239 237 237 237 237 239 251 253 253 253 253 252 241 237 237 237 237 238 249 253 253 253 253 253 243 237 237 237 237 237 246 253 253 253 253 253 246 237 237 237 237 237 243 253 253 253 253 253 248 237 237 237 237 237 241 252 253 253 253 253 250 238 237 237 237 237 237
253 253 253 253 253 252 240 237 237 237 237 238 249 253 253 253 253 253 242 237 237 237 237 237 247 253 253 253 253 253 245 237 237 237 237 237 244 253 253 253 253 253 248 237 237 237 237 237 242 253 253 253 253 253 250 238 237 237 237 237 240 252 253 253 253 253 252 240 237 237 237 237 238 250 253 253 253 253 253 242 237 237 237 237 237 248 253 253 253 253 253 244 237 237 237 237 237 245 253 253 253 253 253 247 237 237 237 237 237 242 253 253 253 253 253 249 238 237 237 237 237 240 252 253 253 253 253 251 239 237 237 237 237 238 250 253 253 253 253 252 241 237 237 237 237 237 248 253 253 253 253 253 243 237 237 237 237 237 246 253 253 253 253 253 246 237 237 237 237 237 243 253 253 253 253 253 249 238 237 237 237 237 241 252 253 253 253 253 251 239 237 237 237 237 239 251 253 253 253 253 252 241 237 237 237 237 238 249 253 253 253 253 253 243 237 237 237 237 237 246 253 253 253 253 253 246 237 237 237 237 237 243 253 253 253 253 253 248 237 237 237 237 237 241 252 253 253 253 253 250 238 237 237 237 237 237
253 253 253 253 253 252 240 237 237 237 237 238 249 253 253 253 253 253 242 237 237 237 237 237 247 253 253 253 253 253 245 237 237 237 237 237 244 253 253 253 253 253 248 237 237 237 237 237 242 253 253 253 253 253 250 238 237 237 237 237 240 252 253 253 253 253 252 240 237 237 237 237 238 250 253 253 253 253 253 242 237 237 237 237 237 248 253 253 253 253 253 244 237 237 237 237 237 245 253 253 253 253 253 247 237 237 237 237 237 242 253 253 253 253 253 249 238 237 237 237 237 240 252 253 253 253 253 251 239 237 237 237 237 238 250 253 253 253 253 252 241 237 237 237 237 237 248 253 253 253 253 253 243 237 237 237 237 237 246 253 253 253 253 253 246 237 237 237 237 237 243 253 253 253 253 253 249 238 237 237 237 237 241 252 253 253 253 253 251 239 237 237 237 237 239 251 253 253 253 253 252 241 237 237 237 237 238 249 253 253 253 253 253 243 237 237 237 237 237 246 253 253 253 253 253 246 237 237 237 237 237 243 253 253 253 253 253 248 237 237 237 237 237 241 252 253 253 253 253 250 238 237 237 237 237 237
253 253 253 253 253 252 240 237 237 237 237 238 249 253 253 253 253 253 242 237 237 237 237 237 247 253 253 253 253 253 245 237 237 237 237 237 244 253 253 253 253 253 248 237 237 237 237 237 242 253 253 253 253 253 250 238 237 237 237 237 240 252 253 253 253 253 252 240 237 237 237 237 238 250 253 253 253 253 253 242 237 237 237 237 237 248 253 253 253 253 253 244 237 237 237 237 237 245 253 253 253 253 253 247 237 237 237 237 237 242 253 253 253 253 253 249 238 237 237 237 237 240 252 253 253 253 253 251 239 237 237 237 237 238 250 253 253 253 253 252 241 237 237 237 237 237 248 253 253 253 253 253 243 237 237 237 237 237 246 253 253 253 253 253 246 237 237 237 237 237 243 253 253 253 253 253 249 238 237 237 237 237 241 252 253 253 253 253 251 239 237 237 237 237 239 251 253 253 253 253 252 241 237 237 237 237 238 249 253 253 253 253 253 243 237 237 237 237 237 246 253 253 253 253 253 246 237 237 237 237 237 243 253 253 253 253 253 248 237 237 237 237 237 241 252 253 253 253 253 250 238 237 237 237 237 237
253 253 253 253 253 252 240 237 237 237 237 238 249 253 253 253 253 253 242 237 237 237 237 237 247 253 253 253 253 253 245 237 237 237 237 237 244 253 253 253 253 253 248 237 237 237 237 237 242 253 253 253 253 253 250 238 237 237 237 237 240 252 253 253 253 253 252 240 237 237 237 237 238 250 253 253 253 253 253 242 237 237 237 237 237 248 253 253 253 253 253 244 237 237 237 237 237 245 253 253 253 253 253 247 237 237 237 237 237 242 253 253 253 253 253 249 238 237 237 237 237 240 252 253 253 253 253 251 239 237 237 237 237 238 250 253 253 253 253 252 241 237 237 237 237 237 248 253 253 253 253 253 243 237 237 237 237 237 246 253 253 253 253 253 246 237 237 237 237 237 243 253 253 253 253 253 249 238 237 237 237 237 241 252 253 253 253 253 251 239 237 237 237 237 239 251 253 253 253 253 252 241 237 237 237 237 238 249 253 253 253 253 253 243 237 237 237 237 237 246 253 253 253 253 253 246 237 237 237 237 237 243 253 253 253 253 253 248 237 237 237 237 237 241 252 253 253 253 253 250 238 237 237 237 237 237
250 250 250 250 250 249 243 241 241 241 241 241 247 250 250 250 250 250 244 241 241 241 241 241 246 250 250 250 250 250 245 241 241 241 241 241 245 250 250 250 250 250 247 241 241 241 241 241 244 250 250 250 250 250 248 241 241 241 241 241 242 249 250 250 250 250 249 242 241 241 241 241 241 248 250 250 250 250 250 244 241 241 241 241 241 247 250 250 250 250 250 245 241 241 241 241 241 245 250 250 250 250 250 246 241 241 241 241 241 244 250 250 250 250 250 247 241 241 241 241 241 243 249 250 250 250 250 248 242 241 241 241 241 241 248 250 250 250 250 249 243 241 241 241 241 241 247 250 250 250 250 250 244 241 241 241 241 241 246 250 250 250 250 250 246 241 241 241 241 241 244 250 250 250 250 250 247 241 241 241 241 241 243 249 250 250 250 250 249 242 241 241 241 241 242 249 250 250 250 250 249 243 241 241 241 241 241 247 250 250 250 250 250 244 241 241 241 241 241 246 250 250 250 250 250 246 241 241 241 241 241 244 250 250 250 250 250 247 241 241 241 241 241 243 249 250 250 250 250 248 241 241 241 241 241 241
238 238 238 238 238 239 250 252 252 252 252 251 242 238 238 238 238 238 248 252 252 252 252 252 243 238 238 238 238 238 246 252 252 252 252 252 246 238 238 238 238 238 243 252 252 252 252 252 249 239 238 238 238 238 241 251 252 252 252 252 250 240 238 238 238 238 240 250 252 252 252 252 251 241 238 238 238 238 239 249 252 252 252 252 252 243 238 238 238 238 238 246 252 252 252 252 252 246 238 238 238 238 238 243 252 252 252 252 252 248 238 238 238 238 238 242 251 252 252 252 252 250 239 238 238 238 238 240 250 252 252 252 252 251 241 238 238 238 238 239 249 252 252 252 252 252 242 238 238 238 238 238 247 252 252 252 252 252 245 238 238 238 238 238 244 252 252 252 252 252 248 238 238 238 238 238 242 252 252 252 252 252 250 239 238 238 238 238 241 251 252 252 252 252 251 241 238 238 238 238 239 250 252 252 252 252 252 242 238 238 238 238 238 248 252 252 252 252 252 244 238 238 238 238 238 245 252 252 252 252 252 247 238 238 238 238 238 242 252 252 252 252 252 249 239 238 238 238 238 241 251 252 252 252 252 252
237 237 237 237 237 238 250 253 253 253 253 252 241 237 237 237 237 237 248 253 253 253 253 253 243 237 237 237 237 237 246 253 253 253 253 253 246 237 237 237 237 237 243 253 253 253 253 253 249 238 237 237 237 237 241 252 253 253 253 253 251 239 237 237 237 237 239 251 253 253 253 253 252 241 237 237 237 237 238 249 253 253 253 253 253 243 237 237 237 237 237 246 253 253 253 253 253 246 237 237 237 237 237 243 253 253 253 253 253 248 237 237 237 237 237 241 252 253 253 253 253 250 238 237 237 237 237 239 251 253 253 253 253 252 240 237 237 237 237 238 249 253 253 253 253 253 242 237 237 237 237 237 247 253 253 253 253 253 245 237 237 237 237 237 244 253 253 253 253 253 248 237 237 237 237 237 242 253 253 253 253 253 250 238 237 237 237 237 240 252 253 253 253 253 252 240 237 237 237 237 238 250 253 253 253 253 253 242 237 237 237 237 237 248 253 253 253 253 253 244 237 237 237 237 237 245 253 253 253 253 253 247 237 237 237 237 237 242 253 253 253 253 253 249 238 237 237 237 237 240 252 253 253 253 253 253
237 237 237 237 237 238 250 253 253 253 253 252 241 237 237 237 237 237 248 253 253 253 253 253 243 237 237 237 237 237 246 253 253 253 253 253 246 237 237 237 237 237 243 253 253 253 253 253 249 238 237 237 237 237 241 252 253 253 253 253 251 239 237 237 237 237 239 251 253 253 253 253 252 241 237 237 237 237 238 249 253 253 253 253 253 243 237 237 237 237 237 246 253 253 253 253 253 246 237 237 237 237 237 243 253 253 253 253 253 248 237 237 237 237 237 241 252 253 253 253 253 250 238 237 237 237 237 239 251 253 253 253 253 252 240 237 237 237 237 238 249 253 253 253 253 253 242 237 237 237 237 237 247 253 253 253 253 253 245 237 237 237 237 237 244 253 253 253 253 253 248 237 237 237 237 237 242 253 253 253 253 253 250 238 237 237 237 237 240 252 253 253 253 253 252 240 237 237 237 237 238 250 253 253 253 253 253 242 237 237 237 237 237 248 253 253 253 253 253 244 237 237 237 237 237 245 253 253 253 253 253 247 237 237 237 237 237 242 253 253 253 253 253 249 238 237 237 237 237 240 252 253 253 253 253 253
237 237 237 237 237 238 250 253 253 253 253 252 241 237 237 237 237 237 248 253 253 253 253 253 243 237 237 237 237 237 246 253 253 253 253 253 246 237 237 237 237 237 243 253 253 253 253 253 249 238 237 237 237 237 241 252 253 253 253 253 251 239 237 237 237 237 239 251 253 253 253 253 252 241 237 237 237 237 238 249 253 253 253 253 253 243 237 237 237 237 237 246 253 253 253 253 253 246 237 237 237 237 237 243 253 253 253 253 253 248 237 237 237 237 237 241 252 253 253 253 253 250 238 237 237 237 237 239 251 253 253 253 253 252 240 237 237 237 237 238 249 253 253 253 253 253 242 237 237 237 237 237 247 253 253 253 253 253 245 237 237 237 237 237 244 253 253 253 253 253 248 237 237 237 237 237 242 253 253 253 253 253 250 238 237 237 237 237 240 252 253 253 253 253 252 240 237 237 237 237 238 250 253 253 253 253 253 242 237 237 237 237 237 248 253 253 253 253 253 244 237 237 237 237 237 245 253 253 253 253 253 247 237 237 237 237 237 242 253 253 253 253 253 249 238 237 237 237 237 240 252 253 253 253 253 253
237 237 237 237 237 238 250 253 253 253 253 252 241 237 237 237 237 237 248 253 253 253 253 253 243 237 237 237 237 237 246 253 253 253 253 253 246 237 237 237 237 237 243 253 253 253 253 253 249 238 237 237 237 237 241 252 253 253 253 253 251 239 237 237 237 237 239 251 253 253 253 253 252 241 237 237 237 237 238 249 253 253 253 253 253 243 237 237 237 237 237 246 253 253 253 253 253 246 237 237 237 237 237 243 253 253 253 253 253 248 237 237 237 237 237 241 252 253 253 253 253 250 238 237 237 237 237 239 251 253 253 253 253 252 240 237 237 237 237 238 249 253 253 253 253 253 242 237 237 237 237 237 247 253 253 253 253 253 245 237 237 237 237 237 244 253 253 253 253 253 248 237 237 237 237 237 242 253 253 253 253 253 250 238 237 237 237 237 240 252 253 253 253 253 252 240 237 237 237 237 238 250 253 253 253 253 253 242 237 237 237 237 237 248 253 253 253 253 253 244 237 237 237 237 237 245 253 253 253 253 253 247 237 237 237 237 237 242 253 253 253 253 253 249 238 237 237 237 237 240 252 253 253 253 253 253
243 243 243 243 243 243 247 248 248 248 248 247 244 243 243 243 243 243 246 248 248 248 248 248 245 243 243 243 243 243 246 248 248 248 248 248 245 243 243 243 243 243 245 248 248 248 248 248 247 243 243 243 243 243 244 247 248 248 248 248 247 244 243 243 243 243 243 247 248 248 248 248 247 244 243 243 243 243 243 246 248 248 248 248 248 245 243 243 243 243 243 245 248 248 248 248 248 246 243 243 243 243 243 245 248 248 248 248 248 246 243 243 243 243 242 242 243 241 237 233 230 228 223 218 215 212 208 208 214 217 218 220 220 224 222 225 230 234 237 239 244 247 247 247 248 248 245 243 243 243 243 243 246 248 248 248 248 248 245 243 243 243 243 243 245 248 248 248 248 248 246 243 243 243 243 243 244 248 248 248 248 248 247 243 243 243 243 243 244 247 248 248 248 248 247 244 243 243 243 243 243 247 248 248 248 248 248 244 243 243 243 243 243 246 248 248 248 248 248 245 243 243 243 243 243 245 248 248 248 248 248 246 243 243 243 243 243 244 248 248 248 248 248 246 243 243 243 243 243 244 247 248 248 248 248 248
253 253 253 253 253 252 240 237 237 237 237 238 249 253 253 253 253 253 242 237 237 237 237 237 247 253 253 253 253 253 245 237 237 237 237 237 244 253 253 253 253 253 248 237 237 237 237 237 242 253 253 253 253 253 250 238 237 237 237 237 240 252 253 253 253 253 252 240 237 237 237 237 238 250 253 253 253 253 253 242 237 237 237 237 237 248 253 253 253 253 253 244 237 237 237 237 237 245 253 253 253 253 253 247 237 237 237 236 233 231 231 220 206 190 174 155 137 126 118 113 119 124 116 109 104 101 98 97 99 106 107 108 109 112 115 123 133 141 148 155 163 176 189 201 214 223 240 249 252 253 253 253 244 237 237 237 237 237 246 253 253 253 253 253 246 237 237 237 237 237 243 253 253 253 253 253 249 238 237 237 237 237 241 252 253 253 253 253 251 239 237 237 237 237 239 251 253 253 253 253 252 241 237 237 237 237 238 249 253 253 253 253 253 243 237 237 237 237 237 246 253 253 253 253 253 246 237 237 237 237 237 243 253 253 253 253 253 248 237 237 237 237 237 241 252 253 253 253 253 250 238 237 237 237 237 237
253 253 253 253 253 252 240 237 237 237 237 238 249 253 253 253 253 253 242 237 237 237 237 237 247 253 253 253 253 253 245 237 237 237 237 237 244 253 253 253 253 253 248 237 237 237 237 237 242 253 253 253 253 253 250 238 237 237 237 237 240 252 253 253 253 253 252 240 237 237 237 237 238 250 253 253 253 253 253 242 237 237 237 237 237 248 253 253 253 253 253 244 237 237 237 237 237 245 253 253 253 253 250 237 216 199 177 154 134 118 107 97 91 88 88 94 101 109 106 103 95 91 93 104 112 108 103 105 103 93 92 92 93 93 93 93 94 95 97 97 100 104 107 106 113 126 141 167 193 218 232 241 239 236 237 237 237 237 246 253 253 253 253 253 246 237 237 237 237 237 243 253 253 253 253 253 249 238 237 237 237 237 241 252 253 253 253 253 251 239 237 237 237 237 239 251 253 253 253 253 252 241 237 237 237 237 238 249 253 253 253 253 253 243 237 237 237 237 237 246 253 253 253 253 253 246 237 237 237 237 237 243 253 253 253 253 253 248 237 237 237 237 237 241 252 253 253 253 253 250 238 237 237 237 237 237
253 253 253 253 253 252 240 237 237 237 237 238 249 253 253 253 253 253 242 237 237 237 237 237 247 253 253 253 253 253 245 237 237 237 237 237 244 253 253 253 253 253 248 237 237 237 237 237 242 253 253 253 253 253 250 238 237 237 237 237 240 252 253 253 253 253 252 240 237 237 237 237 238 250 253 253 253 253 253 242 237 237 237 237 237 248 253 253 253 253 253 244 237 237 237 237 237 244 247 233 211 182 150 121 101 90 84 84 85 88 90 96 114 120 129 153 168 176 176 172 156 126 105 99 98 99 98 100 101 96 95 95 95 95 96 96 96 96 96 96 96 96 99 107 108 101 103 110 116 143 168 186 195 203 213 222 228 234 245 253 253 253 253 253 246 237 237 237 237 237 243 253 253 253 253 253 249 238 237 237 237 237 241 252 253 253 253 253 251 239 237 237 237 237 239 251 253 253 253 253 252 241 237 237 237 237 238 249 253 253 253 253 253 243 237 237 237 237 237 246 253 253 253 253 253 246 237 237 237 237 237 243 253 253 253 253 253 248 237 237 237 237 237 241 252 253 253 253 253 250 238 237 237 237 237 237
253 253 253 253 253 252 240 237 237 237 237 238 249 253 253 253 253 253 242 237 237 237 237 237 247 253 253 253 253 253 245 237 237 237 237 237 244 253 253 253 253 253 248 237 237 237 237 237 242 253 253 253 253 253 250 238 237 237 237 237 240 252 253 253 253 253 252 240 237 237 237 237 238 250 253 253 253 253 253 242 237 237 237 237 237 248 253 253 253 253 253 244 237 236 231 217 192 164 135 107 91 83 82 91 97 98 94 99 102 121 128 144 145 153 166 179 184 184 184 184 184 181 171 147 120 104 98 97 98 98 99 99 99 99 99 100 100 100 100 100 100 100 106 133 158 160 163 166 169 170 174 178 176 170 171 179 188 196 211 230 243 250 253 253 246 237 237 237 237 237 243 253 253 253 253 253 249 238 237 237 237 237 241 252 253 253 253 253 251 239 237 237 237 237 239 251 253 253 253 253 252 241 237 237 237 237 238 249 253 253 253 253 253 243 237 237 237 237 237 246 253 253 253 253 253 246 237 237 237 237 237 243 253 253 253 253 253 248 237 237 237 237 237 241 252 253 253 253 253 250 238 237 237 237 237 237
253 253 253 253 253 252 240 237 237 237 237 238 249 253 253 253 253 253 242 237 237 237 237 237 247 253 253 253 253 253 245 237 237 237 237 237 244 253 253 253 253 253 248 237 237 237 237 237 242 253 253 253 253 253 250 238 237 237 237 237 240 252 253 253 253 253 252 240 237 237 237 237 238 250 253 253 253 253 253 242 237 237 237 237 237 248 253 253 253 253 252 239 215 175 129 102 86 82 88 95 87 92 115 133 130 129 123 128 124 132 123 103 120 146 170 184 184 184 184 184 184 184 184 183 177 153 121 101 100 100 101 101 101 101 102 102 103 103 103 103 103 103 103 107 127 157 171 177 182 183 183 182 179 170 152 135 142 158 175 184 193 204 219 235 239 236 237 237 237 237 243 253 253 253 253 253 249 238 237 237 237 237 241 252 253 253 253 253 251 239 237 237 237 237 239 251 253 253 253 253 252 241 237 237 237 237 238 249 253 253 253 253 253 243 237 237 237 237 237 246 253 253 253 253 253 246 237 237 237 237 237 243 253 253 253 253 253 248 237 237 237 237 237 241 252 253 253 253 253 250 238 237 237 237 237 237
245 245 245 245 245 245 245 246 246 246 246 246 245 245 245 245 245 245 245 246 246 246 246 246 245 245 245 245 245 245 246 246 246 246 246 246 245 245 245 245 245 245 245 246 246 246 246 246 246 245 245 245 245 245 245 246 246 246 246 246 246 245 245 245 245 245 245 246 246 246 246 246 246 245 245 245 245 245 245 246 246 246 246 246 246 245 245 244 239 229 207 163 116 86 82 93 111 132 137 119 98 104 109 112 118 135 148 141 116 95 93 94 97 97 130 182 184 184 184 184 184 184 184 184 182 166 151 121 105 103 104 104 105 106 107 106 106 106 106 106 106 107 107 107 108 115 127 144 168 182 183 183 183 180 171 171 167 162 164 171 183 184 185 188 195 205 221 236 244 246 246 245 245 245 245 245 245 246 246 246 246 246 246 245 245 245 245 245 245 246 246 246 246 246 246 245 245 245 245 245 245 246 246 246 246 246 246 245 245 245 245 245 245 246 246 246 246 246 246 245 245 245 245 245 245 245 246 246 246 246 246 245 245 245 245 245 245 245 246 246 246 246 246 245 245 245 245 245 245 245 246 246 246 246 246 246
237 237 237 237 237 238 250 253 253 253 253 252 241 237 237 237 237 237 248 253 253 253 253 253 243 237 237 237 237 237 246 253 253 253 253 253 246 237 237 237 237 237 243 253 253 253 253 253 249 238 237 237 237 237 241 252 253 253 253 253 251 239 237 237 237 237 239 251 253 253 253 253 252 241 237 237 237 237 238 249 253 253 253 253 252 238 222 206 184 151 107 84 81 96 130 161 171 149 128 132 132 138 147 145 146 141 142 111 94 94 95 96 97 97 121 178 184 184 184 184 184 184 184 184 184 182 174 158 141 117 107 107 107 108 109 108 109 109 109 109 109 110 110 110 110 110 110 111 120 145 168 181 184 180 162 146 153 172 178 182 183 183 183 184 184 184 186 193 208 228 239 236 237 237 237 237 242 253 253 253 253 253 250 238 237 237 237 237 240 252 253 253 253 253 252 240 237 237 237 237 238 250 253 253 253 253 253 242 237 237 237 237 237 248 253 253 253 253 253 244 237 237 237 237 237 245 253 253 253 253 253 247 237 237 237 237 237 242 253 253 253 253 253 249 238 237 237 237 237 240 252 253 253 253 253 253
237 237 237 237 237 238 250 253 253 253 253 252 241 237 237 237 237 237 248 253 253 253 253 253 243 237 237 237 237 237 246 253 253 253 253 253 246 237 237 237 237 237 243 253 253 253 253 253 249 238 237 237 237 237 241 252 253 253 253 253 251 239 237 237 237 237 239 251 253 253 253 253 252 241 237 237 237 237 238 249 253 253 250 238 219 196 185 172 151 123 93 90 102 147 173 175 140 110 126 141 121 144 162 169 177 164 161 109 96 96 97 98 99 100 128 156 178 184 184 184 184 184 184 184 184 184 177 167 165 142 110 109 110 110 111 111 111 112 112 112 112 112 112 112 112 112 112 112 112 113 120 142 170 182 183 180 165 146 142 173 183 184 183 183 183 184 184 184 184 185 193 207 223 233 237 237 242 253 253 253 253 253 250 238 237 237 237 237 240 252 253 253 253 253 252 240 237 237 237 237 238 250 253 253 253 253 253 242 237 237 237 237 237 248 253 253 253 253 253 244 237 237 237 237 237 245 253 253 253 253 253 247 237 237 237 237 237 242 253 253 253 253 253 249 238 237 237 237 237 240 252 253 253 253 253 253
237 237 237 237 237 238 250 253 253 253 253 252 241 237 237 237 237 237 248 253 253 253 253 253 243 237 237 237 237 237 246 253 253 253 253 253 246 237 237 237 237 237 243 253 253 253 253 253 249 238 237 237 237 237 241 252 253 253 253 253 251 239 237 237 237 237 239 251 253 253 253 253 252 241 237 237 237 237 238 248 244 226 204 189 183 183 183 180 180 139 128 160 166 176 171 126 101 122 130 113 146 176 178 178 184 183 173 143 106 99 100 100 100 101 125 148 164 184 184 184 184 184 184 184 184 184 183 181 168 129 112 112 112 113 113 113 113 113 114 114 114 114 114 114 115 115 115 115 115 115 115 115 126 160 176 182 184 180 155 136 147 166 179 183 183 183 182 182 184 184 184 184 188 197 214 228 240 253 253 253 253 253 250 238 237 237 237 237 240 252 253 253 253 253 252 240 237 237 237 237 238 250 253 253 253 253 253 242 237 237 237 237 237 248 253 253 253 253 253 244 237 237 237 237 237 245 253 253 253 253 253 247 237 237 237 237 237 242 253 253 253 253 253 249 238 237 237 237 237 240 252 253 253 253 253 253
237 237 237 237 237 238 250 253 253 253 253 252 241 237 237 237 237 237 248 253 253 253 253 253 243 237 237 237 237 237 246 253 253 253 253 253 246 237 237 237 237 237 243 253 253 253 253 253 249 238 237 237 237 237 241 252 253 253 253 253 251 239 237 237 237 237 239 251 253 253 253 253 252 241 237 237 237 234 224 211 194 184 183 183 184 184 184 173 145 126 153 140 150 140 139 126 148 132 99 110 142 135 138 147 183 184 179 156 116 100 100 101 102 103 123 137 158 184 184 184 184 184 184 184 184 183 165 138 120 113 113 113 113 115 115 117 125 136 126 119 117 118 118 118 118 118 118 118 118 118 118 118 118 126 154 180 183 183 183 171 149 132 134 156 175 181 164 142 162 182 184 184 184 184 185 191 208 235 250 253 253 253 250 238 237 237 237 237 240 252 253 253 253 253 252 240 237 237 237 237 238 250 253 253 253 253 253 242 237 237 237 237 237 248 253 253 253 253 253 244 237 237 237 237 237 245 253 253 253 253 253 247 237 237 237 237 237 242 253 253 253 253 253 249 238 237 237 237 237 240 252 253 253 253 253 253
237 237 237 237 237 238 250 253 253 253 253 252 241 237 237 237 237 237 248 253 253 253 253 253 243 237 237 237 237 237 246 253 253 253 253 253 246 237 237 237 237 237 243 253 253 253 253 253 249 238 237 237 237 237 241 252 253 253 253 253 251 239 237 237 237 237 239 251 253 253 253 253 252 241 237 233 219 200 187 183 183 183 172 165 174 184 184 160 117 129 150 111 120 124 142 165 164 131 135 155 127 106 118 135 177 184 178 135 107 101 102 103 104 105 115 149 171 184 184 184 184 184 184 184 184 183 146 114 114 114 115 116 119 141 142 149 171 180 174 159 128 120 120 120 120 120 121 121 121 121 121 121 120 121 132 169 183 184 183 183 182 175 157 139 140 142 141 118 142 178 183 184 184 184 184 184 184 189 205 229 247 252 250 238 237 237 237 237 240 252 253 253 253 253 252 240 237 237 237 237 238 250 253 253 253 253 253 242 237 237 237 237 237 248 253 253 253 253 253 244 237 237 237 237 237 245 253 253 253 253 253 247 237 237 237 237 237 242 253 253 253 253 253 249 238 237 237 237 237 240 252 253 253 253 253 253
248 248 248 248 248 248 243 242 242 242 242 243 247 248 248 248 248 248 244 242 242 242 242 242 246 248 248 248 248 248 245 242 242 242 242 242 245 248 248 248 248 248 246 242 242 242 242 242 244 248 248 248 248 248 247 243 242 242 242 242 243 248 248 248 248 248 248 243 242 242 242 242 242 240 221 197 185 183 183 183 176 159 132 149 178 184 183 174 171 181 181 171 167 165 179 179 159 169 159 117 100 129 135 132 175 184 184 174 143 113 105 105 106 107 130 170 177 184 184 184 184 184 184 183 172 159 126 116 117 118 119 119 120 130 141 165 182 184 184 176 135 121 121 122 122 122 122 122 122 122 122 122 122 122 123 140 167 177 182 184 183 183 183 181 177 162 134 119 132 162 175 179 183 183 184 184 184 184 184 187 198 219 236 247 248 248 248 248 248 243 242 242 242 242 243 248 248 248 248 248 248 244 242 242 242 242 243 247 248 248 248 248 248 244 242 242 242 242 242 246 248 248 248 248 248 246 242 242 242 242 242 245 248 248 248 248 248 246 242 242 242 242 242 244 248 248 248 248 248 247 243 242 242 242 242 242
253 253 253 253 253 252 240 237 237 237 237 238 249 253 253 253 253 253 242 237 237 237 237 237 247 253 253 253 253 253 245 237 237 237 237 237 244 253 253 253 253 253 248 237 237 237 237 237 242 253 253 253 253 253 250 238 237 237 237 237 240 252 253 253 253 253 252 240 237 237 236 230 213 197 185 183 184 184 184 180 164 169 175 183 184 184 184 184 184 184 184 181 182 184 178 162 153 135 106 98 99 113 136 153 156 174 166 182 173 133 108 107 108 109 130 174 182 184 184 184 184 184 183 160 131 122 118 119 119 119 120 120 121 121 124 131 155 160 168 149 125 124 124 124 124 124 124 124 124 124 124 124 124 124 124 124 129 145 166 177 184 184 181 180 183 184 177 145 122 125 134 142 166 179 183 184 184 184 184 184 184 185 194 221 244 252 253 253 251 239 237 237 237 237 239 251 253 253 253 253 252 241 237 237 237 237 238 249 253 253 253 253 253 243 237 237 237 237 237 246 253 253 253 253 253 246 237 237 237 237 237 243 253 253 253 253 253 248 237 237 237 237 237 241 252 253 253 253 253 250 238 237 237 237 237 237
253 253 253 253 253 252 240 237 237 237 237 238 249 253 253 253 253 253 242 237 237 237 237 237 247 253 253 253 253 253 245 237 237 237 237 237 244 253 253 253 253 253 248 237 237 237 237 237 242 253 253 253 253 253 250 238 237 237 237 237 240 252 253 253 253 253 252 240 236 228 206 189 183 183 184 184 184 184 184 184 184 184 184 184 184 184 184 184 184 184 184 184 162 162 156 117 104 98 103 111 115 146 181 179 176 147 122 162 135 110 108 109 110 111 116 156 175 183 184 184 184 184 181 148 119 119 119 120 121 121 121 121 122 123 124 124 126 126 128 126 126 126 126 126 126 126 126 126 126 126 126 126 126 126 131 127 126 126 130 143 166 179 183 162 156 173 182 178 159 138 133 129 150 173 183 183 183 183 183 184 184 184 184 185 196 221 244 252 251 239 237 237 237 237 239 251 253 253 253 253 252 241 237 237 237 237 238 249 253 253 253 253 253 243 237 237 237 237 237 246 253 253 253 253 253 246 237 237 237 237 237 243 253 253 253 253 253 248 237 237 237 237 237 241 252 253 253 253 253 250 238 237 237 237 237 237
253 253 253 253 253 252 240 237 237 237 237 238 249 253 253 253 253 253 242 237 237 237 237 237 247 253 253 253 253 253 245 237 237 237 237 237 244 253 253 253 253 253 248 237 237 237 237 237 242 253 253 253 253 253 250 238 237 237 237 237 240 252 253 253 253 253 252 231 203 181 179 183 184 184 184 184 184 184 184 184 184 184 184 184 184 184 184 184 184 184 182 173 154 165 173 116 98 107 149 158 160 180 184 184 184 167 120 116 109 109 110 111 112 112 113 132 167 182 184 184 184 184 182 152 121 121 121 121 122 123 124 124 125 125 125 126 126 126 127 127 128 128 128 129 129 129 129 129 129 129 129 129 129 129 131 130 128 128 128 128 131 145 167 169 135 132 149 167 179 177 160 136 126 143 167 181 183 182 183 183 183 184 184 184 184 185 195 222 243 239 237 237 237 237 239 251 253 253 253 253 252 241 237 237 237 237 238 249 253 253 253 253 253 243 237 237 237 237 237 246 253 253 253 253 253 246 237 237 237 237 237 243 253 253 253 253 253 248 237 237 237 237 237 241 252 253 253 253 253 250 238 237 237 237 237 237
253 253 253 253 253 252 240 237 237 237 237 238 249 253 253 253 253 253 242 237 237 237 237 237 247 253 253 253 253 253 245 237 237 237 237 237 244 253 253 253 253 253 248 237 237 237 237 237 242 253 253 253 253 253 250 238 237 237 237 237 240 252 253 253 253 245 202 147 164 181 184 184 184 184 184 181 173 178 172 180 184 184 184 184 184 184 184 182 163 143 126 134 159 150 159 124 103 110 119 112 123 174 184 175 180 179 131 108 109 111 112 112 113 113 113 119 156 183 184 184 184 184 175 135 121 122 123 124 124 125 125 126 126 127 127 128 128 129 129 129 129 130 130 130 130 131 131 131 131 131 131 131 131 131 131 136 137 131 131 131 130 131 133 136 130 127 142 151 144 159 177 170 132 124 128 145 167 181 183 183 183 183 182 183 184 184 183 185 197 217 233 237 237 237 239 251 253 253 253 253 252 241 237 237 237 237 238 249 253 253 253 253 253 243 237 237 237 237 237 246 253 253 253 253 253 246 237 237 237 237 237 243 253 253 253 253 253 248 237 237 237 237 237 241 252 253 253 253 253 250 238 237 237 237 237 237
252 252 252 252 252 251 241 238 238 238 238 239 249 252 252 252 252 252 243 238 238 238 238 238 247 252 252 252 252 252 245 238 238 238 238 238 244 252 252 252 252 252 248 238 238 238 238 238 242 252 252 252 252 252 249 239 238 238 238 238 241 251 252 249 215 142 108 154 183 184 184 184 184 179 165 140 147 170 174 182 184 184 184 184 184 183 172 145 112 95 95 114 129 107 108 105 113 108 103 103 111 156 179 161 141 150 117 110 112 112 113 113 114 115 116 118 129 168 183 184 184 184 176 133 123 124 125 125 126 126 127 128 129 129 129 129 130 130 130 131 131 132 132 132 132 132 133 133 133 133 133 133 133 133 139 150 166 139 139 135 132 132 132 132 131 131 135 157 169 150 153 173 147 127 125 126 139 167 183 182 182 184 184 183 182 183 181 184 184 185 198 222 236 238 240 250 252 252 252 252 251 242 238 238 238 238 239 249 252 252 252 252 252 243 238 238 238 238 238 246 252 252 252 252 252 246 238 238 238 238 238 243 252 252 252 252 252 248 238 238 238 238 238 242 251 252 252 252 252 249 239 238 238 238 238 238
240 240 240 240 240 241 248 250 250 250 250 249 243 240 240 240 240 240 247 250 250 250 250 250 244 240 240 240 240 240 246 250 250 250 250 250 246 240 240 240 240 240 244 250 250 250 250 250 248 241 240 240 240 240 243 249 250 250 250 250 249 240 221 159 100 116 163 182 184 184 184 184 180 144 144 161 178 184 184 184 184 184 184 184 178 150 113 96 94 94 96 112 125 115 117 131 146 135 142 117 107 115 138 159 132 117 112 112 113 113 113 114 116 117 118 119 120 134 170 180 177 183 176 135 125 126 126 127 128 129 129 129 129 130 130 131 131 132 132 132 133 133 133 133 134 134 134 134 135 135 135 135 135 135 143 146 169 171 176 163 137 134 134 134 133 133 133 136 151 165 161 164 149 132 130 132 165 172 183 184 183 183 184 184 183 182 180 183 183 184 184 186 209 239 249 242 240 240 240 240 241 248 250 250 250 250 250 243 240 240 240 240 240 247 250 250 250 250 250 245 240 240 240 240 240 245 250 250 250 250 250 246 240 240 240 240 240 243 250 250 250 250 250 248 241 240 240 240 240 242 249 250 250 250 250 250
237 237 237 237 237 238 250 253 253 253 253 252 241 237 237 237 237 237 248 253 253 253 253 253 243 237 237 237 237 237 246 253 253 253 253 253 246 237 237 237 237 237 243 253 253 253 253 253 249 238 237 237 237 237 241 252 253 253 253 253 243 183 109 84 128 176 184 184 184 184 184 184 184 179 182 184 184 184 184 184 184 184 182 164 123 97 94 94 95 96 97 100 101 112 130 176 184 182 183 148 112 108 109 113 119 116 112 113 113 114 116 117 118 119 119 120 121 122 133 141 142 166 169 133 126 127 128 129 129 129 130 131 131 131 132 132 133 133 133 134 134 135 135 135 136 136 136 136 136 136 136 137 137 137 137 140 147 167 181 181 153 138 136 136 136 135 135 134 134 138 152 158 154 144 154 151 170 184 184 184 184 184 184 184 184 184 183 182 183 183 183 183 184 195 223 235 237 237 237 237 238 250 253 253 253 253 253 242 237 237 237 237 237 248 253 253 253 253 253 244 237 237 237 237 237 245 253 253 253 253 253 247 237 237 237 237 237 242 253 253 253 253 253 249 238 237 237 237 237 240 252 253 253 253 253 253
237 237 237 237 237 238 250 253 253 253 253 252 241 237 237 237 237 237 248 253 253 253 253 253 243 237 237 237 237 237 246 253 253 253 253 253 246 237 237 237 237 237 243 253 253 253 253 253 249 238 237 237 237 237 241 252 253 253 252 226 145 83 96 144 176 184 184 184 184 184 184 184 184 184 184 184 184 184 184 184 184 178 144 105 94 94 94 95 97 98 99 100 100 107 158 184 184 184 184 179 149 117 112 112 116 113 113 114 115 117 118 118 119 120 120 121 122 123 124 125 126 132 138 129 128 129 129 130 130 131 131 132 132 133 133 133 134 135 135 136 136 136 136 136 137 137 137 137 138 138 138 138 138 138 138 138 138 143 158 172 173 169 155 141 137 137 137 136 136 136 136 142 159 172 178 182 179 183 184 184 184 184 184 183 183 182 183 183 184 184 183 182 183 183 186 201 225 236 237 237 238 250 253 253 253 253 253 242 237 237 237 237 237 248 253 253 253 253 253 244 237 237 237 237 237 245 253 253 253 253 253 247 237 237 237 237 237 242 253 253 253 253 253 249 238 237 237 237 237 240 252 253 253 253 253 253
237 237 237 237 237 238 250 253 253 253 253 252 241 237 237 237 237 237 248 253 253 253 253 253 243 237 237 237 237 237 246 253 253 253 253 253 246 237 237 237 237 237 243 253 253 253 253 253 249 238 237 237 237 237 241 252 253 245 189 105 81 114 159 181 184 184 184 184 184 184 184 184 184 184 184 184 184 184 184 184 173 128 97 93 94 94 96 97 98 100 100 102 102 125 176 184 184 184 184 178 132 114 113 125 151 118 115 116 117 118 119 119 120 121 121 123 124 124 125 126 126 127 128 129 129 130 131 131 131 132 133 133 133 134 134 135 136 136 136 137 137 137 138 138 138 138 138 139 139 139 139 139 140 140 140 140 140 140 147 155 161 177 175 171 154 144 139 138 138 137 137 138 156 177 184 184 184 184 183 183 184 184 184 184 184 183 183 184 184 184 184 184 184 183 183 183 189 211 232 237 238 250 253 253 253 253 253 242 237 237 237 237 237 248 253 253 253 253 253 244 237 237 237 237 237 245 253 253 253 253 253 247 237 237 237 237 237 242 253 253 253 253 253 249 238 237 237 237 237 240 252 253 253 253 253 253
237 237 237 237 237 238 250 253 253 253 253 252 241 237 237 237 237 237 248 253 253 253 253 253 243 237 237 237 237 237 246 253 253 253 253 253 246 237 237 237 237 237 243 253 253 253 253 253 249 238 237 237 237 237 241 252 230 146 82 81 129 174 183 184 184 184 184 184 184 184 184 184 184 184 184 184 184 184 184 179 127 95 94 94 94 96 97 98 100 100 101 104 132 172 184 184 184 184 184 171 122 113 117 156 176 132 117 117 119 119 120 121 121 123 124 124 125 126 126 126 128 129 129 130 131 131 131 132 133 133 133 134 135 136 136 136 137 137 138 138 138 138 139 139 140 140 140 141 141 141 141 141 141 141 142 142 142 143 163 178 173 157 149 166 177 177 163 145 139 139 138 145 176 183 183 184 184 184 184 183 183 184 184 184 184 184 184 183 184 183 184 184 184 184 184 183 183 185 198 224 237 250 253 253 253 253 253 242 237 237 237 237 237 248 253 253 253 253 253 244 237 237 237 237 237 245 253 253 253 253 253 247 237 237 237 237 237 242 253 253 253 253 253 249 238 237 237 237 237 240 252 253 253 253 253 253
240 240 240 240 240 240 249 251 251 251 251 250 242 240 240 240 240 240 247 251 251 251 251 251 244 240 240 240 240 240 246 251 251 251 251 251 246 240 240 240 240 240 244 251 251 251 251 251 248 240 240 240 240 240 238 200 111 74 89 132 175 184 184 184 184 184 184 184 184 184 184 184 184 184 184 184 184 184 184 175 115 94 94 94 96 97 98 100 100 101 101 119 175 184 184 184 184 184 184 176 149 137 160 179 182 147 119 119 119 120 121 122 123 124 124 125 126 126 127 128 129 130 130 131 131 132 133 133 133 134 135 136 136 136 137 137 138 138 139 139 140 140 141 141 141 141 141 142 142 142 142 142 142 142 142 142 142 144 159 180 183 169 146 144 156 180 183 174 155 153 144 142 163 177 183 184 184 184 184 184 184 183 182 183 183 183 184 184 183 184 184 184 184 184 184 184 183 182 183 187 210 244 251 251 251 251 251 243 240 240 240 240 240 247 251 251 251 251 251 244 240 240 240 240 240 245 251 251 251 251 251 247 240 240 240 240 240 243 251 251 251 251 251 248 240 240 240 240 240 242 250 251 251 251 251 251
252 252 252 252 252 251 241 239 239 239 239 239 248 252 252 252 252 252 243 239 239 239 239 239 247 252 252 252 252 252 245 239 239 239 239 239 244 252 252 252 252 252 248 239 239 239 239 239 243 252 252 252 252 237 163 86 72 97 151 179 184 184 184 184 184 184 184 184 184 184 184 184 184 184 184 184 184 184 182 142 97 94 94 96 97 99 100 100 101 102 104 120 177 184 184 184 184 184 184 182 179 180 184 184 184 168 127 120 121 121 122 124 124 125 125 126 126 128 129 129 130 131 131 132 132 133 133 134 135 136 136 137 137 138 138 138 139 140 141 141 141 141 141 142 142 142 142 142 142 143 143 143 143 144 144 144 144 145 156 178 183 183 170 149 157 177 184 184 181 182 168 144 146 170 182 183 184 184 184 184 184 183 182 184 183 183 183 183 182 181 183 184 184 182 182 184 184 184 171 172 181 193 226 238 239 239 239 248 252 252 252 252 252 243 239 239 239 239 239 246 252 252 252 252 252 246 239 239 239 239 239 244 252 252 252 252 252 248 239 239 239 239 239 242 251 252 252 252 252 249 239 239 239 239 239 239
253 253 253 253 253 252 240 237 237 237 237 238 249 253 253 253 253 253 242 237 237 237 237 237 247 253 253 253 253 253 245 237 237 237 237 237 244 253 253 253 253 253 248 237 237 237 237 237 242 253 253 252 221 130 75 72 88 148 181 184 184 184 184 184 184 184 184 184 184 184 184 184 184 184 184 184 184 184 171 135 123 100 96 97 99 100 100 101 103 105 105 118 175 184 184 184 184 184 184 184 184 184 184 184 184 173 133 121 121 123 124 124 125 126 126 126 128 129 130 131 131 131 132 133 133 134 135 136 136 136 137 138 138 138 139 140 141 141 141 142 142 142 142 142 142 143 144 145 145 145 146 146 146 146 146 146 146 146 147 152 169 183 184 169 149 158 181 184 184 184 181 156 145 160 181 183 183 184 184 184 184 183 183 184 184 184 184 182 183 183 183 183 184 181 181 181 182 184 179 152 166 180 180 211 235 237 238 249 253 253 253 253 253 243 237 237 237 237 237 246 253 253 253 253 253 246 237 237 237 237 237 243 253 253 253 253 253 248 237 237 237 237 237 241 252 253 253 253 253 250 238 237 237 237 237 237
253 253 253 253 253 252 240 237 237 237 237 238 249 253 253 253 253 253 242 237 237 237 237 237 247 253 253 253 253 253 245 237 237 237 237 237 244 253 253 253 253 253 248 237 237 237 237 237 242 253 247 194 103 71 86 111 155 182 184 184 184 184 184 184 184 184 184 184 184 184 184 184 184 184 184 184 184 184 183 182 178 121 97 98 100 100 101 104 116 110 108 138 181 184 184 184 184 184 184 184 184 184 184 184 184 169 131 122 124 124 124 125 126 126 127 129 129 130 131 131 131 133 133 133 135 136 136 136 137 138 138 139 140 141 141 141 141 142 142 142 142 143 143 144 145 146 146 146 146 146 147 147 147 147 147 148 148 148 148 148 159 181 183 166 149 153 168 171 177 184 183 179 160 168 180 183 183 173 171 182 184 184 184 184 184 184 183 182 182 184 180 182 182 183 183 182 181 182 172 163 134 157 180 176 199 231 238 249 253 253 253 253 253 243 237 237 237 237 237 246 253 253 253 253 253 246 237 237 237 237 237 243 253 253 253 253 253 248 237 237 237 237 237 241 252 253 253 253 253 250 238 237 237 237 237 237
253 253 253 253 253 252 240 237 237 237 237 238 249 253 253 253 253 253 242 237 237 237 237 237 247 253 253 253 253 253 245 237 237 237 237 237 244 253 253 253 253 253 248 237 237 237 237 237 242 238 162 84 70 81 113 161 183 184 184 184 184 184 184 184 184 184 184 184 184 184 184 184 184 184 184 184 184 184 184 184 183 150 106 100 100 101 103 111 126 115 136 175 184 184 184 184 184 184 184 184 184 184 184 184 184 182 159 129 124 124 125 126 126 127 129 130 131 131 131 132 133 133 134 135 136 136 137 138 138 139 140 141 141 141 142 142 142 142 142 143 144 145 146 146 146 146 147 147 147 148 148 148 148 148 148 148 148 148 148 148 152 165 169 152 148 148 149 155 179 178 168 159 150 155 178 184 183 173 151 161 181 184 184 184 184 184 183 184 183 183 182 184 183 180 183 184 183 182 172 142 136 149 170 180 178 187 225 249 253 253 253 253 253 243 237 237 237 237 237 246 253 253 253 253 253 246 237 237 237 237 237 243 253 253 253 253 253 248 237 237 237 237 237 241 252 253 253 253 253 250 238 237 237 237 237 237
253 253 253 253 253 252 240 237 237 237 237 238 249 253 253 253 253 253 242 237 237 237 237 237 247 253 253 253 253 253 245 237 237 237 237 237 244 253 253 253 253 253 248 237 237 237 237 236 213 131 74 70 78 108 163 183 184 184 184 184 184 184 184 184 184 184 184 184 184 184 184 184 184 184 184 184 184 184 184 184 184 181 147 131 115 104 105 112 132 160 180 184 184 184 184 184 184 184 184 184 184 184 184 184 184 184 179 165 150 135 126 126 127 129 130 131 131 131 133 133 133 135 136 136 136 138 138 138 139 141 141 141 142 142 142 142 143 144 145 146 146 146 147 147 148 148 148 148 148 148 148 149 149 149 149 150 150 150 150 150 150 150 151 150 150 150 150 154 173 160 150 149 150 152 178 184 184 183 176 164 176 184 184 184 184 184 183 183 184 183 183 184 184 182 181 184 184 184 182 167 135 143 153 141 161 177 182 227 252 253 253 253 253 243 237 237 237 237 237 246 253 253 253 253 253 246 237 237 237 237 237 243 253 253 253 253 253 248 237 237 237 237 237 241 252 253 253 253 253 250 238 237 237 237 237 237
249 249 249 249 249 249 243 241 241 241 241 242 247 249 249 249 249 249 244 241 241 241 241 241 246 249 249 249 249 249 245 241 241 241 241 241 245 249 249 249 249 249 247 241 241 241 239 197 105 70 70 74 95 162 184 184 184 184 184 184 184 184 184 184 184 184 184 184 184 182 184 184 184 184 184 184 184 184 184 184 184 184 183 180 135 106 117 160 180 184 184 184 184 184 184 184 184 184 184 184 184 184 184 184 184 184 184 182 173 155 128 128 129 130 131 131 132 133 133 134 136 136 136 137 138 138 139 140 141 141 142 142 142 142 143 144 146 146 146 146 147 147 148 148 148 148 148 149 150 150 150 150 150 150 150 151 151 152 152 152 152 152 152 152 152 152 152 152 156 151 150 150 156 159 178 184 184 184 184 184 184 184 184 184 178 176 182 183 184 184 183 183 184 184 182 183 184 184 184 182 171 135 127 126 118 139 167 178 217 247 249 249 249 244 241 241 241 241 241 246 249 249 249 249 249 246 241 241 241 241 241 244 249 249 249 249 249 247 241 241 241 241 241 243 249 249 249 249 249 248 242 241 241 241 241 241
238 238 238 238 238 239 250 252 252 252 252 252 241 238 238 238 238 238 248 252 252 252 252 252 243 238 238 238 238 238 246 252 252 252 252 252 246 238 238 238 238 238 243 252 253 249 192 94 69 70 72 98 158 183 184 184 184 184 184 184 184 184 184 184 184 184 184 184 171 141 177 184 184 184 184 184 184 184 184 184 184 184 184 160 111 106 132 181 184 184 184 184 184 184 184 184 184 184 184 184 184 184 184 184 184 183 176 166 175 173 154 136 130 131 131 132 133 133 134 136 136 136 137 138 139 140 141 141 142 142 142 142 143 144 145 146 146 146 147 148 148 148 148 149 149 150 150 150 150 151 151 152 152 152 153 153 153 153 153 153 153 153 153 153 153 153 153 153 153 152 152 153 156 154 168 183 184 184 184 184 184 184 184 183 174 154 165 181 183 181 179 182 182 183 182 183 183 183 184 184 183 167 132 121 118 116 122 145 169 201 234 238 238 248 252 252 252 252 252 244 238 238 238 238 238 245 252 252 252 252 252 247 238 238 238 238 238 242 252 252 252 252 252 249 239 238 238 238 238 240 252 252 252 252 252 252
237 237 237 237 237 238 250 253 253 253 253 252 241 237 237 237 237 237 248 253 253 253 253 253 243 237 237 237 237 237 246 253 253 253 253 253 246 237 237 237 237 237 243 253 247 179 85 68 70 72 93 161 184 184 184 184 184 184 184 184 184 184 184 184 184 184 184 180 129 135 182 184 184 184 184 184 184 184 184 184 184 184 180 136 108 108 142 183 184 184 184 184 184 184 184 184 184 184 184 184 184 184 184 184 184 184 179 181 184 184 181 147 131 131 132 133 133 135 136 136 137 138 138 139 140 141 141 142 142 142 142 144 145 146 146 146 147 148 148 148 148 149 150 150 150 150 151 151 152 153 153 153 153 153 153 153 153 154 154 154 154 154 154 154 154 154 154 153 153 153 153 165 179 173 166 181 184 184 184 184 184 184 184 183 183 173 157 172 184 183 181 182 183 183 183 183 182 181 182 184 184 183 168 134 121 118 115 114 130 164 198 232 237 248 253 253 253 253 253 244 237 237 237 237 237 245 253 253 253 253 253 247 237 237 237 237 237 242 253 253 253 253 253 249 238 237 237 237 237 240 252 253 253 253 253 253
237 237 237 237 237 238 250 253 253 253 253 252 241 237 237 237 237 237 248 253 253 253 253 253 243 237 237 237 237 237 246 253 253 253 253 253 246 237 237 237 237 237 243 244 166 81 68 70 74 107 141 182 184 184 184 184 184 184 184 184 184 184 184 184 184 184 184 163 116 171 184 184 184 184 184 184 184 184 184 184 184 184 174 144 115 111 160 184 184 184 184 184 184 184 184 184 184 184 184 184 184 184 184 184 184 184 184 184 184 184 181 146 131 133 133 133 135 136 136 137 138 138 139 141 141 142 142 142 142 143 145 146 146 146 147 148 148 148 149 149 150 150 150 150 151 152 153 153 153 153 153 154 154 154 155 155 155 155 155 155 155 155 155 155 155 155 155 155 155 155 154 157 169 174 177 182 184 184 184 184 184 184 184 184 183 183 180 180 184 184 183 166 173 178 181 183 183 183 183 183 183 183 182 169 132 121 119 116 114 124 162 199 231 248 253 253 253 253 253 244 237 237 237 237 237 245 253 253 253 253 253 247 237 237 237 237 237 242 253 253 253 253 253 249 238 237 237 237 237 240 252 253 253 253 253 253
237 237 237 237 237 238 250 253 253 253 253 252 241 237 237 237 237 237 248 253 253 253 253 253 243 237 237 237 237 237 246 253 253 253 253 253 246 237 237 237 237 237 230 154 76 68 70 71 105 152 170 184 184 184 184 184 184 184 184 184 184 184 184 184 184 184 184 158 150 183 184 184 184 184 184 184 184 184 184 184 184 184 163 113 110 129 178 184 184 184 184 184 184 184 184 184 184 184 184 184 184 184 184 184 184 184 184 184 184 183 172 144 133 133 134 135 136 136 137 138 138 140 141 141 142 142 142 142 144 146 146 146 147 147 148 148 149 150 150 150 150 151 151 152 153 153 153 154 154 155 155 155 155 155 156 156 156 157 157 157 157 157 157 157 157 157 156 156 155 155 155 155 155 155 157 163 177 183 184 184 184 184 184 184 184 183 183 184 184 184 183 169 155 155 166 180 183 183 183 184 183 183 184 183 163 130 122 120 132 129 127 169 199 241 253 253 253 253 253 244 237 237 237 237 237 245 253 253 253 253 253 247 237 237 237 237 237 242 253 253 253 253 253 249 238 237 237 237 237 240 252 253 253 253 253 253
237 237 237 237 237 238 250 253 253 253 253 252 241 237 237 237 237 237 248 253 253 253 253 253 243 237 237 237 237 237 246 253 253 253 253 253 246 237 237 237 237 224 140 73 69 69 71 85 134 161 183 184 184 184 184 184 184 184 184 184 184 184 184 184 184 184 183 163 176 184 184 184 184 184 184 184 184 184 184 184 184 184 174 123 122 165 184 184 184 184 184 184 184 184 184 184 184 184 184 184 184 184 184 184 184 184 184 184 178 162 165 149 133 133 135 136 136 137 138 138 140 141 141 142 142 142 143 145 146 146 146 147 148 148 148 149 150 150 150 151 152 153 153 153 153 154 154 155 155 155 155 156 157 157 158 158 158 158 158 158 158 158 158 158 158 158 158 158 158 157 157 156 156 155 155 155 159 169 179 184 184 184 184 184 184 184 184 183 184 184 184 183 168 146 145 157 175 182 183 177 178 183 183 184 183 162 133 123 150 175 160 173 183 203 244 253 253 253 253 244 237 237 237 237 237 245 253 253 253 253 253 247 237 237 237 237 237 242 253 253 253 253 253 249 238 237 237 237 237 240 252 253 253 253 253 253
244 244 244 244 244 244 246 247 247 247 247 247 245 244 244 244 244 244 246 247 247 247 247 247 245 244 244 244 244 244 245 247 247 247 247 247 245 244 244 244 227 136 72 68 69 70 74 122 143 178 184 184 184 184 184 184 184 184 184 184 184 184 184 184 184 184 166 163 183 184 184 184 184 184 184 184 184 184 184 184 184 184 178 155 169 181 184 184 184 184 184 184 184 184 184 184 184 184 184 184 184 184 184 184 184 184 181 166 145 154 169 139 134 135 136 136 138 138 139 141 141 141 142 142 142 143 145 146 146 146 147 148 148 149 150 150 150 151 152 153 153 153 153 154 155 155 155 155 156 156 157 158 158 158 158 158 158 158 158 158 158 158 158 158 158 158 158 158 158 158 158 158 158 157 157 156 155 155 162 178 184 184 184 184 184 184 184 183 181 181 175 176 180 161 146 146 149 156 167 166 151 171 183 183 184 183 170 142 135 173 184 184 184 182 198 238 247 247 247 245 244 244 244 244 244 245 247 247 247 247 247 246 244 244 244 244 244 245 247 247 247 247 247 246 244 244 244 244 244 244 247 247 247 247 247 247
253 253 253 253 253 252 240 237 237 237 237 238 249 253 253 253 253 253 242 237 237 237 237 237 247 253 253 253 253 253 245 237 237 237 237 237 244 253 253 237 140 71 68 69 70 71 91 145 170 182 183 183 184 184 184 184 184 184 184 184 184 184 184 184 184 183 174 182 184 184 184 184 184 184 184 184 184 184 184 184 184 184 184 183 183 184 184 184 184 184 184 184 184 184 184 184 184 184 181 171 169 172 175 178 177 169 150 134 140 173 161 140 136 137 136 137 138 139 141 141 142 142 142 142 144 146 146 146 147 148 148 149 149 150 150 152 152 153 153 153 154 154 155 155 155 155 155 157 158 158 158 158 158 158 158 158 159 159 159 159 160 160 160 160 160 160 160 160 159 159 159 159 158 158 158 158 158 157 156 164 180 184 184 184 184 184 184 184 173 159 157 153 163 176 162 162 160 144 144 148 143 147 175 182 183 183 182 178 162 171 184 184 184 184 182 195 228 237 237 246 253 253 253 253 253 246 237 237 237 237 237 243 253 253 253 253 253 248 237 237 237 237 237 241 252 253 253 253 253 250 238 237 237 237 237 237
253 253 253 253 253 252 240 237 237 237 237 238 249 253 253 253 253 253 242 237 237 237 237 237 247 253 253 253 253 253 245 237 237 237 237 237 244 253 238 141 71 68 69 70 72 99 130 170 183 184 183 183 182 182 183 183 183 184 184 184 184 184 184 184 184 184 184 184 184 184 184 184 184 184 184 184 184 184 184 184 184 184 184 184 184 184 184 184 184 184 184 184 184 184 184 184 183 172 145 128 134 152 148 138 136 133 131 132 155 180 176 157 153 154 139 138 139 140 141 142 142 142 142 144 146 146 146 147 148 148 149 150 150 151 152 153 153 153 153 154 155 155 155 155 155 156 157 158 158 158 158 158 159 159 159 160 160 160 160 160 160 160 160 160 160 160 160 160 160 160 160 160 160 160 159 159 159 158 158 158 170 183 184 184 184 184 184 184 181 164 152 150 150 160 174 180 180 165 149 143 141 140 158 179 183 180 182 173 157 152 182 184 184 184 184 184 196 228 237 246 253 253 253 253 253 246 237 237 237 237 237 243 253 253 253 253 253 248 237 237 237 237 237 241 252 253 253 253 253 250 238 237 237 237 237 237
253 253 253 253 253 252 240 237 237 237 237 238 249 253 253 253 253 253 242 237 237 237 237 237 247 253 253 253 253 253 245 237 237 237 237 237 244 240 145 71 67 69 70 71 96 163 179 184 184 184 184 184 184 184 184 183 183 183 182 183 182 183 183 183 183 183 183 184 184 184 184 184 184 184 184 184 184 184 184 184 184 184 184 184 184 184 184 184 184 184 184 184 184 184 184 180 160 139 140 141 131 143 162 146 130 131 131 140 172 184 184 182 181 169 142 139 140 141 141 142 142 142 144 146 146 146 147 148 148 149 150 150 150 152 153 153 153 154 155 155 155 155 155 156 157 158 158 158 158 158 159 159 160 160 160 160 160 160 160 160 160 160 160 160 160 160 160 160 160 160 160 160 160 160 160 160 160 159 159 159 160 175 184 184 184 184 184 173 167 169 157 150 150 160 158 163 163 163 175 169 160 143 141 157 180 182 182 155 141 165 183 184 184 184 184 184 184 198 229 246 253 253 253 253 253 246 237 237 237 237 237 243 253 253 253 253 253 248 237 237 237 237 237 241 252 253 253 253 253 250 238 237 237 237 237 237
253 253 253 253 253 252 240 237 237 237 237 238 249 253 253 253 253 253 242 237 237 237 237 237 247 253 253 253 253 253 245 237 237 237 237 237 232 151 73 67 69 69 71 81 150 182 184 184 184 184 184 184 184 184 184 184 184 184 184 184 184 184 184 183 183 183 182 183 184 184 184 178 157 161 181 184 184 184 184 184 184 184 184 184 184 184 184 184 184 184 184 184 184 183 173 154 156 172 180 180 148 126 131 132 131 131 134 160 183 184 184 184 184 174 152 141 141 141 142 142 142 144 146 146 146 147 148 148 149 150 150 150 152 153 153 153 155 155 155 155 155 155 157 158 158 158 158 158 159 160 160 160 160 160 160 160 160 161 161 161 161 161 161 161 161 161 161 161 161 161 161 161 160 160 160 160 160 160 160 160 160 165 182 184 184 177 177 169 156 155 153 152 152 161 169 153 150 149 165 182 181 171 159 148 162 181 182 166 142 149 175 183 184 184 184 184 184 184 199 240 253 253 253 253 253 246 237 237 237 237 237 243 253 253 253 253 253 248 237 237 237 237 237 241 252 253 253 253 253 250 238 237 237 237 237 237
253 253 253 253 253 252 240 237 237 237 237 238 249 253 253 253 253 253 242 237 237 237 237 237 247 253 253 253 253 253 245 237 237 237 237 229 150 74 67 69 69 70 75 128 181 184 184 184 184 184 184 184 184 184 184 184 184 184 184 184 184 184 184 184 184 184 183 182 182 181 162 125 105 112 171 184 184 184 184 184 184 184 184 184 184 184 184 184 184 184 184 183 180 169 156 174 183 178 167 158 134 128 129 130 131 132 145 176 182 182 179 180 180 167 157 144 141 142 142 142 144 146 146 146 147 148 148 149 150 150 150 151 153 153 153 155 155 155 155 155 156 157 158 158 158 158 159 160 160 160 160 160 160 160 161 161 161 161 161 161 161 161 161 161 161 161 161 161 161 161 161 161 161 161 162 165 165 169 169 173 175 178 183 184 183 171 162 173 166 155 155 154 153 153 161 159 150 150 150 157 168 179 182 173 158 161 177 179 157 137 144 168 182 184 184 184 184 184 182 205 246 253 253 253 253 246 237 237 237 237 237 243 253 253 253 253 253 248 237 237 237 237 237 241 252 253 253 253 253 250 238 237 237 237 237 237
244 244 244 244 244 244 246 246 246 246 246 246 245 244 244 244 244 244 246 246 246 246 246 246 245 244 244 244 244 244 246 246 246 246 241 163 75 67 68 69 70 77 121 174 184 184 184 184 184 184 184 184 184 184 184 184 184 184 184 184 184 184 184 184 184 184 184 183 172 140 113 101 100 105 145 181 184 184 184 184 184 184 184 184 184 184 184 184 184 184 184 184 170 158 179 184 184 177 156 141 128 129 131 134 132 133 144 153 151 149 147 158 158 159 176 150 142 142 142 143 146 146 146 147 148 148 149 150 150 150 151 153 153 153 154 155 155 155 155 157 158 158 158 158 159 160 160 160 160 160 160 161 161 161 161 161 161 161 161 161 161 161 162 162 163 163 163 163 163 163 162 162 161 161 170 181 182 183 184 184 184 184 184 184 184 182 169 165 178 162 155 155 155 154 153 156 161 152 150 149 149 154 167 172 156 147 152 172 180 158 139 140 167 183 184 184 184 184 182 182 206 240 244 244 244 245 246 246 246 246 246 246 244 244 244 244 244 245 246 246 246 246 246 246 244 244 244 244 244 245 246 246 246 246 246 246
237 237 237 237 237 238 250 253 253 253 253 252 241 237 237 237 237 237 248 253 253 253 253 253 243 237 237 237 237 237 246 253 253 250 184 81 66 68 69 69 79 134 179 184 184 184 184 184 184 184 184 184 184 184 184 184 184 184 184 184 184 184 184 184 184 184 176 145 113 107 118 105 100 101 134 182 184 184 184 184 184 184 184 184 184 184 184 184 184 184 184 175 165 180 183 183 184 184 175 138 130 130 132 133 137 135 133 135 136 136 138 149 143 152 163 145 142 142 143 146 146 146 147 148 148 149 150 150 150 151 153 153 153 154 155 155 155 156 158 158 158 158 158 160 160 160 160 160 161 161 161 161 161 161 161 161 161 161 162 163 164 164 165 165 165 165 165 165 165 165 165 164 164 163 173 183 184 184 184 184 184 184 184 184 184 184 182 179 182 166 157 156 155 155 154 157 176 168 152 150 149 148 149 156 164 151 142 144 161 178 166 148 146 170 183 184 184 184 178 180 182 203 234 237 237 245 253 253 253 253 253 247 237 237 237 237 237 242 253 253 253 253 253 249 238 237 237 237 237 240 252 253 253 253 253 253
237 237 237 237 237 238 250 253 253 253 253 252 241 237 237 237 237 237 248 253 253 253 253 253 243 237 237 237 237 237 246 253 252 199 89 66 68 69 69 76 131 180 184 184 184 184 184 184 184 184 184 184 184 184 184 184 184 184 184 184 184 184 184 184 184 183 162 133 133 161 152 117 114 112 151 184 184 184 184 184 184 184 184 184 184 184 184 184 184 184 182 175 181 184 184 183 184 184 180 149 145 138 136 137 161 141 135 136 136 138 138 139 140 141 143 142 142 142 145 146 146 147 148 148 149 150 150 150 151 152 153 153 154 155 155 155 156 158 158 158 158 159 160 160 160 160 160 161 161 161 161 161 161 161 161 162 163 164 165 165 165 165 165 165 165 165 165 165 165 165 165 165 165 165 166 174 183 184 184 184 184 184 184 184 184 184 184 184 177 161 158 158 156 155 155 155 162 176 165 152 150 149 148 148 154 165 147 142 142 159 168 165 145 141 166 182 183 181 163 161 182 182 206 235 237 245 253 253 253 253 253 247 237 237 237 237 237 242 253 253 253 253 253 249 238 237 237 237 237 240 252 253 253 253 253 253
237 237 237 237 237 238 250 253 253 253 253 252 241 237 237 237 237 237 248 253 253 253 253 253 243 237 237 237 237 237 246 253 215 100 66 67 69 69 72 119 178 184 184 184 184 184 184 184 184 184 184 184 184 184 184 184 184 184 184 184 184 184 184 184 184 184 183 181 182 184 183 175 171 164 157 169 179 183 184 184 184 184 184 184 184 184 184 184 184 184 184 183 183 184 184 184 184 184 183 165 152 155 141 155 171 152 136 136 137 138 138 140 141 141 142 142 143 145 146 146 147 148 148 148 150 150 150 150 152 153 153 153 155 155 155 156 158 158 158 158 159 160 160 160 160 161 161 161 161 161 161 161 162 163 164 165 165 165 165 165 165 165 165 165 165 165 165 165 165 166 166 166 165 165 165 167 178 184 184 184 184 184 184 184 184 184 184 184 175 160 160 159 158 158 156 155 155 163 177 160 152 151 149 148 148 155 158 143 142 142 156 174 155 137 138 156 171 158 157 137 168 182 182 211 236 245 253 253 253 253 253 247 237 237 237 237 237 242 253 253 253 253 253 249 238 237 237 237 237 240 252 253 253 253 253 253
237 237 237 237 237 238 250 253 253 253 253 252 241 237 237 237 237 237 248 253 253 253 253 253 243 237 237 237 237 237 246 231 116 67 66 68 69 70 104 172 184 184 184 184 184 184 184 184 184 184 184 184 184 184 184 184 184 184 184 184 184 184 184 184 184 184 184 184 184 182 162 142 132 141 123 131 148 149 180 184 184 184 184 184 184 184 184 184 184 184 184 183 184 184 184 183 184 182 171 175 173 165 164 164 151 140 136 137 138 138 139 141 141 142 142 142 144 146 146 146 148 148 148 150 150 150 150 151 153 153 153 154 155 155 156 158 158 158 158 159 160 160 160 160 161 161 161 161 161 161 162 163 165 165 165 165 165 165 165 165 165 165 166 166 166 166 166 167 167 167 167 167 167 166 166 166 169 181 184 184 184 184 184 184 184 184 184 184 179 162 160 161 165 162 158 156 155 155 167 164 153 153 151 150 149 154 166 147 142 142 142 153 167 144 137 135 139 145 130 124 137 174 182 182 219 245 253 253 253 253 253 247 237 237 237 237 237 242 253 253 253 253 253 249 238 237 237 237 237 240 252 253 253 253 253 253
238 238 238 238 238 239 250 253 253 253 253 252 241 238 238 238 238 238 248 253 253 253 253 253 243 238 238 238 238 237 234 140 69 66 68 69 69 89 160 184 184 184 184 184 184 184 184 184 184 184 184 184 184 184 184 184 184 184 184 184 184 184 184 184 184 184 184 184 181 151 109 108 153 169 119 112 121 116 167 184 184 184 184 184 184 184 184 183 183 183 183 184 184 184 184 176 163 150 151 167 181 181 170 148 135 136 136 138 138 138 141 141 142 142 142 143 145 146 146 147 148 148 149 150 150 150 151 153 153 153 154 155 155 155 157 158 158 158 160 160 160 160 161 161 161 161 161 161 162 163 164 165 165 165 165 166 166 166 166 167 167 167 167 167 167 167 167 167 167 167 167 167 167 167 167 167 167 172 183 184 184 184 184 184 184 184 184 184 181 165 161 162 170 163 158 158 157 155 156 156 154 153 153 153 165 175 174 150 145 143 142 140 150 153 138 133 133 134 126 124 123 140 176 182 187 234 253 253 253 253 253 247 238 238 238 238 238 242 253 253 253 253 253 249 239 238 238 238 238 240 252 253 253 253 253 253
249 249 249 249 249 248 243 242 242 242 242 242 247 249 249 249 249 249 244 242 242 242 242 242 246 249 249 249 249 244 163 74 66 67 69 69 77 142 183 184 184 184 184 184 184 184 184 184 184 184 184 184 184 184 184 184 184 184 184 184 184 184 184 184 184 184 184 184 164 118 120 157 181 169 117 108 132 121 160 184 184 184 184 183 183 183 183 181 180 182 184 184 183 182 178 152 133 158 178 172 162 147 137 134 136 136 137 138 138 139 141 141 142 142 142 145 146 146 147 148 148 149 150 150 150 151 153 153 153 154 155 155 155 157 158 158 159 160 160 160 160 161 161 161 161 161 162 163 165 165 165 165 165 165 166 167 167 167 167 167 167 167 167 167 167 167 167 167 167 167 167 168 168 168 168 168 167 168 178 184 184 184 184 184 184 184 184 184 183 173 162 163 162 160 160 159 158 157 156 155 155 154 153 153 162 172 179 165 148 145 143 141 139 140 138 136 133 132 129 126 125 123 139 175 182 197 237 242 242 242 242 244 249 249 249 249 249 247 242 242 242 242 242 243 248 249 249 249 249 247 242 242 242 242 242 242
253 253 253 253 253 252 240 237 237 237 237 238 249 253 253 253 253 253 242 237 237 237 237 237 247 253 253 253 252 193 84 66 66 69 69 71 119 179 184 184 184 184 184 184 184 184 184 184 184 184 184 184 184 184 184 184 184 184 184 184 184 184 184 184 184 184 184 183 152 114 164 184 179 135 108 118 167 167 179 184 184 176 162 174 183 184 184 184 184 184 184 181 160 148 138 129 150 182 169 139 133 133 133 135 136 137 138 138 138 141 141 142 142 142 143 146 146 146 148 148 148 150 150 150 151 153 153 153 154 155 155 155 156 158 158 159 160 160 160 160 161 161 161 161 161 162 164 165 165 165 165 165 166 167 167 167 167 167 167 167 167 167 167 167 168 168 168 168 169 169 170 170 170 170 170 170 169 169 174 183 184 184 184 184 184 184 184 184 184 183 174 165 163 161 160 160 159 158 158 156 155 155 156 155 153 153 157 164 153 147 145 143 141 139 138 138 148 150 135 128 125 123 120 142 179 183 209 235 237 237 237 243 253 253 253 253 253 248 237 237 237 237 237 241 252 253 253 253 253 250 238 237 237 237 237 237
253 253 253 253 253 252 240 237 237 237 237 238 249 253 253 253 253 253 242 237 237 237 237 237 247 253 253 253 221 101 66 66 68 69 69 95 169 184 184 184 184 184 184 184 184 184 184 184 184 184 184 184 184 184 184 184 184 184 184 184 184 184 184 184 184 184 184 175 119 131 181 184 164 140 118 153 183 183 170 157 154 139 147 183 184 184 184 184 184 184 174 149 129 126 126 127 150 166 141 131 132 133 134 136 136 138 138 138 140 141 141 142 142 142 145 146 146 147 148 148 149 150 150 150 152 153 153 153 155 155 155 156 158 158 158 160 160 160 160 161 161 161 161 161 163 165 165 165 165 165 165 166 167 167 167 167 168 168 168 169 169 169 169 170 170 170 170 170 170 170 170 170 170 170 170 170 170 170 172 183 184 184 184 184 184 184 184 184 184 184 180 166 164 162 161 160 160 159 158 158 157 157 170 172 164 154 152 151 149 148 146 144 142 141 139 138 145 150 137 130 128 125 122 121 158 182 188 221 237 237 237 243 253 253 253 253 253 248 237 237 237 237 237 241 252 253 253 253 253 250 238 237 237 237 237 237
253 253 253 253 253 252 240 237 237 237 237 238 249 253 253 253 253 253 242 237 237 237 237 237 247 253 253 241 131 67 66 67 69 69 77 148 183 184 184 184 184 184 184 184 184 184 184 184 184 184 184 184 184 184 184 184 184 184 184 184 184 184 184 184 184 184 183 145 104 153 184 184 179 169 152 181 184 168 133 140 146 153 173 184 184 184 184 184 184 176 139 125 125 126 126 128 131 133 131 131 133 133 135 136 137 138 138 139 141 141 142 142 142 144 146 146 147 148 148 149 150 150 150 152 153 153 153 154 155 155 155 157 158 159 160 160 160 160 161 161 161 161 162 164 165 165 165 165 165 166 167 167 167 167 168 169 170 170 170 170 170 170 170 170 170 170 170 170 170 170 170 170 170 170 170 170 170 170 171 180 183 184 184 184 184 184 184 184 184 184 182 169 165 164 162 161 160 160 159 162 172 175 181 184 178 157 153 152 150 148 148 146 145 142 141 139 138 136 134 132 130 127 124 121 141 179 183 195 229 237 237 243 253 253 253 253 253 248 237 237 237 237 237 241 252 253 253 253 253 250 238 237 237 237 237 237
253 253 253 253 253 252 240 237 237 237 237 238 249 253 253 253 253 253 242 237 237 237 237 237 247 253 249 169 74 66 66 68 69 71 119 180 184 184 184 184 184 184 184 184 184 184 184 184 184 184 184 184 184 184 184 184 184 184 184 184 184 184 184 184 184 184 170 113 111 171 184 184 184 178 180 183 176 165 169 182 183 184 184 184 184 184 184 184 183 158 125 124 126 126 126 129 130 131 131 132 133 134 136 136 138 138 138 139 141 141 142 142 143 145 146 146 148 148 148 150 150 150 151 153 153 153 154 155 155 155 157 158 158 160 160 160 160 161 161 161 161 162 164 165 165 165 165 165 166 167 167 167 168 169 170 170 170 170 170 170 170 170 170 170 170 171 171 171 171 172 172 172 172 172 172 172 172 171 170 172 178 183 184 184 184 184 184 184 184 184 182 169 165 165 164 162 163 165 168 176 184 184 183 183 183 169 155 153 152 149 148 148 146 144 142 141 138 137 136 134 131 129 126 124 125 148 173 183 204 234 237 243 253 253 253 253 253 248 237 237 237 237 237 241 252 253 253 253 253 250 238 237 237 237 237 237
252 252 252 252 252 251 241 239 239 239 239 239 248 252 252 252 252 252 243 239 239 239 239 239 247 251 205 88 66 66 67 69 69 91 167 184 184 184 184 184 184 184 184 184 184 184 184 184 184 184 184 184 184 184 184 184 184 184 184 184 184 184 184 184 184 183 140 102 135 182 184 183 173 168 155 146 136 155 180 184 184 184 184 184 184 184 184 184 181 142 124 125 126 126 128 129 131 131 132 133 133 135 136 137 138 138 138 141 141 142 142 142 144 146 146 147 148 148 149 150 150 151 153 153 153 154 155 155 155 157 158 158 160 160 160 160 161 161 161 161 163 165 165 165 165 165 165 166 167 167 168 169 170 170 170 170 170 170 171 171 171 171 171 172 172 172 172 172 172 172 172 172 172 172 172 172 172 172 172 171 171 180 184 184 184 184 184 184 184 184 180 168 165 165 165 169 176 182 183 184 184 184 184 183 184 183 172 155 153 151 149 148 148 146 143 142 140 138 137 135 133 131 129 126 123 124 146 178 185 215 238 244 252 252 252 252 252 248 239 239 239 239 239 242 251 252 252 252 252 249 239 239 239 239 239 239
240 240 240 240 240 240 249 251 251 251 251 250 242 240 240 240 240 240 247 251 251 251 251 251 244 221 113 67 66 66 69 69 75 140 183 184 184 184 184 184 184 184 184 184 184 184 184 184 184 184 184 184 184 184 184 184 184 184 184 184 184 184 184 184 184 178 123 125 172 184 184 170 146 123 118 140 169 183 184 184 184 184 184 184 184 184 184 183 180 149 126 126 126 126 128 129 131 131 132 133 134 136 136 138 138 138 139 141 141 142 142 143 146 146 146 148 148 148 150 150 151 153 153 153 153 155 155 155 156 158 158 159 160 160 160 161 161 161 161 163 165 165 165 165 165 166 167 167 167 168 169 170 170 170 170 170 171 172 172 172 172 172 172 172 172 172 172 172 172 172 172 172 172 172 172 172 172 172 172 172 171 174 183 183 181 183 184 184 182 179 175 168 167 165 170 182 184 184 184 184 184 184 184 184 184 184 183 165 153 153 151 149 148 147 145 143 142 140 138 137 135 132 130 128 125 122 130 163 183 191 236 246 240 240 240 240 240 243 251 251 251 251 251 248 240 240 240 240 240 242 250 251 251 251 251 251
237 237 237 237 237 238 250 253 253 253 253 252 241 237 237 237 237 237 248 253 253 253 253 253 239 148 70 66 66 68 69 69 106 176 184 184 184 184 184 184 184 184 184 184 184 184 184 184 184 184 184 184 184 184 184 184 184 184 184 184 184 184 184 184 184 183 168 177 184 184 184 162 128 137 165 182 184 184 184 184 184 184 184 184 184 184 182 167 146 142 128 126 126 127 129 130 131 131 133 133 134 136 137 138 138 138 140 141 141 142 142 144 146 146 147 148 148 149 150 150 152 153 153 153 155 155 155 156 158 158 159 160 160 160 161 161 161 161 163 165 165 165 165 165 166 167 167 167 168 170 170 170 170 170 170 171 172 172 172 172 172 172 172 172 172 172 172 172 172 172 172 172 172 172 172 172 172 172 172 172 172 172 176 174 171 175 178 176 173 168 167 167 167 167 175 184 184 184 184 184 184 184 184 184 184 184 184 172 154 153 152 151 148 148 147 145 142 141 140 144 140 134 132 130 127 126 129 161 182 182 203 242 237 237 237 237 237 242 253 253 253 253 253 249 238 237 237 237 237 240 252 253 253 253 253 253
237 237 237 237 237 238 250 253 253 253 253 252 241 237 237 237 237 237 248 253 253 253 253 253 196 82 66 66 66 69 69 79 154 184 184 184 184 184 184 184 184 184 184 184 184 184 184 184 184 184 184 184 184 184 184 184 184 184 184 184 184 184 184 184 184 184 184 184 184 184 184 183 180 182 184 184 184 184 184 184 184 184 184 183 179 172 157 132 125 126 126 126 126 128 129 131 131 132 133 133 135 136 138 138 138 138 141 141 142 142 142 145 146 146 148 148 148 150 150 151 153 153 153 154 155 155 155 157 158 158 160 160 160 161 161 161 161 163 165 165 165 165 166 167 167 167 167 168 169 170 170 170 170 172 172 173 172 172 172 172 172 172 172 172 172 172 172 172 172 172 172 172 172 172 172 172 172 172 172 172 172 172 171 170 170 170 171 170 170 169 167 167 167 170 181 184 184 184 184 184 184 184 184 184 184 184 184 176 158 155 153 152 150 148 148 147 144 142 149 176 173 155 141 132 129 137 161 172 182 181 184 215 236 237 237 237 237 242 253 253 253 253 253 249 238 237 237 237 237 240 252 253 253 253 253 253
237 237 237 237 237 238 250 253 253 253 253 252 241 237 237 237 237 237 248 253 253 253 253 234 114 66 66 66 67 69 70 114 180 184 184 184 184 184 184 184 184 184 184 184 184 184 184 184 184 184 184 184 184 184 184 184 184 184 184 184 184 184 184 184 184 184 184 184 184 184 184 184 184 184 184 184 184 184 184 184 184 184 184 173 151 138 128 124 124 124 126 126 126 128 130 131 131 132 133 134 136 137 138 138 138 139 141 141 142 142 143 146 146 147 148 148 149 150 150 152 153 153 154 155 155 155 157 158 158 159 160 160 160 161 161 161 162 165 165 165 165 166 167 167 167 167 167 169 170 170 170 170 170 171 172 172 172 172 174 172 172 172 172 172 172 172 172 172 172 172 172 172 172 172 172 172 172 172 172 172 172 172 172 172 170 170 170 171 171 171 170 170 169 176 183 184 184 184 184 184 184 184 184 184 184 184 184 183 175 166 155 153 151 149 148 147 146 144 149 179 184 183 174 158 153 145 175 184 182 181 183 190 227 237 237 237 237 242 253 253 253 253 253 249 238 237 237 237 237 240 252 253 253 253 253 253
237 237 237 237 237 238 250 253 253 253 253 252 241 237 237 237 237 237 248 253 253 253 250 164 71 66 66 66 69 69 79 156 184 184 184 184 184 184 184 184 184 184 184 184 184 184 184 184 184 184 184 184 184 184 184 184 184 184 184 184 184 184 184 184 184 184 184 184 184 184 184 184 184 184 184 184 184 184 184 184 184 184 184 160 123 121 122 124 124 125 126 126 127 129 130 131 131 133 133 134 136 137 138 138 138 140 141 141 142 142 144 146 146 147 148 148 150 150 151 153 153 154 155 155 155 156 158 158 159 160 160 160 161 161 161 161 164 165 165 165 166 167 167 167 167 167 168 170 170 170 170 170 170 171 172 172 172 172 173 172 172 172 172 172 172 172 172 172 173 173 173 173 173 173 173 173 173 173 173 172 172 172 172 172 171 170 170 172 179 180 179 181 181 182 184 184 184 184 184 184 184 184 184 184 184 184 184 184 184 182 175 169 168 164 155 149 147 145 145 166 183 184 184 181 183 179 182 184 182 176 182 184 205 234 237 237 237 242 253 253 253 253 253 249 238 237 237 237 237 240 252 253 253 253 253 253
240 240 240 240 240 241 248 250 250 250 250 250 243 240 240 240 240 240 247 250 250 250 211 90 66 66 66 68 69 69 96 175 184 184 184 184 184 184 184 184 184 184 184 184 184 184 184 184 184 184 184 184 184 184 184 184 184 184 184 184 184 184 184 184 184 184 184 184 184 184 184 184 184 184 184 184 184 184 184 183 181 182 178 137 121 121 123 124 124 125 126 126 128 129 131 131 132 133 133 135 136 138 138 138 139 141 141 142 142 142 145 146 146 148 148 148 150 150 151 153 153 155 155 155 156 158 158 158 159 160 160 160 161 161 161 162 165 165 165 166 167 167 167 167 167 167 169 170 170 170 170 170 170 172 172 172 172 172 172 173 173 174 174 174 174 174 174 174 174 174 174 174 174 174 174 174 174 174 174 174 172 172 172 172 172 172 171 171 181 184 184 184 184 184 184 184 184 184 184 184 184 184 184 184 184 184 184 183 184 184 184 183 184 183 179 161 149 146 144 148 174 184 184 181 180 184 184 184 182 173 173 184 188 221 240 240 240 243 250 250 250 250 250 248 241 240 240 240 240 242 250 250 250 250 250 250
252 252 252 252 252 251 241 238 238 238 238 239 248 252 252 252 252 252 243 238 238 229 128 67 66 66 66 68 69 77 138 182 184 184 184 184 184 184 184 184 184 184 184 184 184 184 184 184 184 184 184 184 184 184 184 184 184 184 184 184 184 184 184 184 184 184 184 184 184 184 184 184 184 184 184 184 184 184 184 169 164 160 156 122 121 121 124 124 124 126 126 126 129 130 131 131 133 133 134 136 137 138 138 138 139 141 141 142 142 143 146 146 147 148 148 150 150 150 152 153 154 155 155 155 157 158 158 158 160 160 160 160 161 161 161 162 165 165 165 166 167 167 167 167 167 168 170 170 170 170 170 170 171 172 172 172 172 172 172 173 174 174 174 174 174 174 174 174 174 174 174 174 174 174 174 174 174 174 174 174 174 173 172 172 172 172 172 171 179 184 184 184 184 184 183 183 184 184 184 184 184 184 184 184 184 184 184 183 183 184 184 183 184 184 184 181 164 151 148 144 154 181 184 184 177 182 184 184 184 176 167 180 184 200 245 252 252 248 238 238 238 238 238 242 251 252 252 252 252 249 239 238 238 238 238 238
253 253 253 253 253 252 240 237 237 237 237 238 249 253 253 253 253 253 242 237 236 179 76 66 66 66 67 69 70 116 179 184 184 184 184 184 184 184 184 184 184 184 184 184 184 184 184 184 184 184 184 184 184 184 184 184 184 184 184 184 184 184 184 184 184 184 184 184 184 184 184 184 184 184 184 184 184 184 182 160 161 126 124 120 121 122 124 124 124 126 126 127 129 131 131 131 133 133 134 136 137 138 138 138 140 141 141 142 142 144 146 146 147 148 148 150 150 151 153 153 154 155 155 155 157 158 158 158 160 160 160 160 161 161 161 162 165 165 165 166 167 167 167 167 167 169 170 170 170 170 170 170 171 172 172 172 172 172 172 174 174 174 174 174 174 174 174 174 174 174 174 174 174 174 174 174 174 174 174 174 174 174 173 172 172 172 172 172 179 184 184 184 184 184 184 183 184 184 184 184 184 184 184 184 184 184 184 184 184 183 184 183 184 184 184 184 183 178 175 165 151 176 184 184 181 177 184 184 184 182 170 172 183 186 220 252 253 248 237 237 237 237 237 241 252 253 253 253 253 250 238 237 237 237 237 237
253 253 253 253 253 252 240 237 237 237 237 238 249 253 253 253 253 253 242 237 220 107 66 66 66 66 68 69 80 159 184 184 184 184 184 184 184 184 184 184 184 184 184 184 184 184 184 184 184 184 184 184 184 184 184 184 184 184 184 184 184 184 184 184 184 184 184 184 184 184 184 184 184 184 184 184 184 183 171 153 161 121 119 120 121 122 124 124 125 126 126 128 129 131 131 132 133 133 135 136 137 138 138 138 140 141 141 142 142 145 146 147 148 148 149 150 150 151 153 153 154 155 155 155 158 158 158 158 160 160 160 160 161 161 161 163 165 165 165 166 167 167 167 167 168 170 170 170 170 170 170 170 172 172 172 172 172 172 173 174 174 174 174 174 174 174 174 174 174 174 174 174 174 174 174 174 174 174 174 174 174 174 174 173 172 172 172 174 181 184 184 184 184 184 184 184 184 184 184 184 184 184 184 184 184 184 184 184 184 184 184 184 184 184 184 184 184 184 184 183 176 181 184 184 184 179 181 184 184 184 179 161 170 184 192 238 253 248 237 237 237 237 237 241 252 253 253 253 253 250 238 237 237 237 237 237
253 253 253 253 253 252 240 237 237 237 237 238 249 253 253 253 253 253 242 235 161 71 66 66 66 67 69 69 99 178 184 184 184 184 184 184 184 184 184 184 184 184 184 184 184 184 184 184 184 184 184 184 184 184 184 184 184 184 184 184 184 184 184 184 184 184 184 184 184 184 184 184 184 184 184 184 184 184 169 148 155 120 119 121 121 123 124 124 125 126 126 128 130 131 131 132 133 133 135 136 137 138 138 139 141 141 142 142 143 146 146 147 148 148 149 150 150 152 153 153 154 155 155 155 158 158 158 159 160 160 160 161 161 161 161 163 165 165 165 166 167 167 167 167 169 170 170 170 170 170 170 171 172 172 172 172 172 172 173 174 174 174 174 174 174 174 174 174 174 174 174 174 174 174 174 174 174 174 174 174 174 174 174 174 173 172 173 179 184 184 184 184 184 184 184 184 184 184 184 184 184 184 184 184 184 184 184 184 184 184 184 184 183 184 184 184 184 184 184 184 184 184 184 184 184 183 181 183 184 184 184 171 141 171 184 206 249 248 237 237 237 237 237 241 252 253 253 253 253 250 238 237 237 237 237 237
253 253 253 253 253 252 240 237 237 237 237 238 249 253 253 253 253 253 242 210 96 66 66 66 66 68 69 69 119 183 184 184 184 184 184 184 184 184 184 184 184 184 184 184 184 184 184 184 184 184 184 184 184 184 184 184 184 184 184 184 184 184 184 184 184 184 184 184 184 184 184 184 184 184 184 184 184 184 165 147 135 119 120 121 121 123 124 124 126 126 126 129 130 131 131 132 133 134 136 136 137 138 138 139 141 141 142 142 143 146 146 147 148 148 149 150 150 152 153 153 154 155 155 156 158 158 158 159 160 160 160 161 161 161 161 164 165 165 165 167 167 167 167 167 170 170 170 170 170 170 170 171 172 172 172 172 172 172 174 174 174 174 174 174 174 174 174 174 174 174 174 174 174 174 174 174 174 174 174 174 174 174 174 174 174 173 174 183 184 184 184 184 184 184 184 184 184 184 184 184 184 184 184 184 184 184 184 184 184 184 184 184 183 184 184 184 184 184 184 184 184 184 184 184 184 184 183 182 184 184 184 183 158 142 179 186 228 248 237 237 237 237 237 241 252 253 253 253 253 250 238 237 237 237 237 237
248 248 248 248 248 248 243 242 242 242 242 242 247 248 248 248 248 248 240 149 69 66 66 66 67 69 69 70 134 184 184 184 184 184 184 184 184 184 184 184 184 184 184 184 184 184 184 184 184 184 184 184 184 184 184 184 184 184 184 184 184 184 184 184 184 184 184 184 184 184 184 184 184 184 184 184 184 183 152 123 120 119 120 121 121 124 124 124 126 126 127 129 131 131 131 133 133 134 136 136 138 138 138 140 141 141 142 142 144 146 146 148 148 148 150 150 150 153 153 153 155 155 155 156 158 158 158 159 160 160 160 161 161 161 161 164 165 165 165 167 167 167 167 168 170 170 170 170 170 170 171 172 172 172 172 172 172 173 174 174 174 174 174 174 174 174 174 174 174 174 174 174 174 174 174 174 174 174 174 174 174 174 174 174 174 174 175 183 184 184 184 184 184 184 184 184 184 184 184 184 184 184 184 184 184 184 184 184 184 184 184 184 183 184 184 184 184 184 184 184 184 184 184 184 184 184 184 183 183 184 184 184 181 145 153 182 198 241 242 242 242 242 242 244 248 248 248 248 248 247 242 242 242 242 242 242
237 237 237 237 237 238 250 253 253 253 253 252 241 237 237 237 237 237 214 92 66 66 66 66 67 69 69 70 142 184 184 184 184 184 184 184 184 184 184 184 184 184 184 184 184 184 184 184 184 184 184 184 184 184 184 184 184 184 184 184 184 184 184 184 184 184 184 184 184 184 184 184 184 184 184 184 184 184 171 127 119 119 120 121 122 124 124 125 126 126 127 129 131 131 132 133 133 135 136 136 138 138 138 140 141 141 142 142 145 146 147 148 148 148 150 150 151 153 153 153 155 155 155 157 158 158 158 159 160 160 160 161 161 161 162 164 165 165 165 167 167 167 167 169 170 170 170 170 170 170 172 172 172 172 172 172 172 174 174 174 174 174 174 174 174 174 174 174 174 174 174 174 174 174 174 175 174 174 174 174 174 174 174 174 174 174 175 182 184 184 184 184 184 184 184 184 184 184 184 184 184 184 184 184 184 184 184 184 184 184 184 184 184 184 184 184 184 184 184 184 184 184 184 184 184 184 184 184 183 184 184 184 184 173 135 168 184 220 252 253 253 253 253 249 238 237 237 237 237 240 252 253 253 253 253 253
237 237 237 237 237 238 250 253 253 253 253 252 241 237 237 237 237 234 148 68 66 66 66 66 68 69 69 72 147 184 184 184 184 184 184 184 184 184 184 184 184 184 184 184 184 184 184 184 184 184 184 184 184 184 184 184 184 184 184 184 184 184 184 184 184 184 184 184 184 184 184 184 184 184 184 184 184 180 160 125 119 119 120 121 122 124 124 125 126 126 128 130 131 131 132 133 133 135 136 136 138 138 138 140 141 141 142 142 145 146 147 148 148 149 150 150 151 153 153 153 155 155 155 157 158 158 158 159 160 160 160 161 161 161 162 165 165 165 165 167 167 167 168 170 170 170 170 170 170 171 172 172 172 172 172 172 173 174 174 174 174 174 174 174 174 174 174 174 174 174 175 175 175 175 175 177 176 176 176 176 176 176 176 176 174 174 174 180 184 184 184 184 184 184 184 184 184 184 184 184 184 184 184 184 184 184 184 184 184 184 184 184 184 184 184 184 184 184 184 184 184 184 184 184 184 184 184 184 184 184 184 184 184 184 158 139 178 200 248 253 253 253 253 249 238 237 237 237 237 240 252 253 253 253 253 253
237 237 237 237 237 238 250 253 253 253 253 252 241 237 237 237 237 208 89 66 66 66 66 67 69 69 69 75 150 184 184 184 184 184 184 184 184 184 184 184 184 184 184 184 184 184 184 184 184 184 184 184 184 184 184 184 184 184 184 184 184 184 184 184 184 184 184 184 184 184 184 184 184 184 184 184 184 178 151 121 119 119 121 121 122 124 124 125 126 126 128 130 131 131 132 133 133 135 136 136 138 138 138 141 141 142 142 143 146 146 147 148 148 149 150 150 151 153 153 154 155 155 155 157 158 158 158 160 160 160 160 161 161 161 162 165 165 165 166 167 167 167 168 170 170 170 170 170 170 171 172 172 172 172 172 172 174 174 174 174 174 174 175 176 176 176 176 177 177 177 177 177 177 177 177 177 177 177 177 177 177 177 177 177 176 175 174 179 184 184 184 184 184 184 184 184 184 184 184 184 184 184 184 184 184 184 184 184 184 184 184 184 184 184 183 184 184 184 184 184 184 184 184 184 184 184 184 184 184 183 184 184 184 184 180 142 154 186 230 253 253 253 253 249 238 237 237 237 237 240 252 253 253 253 253 253
237 237 237 237 237 238 250 253 253 253 253 252 241 237 237 237 234 148 68 66 66 66 66 68 69 69 69 79 155 184 184 184 184 184 184 184 184 184 184 184 184 184 184 184 184 184 184 184 184 184 184 184 184 184 184 184 184 184 184 184 184 184 184 184 184 184 184 184 184 184 184 184 184 184 184 184 183 159 138 121 119 119 120 121 122 124 124 125 126 126 128 130 131 131 132 133 134 136 136 137 138 138 139 141 141 142 142 143 146 146 147 148 148 149 150 150 152 153 153 154 155 155 155 157 158 158 158 160 160 160 160 161 161 161 163 165 165 165 166 167 167 167 169 170 170 170 170 170 170 172 172 172 172 172 172 172 174 174 174 174 174 175 177 177 177 177 177 177 177 177 177 177 177 177 177 177 177 177 177 177 177 177 177 177 177 177 176 177 183 184 184 184 184 184 183 184 184 184 184 184 184 184 184 184 184 184 184 184 184 184 184 184 184 184 183 184 184 184 184 184 184 184 184 184 184 184 184 184 184 183 183 184 184 184 184 170 135 171 204 249 253 253 253 249 238 237 237 237 237 240 252 253 253 253 253 253
237 237 237 237 237 238 250 253 253 253 253 252 241 237 237 237 211 93 66 66 66 66 66 68 69 69 69 81 161 184 184 184 184 184 184 184 184 184 184 184 184 184 184 184 184 184 184 184 184 184 184 184 184 184 184 184 184 184 184 184 184 184 184 184 184 184 184 184 184 184 184 184 184 184 184 183 177 138 118 119 119 119 121 121 122 124 124 126 126 127 129 130 131 131 133 133 134 136 136 137 138 138 139 141 141 142 142 143 146 146 148 148 148 149 150 150 152 153 153 154 155 155 155 158 158 158 158 160 160 160 161 161 161 161 163 165 165 165 166 167 167 168 170 170 170 170 170 170 171 172 172 172 172 172 172 173 174 174 174 174 174 176 177 177 177 177 177 177 177 177 177 177 177 177 177 177 177 177 177 177 177 177 177 177 177 177 177 177 181 184 184 184 184 184 183 184 184 184 184 184 184 184 184 184 184 184 184 184 184 184 184 184 184 184 184 184 184 184 184 184 184 184 184 184 184 184 184 184 184 184 182 184 184 184 184 183 154 144 186 234 253 253 253 249 238 237 237 237 237 240 252 253 253 253 253 253
245 245 245 245 245 245 246 246 246 246 246 246 245 245 245 242 158 70 66 66 66 66 67 69 69 69 70 88 170 184 184 184 184 184 184 184 184 184 184 184 184 184 184 184 184 184 184 184 184 184 184 184 184 184 184 184 184 184 184 184 184 184 184 184 184 184 184 184 184 184 184 184 184 184 183 164 131 119 117 119 119 119 121 121 122 124 124 126 126 127 129 131 131 131 133 133 134 136 136 137 138 138 139 141 141 142 142 144 146 146 148 148 148 149 150 150 152 153 153 154 155 155 155 158 158 158 158 160 160 160 161 161 161 161 164 165 165 165 166 167 167 168 170 170 170 170 170 170 171 172 172 172 172 172 172 174 174 174 174 174 176 177 177 177 177 177 177 177 177 177 177 177 177 177 177 177 177 177 177 177 177 177 177 177 177 177 177 177 179 184 184 184 184 184 184 184 184 184 184 184 184 184 184 184 184 184 184 184 184 184 184 184 184 184 184 184 184 184 184 184 184 184 184 184 184 184 184 184 184 184 182 181 184 184 184 184 179 140 165 206 243 246 246 246 245 245 245 245 245 245 246 246 246 246 246 246
253 253 253 253 253 252 240 237 237 237 237 238 249 253 253 229 101 66 66 66 66 66 67 69 69 69 70 101 175 183 184 184 184 184 184 184 184 184 184 184 184 184 184 184 184 184 184 184 184 184 184 184 184 184 184 184 184 184 184 184 184 184 184 184 184 184 184 184 184 184 184 184 184 182 157 121 113 114 117 119 119 119 121 121 123 124 124 126 126 127 129 131 131 131 133 133 134 136 136 137 138 138 139 141 141 142 142 144 146 146 148 148 148 149 150 150 152 153 153 154 155 155 156 158 158 158 159 160 160 160 161 161 161 161 164 165 165 165 167 167 167 168 170 170 170 170 170 171 172 172 172 172 172 172 173 174 174 174 174 175 177 177 177 177 177 177 177 177 177 177 177 177 177 177 177 177 177 177 177 177 177 177 177 177 177 177 177 177 179 184 184 184 184 184 184 184 184 184 184 184 184 184 184 184 184 184 184 184 184 184 184 184 184 184 184 184 184 184 184 184 184 184 184 184 184 184 184 184 184 184 184 179 183 184 184 184 184 159 136 184 223 237 237 241 252 253 253 253 253 250 238 237 237 237 237 237
253 253 253 253 253 252 240 237 237 237 237 238 249 253 252 175 71 66 66 66 66 66 68 69 69 69 71 126 180 177 184 184 184 184 184 184 184 184 184 184 184 184 184 184 184 184 184 184 184 184 184 184 184 184 184 184 184 184 184 184 184 184 184 184 184 184 184 184 184 184 184 184 182 156 119 113 113 114 117 119 119 119 121 121 123 124 124 126 126 127 129 131 131 132 133 133 134 136 136 137 138 138 139 141 141 142 142 144 146 147 148 148 148 149 150 150 152 153 153 154 155 155 156 158 158 158 159 160 160 160 161 161 161 161 164 165 165 165 167 167 167 169 170 170 170 170 170 171 172 172 172 172 172 172 173 174 174 174 174 175 177 177 177 177 177 177 177 177 177 177 177 177 177 177 177 177 177 177 177 177 177 177 177 177 177 177 177 177 180 184 184 184 184 184 184 184 184 184 184 184 184 184 184 184 184 184 184 184 184 184 184 184 184 184 184 184 184 184 184 184 184 184 184 184 184 184 184 184 184 184 184 181 180 184 184 184 184 177 129 159 205 235 237 241 252 253 253 253 253 250 238 237 237 237 237 237
253 253 253 253 253 252 240 237 237 237 237 238 249 253 239 113 66 66 66 66 66 67 69 69 69 69 75 150 182 182 184 184 184 184 184 184 184 184 184 184 184 184 184 184 184 184 184 184 184 184 184 184 184 184 184 184 184 184 184 184 184 184 184 184 184 184 184 184 184 184 184 182 156 119 112 113 113 114 117 119 119 119 121 121 123 124 125 126 126 127 130 131 131 132 133 133 134 136 136 137 138 138 140 141 141 142 142 144 146 147 148 148 148 149 150 150 153 153 153 154 155 155 156 158 158 158 159 160 160 160 161 161 161 162 164 165 165 166 167 167 167 169 170 170 170 170 170 172 172 172 172 172 172 172 174 174 174 174 174 176 177 177 177 177 177 177 177 177 177 177 177 177 177 177 177 177 177 177 177 177 177 177 177 177 178 177 177 177 181 184 184 184 184 184 184 184 184 184 184 184 184 184 184 184 184 184 184 184 184 184 184 184 184 184 184 184 184 184 184 184 184 184 184 184 184 184 184 184 184 184 184 183 177 183 184 184 184 183 153 132 183 228 237 241 252 253 253 253 253 250 238 237 237 237 237 237
253 253 253 253 253 252 240 237 237 237 237 238 249 253 199 76 66 66 66 66 66 67 69 69 69 69 82 161 150 178 182 184 184 184 184 184 184 184 184 184 184 184 184 184 184 184 184 184 184 184 184 184 184 184 184 184 184 184 184 184 184 184 184 184 184 184 184 184 184 184 179 152 118 112 112 113 113 114 117 119 119 119 121 121 123 124 125 126 126 127 130 131 131 132 133 133 134 136 136 137 138 138 140 141 141 142 142 144 146 147 148 148 148 149 150 150 153 153 153 154 155 155 156 158 158 158 159 160 160 160 161 161 161 162 165 165 165 166 167 167 167 170 170 170 170 170 171 172 172 172 172 172 172 173 174 174 174 174 175 177 177 177 177 177 177 177 177 177 177 177 177 177 177 177 177 177 177 177 177 177 177 177 177 178 178 177 177 178 183 184 184 184 184 184 184 184 184 184 184 184 184 184 184 184 184 184 184 184 184 184 184 184 184 184 184 184 184 183 184 184 184 184 184 184 184 184 184 184 184 184 184 184 179 180 184 184 184 184 178 134 155 212 237 241 252 253 253 253 253 250 238 237 237 237 237 237
253 253 253 253 253 252 240 237 237 237 237 238 249 248 138 66 66 66 66 66 66 68 69 69 69 69 92 160 101 161 182 182 183 182 181 182 184 184 184 184 184 184 184 184 184 184 184 184 184 184 184 184 184 184 184 184 184 184 184 184 184 184 184 184 184 184 184 184 184 173 137 114 112 112 112 113 113 114 117 119 119 119 121 121 123 124 125 126 126 127 130 131 131 132 133 133 134 136 136 137 138 138 140 141 141 142 142 144 146 147 148 148 148 149 150 150 153 153 153 154 155 155 157 158 158 158 160 160 160 160 161 161 161 162 165 165 165 166 167 167 168 170 170 170 170 170 172 172 172 172 172 172 172 174 174 174 174 174 176 177 177 177 177 177 177 177 177 178 178 178 178 178 178 178 178 178 178 178 177 177 178 177 177 178 178 177 177 181 184 184 184 184 184 184 184 184 184 184 184 184 184 184 184 184 184 184 184 184 184 184 184 184 184 184 184 184 184 183 182 184 184 184 184 184 184 184 184 184 184 184 184 184 183 177 183 184 184 184 184 161 131 187 233 241 252 253 253 253 253 250 238 237 237 237 237 237
243 243 243 243 243 244 246 247 247 247 247 247 244 215 90 66 66 66 66 66 66 68 69 69 69 70 101 144 89 165 184 183 183 182 183 183 183 184 184 184 184 184 184 184 184 184 184 184 184 184 184 184 184 184 184 184 184 184 184 184 184 184 184 184 184 184 184 184 179 138 110 110 112 112 112 113 113 114 118 119 119 119 121 121 123 124 125 126 126 127 130 131 131 132 133 133 134 136 136 138 138 138 140 141 141 142 142 144 146 147 148 148 148 149 150 151 153 153 153 154 155 155 157 158 158 158 160 160 160 160 161 161 161 163 165 165 165 166 167 167 168 170 170 170 170 171 172 172 172 172 172 172 173 174 174 174 174 174 176 177 177 177 177 177 177 177 178 179 179 179 179 179 179 179 179 179 178 178 178 179 180 178 177 178 178 177 181 184 184 184 184 184 184 184 184 184 184 184 184 184 184 184 184 184 184 184 184 184 184 184 184 184 184 184 184 184 184 184 183 183 184 184 184 184 184 184 184 184 184 184 184 184 184 180 182 184 184 184 180 178 136 157 228 246 244 243 243 243 243 244 247 247 247 247 247 247
237 237 237 237 237 238 250 253 253 253 253 252 240 164 70 66 66 66 66 66 66 69 69 69 69 70 112 118 95 175 184 184 184 184 184 183 183 184 184 184 184 184 184 184 184 184 184 184 184 184 184 184 184 184 184 184 184 184 184 184 184 184 184 184 184 184 184 183 149 111 109 110 112 112 112 113 113 114 118 119 119 119 121 121 123 124 125 126 126 127 130 131 131 132 133 133 134 136 136 138 138 138 140 141 141 142 142 144 146 147 148 148 148 149 150 151 153 153 153 154 155 155 157 158 158 158 160 160 160 160 161 161 161 163 165 165 165 166 167 167 168 170 170 170 170 171 172 172 172 172 172 172 173 174 174 174 174 174 176 177 177 177 177 177 177 178 179 179 179 179 179 179 179 179 178 178 177 177 178 178 178 178 178 177 177 178 184 184 184 184 184 184 184 184 184 184 184 184 184 184 184 184 184 184 184 184 184 184 184 184 184 184 184 184 184 184 184 184 184 183 183 183 184 184 184 184 184 184 184 184 184 184 184 183 181 184 184 183 183 184 164 132 204 248 238 237 237 237 237 240 252 253 253 253 253 253
237 237 237 237 237 238 250 253 253 253 253 252 230 113 66 66 66 66 66 66 67 69 69 69 69 71 120 101 109 181 184 184 184 184 184 184 183 184 184 184 184 184 184 184 184 184 184 184 184 184 184 184 184 184 184 184 184 184 184 184 184 184 184 184 184 184 184 177 124 109 109 110 112 112 112 113 113 114 118 119 119 119 121 121 123 124 125 126 126 127 130 131 131 132 133 133 134 136 136 138 138 138 140 141 141 142 142 144 146 147 148 148 148 149 150 151 153 153 153 155 155 155 157 158 158 159 160 160 160 161 161 161 161 164 165 165 165 166 167 167 168 170 170 170 171 172 172 172 172 172 172 173 174 174 174 174 174 174 176 177 177 177 177 177 177 178 179 179 179 179 179 179 178 177 177 177 177 177 178 177 177 177 177 177 177 178 183 184 184 184 184 184 184 184 184 184 184 184 184 184 184 184 184 184 184 184 184 184 184 184 184 184 184 184 184 184 184 184 184 184 184 183 184 184 184 184 183 183 184 184 184 184 184 184 183 183 183 184 184 184 181 138 166 237 238 237 237 237 237 240 252 253 253 253 253 253
237 237 237 237 237 238 250 253 253 253 253 252 199 80 66 66 66 66 66 66 67 69 69 70 69 73 131 98 129 184 184 184 184 184 184 184 184 184 184 184 184 184 184 184 184 184 184 184 184 184 184 184 184 184 184 184 184 181 183 183 184 184 184 184 184 184 184 162 110 109 109 110 112 112 112 113 113 114 117 119 119 119 121 121 123 124 125 126 126 127 129 131 131 132 133 133 134 136 136 138 138 138 140 141 141 142 142 144 146 147 148 148 148 149 150 151 153 153 153 155 155 155 157 158 158 159 160 160 160 161 161 161 161 164 165 165 165 167 167 167 168 170 170 170 171 172 172 172 172 172 172 173 174 174 174 174 174 174 175 177 177 177 177 177 177 177 178 178 178 178 177 177 177 177 177 177 177 177 177 177 177 177 177 177 177 178 183 184 184 184 184 184 184 184 184 184 184 184 184 184 184 184 184 184 184 184 184 184 184 184 184 184 184 184 184 184 184 184 184 184 184 184 183 184 183 184 183 184 183 184 184 184 184 184 184 183 184 184 184 184 184 165 137 212 238 237 237 237 237 240 252 253 253 253 253 253
237 237 237 237 237 238 250 253 253 253 253 250 153 68 66 66 66 66 66 66 68 69 69 71 69 76 145 108 148 184 184 184 184 184 184 184 184 184 183 183 184 184 184 184 184 184 184 184 184 183 184 184 184 179 157 153 142 139 142 139 168 183 184 183 184 184 184 158 108 109 109 110 112 112 112 113 113 114 117 119 119 119 121 121 122 124 125 126 126 127 129 131 131 132 133 133 134 136 136 137 138 138 139 141 141 142 142 144 146 146 148 148 148 149 150 151 153 153 154 155 155 156 158 158 158 159 160 160 160 161 161 161 161 164 165 165 166 167 167 167 168 170 170 170 171 172 172 172 172 172 172 173 174 174 174 174 174 174 174 177 177 177 177 177 177 177 177 177 177 177 177 177 177 177 177 177 177 177 177 177 177 177 177 177 177 180 184 184 184 184 184 184 184 184 184 184 184 184 184 184 184 184 184 184 184 184 184 184 184 184 184 184 184 184 184 184 184 184 184 184 184 184 183 184 183 183 184 184 184 183 183 184 184 184 184 183 184 184 184 184 184 181 140 176 233 237 237 237 237 240 252 253 253 253 253 253
238 238 238 238 238 239 250 252 252 252 253 236 108 66 66 66 66 66 66 66 68 69 69 69 69 82 154 109 161 184 184 184 184 184 184 184 183 183 183 182 184 184 184 184 184 184 183 173 167 152 174 173 182 181 156 108 95 96 98 98 118 168 157 157 183 184 184 161 109 109 109 109 111 112 112 113 113 114 117 119 119 119 121 121 122 124 125 126 126 127 129 131 131 132 133 133 134 136 136 137 138 138 139 141 141 142 142 143 146 146 148 148 148 149 150 150 153 153 154 155 155 156 158 158 158 159 160 160 160 161 161 161 161 164 165 165 166 167 167 167 168 170 170 170 170 172 172 172 172 172 172 172 173 174 174 174 174 174 174 176 177 177 177 177 177 177 177 177 177 177 177 177 177 177 177 177 177 177 177 177 177 177 177 177 178 183 184 184 184 184 184 184 184 184 184 184 184 184 184 184 184 184 184 184 184 184 184 184 184 184 184 184 184 184 184 184 184 184 184 184 184 184 184 184 184 184 184 184 184 184 184 183 183 184 184 184 184 184 184 184 184 184 162 146 221 238 238 238 238 241 251 252 252 252 252 252
249 249 249 249 249 249 243 241 241 241 241 197 79 66 66 66 66 66 66 66 69 69 69 69 72 95 157 94 157 184 184 184 184 184 184 184 182 181 184 183 184 184 184 184 184 184 172 118 101 93 111 117 165 177 168 113 94 94 97 97 103 117 105 115 172 184 184 165 111 109 109 109 111 112 112 113 113 114 117 119 119 119 121 121 122 124 124 126 126 127 129 130 131 132 133 133 134 136 136 137 138 138 139 141 141 142 142 143 146 146 148 148 148 149 150 150 153 153 154 155 155 156 158 158 158 159 160 160 160 161 161 161 161 163 165 165 165 166 167 167 167 169 170 170 170 170 172 172 172 172 172 172 172 173 174 174 174 174 174 174 176 177 177 177 177 177 177 177 177 177 177 177 177 177 177 177 177 177 177 177 177 177 177 177 178 183 184 184 184 184 184 184 184 184 184 184 184 184 184 184 184 184 184 184 184 184 184 184 184 184 184 184 184 184 184 184 184 184 184 184 184 184 184 184 184 184 184 184 184 184 184 184 183 183 184 184 183 184 184 184 184 184 179 139 206 249 250 249 249 248 242 241 241 241 241 241
253 253 253 253 253 252 240 237 237 237 235 152 68 66 66 66 66 66 66 67 69 69 69 69 74 114 156 84 152 184 184 184 184 184 184 184 184 184 184 184 184 184 184 184 183 178 130 88 86 87 89 91 115 121 122 110 94 94 97 97 100 100 100 102 143 183 184 170 114 108 109 109 111 112 112 113 113 114 117 119 119 119 121 121 122 124 124 126 126 127 129 130 131 131 133 133 134 136 136 137 138 138 139 141 141 142 142 142 145 146 148 148 148 149 150 150 152 153 153 155 155 155 157 158 158 159 160 160 160 160 161 161 161 162 165 165 165 165 167 167 167 168 170 170 170 170 171 172 172 172 172 172 172 172 173 174 174 174 174 174 175 177 177 177 177 177 177 177 177 177 177 177 177 177 177 177 177 177 177 177 177 177 177 177 177 181 184 184 184 184 184 184 184 184 184 184 184 184 184 184 184 184 184 184 184 184 184 184 184 184 184 184 184 184 184 184 184 184 184 184 184 184 184 184 184 184 184 184 184 184 184 184 184 183 183 184 183 184 184 184 184 184 183 151 175 250 253 253 253 250 238 237 237 237 237 237
253 253 253 253 253 252 240 237 237 237 227 110 66 66 66 66 66 66 66 67 69 69 69 69 93 157 151 77 128 183 184 184 184 184 184 184 184 184 184 184 184 184 184 183 154 118 89 85 86 87 89 90 90 92 95 95 94 94 97 97 100 100 100 101 118 177 184 174 117 108 109 109 111 112 112 113 113 114 117 119 119 119 121 121 121 124 124 126 126 127 129 130 131 131 133 133 134 136 136 137 138 138 139 141 141 142 142 142 145 146 147 148 148 149 150 150 152 153 153 154 155 155 156 158 158 158 159 160 160 160 161 161 161 161 164 165 165 165 166 167 167 167 169 170 170 170 170 171 172 172 172 172 172 172 172 173 174 174 174 174 175 176 177 177 177 177 177 177 177 177 177 177 177 177 177 177 177 177 177 177 177 177 177 177 177 181 184 184 184 184 184 184 184 184 184 184 184 184 184 184 184 184 184 184 184 184 184 184 184 184 184 184 184 184 184 184 184 184 184 184 184 184 184 184 184 184 184 184 184 184 184 184 184 184 184 183 183 184 184 184 184 184 184 169 147 239 253 253 253 250 238 237 237 237 237 237
253 253 253 253 253 252 240 237 237 237 205 82 66 66 66 66 66 66 66 67 69 69 69 69 91 173 149 76 134 184 184 184 184 184 184 184 184 184 184 184 184 184 184 164 103 85 85 85 86 87 89 90 90 92 93 93 94 94 97 97 99 100 100 101 123 180 184 176 120 108 109 109 111 112 112 113 113 114 116 118 119 119 120 121 121 124 124 125 126 126 128 130 131 131 132 133 134 136 136 137 138 138 138 141 141 142 142 142 145 146 147 148 148 148 150 150 151 153 153 154 155 155 155 158 158 158 159 160 160 160 160 161 161 161 162 165 165 165 165 167 167 167 168 170 170 170 170 170 171 172 172 172 172 172 172 172 173 174 174 174 174 174 177 177 177 177 177 177 177 177 177 177 177 177 177 177 177 177 177 177 177 177 177 177 177 181 184 184 184 184 183 184 184 184 184 184 184 184 184 184 184 184 184 184 184 184 183 184 184 184 184 184 184 184 184 184 184 184 184 184 184 184 184 184 184 184 184 184 184 184 184 184 184 184 184 184 182 184 184 184 184 184 184 180 139 215 253 253 253 250 238 237 237 237 237 237
253 253 253 253 253 252 240 237 237 237 169 69 66 66 66 66 66 66 66 68 69 69 69 69 79 152 148 76 121 183 184 184 184 184 184 184 184 184 184 183 182 184 180 125 86 85 85 85 86 87 89 90 90 92 93 93 94 94 97 97 99 100 100 101 139 182 184 178 124 108 109 109 111 112 112 112 113 113 116 118 119 119 120 121 121 123 124 125 126 126 128 129 131 131 132 133 133 135 136 136 138 138 138 140 141 142 142 142 145 146 147 148 148 148 149 150 150 153 153 153 155 155 155 157 158 158 158 159 160 160 160 161 161 161 161 164 165 165 165 166 167 167 167 169 170 170 170 170 170 172 172 172 172 172 172 172 172 173 174 174 174 174 174 176 177 177 177 177 177 177 177 177 177 177 177 177 177 177 177 177 177 177 177 177 177 183 184 184 184 184 183 184 184 184 184 184 184 184 184 184 184 184 184 184 184 184 184 183 183 184 184 184 184 184 184 184 184 184 184 184 183 184 184 184 184 184 184 184 184 184 184 184 184 184 184 184 184 184 184 184 184 184 184 183 152 182 252 253 253 250 238 237 237 237 237 237
251 251 251 251 251 251 241 239 239 235 127 66 66 66 66 66 66 66 66 68 69 69 69 69 72 122 156 80 100 178 184 184 184 184 184 184 184 184 184 183 182 184 154 93 85 85 85 85 86 87 89 90 90 92 93 93 94 94 97 97 99 100 100 101 134 181 184 182 135 108 109 109 110 112 112 112 113 113 116 118 119 119 120 121 121 123 124 125 126 126 128 129 131 131 132 133 133 135 136 136 138 138 138 140 141 142 142 142 143 146 147 148 148 148 148 150 150 151 153 153 154 155 155 155 158 158 158 158 160 160 160 160 161 161 161 162 165 165 165 165 167 167 167 168 170 170 170 170 170 171 172 172 172 172 172 172 172 172 173 174 174 174 174 175 177 177 177 177 177 177 177 177 177 177 177 177 177 177 177 177 176 176 175 174 177 184 184 184 184 184 184 184 184 184 184 184 184 184 184 184 184 184 184 184 184 184 184 184 183 183 184 184 184 184 184 184 184 184 184 184 184 184 184 184 184 184 184 184 184 184 184 184 184 184 184 184 184 183 184 184 184 184 184 184 168 156 245 251 251 249 240 239 239 239 239 239
239 239 239 239 239 240 249 251 251 230 96 66 66 66 66 66 66 66 66 68 69 69 69 69 71 120 156 78 91 173 184 184 184 184 184 184 184 184 184 183 182 184 139 85 85 85 85 85 86 87 89 90 90 92 93 93 94 94 96 97 99 100 100 101 135 183 184 183 142 108 109 109 110 112 112 112 113 113 115 118 119 119 119 121 121 123 124 125 126 126 127 129 130 131 131 133 133 134 136 136 137 138 138 139 141 141 142 142 143 146 146 148 148 148 148 150 150 151 153 153 154 155 155 155 156 158 158 158 160 160 160 160 161 161 161 161 163 165 165 165 166 167 167 167 168 170 170 170 170 170 171 172 172 172 172 172 172 172 172 174 174 174 174 174 174 176 177 177 177 177 177 177 177 177 177 177 177 176 175 175 174 174 174 174 177 184 184 184 184 184 184 184 184 184 184 184 184 184 184 184 184 184 184 184 184 184 184 184 184 184 184 184 184 184 184 184 184 184 184 184 184 184 184 184 184 184 184 184 184 184 184 184 184 184 184 184 184 183 184 184 184 184 184 184 179 145 219 239 239 242 250 251 251 251 251 251
237 237 237 237 237 238 250 253 253 201 76 66 66 66 66 66 66 66 66 68 69 69 69 69 71 116 147 76 119 182 184 184 184 184 184 184 184 184 184 183 181 183 124 84 85 85 85 85 86 87 89 90 90 92 93 93 94 94 96 97 99 100 100 100 115 170 184 183 139 108 111 119 116 116 112 112 113 113 115 117 119 119 119 121 121 122 124 125 126 126 127 129 130 131 131 133 133 134 136 136 137 138 138 139 141 141 142 142 143 145 146 147 148 148 148 149 150 150 152 153 153 155 155 155 156 158 158 158 159 160 160 160 160 161 161 161 162 165 165 165 165 167 167 167 167 169 170 170 170 170 170 170 172 172 172 172 172 172 172 172 174 174 174 174 174 174 175 176 177 177 177 177 177 176 176 175 174 174 174 174 174 174 174 174 178 184 184 184 184 184 184 184 184 184 184 184 184 184 184 184 184 184 184 184 184 184 184 184 184 184 184 183 183 184 184 184 184 184 184 184 184 184 184 184 184 184 184 184 184 184 183 184 184 184 184 184 184 183 183 184 184 184 184 184 183 152 195 237 237 240 252 253 253 253 253 253
237 237 237 237 237 238 250 253 252 162 68 66 66 66 66 66 66 66 67 69 69 69 69 69 71 122 137 73 118 181 184 184 184 184 184 184 184 184 184 184 182 181 119 84 85 85 85 85 86 87 89 90 90 92 93 93 94 94 96 97 99 100 100 100 104 151 184 182 136 108 115 126 113 123 113 112 113 113 114 117 119 119 119 120 121 121 124 124 126 126 126 129 130 131 131 132 133 134 136 136 136 138 138 139 141 141 142 142 142 145 146 147 148 148 148 148 150 150 151 153 153 154 155 155 155 157 158 158 158 159 160 160 160 161 161 161 161 163 165 165 165 166 167 167 167 168 170 170 170 170 170 170 171 172 172 172 172 172 172 172 172 174 174 174 174 174 174 174 175 176 176 175 175 174 174 174 174 174 174 174 174 174 174 174 178 184 184 184 184 184 184 184 184 184 184 184 184 184 184 184 184 184 184 184 184 184 184 184 184 184 184 184 184 184 184 184 184 184 184 182 184 184 184 184 184 184 184 184 184 184 183 184 184 184 184 184 184 184 183 184 184 184 184 184 184 167 175 235 237 240 252 253 253 253 253 253
237 237 237 237 237 238 250 253 246 127 66 66 66 66 66 66 66 66 67 69 69 69 69 69 74 143 135 73 91 173 184 184 184 184 184 184 184 184 184 184 184 181 117 84 85 85 85 85 86 87 89 90 90 92 93 93 94 94 96 97 99 100 100 100 101 125 178 182 131 107 109 109 111 123 113 112 113 113 114 117 119 119 119 120 121 121 124 124 125 126 126 128 129 131 131 132 133 133 136 136 136 137 138 138 140 141 142 142 142 144 146 146 148 148 148 148 150 150 151 153 153 153 155 155 155 156 158 158 158 159 160 160 160 161 161 161 161 162 165 165 165 165 167 167 167 167 169 170 170 170 170 170 170 171 172 172 172 172 172 172 172 173 174 174 174 174 174 174 174 174 174 174 174 174 174 174 174 174 174 174 174 174 174 174 179 184 184 184 184 184 184 184 184 184 184 184 184 184 184 184 184 184 184 184 184 184 184 184 184 184 184 184 184 184 183 184 184 184 179 179 184 184 184 184 184 184 184 184 184 184 184 184 184 184 184 184 184 184 183 184 184 184 184 184 184 178 164 229 237 240 252 253 253 253 253 253
237 237 237 237 237 238 250 253 233 99 66 66 66 66 66 66 66 66 67 69 69 69 69 69 74 145 130 72 80 160 184 184 184 184 184 184 184 184 184 184 183 154 96 84 85 85 85 85 86 87 89 90 90 91 93 93 94 94 95 97 98 100 100 100 101 108 162 178 123 107 109 109 109 113 113 112 113 113 113 116 118 119 119 120 121 121 123 124 125 126 126 128 129 130 131 131 133 133 135 136 136 137 138 138 140 141 141 142 142 143 146 146 147 148 148 148 149 150 150 152 153 153 154 155 155 155 157 158 158 158 159 160 160 160 161 161 161 161 163 165 165 165 166 167 167 167 167 169 170 170 170 170 170 170 171 172 172 172 172 172 172 172 173 174 174 174 174 174 174 174 174 174 174 174 174 174 174 174 174 174 174 174 174 174 181 184 184 184 184 184 184 184 184 184 184 184 184 184 184 184 184 184 184 184 184 184 184 184 184 184 184 184 184 184 184 183 184 183 178 183 184 184 184 184 184 184 184 184 184 184 184 184 184 184 184 184 184 184 183 183 184 184 184 184 184 182 172 221 237 240 252 253 253 253 253 253
241 241 241 241 241 241 248 250 209 81 66 66 66 66 66 66 66 66 67 69 69 69 69 69 72 129 134 73 75 145 184 184 184 184 184 184 184 184 184 184 181 126 85 84 85 85 85 85 86 87 89 90 90 91 93 93 94 94 95 97 98 100 100 100 101 103 140 155 112 107 108 113 110 112 116 113 113 113 113 115 118 119 119 120 121 121 122 124 124 126 126 127 129 130 131 131 133 133 135 136 136 137 138 138 139 141 141 142 142 142 145 146 147 148 148 148 148 150 150 151 153 153 154 155 155 155 156 158 158 158 159 160 160 160 160 161 161 161 162 164 165 165 165 167 167 167 167 168 170 170 170 170 170 170 170 171 172 172 172 172 172 172 172 172 174 174 174 174 174 174 174 174 174 174 174 174 174 174 174 174 174 174 174 174 180 184 184 184 184 184 184 184 184 184 184 184 184 184 184 184 184 184 184 184 184 184 184 184 184 184 184 184 184 184 184 183 183 182 184 184 184 184 184 184 184 184 184 184 184 184 184 183 184 184 184 184 184 184 184 184 184 184 184 184 184 182 177 214 241 242 249 250 250 250 250 250
252 252 252 252 252 251 241 238 174 71 66 66 66 66 66 66 66 66 67 69 69 69 69 69 71 112 153 78 74 145 184 184 184 184 184 184 184 184 184 184 171 111 84 84 85 85 85 85 86 87 89 90 90 91 93 93 93 94 95 97 98 100 100 100 101 102 109 111 106 107 109 140 119 112 114 114 113 113 113 115 117 119 119 119 121 121 122 124 124 126 126 126 129 129 131 131 132 133 134 136 136 136 137 138 139 141 141 142 142 142 144 146 146 148 148 148 148 149 150 150 152 153 153 155 155 155 155 157 158 158 158 159 160 160 160 161 161 161 161 163 165 165 165 166 167 167 167 167 168 170 170 170 170 170 170 170 171 172 172 172 172 172 172 172 173 174 174 174 174 174 174 174 174 174 174 174 174 174 174 174 174 174 174 174 179 184 184 184 184 184 184 184 184 184 184 184 184 184 184 184 184 184 184 184 184 184 184 184 184 184 184 184 184 184 184 184 184 183 184 184 184 184 184 184 184 184 184 184 184 184 184 184 184 184 184 184 184 184 184 184 184 184 184 184 184 183 177 212 252 249 239 238 238 238 238 238
253 253 253 253 253 252 240 235 145 66 66 66 66 66 66 66 66 66 67 69 69 69 69 69 71 97 157 84 74 142 184 184 184 184 184 184 184 184 184 184 155 90 83 84 85 85 85 85 86 87 88 90 90 90 93 93 93 94 95 97 98 100 100 100 101 101 104 105 106 107 112 149 120 110 113 116 116 113 113 114 117 119 119 119 120 121 121 124 124 126 126 126 128 129 131 131 132 133 133 135 136 136 137 138 138 140 141 141 142 142 143 146 146 147 148 148 148 149 150 150 151 153 153 154 155 155 155 156 158 158 158 158 160 160 160 160 161 161 161 161 164 165 165 165 167 167 167 167 167 169 170 170 170 170 170 170 170 172 172 172 172 172 172 172 172 173 174 174 174 174 174 174 174 174 174 174 174 174 174 174 174 174 174 174 175 180 183 184 184 184 184 184 184 184 184 184 184 184 184 184 184 184 184 184 184 184 184 184 184 184 184 184 184 184 184 184 184 184 184 184 184 184 184 184 184 184 184 184 184 184 184 184 184 184 184 184 184 184 184 183 184 184 184 184 184 183 177 206 251 250 238 237 237 237 237 237
253 253 253 253 253 252 240 229 117 66 66 66 66 66 66 66 66 66 67 69 69 69 69 69 71 85 139 81 73 129 183 184 184 184 184 184 184 184 184 184 147 85 83 84 85 85 85 85 86 87 88 90 90 90 93 93 93 94 94 96 98 100 100 100 100 101 104 105 106 107 108 124 124 109 111 114 116 114 114 113 116 119 119 119 120 121 121 123 124 125 126 126 127 129 130 131 131 133 133 135 136 136 136 138 138 139 141 141 142 142 142 145 146 146 148 148 148 148 149 150 150 153 153 153 155 155 155 155 157 158 158 158 159 160 160 160 160 161 161 161 163 165 165 165 166 167 167 167 167 167 169 170 170 170 170 170 170 170 171 172 172 172 172 172 172 172 173 174 174 174 174 174 174 174 174 174 174 174 174 174 174 174 174 174 174 175 181 184 184 184 184 184 184 184 184 184 184 184 184 184 184 184 184 184 184 184 184 184 184 184 184 184 184 184 184 184 184 184 184 184 184 184 184 184 184 184 184 184 184 184 184 183 184 184 184 184 184 184 184 183 184 184 184 184 184 184 182 199 248 250 238 237 237 237 237 237
253 253 253 253 253 252 240 218 95 66 66 66 66 66 66 66 66 66 67 69 69 69 69 69 71 74 83 72 72 110 180 184 184 184 184 184 184 184 184 184 140 83 83 84 85 85 85 85 85 87 88 90 90 90 92 93 93 94 94 96 97 99 100 100 100 101 103 105 106 107 107 115 121 109 111 112 114 114 113 113 116 118 119 119 120 121 121 122 124 124 126 126 127 129 130 131 131 132 133 134 136 136 136 138 138 139 141 141 142 142 142 144 146 146 148 148 148 148 149 150 150 152 153 153 154 155 155 155 156 158 158 158 159 160 160 160 160 161 161 161 162 164 165 165 165 167 167 167 167 167 168 170 170 170 170 170 170 170 170 172 172 172 172 172 172 172 172 174 174 174 174 174 174 174 174 174 174 174 174 174 174 174 174 174 174 174 179 184 184 184 184 184 184 184 184 184 184 184 184 184 184 184 184 184 184 184 184 184 184 184 184 184 184 184 184 184 184 184 184 184 184 184 184 184 184 184 184 184 184 184 184 184 184 184 184 184 184 184 183 182 184 184 184 184 184 184 183 192 243 250 238 237 237 237 237 237
253 253 253 253 253 252 240 200 79 66 66 66 66 66 66 66 66 66 67 69 69 69 69 69 71 71 71 71 72 93 172 184 184 184 184 184 184 184 184 183 133 83 83 84 85 85 85 85 85 87 87 90 90 90 92 93 93 94 94 96 97 99 100 103 106 104 104 105 105 107 107 108 109 109 110 112 117 114 113 113 115 118 119 119 119 121 121 122 124 124 126 126 126 129 129 131 131 132 133 134 136 136 136 137 138 138 140 141 141 142 142 143 146 146 147 148 148 148 148 150 150 151 153 153 154 155 155 155 155 157 158 158 158 159 160 160 160 161 161 161 161 163 165 165 165 166 167 167 167 167 167 168 170 170 170 170 170 170 170 171 172 172 172 172 172 172 172 172 174 174 174 174 174 174 174 174 174 174 174 174 174 174 174 174 174 174 179 184 184 184 184 184 184 184 184 184 184 184 184 184 184 184 184 184 184 184 184 184 184 184 184 184 184 184 184 184 184 184 184 184 184 184 184 184 184 184 184 184 184 184 184 184 184 184 184 184 184 184 184 183 184 184 184 184 184 184 183 188 237 250 238 237 237 237 237 237
248 248 248 248 248 247 244 181 70 66 66 66 66 66 66 66 66 66 67 69 69 69 69 69 71 71 71 71 71 82 160 184 184 184 184 184 184 184 184 182 126 82 83 83 85 85 85 85 85 87 87 89 90 90 91 93 93 94 94 95 99 113 135 156 165 159 152 126 109 106 107 108 109 109 110 112 118 115 115 113 114 117 119 119 119 120 121 121 123 124 125 126 126 128 129 130 131 131 133 133 135 136 136 136 138 138 140 141 141 142 142 142 144 146 146 148 148 148 148 150 150 150 152 153 153 154 155 155 155 156 158 158 158 159 160 160 160 160 161 161 161 161 164 165 165 165 167 167 167 167 167 167 169 170 170 170 170 170 170 170 171 172 172 172 172 172 172 172 172 173 174 174 174 174 174 174 174 174 174 174 174 174 174 174 174 173 176 183 184 184 184 184 184 184 184 184 184 184 184 184 184 184 184 184 184 184 184 184 184 184 184 184 184 184 184 184 184 184 183 183 184 184 184 184 184 184 184 184 184 184 184 183 184 184 184 184 184 184 184 183 184 184 184 184 184 184 183 185 225 247 243 243 243 243 243 243
237 237 237 237 237 238 249 162 67 66 66 66 66 66 66 66 66 66 67 69 69 69 69 69 71 71 71 71 72 78 148 184 184 184 184 184 184 184 184 181 118 82 83 83 85 85 85 85 85 86 87 89 90 90 91 93 93 93 94 96 130 171 160 134 153 182 184 178 143 112 114 109 109 109 109 112 112 113 122 116 116 116 118 119 119 120 121 121 123 124 125 126 126 127 129 130 131 131 132 133 134 136 136 136 137 138 139 141 141 142 142 142 143 146 146 147 148 148 148 149 150 150 152 153 153 153 155 155 155 155 157 158 158 158 159 160 160 160 161 161 161 161 163 165 165 165 166 167 167 167 167 167 167 169 170 170 170 170 170 170 170 171 172 172 172 172 172 172 172 173 174 174 174 174 174 174 174 174 174 174 174 173 173 172 172 172 173 181 184 184 184 184 184 184 184 184 184 184 184 184 184 184 184 184 184 184 184 184 184 184 184 184 184 184 184 184 184 184 184 183 184 184 184 184 184 184 184 184 184 184 184 183 184 184 184 184 184 184 184 183 184 184 184 184 184 184 183 183 210 240 252 253 253 253 253 253
237 237 237 237 237 238 247 136 66 66 66 66 66 66 66 66 66 66 67 69 69 69 69 69 70 71 71 71 72 77 144 184 184 184 184 184 184 184 184 177 108 81 83 83 85 85 85 85 85 86 87 89 90 90 91 93 93 93 94 104 156 144 112 102 133 164 175 182 180 166 146 120 109 109 109 111 112 112 117 114 117 116 118 119 119 119 121 121 122 124 124 126 126 126 128 129 131 131 132 133 133 136 136 136 137 138 138 140 141 141 142 142 142 145 146 146 148 148 148 148 150 150 151 153 153 153 154 155 155 155 156 158 158 158 158 160 160 160 160 161 161 161 161 164 165 165 165 166 167 167 167 167 167 167 169 170 170 170 170 170 170 170 171 172 172 172 172 172 172 172 172 174 174 174 174 174 174 174 173 173 172 172 172 172 172 172 172 176 184 184 184 184 184 184 184 184 184 184 184 184 184 184 184 184 184 184 184 184 184 184 184 184 184 184 184 184 184 184 184 183 184 184 184 184 184 184 184 184 184 184 184 183 184 184 184 184 184 184 184 183 184 184 184 184 184 184 183 183 202 239 252 253 253 253 253 253
237 237 237 237 237 238 241 116 66 66 66 66 66 66 66 66 66 66 67 69 69 69 69 69 70 71 71 71 71 78 151 184 184 184 184 184 184 184 184 173 99 81 83 83 84 85 85 85 85 86 87 88 91 95 98 96 93 93 95 111 120 101 127 106 101 107 117 154 178 181 180 157 122 109 109 110 112 112 112 113 113 115 117 119 119 119 120 121 121 123 124 125 126 126 128 129 130 131 131 133 133 135 136 136 136 138 138 139 141 141 142 142 142 144 146 146 147 148 148 148 149 150 150 152 153 153 154 155 155 155 155 157 158 158 158 159 160 160 160 161 161 161 161 162 165 165 165 166 167 167 167 167 167 167 168 169 170 170 170 170 170 170 170 171 172 172 172 172 172 172 172 173 174 173 173 173 172 172 172 172 172 172 172 172 172 172 172 174 182 184 184 184 184 184 184 184 184 184 184 184 184 184 184 184 184 184 184 184 184 184 184 184 184 184 184 184 184 184 184 184 184 184 184 184 184 184 184 184 184 184 184 183 184 184 184 184 184 184 184 182 183 184 184 184 184 184 183 183 197 237 252 253 253 253 253 253
237 237 237 237 237 238 233 100 66 66 66 66 66 66 66 66 66 66 67 69 69 69 69 69 70 71 71 71 71 84 163 184 184 184 184 184 184 184 184 177 105 81 83 83 84 85 85 85 85 86 95 117 142 159 165 140 96 93 94 95 96 100 129 107 100 100 101 107 123 134 173 182 165 126 111 110 111 112 112 116 116 114 116 118 119 119 120 121 121 122 124 124 126 126 127 129 130 131 131 132 133 134 136 136 136 137 138 139 141 141 141 142 142 142 145 146 146 147 148 148 149 150 150 151 153 153 153 154 155 155 155 156 158 158 158 159 160 160 160 160 161 161 161 161 164 165 165 165 166 167 167 167 167 167 167 168 170 170 170 170 170 170 170 170 171 172 172 172 172 172 172 172 172 172 172 172 172 172 172 172 172 172 172 172 172 172 172 173 181 184 184 184 184 184 184 184 184 184 184 184 184 184 184 184 184 184 184 184 184 184 184 184 184 184 184 184 184 184 183 184 184 184 184 184 184 184 184 184 184 184 184 183 184 184 184 184 184 184 184 182 183 184 184 184 184 184 184 183 193 234 252 253 253 253 253 253
237 237 237 237 237 238 223 88 66 66 66 66 66 66 66 66 66 66 67 69 69 69 69 69 70 71 71 71 71 105 175 184 184 184 184 184 184 184 184 181 120 81 83 83 84 85 85 85 85 89 145 179 183 184 184 160 99 93 93 94 95 97 99 100 100 100 101 101 104 107 155 183 183 174 155 125 111 112 116 140 123 113 116 117 119 119 119 121 121 122 124 124 126 126 126 128 129 130 131 131 133 133 135 136 136 137 138 138 140 141 141 142 142 142 143 146 146 147 148 148 148 150 150 150 152 153 153 153 155 155 155 155 157 158 158 158 159 160 160 160 161 161 161 161 162 165 165 165 165 167 167 167 167 167 167 167 168 169 170 170 170 170 170 170 170 171 172 172 172 172 172 172 172 172 172 172 172 172 172 172 172 172 172 172 171 171 171 171 180 184 184 184 184 184 184 184 184 184 184 184 184 184 184 184 184 184 184 184 184 184 184 184 184 184 184 184 183 184 184 184 184 184 184 184 184 184 184 184 184 184 184 182 183 184 184 184 184 184 184 184 183 184 184 184 184 184 184 182 189 230 252 253 253 253 253 253
245 245 245 245 245 245 208 80 66 66 66 66 66 66 66 66 66 66 67 69 69 69 69 69 70 71 71 71 72 126 183 184 184 184 184 184 184 184 184 183 139 82 82 83 84 85 85 85 85 97 169 184 184 184 178 129 94 93 93 94 94 97 97 100 100 100 101 101 103 105 123 150 167 184 183 159 139 118 113 116 114 113 115 117 119 119 119 120 121 121 123 124 125 126 126 127 129 130 131 131 132 133 134 136 136 136 138 138 139 141 141 141 142 142 142 145 146 146 147 148 148 149 150 150 151 153 153 153 154 155 155 155 156 158 158 158 158 160 160 160 160 161 161 161 161 164 165 165 165 165 167 167 167 167 167 167 167 167 168 170 170 170 170 170 170 170 170 171 171 172 172 172 172 172 172 172 172 172 172 171 171 171 170 170 170 170 170 171 180 184 184 183 184 184 184 184 184 184 184 184 184 184 184 184 184 184 183 184 184 184 184 184 184 183 183 184 184 184 184 184 184 184 184 184 184 184 184 184 184 184 184 183 183 183 184 184 184 184 184 184 183 184 184 184 184 184 184 182 187 229 245 245 245 245 245 245
253 253 253 253 253 252 194 74 66 66 66 66 66 66 66 66 66 66 67 69 69 69 69 69 70 71 71 71 71 107 178 184 184 184 184 184 184 184 184 184 158 87 82 83 83 85 85 85 85 109 178 184 184 183 143 103 94 93 93 94 94 96 97 99 100 100 100 101 103 105 106 110 147 183 184 184 181 156 117 112 114 113 114 117 118 119 119 120 121 121 122 124 124 126 126 126 129 129 131 131 131 133 133 136 136 136 137 138 138 140 141 141 142 142 142 143 146 146 147 148 148 148 150 150 151 153 153 153 154 155 155 155 155 157 158 158 158 159 160 160 160 161 161 161 161 162 164 165 165 165 165 166 166 167 167 167 167 167 167 168 169 170 170 170 170 170 170 170 170 171 171 171 172 172 172 171 171 171 170 170 170 170 170 170 170 170 170 171 180 182 184 184 184 184 184 184 184 184 184 184 184 184 184 184 184 183 184 184 184 184 184 184 183 183 184 184 184 184 184 184 184 184 184 184 184 184 184 184 183 183 183 184 183 179 184 184 184 184 184 184 181 182 184 184 184 184 184 183 185 225 238 237 237 237 237 237
253 253 253 253 253 252 184 70 66 66 66 66 66 66 66 66 66 66 66 68 69 69 69 69 70 71 71 71 71 82 155 184 184 184 184 184 184 184 184 184 171 98 81 83 83 85 85 85 85 129 183 184 184 177 111 90 93 93 93 94 94 96 97 98 100 100 100 101 102 104 105 124 159 154 150 157 150 131 114 123 143 131 131 144 140 126 120 119 120 121 122 124 124 125 126 126 127 129 130 131 131 132 133 134 136 136 136 138 138 139 141 141 141 142 142 142 144 146 146 147 148 148 149 150 150 152 153 153 153 154 155 155 155 155 157 158 158 158 160 160 160 160 161 161 161 161 162 164 165 165 165 165 165 165 166 167 167 167 167 167 167 168 169 170 170 170 170 170 170 170 170 170 173 171 170 170 171 170 170 170 170 170 170 170 170 170 170 171 179 184 184 184 184 184 184 184 183 184 184 184 184 184 184 184 184 184 184 184 184 184 184 184 184 184 184 184 184 184 184 184 184 183 184 183 183 182 183 184 184 184 184 184 184 180 183 184 184 184 184 184 183 183 184 184 184 184 184 183 185 218 238 237 237 237 237 237
253 253 253 253 253 252 175 69 66 66 66 66 66 66 66 66 66 66 66 68 69 69 69 69 69 71 71 71 71 73 109 176 184 184 184 184 184 184 184 184 179 113 81 83 83 84 85 85 93 158 184 184 184 179 118 90 92 93 93 94 94 95 97 97 100 100 100 101 101 104 105 109 112 109 109 111 110 110 112 123 157 178 177 183 181 170 136 123 120 121 121 122 124 124 126 126 126 128 129 131 131 132 133 134 136 136 136 138 138 138 140 141 141 141 142 142 143 145 146 146 147 148 148 150 150 150 152 153 153 153 154 155 155 155 156 158 158 158 158 160 160 160 160 161 161 161 161 162 163 165 165 165 165 165 165 165 166 166 167 167 167 167 167 168 168 170 170 170 170 170 170 170 171 170 170 170 171 170 170 170 170 170 170 170 169 169 168 168 179 184 184 184 184 184 184 184 181 183 184 184 184 184 184 184 184 184 184 184 184 184 184 184 184 184 184 184 184 184 184 184 183 184 184 184 183 183 183 183 184 184 184 184 184 182 183 184 184 184 184 184 183 181 184 184 184 184 184 183 184 211 238 237 237 237 237 237
253 253 253 253 253 252 168 68 66 66 66 66 66 66 66 66 66 66 66 68 69 69 69 69 69 71 71 71 71 72 77 136 182 184 184 184 184 184 184 184 183 132 83 83 83 84 85 86 128 180 184 184 184 181 120 90 91 93 93 93 94 94 96 97 100 100 100 100 101 103 105 106 107 107 108 109 109 109 112 113 136 181 182 184 184 184 170 145 128 121 121 122 124 124 125 126 126 128 129 130 131 131 132 133 134 136 136 137 138 138 139 141 141 141 142 142 142 144 146 146 146 148 148 148 150 150 150 151 153 153 153 155 155 155 155 156 158 158 158 158 160 160 160 160 161 161 161 161 161 162 164 165 165 165 165 165 165 165 165 166 166 167 167 167 167 167 168 169 170 170 170 170 170 170 170 170 171 172 170 169 169 168 168 167 167 167 167 168 180 184 184 184 184 184 184 184 184 184 184 184 184 184 184 184 184 184 184 184 184 184 184 184 184 184 184 184 183 184 184 184 183 184 184 184 184 184 184 184 184 184 184 184 184 183 183 184 184 184 184 184 183 183 184 184 184 184 184 183 183 203 238 237 237 237 237 237
253 253 253 253 253 252 163 68 66 66 66 66 66 66 66 66 66 66 66 68 69 69 69 69 69 71 71 71 71 72 73 86 155 183 184 184 184 184 184 184 184 171 124 85 85 93 116 114 157 184 184 184 182 166 106 90 91 93 93 93 94 94 95 97 98 100 100 100 101 102 105 105 106 107 107 109 109 112 117 119 131 166 181 184 184 184 183 180 165 125 121 121 123 124 125 126 126 127 129 129 131 131 131 133 134 135 136 136 137 138 138 140 141 141 141 142 142 142 145 146 146 147 148 148 149 150 150 150 151 153 153 153 154 155 155 155 156 158 158 158 158 160 160 160 160 160 161 161 161 161 161 163 164 165 165 165 165 165 165 165 165 165 166 167 167 167 167 167 168 168 169 169 169 169 169 169 168 168 168 167 167 167 167 167 167 167 167 170 182 184 184 184 184 184 184 184 183 184 184 184 184 184 184 184 184 184 184 184 184 184 183 184 184 184 184 184 183 184 184 184 184 184 184 184 184 184 184 184 184 184 184 184 184 183 183 184 184 184 184 184 183 184 184 184 184 184 184 183 184 200 236 237 237 237 237 237
243 243 243 243 243 243 159 68 66 66 66 66 66 66 66 66 66 66 66 67 69 69 69 69 69 71 71 71 71 71 73 73 94 151 182 184 184 184 184 184 184 184 175 129 133 163 178 170 178 184 184 184 174 126 96 90 90 92 93 93 94 94 95 97 98 100 100 100 101 102 117 111 106 107 107 108 109 131 164 149 149 168 179 181 166 166 144 146 153 124 121 121 122 125 130 126 126 126 128 131 130 131 131 132 133 135 136 136 136 137 138 139 141 141 141 141 142 142 143 146 146 146 147 148 148 149 150 150 150 151 153 153 153 155 155 155 155 156 158 158 158 158 160 160 160 160 160 161 161 161 161 161 161 162 164 165 165 165 165 165 165 165 165 165 166 166 167 167 167 167 167 167 167 167 167 167 168 167 167 167 167 167 167 167 167 167 167 173 183 184 184 184 184 184 184 184 184 184 184 184 184 184 184 184 184 184 184 184 184 183 183 184 184 184 184 184 184 184 183 183 183 184 184 184 184 184 184 184 184 184 184 184 184 183 183 184 184 184 184 184 183 184 184 184 184 184 184 183 183 198 244 248 248 248 248 248
237 237 237 237 237 238 154 67 66 66 66 66 66 66 66 66 66 66 66 67 69 69 69 69 69 70 71 71 71 71 73 73 73 88 154 183 184 184 184 184 184 184 184 182 183 184 184 184 184 183 183 181 177 113 90 90 90 92 93 93 93 94 94 96 97 99 100 100 100 102 119 112 106 111 111 108 109 113 133 125 128 126 147 164 122 121 117 118 121 119 120 121 121 123 125 125 126 126 127 130 129 131 131 131 133 133 135 136 136 136 138 138 140 141 141 141 142 142 142 144 146 146 146 147 148 148 149 150 150 150 151 152 153 153 155 155 155 155 156 158 158 158 158 159 160 160 160 160 160 161 161 161 161 161 161 162 164 165 165 165 165 165 165 165 165 165 165 166 167 167 167 167 167 167 168 169 171 167 167 167 167 167 167 167 167 167 167 167 178 184 182 181 184 184 184 184 183 184 184 184 184 184 184 184 184 184 184 184 184 184 184 184 184 184 184 184 184 184 183 183 183 184 184 184 184 184 184 184 184 184 184 184 184 183 183 183 184 184 184 184 183 184 183 184 184 184 184 183 184 198 248 253 253 253 253 253
237 237 237 237 237 238 148 67 66 66 66 66 66 66 66 66 66 66 66 67 69 69 69 69 69 70 71 71 71 71 72 73 73 73 96 164 184 184 184 184 184 184 184 184 184 184 184 184 181 183 183 181 174 105 89 90 90 91 93 93 93 94 94 96 97 98 100 100 100 101 102 104 105 108 110 107 109 109 109 110 112 112 118 130 114 114 117 118 119 119 120 121 121 122 124 124 126 126 126 128 129 130 131 131 132 133 134 136 136 136 137 138 138 140 141 141 141 142 142 142 145 146 146 146 148 148 148 149 150 150 150 151 152 153 153 155 155 155 155 156 157 158 158 158 159 160 160 160 160 160 161 161 161 161 161 161 161 162 163 164 165 165 165 165 165 165 165 165 165 166 166 167 167 167 168 168 168 167 167 167 166 166 166 166 166 165 165 165 170 181 172 167 178 184 184 184 184 184 184 184 184 184 184 184 184 184 184 184 184 183 184 184 184 184 184 184 184 184 184 184 183 184 184 184 184 184 184 184 184 184 184 184 184 183 183 183 184 184 184 183 183 184 183 184 184 184 184 183 184 197 248 253 253 253 253 253
237 237 237 237 237 238 144 66 66 66 66 66 66 66 66 66 66 66 66 67 69 69 69 69 69 70 71 71 71 71 72 73 73 73 75 106 171 184 184 184 184 184 184 184 184 184 184 183 180 183 184 182 170 101 89 90 90 90 93 93 93 94 94 95 97 98 100 100 100 101 101 104 105 106 107 107 108 109 109 109 112 112 112 113 113 113 116 117 118 119 119 120 121 121 123 124 125 126 126 126 129 130 132 131 131 133 133 135 136 136 136 137 138 139 141 141 141 141 142 142 143 145 146 146 147 148 148 148 149 150 150 150 150 152 153 153 154 155 155 155 155 157 158 158 158 159 160 160 160 160 160 161 161 161 161 161 161 161 161 161 162 163 165 165 165 165 165 165 165 165 165 165 166 167 167 167 166 166 166 165 165 165 165 165 165 165 165 165 166 176 168 165 172 184 184 184 184 184 184 184 184 184 184 184 184 184 184 184 184 183 184 184 184 184 184 184 184 184 183 184 184 184 184 184 184 184 184 184 184 184 184 184 184 183 183 184 184 184 184 183 183 184 179 182 184 184 184 184 184 199 248 253 253 253 253 253
237 237 237 237 237 237 139 66 66 66 66 66 66 66 66 66 66 66 66 66 68 69 69 69 69 69 71 71 71 71 72 73 73 73 73 77 116 174 184 184 184 184 184 184 184 184 184 184 183 183 184 182 168 98 87 89 90 90 92 93 93 93 94 94 96 97 99 100 100 100 101 102 104 105 107 107 107 109 109 109 111 112 112 112 113 113 115 117 118 119 119 119 121 121 122 124 124 126 126 126 128 129 130 131 131 132 133 134 136 136 136 136 137 138 140 141 141 141 142 142 142 143 146 146 146 147 148 148 148 149 150 150 150 150 152 153 153 154 155 155 155 155 157 158 158 158 158 159 160 160 160 160 160 160 161 161 161 161 161 161 161 161 162 163 164 165 165 165 165 165 165 165 165 165 165 165 165 165 165 165 165 165 165 165 165 165 165 165 167 177 171 165 173 184 184 184 184 184 184 184 184 184 184 184 184 184 184 184 184 184 184 184 184 184 184 184 184 183 184 184 184 183 184 184 184 184 184 184 184 184 184 184 184 182 180 184 184 184 184 184 184 184 183 183 184 184 184 183 183 200 249 253 253 253 253 253
238 238 238 238 238 238 137 66 66 66 66 66 66 66 66 66 66 66 66 66 68 69 69 69 69 69 71 71 71 71 72 73 73 73 73 75 79 120 174 184 184 184 171 174 184 184 184 184 183 181 184 182 154 92 87 90 91 90 91 93 93 93 94 94 96 97 98 100 100 100 101 101 104 105 106 107 107 109 109 109 109 111 112 112 113 113 113 116 117 118 119 119 121 121 121 123 124 125 126 126 126 129 132 131 131 131 133 133 135 136 136 136 136 137 139 141 141 141 141 142 142 142 144 146 146 146 147 148 148 148 149 150 150 150 150 151 153 153 154 155 155 155 155 156 158 158 158 158 159 160 160 160 160 160 160 161 161 161 161 161 161 161 161 161 161 162 163 164 165 165 165 165 165 165 165 165 165 165 165 165 165 165 165 165 165 165 164 164 164 178 179 174 180 184 183 183 183 183 183 183 183 184 184 184 184 184 184 184 183 184 184 184 184 183 183 183 183 183 184 184 184 183 184 184 184 184 184 184 184 184 184 184 184 183 178 183 184 184 184 184 184 184 184 183 184 184 184 184 182 200 248 252 252 252 252 252
250 250 250 250 250 247 135 66 66 66 66 66 66 66 66 66 66 66 66 66 68 69 69 69 69 69 70 71 71 71 71 73 73 73 73 75 76 79 111 162 181 162 109 112 167 184 184 183 182 182 184 174 114 88 87 90 93 93 92 93 93 93 94 94 94 97 97 99 100 100 101 101 103 105 105 107 107 107 109 109 109 111 112 112 113 113 113 115 117 117 119 119 119 121 121 122 124 124 125 126 126 127 131 130 131 131 132 133 133 135 136 136 136 136 138 139 141 141 141 141 142 142 142 144 146 146 146 147 148 148 148 148 149 150 150 150 151 153 153 154 155 155 155 155 156 157 158 158 158 158 159 160 160 160 160 160 160 160 161 161 161 161 161 161 161 161 161 161 162 163 164 165 165 165 165 165 165 165 165 165 165 164 164 163 163 162 161 161 161 173 181 183 184 184 183 184 184 184 183 183 184 184 184 184 184 184 184 184 182 184 184 184 183 184 184 184 184 183 184 184 184 183 184 184 184 184 184 184 184 184 184 184 184 184 182 182 184 184 183 184 184 184 184 183 183 184 184 184 182 199 237 241 241 241 241 241
253 253 253 253 253 249 134 66 66 66 66 66 66 66 66 66 66 66 66 66 67 69 69 69 69 69 70 71 71 71 71 72 73 73 73 74 76 76 77 91 112 95 81 81 120 179 180 180 184 184 184 174 135 131 124 118 141 151 146 123 97 93 93 94 94 95 97 99 100 100 100 101 102 104 105 107 107 107 108 109 109 109 112 112 112 113 113 113 116 117 118 119 119 120 121 121 123 124 125 126 126 126 132 134 130 131 131 132 133 134 136 136 136 136 137 138 140 141 141 141 142 142 142 142 145 146 146 146 147 148 148 148 148 149 150 150 150 150 152 153 154 155 155 155 155 155 157 158 158 158 158 158 159 160 160 160 160 160 160 160 161 161 161 161 161 161 161 161 161 161 162 162 163 164 165 165 164 164 163 163 162 162 161 161 161 161 161 161 161 164 176 181 181 184 184 184 184 184 184 184 184 184 184 184 184 184 184 184 183 184 184 184 183 184 184 184 184 183 182 184 184 182 184 184 184 184 184 184 184 184 184 184 183 184 184 181 184 183 183 184 184 184 184 184 183 184 184 184 183 199 234 237 237 237 237 237
253 253 253 253 253 249 135 66 66 66 66 66 66 66 66 66 66 66 66 66 66 69 69 69 69 69 69 71 71 71 71 72 73 73 73 74 76 76 76 77 77 78 80 80 87 149 180 181 184 184 184 183 180 182 182 180 183 184 184 175 119 94 93 94 94 94 96 98 100 100 100 100 101 103 105 106 107 107 108 109 109 109 111 112 112 113 113 113 115 117 117 119 119 119 121 121 122 124 124 125 126 126 128 132 129 131 131 131 132 133 135 136 136 136 136 137 138 140 141 141 141 142 142 142 143 145 146 146 146 147 148 148 148 148 149 150 150 150 151 152 153 153 154 155 155 155 155 156 157 158 158 158 158 158 159 160 160 160 160 160 160 160 160 161 161 161 161 161 161 161 161 161 161 161 162 162 162 161 161 161 161 161 161 161 161 161 161 161 161 161 165 169 180 183 183 184 184 184 184 184 184 184 184 182 182 184 183 182 182 184 184 184 182 184 184 184 184 183 182 184 183 182 184 184 184 184 184 184 184 184 184 184 183 184 184 182 182 183 184 184 184 184 184 184 183 184 184 184 183 199 234 237 237 237 237 237
253 253 253 253 253 250 138 66 66 66 66 66 66 66 66 66 66 66 66 66 66 69 69 69 69 69 69 71 71 71 71 72 73 73 73 73 75 76 76 77 77 78 80 80 80 104 170 183 184 184 184 183 183 184 184 184 184 184 184 183 169 121 93 93 94 94 96 97 99 100 100 100 101 102 105 105 107 107 107 108 109 109 109 112 112 112 113 113 114 116 117 118 119 119 120 121 121 123 124 124 126 126 126 128 129 130 131 131 132 133 133 135 136 136 136 136 137 139 141 141 141 141 142 142 142 143 145 146 146 146 147 148 148 148 148 149 150 150 150 151 152 153 153 154 155 155 155 155 155 156 157 158 158 158 158 159 159 160 160 160 160 160 160 160 160 161 161 161 161 161 161 161 161 161 161 161 161 161 161 161 161 161 161 161 161 161 161 161 161 161 162 163 175 183 184 184 184 184 184 184 184 184 184 183 181 183 183 181 182 183 184 183 183 184 184 184 184 183 183 183 183 183 184 184 184 184 184 184 184 184 184 184 182 184 184 183 183 184 184 184 184 184 184 184 182 183 184 184 183 198 234 237 237 237 237 237
253 253 253 253 253 251 142 66 66 66 66 66 66 66 66 66 66 66 66 66 66 68 69 69 69 69 69 70 71 71 71 71 73 73 73 73 75 76 76 76 78 77 79 80 80 82 133 182 184 184 184 182 184 184 184 184 184 184 182 182 181 131 93 93 94 94 95 97 98 100 100 100 100 101 103 105 106 107 107 108 109 109 109 110 112 112 113 113 113 115 117 117 119 119 119 121 121 121 123 124 125 126 126 127 129 129 130 131 131 132 133 134 136 136 136 136 136 138 139 141 141 141 141 142 142 142 143 145 146 146 146 147 148 148 148 148 149 150 150 150 150 152 153 153 154 154 155 155 155 155 155 156 158 158 158 158 158 158 159 160 160 160 160 160 160 160 160 161 161 161 161 161 161 161 161 161 161 161 161 161 161 161 161 161 161 161 161 160 160 160 161 161 163 175 184 184 184 184 184 184 184 184 184 184 183 184 184 184 184 184 184 184 184 184 184 184 184 183 184 183 182 183 184 184 184 184 184 184 184 184 184 184 183 184 184 183 184 184 184 184 184 184 184 184 183 183 184 184 182 199 235 237 237 237 237 237
251 251 251 251 251 250 151 67 66 66 66 66 66 66 66 66 66 66 66 66 66 67 69 69 69 69 69 70 71 71 71 71 73 73 73 73 74 76 76 76 77 77 79 80 80 80 93 155 183 184 182 181 184 184 184 184 184 183 183 184 183 140 94 93 93 94 94 96 97 99 100 100 100 101 102 104 105 107 107 107 109 109 109 109 111 112 112 113 113 113 116 117 117 119 119 120 121 121 122 124 124 125 126 128 130 129 129 131 131 131 133 133 134 136 136 136 136 136 138 140 141 141 141 141 142 142 142 143 146 146 146 146 147 148 148 148 148 149 150 150 150 150 151 153 153 153 154 155 155 155 155 155 156 157 158 158 158 158 158 158 159 160 160 160 160 160 160 160 160 160 160 160 161 161 161 161 161 161 161 161 161 160 160 160 160 160 160 160 160 160 160 160 160 166 181 184 184 184 184 184 184 184 184 184 183 184 184 184 184 184 184 184 183 184 184 184 184 183 183 183 183 184 184 184 184 184 184 184 184 184 184 184 184 184 184 183 184 184 184 184 184 184 184 184 182 183 184 184 182 200 238 239 239 239 239 239
239 239 239 239 239 240 161 68 66 66 66 66 66 66 66 66 66 66 66 66 66 67 69 69 69 69 69 70 71 71 71 71 73 73 73 73 74 76 76 76 77 77 78 80 80 80 82 98 130 153 179 184 182 182 184 183 181 180 184 184 182 133 93 93 93 94 94 95 97 98 100 100 100 101 101 103 105 106 107 107 107 109 109 109 110 112 112 113 113 113 114 117 117 118 119 119 120 121 121 123 124 125 126 127 128 127 129 130 131 131 131 133 133 134 136 136 136 136 137 138 140 141 141 141 141 142 142 142 143 145 146 146 146 147 148 148 148 148 148 149 150 150 150 151 152 153 153 154 154 155 155 155 155 155 156 157 158 158 158 158 158 158 159 159 160 160 160 160 160 160 160 160 160 160 160 161 160 160 160 160 160 160 160 160 160 160 160 160 160 160 160 160 160 160 166 179 184 184 184 184 184 184 184 184 183 184 184 184 184 184 184 184 184 183 184 184 184 184 183 182 183 184 184 184 184 184 184 184 184 184 183 183 184 184 184 183 184 184 184 184 184 184 184 181 180 182 181 183 181 202 249 251 251 251 251 251
237 237 237 237 237 238 173 69 66 66 66 66 66 66 66 66 66 66 66 66 66 66 69 69 69 69 69 69 71 71 71 71 72 73 73 73 73 75 76 76 76 77 77 80 80 80 80 83 83 92 138 170 182 180 181 182 182 183 184 184 177 113 93 93 93 93 94 94 96 97 99 100 100 100 101 102 105 105 107 107 107 108 109 109 109 112 112 112 113 113 113 115 117 117 119 119 119 121 121 121 124 124 125 128 127 126 129 129 130 131 131 132 133 133 135 136 136 136 136 137 138 140 141 141 141 141 142 142 142 143 145 146 146 146 147 148 148 148 148 148 150 150 150 150 150 152 153 153 153 154 155 155 155 155 155 155 156 157 158 158 158 158 158 158 158 159 159 160 160 160 160 160 160 160 160 160 160 160 160 160 160 160 160 160 160 160 160 160 160 160 159 159 159 158 158 167 182 184 184 184 184 184 184 184 184 184 184 184 184 184 184 184 184 183 184 184 184 183 183 181 183 184 184 184 184 184 184 184 184 184 183 182 184 184 184 183 184 184 184 184 184 184 184 182 183 181 180 183 182 205 252 253 253 253 253 253
237 237 237 237 237 238 180 69 66 66 66 66 66 66 66 66 66 66 66 66 66 66 68 69 69 69 69 69 71 71 71 71 71 73 73 73 73 75 76 76 76 77 77 79 80 80 80 82 83 83 87 103 134 139 154 182 184 184 184 184 176 109 92 93 93 93 94 94 95 97 98 100 100 100 101 101 103 105 106 107 107 108 109 109 109 110 112 112 113 113 113 114 117 117 118 119 119 120 121 121 122 124 124 126 126 126 126 128 129 130 131 131 132 133 133 135 136 136 136 136 137 138 140 141 141 141 141 142 142 142 143 145 146 146 146 147 148 148 148 148 148 149 150 150 150 150 152 153 153 153 153 154 155 155 155 155 155 155 156 157 158 158 158 158 158 158 158 158 159 159 160 160 160 160 160 160 160 160 160 160 160 160 160 160 159 159 159 158 158 158 158 158 158 158 158 159 175 184 184 184 184 184 184 184 184 183 184 184 184 184 184 184 183 182 184 184 184 183 183 181 184 183 184 184 184 184 184 184 184 183 184 184 184 184 184 184 184 184 184 182 183 183 180 184 184 184 183 182 183 206 252 253 253 253 253 253
237 237 237 237 237 238 192 71 66 66 66 66 66 66 66 66 66 66 66 66 66 66 67 69 69 69 69 69 70 71 71 71 71 73 73 73 73 73 76 76 76 77 77 78 80 80 80 81 83 83 83 85 86 92 148 183 184 184 184 184 177 110 91 93 93 93 94 94 94 96 97 99 100 100 100 101 102 105 105 107 107 107 108 109 109 109 111 112 112 113 113 113 115 117 117 118 119 119 121 121 121 123 124 124 126 126 126 127 129 129 131 131 131 132 133 134 135 136 136 136 136 137 138 140 141 141 141 141 142 142 142 143 145 146 146 146 147 148 148 148 148 148 149 150 150 150 150 152 153 153 153 153 153 154 155 155 155 155 155 155 156 157 158 158 158 158 158 158 158 158 158 159 159 160 160 160 160 160 160 159 159 159 159 158 158 158 158 158 158 158 158 158 158 158 158 158 169 183 184 184 183 182 183 184 184 183 184 184 184 184 184 184 182 183 184 184 184 184 183 182 184 183 184 184 184 184 184 184 184 183 184 184 184 184 184 184 184 184 184 181 182 182 181 184 184 184 183 182 184 208 252 253 253 253 253 253
237 237 237 237 237 238 203 76 66 66 66 66 66 66 66 66 66 66 66 66 66 66 67 69 69 69 69 69 69 71 71 71 71 72 73 73 73 73 75 76 76 77 77 77 79 80 80 80 82 83 83 84 85 86 119 175 184 184 184 184 171 105 90 92 93 93 93 94 94 95 97 98 100 100 100 100 101 103 105 106 107 107 110 122 114 109 110 112 112 112 113 113 113 116 117 117 118 119 119 121 121 121 123 124 125 126 126 126 127 129 130 131 131 131 132 133 133 136 136 136 136 136 138 138 140 141 141 141 141 142 142 142 142 144 146 146 146 146 148 148 148 148 148 148 150 150 150 150 152 153 153 153 153 153 153 155 155 155 155 155 155 155 155 156 157 158 158 158 158 158 158 158 158 158 158 159 158 158 158 158 158 158 158 158 158 158 158 158 158 158 158 158 157 157 156 156 164 182 184 184 184 184 183 184 184 184 184 184 184 184 184 184 181 183 184 184 184 183 182 183 182 174 164 172 184 184 184 184 183 183 184 184 184 184 184 184 184 184 183 182 183 183 184 184 184 184 183 183 184 212 252 253 253 253 253 253
241 241 241 241 241 242 215 84 66 66 66 66 66 66 66 66 66 66 66 66 66 66 66 68 69 69 69 69 69 71 71 71 71 72 73 73 73 73 74 76 76 76 77 77 78 80 80 80 82 83 83 84 85 85 88 134 180 172 183 184 169 100 90 91 93 93 93 94 94 94 96 97 99 100 100 100 101 102 104 105 107 107 132 174 140 111 135 120 112 112 113 113 113 114 117 117 117 118 119 120 121 121 122 124 124 125 126 126 126 128 129 130 131 131 131 133 133 134 136 136 136 136 137 138 139 140 141 141 141 141 142 142 142 142 144 146 146 146 146 147 148 148 148 148 149 150 150 150 150 151 153 153 153 153 153 153 154 154 155 155 155 155 155 155 155 156 157 157 158 158 158 158 158 158 158 158 158 158 158 158 158 158 158 158 158 158 157 157 157 156 156 155 155 155 155 155 158 178 184 184 184 184 183 183 182 184 184 184 184 184 184 184 182 183 184 184 184 183 181 176 158 143 139 146 177 184 184 184 183 183 184 184 184 184 184 183 184 184 184 183 184 184 184 184 184 184 183 183 183 220 249 249 249 249 249 249
252 252 252 252 252 251 221 92 66 66 66 66 66 66 66 66 66 66 66 66 66 66 66 68 69 69 69 69 69 70 71 71 71 71 73 73 73 73 73 76 76 76 77 77 77 79 80 80 81 83 83 83 85 85 85 96 154 123 157 183 170 101 90 90 92 93 93 93 94 94 95 97 98 100 100 100 100 101 103 105 106 120 165 170 125 110 143 128 113 113 112 113 113 113 115 117 117 117 119 119 120 121 121 122 124 126 126 126 126 126 128 129 130 131 131 131 133 133 134 136 136 136 136 137 138 138 140 141 141 141 141 142 142 142 142 143 145 146 146 146 147 148 148 148 148 148 149 150 150 150 151 153 153 153 153 153 153 153 154 154 155 155 155 155 155 155 155 155 156 156 157 158 158 158 158 158 158 158 158 158 158 157 157 156 156 156 155 155 155 155 155 155 155 155 155 155 155 166 181 184 183 184 184 183 182 183 184 184 184 184 184 184 183 184 184 184 184 184 177 149 139 138 138 137 159 183 184 184 183 184 184 184 184 184 184 183 184 184 183 183 184 184 184 184 184 184 182 182 185 230 239 238 238 238 238 238
253 253 253 253 253 252 229 105 66 66 66 66 66 66 66 66 66 66 66 66 66 66 66 67 69 69 69 69 69 69 71 71 71 71 72 73 73 73 73 75 76 76 76 77 77 78 80 80 80 82 83 83 84 85 85 85 111 122 112 174 167 98 90 90 91 93 93 93 94 94 94 96 97 99 100 100 100 101 105 122 130 166 179 132 108 118 152 164 156 142 116 113 113 113 113 116 117 118 125 122 119 121 121 121 124 127 125 126 126 126 127 128 129 130 131 131 132 133 133 134 135 136 136 136 137 138 138 139 141 141 141 141 142 142 142 142 143 145 146 146 146 147 148 148 148 148 148 149 150 150 150 151 152 153 153 153 153 153 153 153 153 154 155 155 155 155 155 155 155 155 155 155 156 157 157 157 157 156 156 155 155 155 155 155 155 155 155 155 155 155 155 155 155 154 154 154 153 156 166 179 184 184 184 184 183 183 184 184 184 184 184 184 184 184 184 184 184 175 153 140 138 138 137 134 150 182 183 180 169 182 184 184 184 184 184 184 183 179 182 183 184 184 184 184 184 184 183 183 188 237 238 237 237 237 237 237
253 253 253 253 253 252 235 119 66 66 66 66 66 66 66 66 66 66 66 66 66 66 66 66 69 69 69 69 69 69 70 71 71 71 72 73 73 73 73 74 76 76 76 77 77 78 80 80 80 81 83 83 83 85 85 85 87 127 140 170 169 101 90 90 90 93 93 93 93 94 94 95 97 97 99 100 102 126 138 176 180 176 179 150 124 162 183 184 184 179 132 112 113 114 114 115 118 118 132 132 133 134 129 121 121 123 124 125 126 126 126 127 129 129 130 131 131 131 133 133 134 136 136 136 136 137 138 138 139 141 141 141 141 142 142 142 142 143 145 146 146 146 146 147 148 148 148 148 149 150 150 150 150 151 151 152 153 153 153 153 153 153 153 154 154 155 155 155 155 155 155 155 155 155 155 155 155 155 155 155 155 155 155 155 155 155 155 155 154 154 154 153 153 153 153 153 153 153 153 158 177 184 184 184 183 184 184 184 184 184 184 184 184 183 184 184 176 150 140 138 138 137 135 133 143 177 166 147 140 173 183 184 184 184 184 184 179 174 183 184 184 184 184 184 184 184 182 183 193 242 238 237 237 237 237 237
253 253 253 253 253 252 238 138 66 66 66 66 66 66 66 66 66 66 66 66 66 66 66 66 68 69 69 69 69 69 70 71 71 71 71 73 73 73 73 74 76 76 76 77 77 77 79 80 80 80 82 83 83 84 85 85 85 122 180 183 180 131 89 90 90 91 93 93 93 94 94 94 96 97 98 100 115 171 175 184 182 160 181 168 163 183 184 184 184 183 152 126 137 155 150 123 115 119 145 172 177 151 127 121 121 122 124 124 125 126 126 126 127 129 129 131 131 131 132 133 133 134 135 136 136 136 138 138 138 139 140 141 141 141 142 142 142 142 142 144 145 146 146 146 147 148 148 148 148 148 149 150 150 150 150 150 150 151 152 152 153 153 153 153 153 153 154 154 155 155 155 155 155 155 155 155 155 155 155 155 155 155 154 154 154 154 153 153 153 153 153 153 153 153 153 153 152 151 150 150 158 177 184 184 184 183 184 184 184 184 184 183 182 182 184 177 152 140 138 138 138 136 133 133 134 145 136 129 129 147 181 184 184 184 184 184 177 178 183 184 184 184 184 184 184 184 183 183 200 246 238 237 237 237 237 237
253 253 253 253 253 252 240 157 67 66 66 66 66 66 66 66 66 66 66 66 66 66 66 66 67 69 69 69 69 69 69 71 71 71 71 72 73 73 73 73 75 76 76 76 77 77 78 80 80 80 81 83 83 83 85 85 85 120 179 183 184 161 97 89 90 90 92 93 93 93 94 94 95 96 97 100 135 182 184 184 180 161 183 162 142 181 184 184 184 184 181 178 182 184 183 168 141 149 178 184 183 169 137 127 123 121 122 124 124 125 126 126 126 127 129 129 130 131 131 132 132 133 134 135 136 136 137 138 138 138 138 140 141 141 141 141 142 142 142 142 143 145 146 146 146 147 147 148 148 148 148 149 150 150 150 150 150 150 150 150 151 151 152 152 153 153 153 153 153 154 154 154 154 155 155 155 154 154 154 154 153 153 153 153 153 153 153 153 153 153 153 153 153 152 151 151 150 150 150 150 149 154 173 184 184 184 183 184 184 182 172 161 158 167 174 153 140 138 138 138 136 134 133 133 132 131 129 128 139 140 178 184 184 184 184 184 179 182 183 184 184 184 184 184 184 183 181 179 208 249 238 237 237 237 237 237
247 247 247 247 247 247 244 182 70 66 66 66 66 66 66 66 66 66 66 66 66 66 66 66 66 69 69 69 69 69 69 70 71 71 71 71 73 73 73 73 74 76 76 76 77 77 77 79 80 80 80 83 83 83 84 85 85 103 154 162 183 181 135 92 90 90 91 93 93 93 93 94 94 95 97 98 139 183 184 184 182 171 182 140 116 170 184 184 184 184 184 184 184 184 184 184 182 182 184 184 184 183 176 171 162 131 121 122 124 124 125 126 126 126 128 129 129 131 131 131 131 133 133 133 135 136 136 136 138 138 138 138 139 141 141 141 141 142 142 142 142 143 144 145 146 146 146 147 148 148 148 148 148 149 150 150 150 150 150 150 150 150 150 150 151 151 152 152 152 153 153 153 153 153 153 153 153 153 153 153 153 153 153 153 153 153 153 153 152 152 151 151 151 150 150 150 150 150 149 148 148 148 155 178 184 184 183 184 175 156 146 143 142 143 144 140 138 138 138 136 134 133 133 132 131 130 129 127 134 136 177 184 184 184 184 184 182 184 182 184 184 184 184 184 184 183 167 160 214 246 244 243 243 243 243 243
237 237 237 237 237 238 250 210 79 66 66 66 66 66 66 66 66 66 66 66 66 66 66 66 66 67 69 69 69 69 69 70 71 71 71 71 72 73 73 73 73 75 76 76 76 77 77 78 80 80 80 81 83 83 83 84 85 86 103 119 168 183 176 123 91 90 90 92 98 114 102 95 94 94 96 98 138 183 184 184 183 180 183 144 109 159 184 184 184 184 184 184 184 184 184 184 184 184 184 184 184 184 184 184 181 142 121 121 123 124 124 125 126 126 126 127 129 129 130 131 131 131 132 133 134 135 136 136 136 137 138 138 138 139 140 141 141 141 141 142 142 142 142 143 144 146 146 146 146 147 148 148 148 148 148 148 149 149 150 150 150 150 150 150 150 150 150 150 150 151 151 152 152 153 153 153 153 153 153 153 152 152 152 151 151 151 151 150 150 150 150 150 150 150 150 150 150 149 148 148 148 148 147 158 178 184 183 173 150 142 142 142 141 141 139 138 138 138 136 134 133 133 132 131 130 128 127 126 125 134 177 183 183 182 182 183 182 183 181 184 184 184 184 184 184 182 145 151 216 240 252 253 253 253 253 253
237 237 237 237 237 238 250 229 93 66 66 66 66 66 66 66 66 66 66 66 66 66 66 66 66 67 69 69 69 69 69 69 71 71 71 71 72 73 73 73 73 74 76 76 76 77 77 77 79 80 80 80 82 83 83 84 85 85 85 87 104 157 181 168 105 91 90 101 141 175 166 143 103 94 95 123 170 184 184 184 183 182 183 169 127 167 184 184 184 184 184 184 184 184 184 184 184 184 184 184 184 184 184 184 181 143 122 122 121 123 124 124 126 126 126 126 128 129 129 130 131 131 131 132 133 133 135 136 136 136 137 138 138 138 138 139 140 141 141 141 142 142 142 142 142 143 145 146 146 146 146 147 148 148 148 148 148 148 149 149 149 150 150 150 150 150 150 150 150 150 150 150 150 151 151 151 151 151 151 151 150 150 150 150 150 150 150 150 150 150 150 150 150 150 149 149 148 148 148 148 147 146 146 146 153 166 168 149 142 142 142 141 141 139 138 138 138 137 135 133 133 133 131 130 129 127 126 126 124 134 175 181 184 183 184 184 184 182 180 184 184 184 184 184 184 180 131 166 223 240 252 253 253 253 253 253
237 237 237 237 237 238 250 242 114 66 66 66 66 66 66 66 66 66 66 66 66 66 66 66 66 66 68 69 69 69 69 69 70 71 71 71 71 73 73 73 73 73 75 76 76 77 77 77 78 80 80 80 81 83 83 83 84 85 85 85 85 111 175 181 157 128 119 161 176 141 150 179 145 100 108 168 184 184 184 184 184 184 183 183 177 183 184 184 184 184 184 184 184 184 184 184 184 184 184 184 184 184 184 184 175 156 158 149 127 122 123 124 124 125 126 126 126 128 129 129 130 131 131 131 132 133 133 134 136 136 136 136 137 138 138 138 138 140 141 141 141 141 142 142 142 142 142 143 145 146 146 146 146 147 147 148 148 148 148 148 148 148 148 149 149 149 149 150 150 150 150 150 150 150 150 150 150 150 150 150 150 150 150 150 150 150 150 150 150 150 149 149 149 148 148 148 148 148 147 147 146 146 146 145 144 144 143 142 142 142 141 140 139 138 138 138 136 134 133 133 133 131 131 129 128 126 126 125 124 139 180 180 184 183 183 184 184 180 181 184 184 184 184 184 184 176 129 181 229 240 252 253 253 253 253 253
237 237 237 237 237 238 250 249 143 66 66 66 66 66 66 66 66 66 66 66 66 66 66 66 66 66 67 69 69 69 69 69 70 71 71 71 71 72 73 73 73 73 75 76 76 76 77 77 77 79 80 80 80 82 83 83 84 85 85 85 85 101 148 177 182 180 178 183 156 98 102 148 173 143 140 183 184 184 184 184 184 184 183 183 184 184 184 184 184 184 184 184 184 184 184 184 184 184 184 184 184 184 184 184 183 183 184 181 168 138 122 123 124 124 126 126 126 126 128 129 129 130 131 131 131 132 133 133 134 135 136 136 136 137 138 138 138 138 139 140 141 141 141 141 142 142 142 142 142 143 145 146 146 146 146 147 147 147 148 148 148 148 148 148 148 148 148 148 148 148 148 148 149 149 149 149 149 149 149 149 149 149 149 149 149 149 148 148 148 148 148 148 148 148 148 148 148 147 146 146 146 146 144 143 142 142 142 142 141 141 140 139 138 138 138 136 134 133 133 133 131 131 129 128 126 126 125 124 123 152 183 178 184 183 182 184 184 178 181 184 184 184 184 184 184 168 138 192 233 240 252 253 253 253 253 253
237 237 237 237 237 238 250 253 174 70 66 66 66 66 66 66 66 66 66 66 66 66 66 66 66 66 67 69 69 69 69 69 69 70 71 71 71 72 73 73 73 73 73 76 76 76 76 77 77 79 80 80 80 82 83 83 83 84 85 85 85 86 98 119 130 165 184 171 112 92 97 113 169 177 161 183 184 184 184 184 184 184 182 181 184 184 184 184 184 184 184 184 184 184 184 184 184 184 184 184 184 184 184 184 184 184 184 184 184 175 135 121 123 124 124 126 126 126 126 127 129 129 130 131 131 131 132 133 133 133 134 136 136 136 136 137 138 138 138 138 139 140 141 141 141 142 142 142 142 142 142 143 144 145 146 146 146 146 146 147 147 148 148 148 148 148 148 148 148 148 148 148 148 148 148 148 148 148 148 148 148 148 148 148 148 148 148 148 148 148 148 148 148 148 147 146 146 146 146 146 145 143 142 142 142 142 142 141 141 139 138 138 138 138 136 134 133 133 133 132 131 130 129 127 126 125 125 124 123 161 180 181 184 184 183 184 184 177 183 184 184 184 184 184 183 160 151 200 235 240 252 253 253 253 253 253
246 246 246 246 246 246 245 244 197 77 66 66 66 66 66 66 66 66 66 66 66 66 66 66 66 66 66 68 69 69 69 69 69 70 71 71 71 71 72 73 73 73 73 75 76 76 76 77 77 77 79 80 80 80 82 83 83 83 85 85 85 85 85 87 88 114 159 174 122 91 92 115 177 183 179 184 184 184 184 184 184 184 183 182 184 184 184 184 184 184 184 184 184 184 184 184 184 184 184 184 184 184 184 184 184 184 183 184 184 184 160 122 121 123 124 124 126 126 126 126 127 129 129 130 131 131 131 131 132 133 133 134 136 136 136 136 136 137 138 138 138 138 139 141 141 141 141 141 142 142 142 142 142 143 144 145 146 146 146 146 146 146 147 147 147 147 148 148 148 148 148 148 148 148 148 148 148 148 148 148 148 148 148 148 148 148 148 148 148 148 147 147 146 146 146 146 146 146 144 143 142 142 142 142 142 141 141 140 139 138 138 138 137 136 134 133 133 133 132 131 130 129 127 126 125 124 123 122 122 159 183 184 184 183 183 184 183 180 184 184 184 184 184 184 183 154 160 215 246 246 245 244 244 244 244 244
253 253 253 253 253 252 240 237 214 92 66 66 66 66 66 66 66 66 66 66 66 66 66 66 66 66 66 67 69 69 69 69 69 69 71 71 71 71 72 73 73 73 73 74 76 76 76 76 77 77 78 80 80 80 81 83 83 83 84 85 85 85 85 85 87 101 104 160 138 92 91 98 150 182 184 184 184 184 184 184 184 184 184 182 184 184 183 183 184 184 184 184 184 184 184 184 184 184 184 184 184 184 184 184 184 184 183 184 184 184 173 134 123 121 123 124 124 126 126 126 126 127 129 129 129 130 131 131 131 132 133 133 133 135 136 136 136 136 137 137 138 138 138 138 140 141 141 141 141 141 142 142 142 142 142 142 143 143 145 145 146 146 146 146 146 146 146 146 146 147 147 147 147 147 147 147 147 147 147 147 147 147 147 147 147 147 147 146 146 146 146 146 146 146 146 145 144 143 142 142 142 142 142 141 141 140 139 138 138 138 138 137 136 133 133 133 133 131 131 129 129 127 126 126 124 124 122 121 124 166 184 184 184 182 183 184 184 183 184 184 184 184 184 184 181 169 180 232 253 250 238 237 237 237 237 237
253 253 253 253 253 252 240 237 228 115 66 66 66 66 66 66 66 66 66 66 66 66 66 66 66 66 66 66 68 69 69 69 69 69 70 71 71 71 71 72 73 73 73 73 75 76 76 76 77 77 77 79 80 80 80 82 83 83 83 84 85 85 85 85 86 89 89 105 93 90 90 91 106 162 184 184 184 184 184 184 184 184 184 183 182 183 182 180 183 184 184 184 184 184 184 184 184 184 184 184 184 184 184 184 184 183 183 184 184 184 182 175 148 123 121 123 124 124 125 126 126 126 127 129 129 129 130 131 131 131 132 132 133 133 134 135 136 136 136 136 137 138 138 138 138 138 139 140 141 141 141 141 142 142 142 142 142 142 142 142 143 144 144 145 146 146 146 146 146 146 146 146 146 146 146 146 146 146 146 146 146 146 146 146 146 146 146 146 146 146 146 146 145 144 143 142 142 142 142 142 142 141 141 141 139 138 138 138 138 137 136 135 134 133 133 133 132 130 129 129 127 126 126 125 124 125 122 120 132 174 184 184 184 184 183 184 184 184 184 184 184 184 184 183 179 182 191 242 253 250 238 237 237 237 237 237
253 253 253 253 253 252 240 237 235 147 67 66 66 66 66 66 66 66 66 66 66 66 66 66 66 66 66 66 67 69 69 69 69 69 69 71 71 71 71 72 73 73 73 73 74 76 76 76 76 77 77 78 80 80 80 81 83 83 83 84 85 85 85 85 85 86 87 87 87 88 90 90 92 115 173 184 184 184 184 184 184 184 184 184 184 184 184 184 183 184 184 184 183 184 184 184 184 184 184 184 184 184 184 184 184 183 184 184 184 184 183 184 179 150 129 127 131 136 142 136 128 126 126 126 128 129 129 130 131 131 131 131 132 133 133 133 134 135 136 136 136 136 137 137 138 138 138 138 139 140 141 141 141 141 141 142 142 142 142 142 142 142 142 142 143 143 144 144 145 145 145 146 146 146 146 146 146 146 146 146 146 146 146 146 146 145 145 145 144 144 143 143 142 142 142 142 142 142 142 141 141 140 140 139 138 138 138 138 137 136 134 133 133 133 132 131 131 129 129 127 126 126 125 124 123 125 121 120 145 183 184 184 184 184 183 184 184 184 184 184 184 184 184 183 181 184 200 249 253 250 238 237 237 237 237 237
253 253 253 253 253 252 240 237 237 182 73 66 66 66 66 66 66 66 66 66 66 66 66 66 66 66 66 66 67 69 69 69 69 69 69 70 71 71 71 71 73 73 73 73 73 75 76 76 76 77 77 77 79 80 80 80 82 83 83 83 84 85 85 85 85 85 87 87 87 87 89 90 91 99 163 184 184 184 184 184 184 184 184 184 184 184 184 184 183 183 180 181 180 183 184 184 184 184 184 184 184 184 184 184 184 183 184 184 184 184 184 184 184 178 174 171 173 179 181 176 162 148 134 126 126 128 129 129 129 130 131 131 131 132 132 133 133 133 135 136 136 136 136 136 137 137 138 138 138 138 139 140 141 141 141 141 141 142 142 142 142 142 142 142 142 142 142 142 142 142 143 143 143 143 143 143 143 143 144 144 143 143 143 143 143 143 143 142 142 142 142 142 142 142 142 142 141 141 141 140 140 139 138 138 138 138 137 136 135 134 133 133 133 132 131 130 129 129 127 126 126 125 124 123 121 121 120 122 160 184 184 184 184 183 183 184 184 184 184 184 184 184 184 181 179 183 214 253 253 250 238 237 237 237 237 237
253 253 253 253 253 252 240 238 237 212 88 66 66 66 66 66 66 66 66 66 66 66 66 66 66 66 66 66 66 67 69 69 69 69 69 69 71 71 71 71 72 73 73 73 73 74 76 76 76 76 77 77 77 80 80 80 81 83 83 83 83 85 85 85 85 85 85 87 87 87 87 89 90 98 166 184 184 184 184 184 184 184 184 184 184 184 184 184 184 184 183 184 184 183 184 184 184 184 184 184 184 184 184 184 184 184 184 184 184 184 184 184 184 182 183 184 184 184 184 182 182 182 169 136 126 126 127 129 129 129 130 131 131 131 131 132 133 133 133 134 135 136 136 136 136 136 136 137 138 138 138 138 138 139 140 141 141 141 141 141 141 142 142 142 142 142 142 142 142 142 142 142 142 142 142 142 142 142 142 142 142 142 142 142 142 142 142 142 142 142 142 142 141 141 141 141 141 140 139 138 138 138 138 138 137 136 136 135 133 133 133 133 132 131 130 129 129 127 126 126 125 124 124 122 121 120 119 123 169 184 184 184 184 183 184 183 184 184 184 184 184 184 184 174 179 185 229 253 253 250 238 238 238 238 238 238
242 242 242 242 242 242 247 249 249 241 121 66 66 66 66 66 66 66 66 66 66 66 66 66 66 66 66 66 66 67 69 69 69 69 69 69 70 71 71 71 71 72 73 73 73 73 75 76 76 76 77 77 77 78 80 80 80 82 83 83 83 84 85 85 85 85 85 86 87 87 87 88 90 94 156 184 184 184 184 184 184 184 184 184 184 184 184 184 184 184 184 184 184 184 184 184 184 184 184 184 184 184 184 184 184 184 183 182 183 184 184 184 179 178 183 184 184 184 184 183 184 184 183 170 141 127 126 127 128 129 129 129 130 131 131 131 131 132 133 133 133 134 135 136 136 136 136 136 136 137 137 138 138 138 138 138 139 140 141 141 141 141 141 141 141 142 142 142 142 142 142 142 142 142 142 142 142 142 142 142 142 142 142 142 142 142 142 142 142 141 141 141 141 141 140 139 138 138 138 138 138 138 137 136 136 135 134 133 133 133 132 132 131 130 129 129 127 126 126 125 124 123 122 121 120 119 118 119 157 184 184 181 182 182 183 183 184 184 184 184 184 184 183 171 182 188 232 242 242 243 248 249 249 249 249 249
237 237 237 237 237 238 250 253 253 253 166 68 66 66 66 66 66 66 66 66 66 66 66 66 66 66 66 66 66 66 68 69 69 69 69 69 69 71 71 71 71 71 73 73 73 73 74 76 76 76 76 77 77 77 79 80 80 80 82 83 83 83 84 85 85 85 85 85 86 87 87 87 88 90 144 184 184 184 184 184 184 184 184 184 184 184 184 184 184 184 184 184 184 184 184 184 184 184 184 184 184 184 184 184 184 184 184 183 182 184 184 183 171 182 184 184 184 184 184 182 184 184 184 184 174 139 128 126 126 128 129 129 129 130 131 131 131 131 131 132 133 133 133 134 135 136 136 136 136 136 136 137 137 138 138 138 138 138 138 139 139 140 141 141 141 141 141 141 141 141 141 141 141 141 141 141 141 141 141 141 141 141 141 141 141 141 141 141 141 141 140 140 139 139 138 138 138 138 138 138 137 136 136 136 134 133 133 133 133 132 131 131 129 129 129 127 126 126 125 124 124 122 121 120 119 118 117 118 156 184 183 178 181 183 184 184 184 184 184 184 184 184 180 165 183 196 235 237 237 240 252 253 253 253 253 253
237 237 237 237 237 238 250 253 253 253 210 79 66 66 66 66 66 66 66 66 66 66 66 66 66 66 66 66 66 66 66 69 69 69 69 69 69 70 71 71 71 71 72 73 73 73 73 74 76 76 76 76 77 77 77 80 80 80 81 83 83 83 83 85 85 85 85 85 85 87 87 87 87 89 127 183 184 184 184 184 184 184 184 184 184 184 184 184 184 184 184 184 183 183 184 184 184 184 184 184 184 184 184 184 183 183 184 184 180 181 184 183 172 182 184 184 184 184 184 183 184 184 184 184 181 171 141 126 126 126 127 128 129 129 129 130 131 131 131 131 132 133 133 133 133 133 135 135 136 136 136 136 136 136 136 137 137 138 138 138 138 138 138 139 139 139 140 140 140 141 141 141 141 141 141 141 141 141 141 141 141 141 141 141 140 140 140 139 139 139 138 138 138 138 138 138 138 137 137 136 136 135 134 133 133 133 133 133 132 131 130 129 129 128 126 126 126 125 124 124 122 121 120 119 119 117 117 117 148 183 183 184 184 184 184 184 184 184 184 184 184 184 176 169 184 210 237 237 237 240 252 253 253 253 253 253
237 237 237 237 237 238 250 253 253 253 238 107 66 66 66 66 66 66 66 66 66 66 66 66 66 66 66 66 66 66 66 67 69 69 69 69 69 69 70 71 71 71 72 73 73 73 73 73 75 76 76 76 77 77 77 78 80 80 80 81 83 83 83 83 85 85 85 85 85 86 87 87 87 87 110 177 184 184 184 184 184 184 184 184 184 184 184 184 184 184 184 184 184 183 184 184 184 184 184 179 182 183 183 180 180 182 184 184 183 182 184 184 178 182 184 184 184 184 184 184 183 184 184 184 183 183 157 126 126 126 126 126 127 129 129 129 129 130 131 131 131 131 132 132 133 133 133 133 134 135 136 136 136 136 136 136 136 136 137 137 138 138 138 138 138 138 138 138 138 139 139 139 139 139 139 139 139 139 139 139 139 139 139 138 138 138 138 138 138 138 138 138 138 138 137 137 136 136 136 135 134 133 133 133 133 133 132 131 131 130 129 129 128 126 126 126 125 124 124 122 121 120 119 118 117 117 117 115 130 178 182 184 184 184 184 184 184 184 184 184 184 184 172 175 188 225 237 237 237 240 252 253 253 253 253 253
237 237 237 237 237 238 250 253 253 253 251 153 67 66 66 66 66 66 66 66 66 66 66 66 66 66 66 66 66 66 66 66 69 69 69 69 69 69 70 71 71 71 71 72 73 73 73 73 74 76 76 76 76 77 77 77 79 80 80 80 82 83 83 83 84 85 85 85 85 85 86 87 87 87 100 167 184 184 184 184 184 184 184 184 184 184 184 184 184 184 184 184 184 183 184 184 184 184 184 182 183 182 179 182 184 184 184 184 183 181 184 184 183 182 184 184 184 184 184 184 183 184 184 184 183 184 170 129 125 126 126 126 126 127 128 129 129 129 130 130 131 131 131 131 132 132 133 133 133 133 134 134 135 136 136 136 136 136 136 136 136 137 137 137 137 138 138 138 138 138 138 138 138 138 138 138 138 138 138 138 138 138 138 138 138 138 138 138 138 137 137 137 137 136 136 136 136 135 134 133 133 133 133 133 132 131 131 130 129 129 128 127 126 126 125 124 124 124 122 121 120 119 119 117 117 117 116 113 118 167 183 184 184 184 184 184 184 184 184 184 184 184 170 180 198 234 237 237 237 240 252 253 253 253 253 253
238 238 238 238 238 239 249 252 252 252 252 199 77 66 66 66 66 66 66 66 66 66 66 66 66 66 66 66 66 66 66 66 67 69 69 69 69 69 69 70 71 71 71 71 73 73 73 73 73 75 76 76 76 77 77 77 78 80 80 80 81 83 83 83 83 84 85 85 85 85 85 87 87 87 90 145 184 184 184 184 184 184 184 184 184 184 184 184 184 184 184 184 184 184 183 184 184 184 184 184 184 184 184 183 184 184 184 184 183 182 184 184 184 184 183 184 184 184 184 184 182 184 183 182 182 184 179 138 124 124 125 126 126 126 126 127 129 129 129 129 130 130 131 131 131 131 132 132 133 133 133 133 133 134 135 135 136 136 136 136 136 136 136 136 136 136 136 137 137 137 137 137 138 138 138 138 138 138 138 138 138 138 137 137 137 137 137 137 136 136 136 136 136 136 135 135 134 133 133 133 133 133 132 131 131 130 130 129 129 128 126 126 126 125 124 124 123 122 121 120 119 119 117 117 117 116 113 113 114 153 183 184 183 183 184 184 184 184 184 184 184 182 168 184 214 238 238 238 238 241 251 252 252 252 252 252
250 250 250 250 250 250 242 240 240 240 240 222 102 66 66 66 66 66 66 66 66 66 66 66 66 66 66 66 66 66 66 66 66 68 69 69 69 69 69 70 71 71 71 71 72 73 73 73 73 74 76 76 76 76 77 77 77 78 80 80 80 82 83 83 83 83 85 85 85 85 85 85 87 87 94 161 184 184 184 184 184 184 184 184 184 184 184 184 184 184 184 184 184 183 182 184 184 184 184 184 183 184 184 184 184 184 184 184 184 183 184 184 184 184 183 184 184 183 181 183 182 184 184 180 182 184 184 156 126 124 124 124 125 126 126 126 126 128 129 129 129 129 130 131 131 131 131 131 131 132 133 133 133 133 133 133 134 134 135 135 136 136 136 136 136 136 136 136 136 136 136 136 136 136 136 136 136 136 136 136 136 136 136 136 136 136 136 136 136 136 136 135 134 134 133 133 133 133 133 133 132 131 131 131 129 129 129 129 127 126 126 126 125 124 124 123 121 121 120 119 119 117 117 117 116 113 113 112 110 140 182 182 180 182 184 184 184 184 184 184 184 179 171 191 238 250 250 250 250 248 241 240 240 240 240 240
253 253 253 253 253 252 240 237 237 237 237 234 149 68 66 66 66 66 66 66 66 66 66 66 66 66 66 66 66 66 66 66 66 67 69 69 69 69 69 69 70 71 71 71 71 73 73 73 73 73 75 76 76 76 76 77 77 77 79 80 80 80 82 83 83 83 83 85 85 85 85 85 85 87 104 174 184 184 184 184 184 184 184 184 184 184 184 184 184 184 184 184 184 183 183 184 184 184 184 184 184 183 184 184 184 184 184 184 184 181 184 184 184 184 184 182 183 181 183 183 182 183 182 183 184 184 184 178 145 125 124 124 124 125 125 126 126 126 126 128 129 129 129 129 129 130 131 131 131 131 131 132 132 132 133 133 133 133 133 133 134 134 135 135 135 136 136 136 136 136 136 136 136 136 136 136 136 136 136 136 136 136 136 136 136 136 135 135 134 134 133 133 133 133 133 133 133 132 132 131 131 130 130 129 129 129 128 127 126 126 125 125 124 124 122 121 121 120 119 118 117 117 117 116 114 113 112 110 108 130 179 182 183 184 184 184 184 184 184 184 184 173 174 204 250 253 253 253 253 250 238 237 237 237 237 237
253 253 253 253 253 252 240 237 237 237 237 238 200 79 66 66 66 66 66 66 66 66 66 66 66 66 66 66 66 66 66 66 66 66 68 69 69 69 69 69 69 71 71 71 71 71 73 73 73 73 73 75 76 76 76 77 77 77 77 79 80 80 80 82 83 83 83 84 85 85 85 85 85 93 139 181 184 184 184 184 184 184 184 184 184 184 184 184 184 184 184 184 184 184 183 183 184 184 184 184 184 183 182 184 184 184 184 184 184 180 183 184 184 184 182 181 180 183 184 184 184 184 184 184 184 184 184 184 177 141 122 123 124 124 124 125 126 126 126 126 127 128 129 129 129 129 129 130 131 131 131 131 131 131 132 132 133 133 133 133 133 133 133 133 133 134 134 134 135 135 135 135 135 135 135 135 135 135 135 135 135 135 135 134 134 134 133 133 133 133 133 133 133 133 133 132 131 131 131 130 130 129 129 129 128 127 126 126 126 125 124 124 123 122 121 120 119 119 118 117 117 117 116 114 113 112 111 108 107 122 176 184 184 183 184 184 184 184 184 184 184 168 180 220 252 253 253 253 253 250 238 237 237 237 237 237
253 253 253 253 253 252 240 237 237 237 237 238 235 111 66 66 66 66 66 66 66 66 66 66 66 66 66 66 66 66 66 66 66 66 67 69 69 69 69 69 69 70 71 71 71 71 72 73 73 73 73 74 76 76 76 76 77 77 77 78 80 80 80 81 83 83 83 83 84 85 85 85 85 116 179 184 184 184 184 184 184 184 184 184 184 184 184 184 184 184 183 184 184 182 177 177 184 184 184 184 184 184 183 184 184 184 184 184 184 184 183 184 183 183 183 184 184 184 184 184 184 184 184 184 184 184 184 184 181 141 121 121 122 123 124 124 124 125 126 126 126 126 126 128 129 129 129 129 129 129 130 131 131 131 131 131 131 131 132 132 133 133 133 133 133 133 133 133 133 133 133 133 133 133 133 133 133 133 133 133 133 133 133 133 133 133 133 133 133 133 133 132 132 131 131 131 131 130 129 129 129 129 128 127 126 126 126 125 124 124 124 123 121 121 120 119 119 118 117 117 117 116 113 113 112 111 109 107 107 125 178 184 183 182 184 184 184 184 184 184 183 163 190 233 252 253 253 253 253 250 238 237 237 237 237 237
253 253 253 253 253 252 240 237 237 237 237 238 248 165 69 66 66 66 66 66 66 66 66 66 66 66 66 66 66 66 66 66 66 66 66 68 69 69 69 69 69 69 71 71 71 71 71 73 73 73 73 73 75 76 76 76 76 77 77 77 79 80 80 80 81 83 83 83 83 84 85 85 91 143 183 184 184 184 184 184 184 184 184 184 184 184 184 184 184 183 178 183 183 183 183 180 183 184 184 184 182 183 184 184 184 184 184 184 184 184 184 183 183 184 184 184 184 184 184 184 184 184 184 184 184 184 184 183 167 132 121 121 121 121 122 124 124 124 124 125 126 126 126 126 126 127 128 129 129 129 129 129 130 130 130 131 131 131 131 131 131 131 132 132 132 133 133 133 133 133 133 133 133 133 133 133 133 133 133 133 133 133 133 133 133 133 132 132 132 132 131 131 131 131 130 130 129 129 129 128 127 127 126 126 126 125 125 124 124 123 122 121 121 120 119 119 118 117 117 117 115 113 113 112 111 109 107 107 105 128 180 184 184 182 184 183 181 184 184 184 177 164 205 240 252 253 253 253 253 250 238 237 237 237 237 237
250 250 250 250 250 250 242 240 240 240 240 241 248 215 85 66 66 66 66 66 66 66 66 66 66 66 66 66 66 66 66 66 66 66 66 67 69 69 69 69 69 69 70 71 71 71 71 72 73 73 73 73 73 76 76 76 76 76 77 77 77 79 80 80 80 82 83 83 83 83 85 85 91 148 182 184 184 184 184 184 184 184 184 184 184 184 184 184 184 184 181 184 184 184 184 182 180 184 182 176 179 184 184 184 184 184 184 184 184 184 184 184 184 184 184 184 184 184 184 184 184 184 184 184 184 184 184 175 148 143 124 120 121 121 121 122 123 123 124 124 124 125 125 126 126 126 126 127 127 128 129 129 129 129 129 129 130 130 131 131 131 131 131 131 131 131 131 131 131 132 132 132 132 132 132 132 132 132 132 132 132 132 132 131 131 131 131 131 131 131 130 130 130 129 129 129 129 128 127 126 126 126 126 125 124 124 124 124 123 121 121 120 119 119 119 117 117 117 117 115 113 113 112 111 109 108 107 106 105 136 182 184 184 182 184 182 182 183 184 184 178 180 225 243 250 250 250 250 250 248 241 240 240 240 240 240
238 238 238 238 238 239 249 252 252 252 252 251 242 232 123 66 66 66 66 66 66 66 66 66 66 66 66 66 66 66 66 66 66 66 66 66 68 69 69 69 69 69 69 70 71 71 71 71 72 73 73 73 73 74 76 76 76 76 77 77 77 77 79 80 80 80 82 83 83 83 83 99 142 175 181 183 184 184 184 184 184 184 184 184 184 184 184 184 184 184 182 181 184 184 184 184 184 181 180 178 183 184 184 184 184 184 184 184 184 184 184 184 184 184 184 184 184 184 184 184 184 184 184 184 184 184 184 159 146 158 147 139 132 121 121 121 121 121 123 124 124 124 124 125 125 126 126 126 126 126 127 127 128 129 129 129 129 129 129 130 130 130 131 131 131 131 131 131 131 131 131 131 131 131 131 131 131 131 131 131 131 131 131 131 131 131 130 130 130 129 129 129 129 129 128 127 126 126 126 126 126 125 125 124 124 124 123 122 121 121 120 119 119 118 117 117 117 116 115 113 113 112 111 109 108 107 106 105 104 146 184 184 184 183 183 183 183 184 184 183 181 197 248 249 239 238 238 238 238 241 251 252 252 252 252 252
237 237 237 237 237 238 250 253 253 253 253 252 241 237 177 72 66 66 66 66 66 66 66 66 66 66 66 66 66 66 66 66 66 66 66 66 66 68 69 69 69 69 69 69 71 71 71 71 71 73 73 73 73 74 75 76 76 76 76 77 77 77 78 80 80 80 81 83 83 83 83 126 182 184 184 184 182 183 183 184 184 184 184 184 184 184 184 184 184 184 181 182 184 184 184 184 184 184 184 184 184 184 184 184 184 184 184 184 184 184 184 184 184 184 184 184 184 184 184 184 184 184 184 184 184 184 179 152 163 179 178 181 162 123 133 133 124 121 121 121 122 123 124 124 124 125 125 125 126 126 126 126 126 126 127 127 128 128 129 129 129 129 129 129 129 130 130 130 130 131 131 131 131 131 131 131 131 131 131 130 130 130 130 130 129 129 129 129 129 129 128 128 127 126 126 126 126 126 126 125 124 124 124 124 123 122 121 121 120 119 119 119 118 117 117 117 116 114 113 113 112 111 109 107 107 106 105 103 103 151 184 184 183 179 183 184 184 184 184 182 178 218 253 250 238 237 237 237 237 240 252 253 253 253 253 253
237 237 237 237 237 238 250 253 253 253 253 252 241 237 218 99 66 66 66 66 66 66 66 66 66 66 66 66 66 66 66 66 66 66 66 66 66 67 69 69 69 69 69 69 70 71 71 71 71 72 73 73 85 83 75 75 76 76 76 76 77 77 77 78 80 80 80 81 83 83 83 113 180 184 184 184 183 183 183 184 184 184 184 184 184 184 184 184 184 184 182 184 184 184 184 184 184 184 184 184 184 184 184 184 184 184 184 184 184 184 184 184 184 184 184 184 184 184 184 184 184 184 184 184 184 184 176 158 167 184 184 184 157 138 174 177 162 140 127 122 121 121 122 123 124 124 124 124 124 125 125 126 126 126 126 126 126 126 127 127 127 128 128 128 129 129 129 129 129 129 129 129 129 129 129 129 129 129 129 129 129 129 129 129 129 128 128 127 127 126 126 126 126 126 126 126 125 125 124 124 124 124 123 122 121 121 120 119 119 119 118 117 117 117 117 115 113 113 113 112 110 109 107 107 106 105 104 101 103 154 184 184 184 183 184 183 184 184 184 182 184 241 253 249 238 237 237 237 237 240 252 253 253 253 253 253
237 237 237 237 237 238 250 253 253 253 253 252 241 237 235 150 68 66 66 66 66 66 66 66 66 66 66 66 66 66 66 66 66 66 66 66 66 66 68 69 69 69 69 69 69 70 71 71 71 71 72 73 90 114 87 76 76 76 76 76 76 77 77 77 78 80 80 80 81 83 83 129 183 184 184 184 184 184 184 184 182 183 183 184 184 184 184 184 184 184 182 180 184 184 184 184 184 184 184 184 184 184 184 184 184 184 184 184 184 184 184 184 184 184 184 184 184 184 184 184 184 184 184 184 184 181 172 173 174 183 184 180 149 169 184 184 184 181 169 153 131 121 121 121 122 123 123 124 124 124 124 124 125 125 126 126 126 126 126 126 126 126 126 126 127 127 127 127 128 128 128 128 128 128 128 128 128 128 128 128 127 127 127 127 126 126 126 126 126 126 126 126 126 126 125 124 124 124 124 123 123 121 121 121 120 120 119 119 118 117 117 117 117 116 114 113 113 113 112 110 109 107 107 106 105 104 102 101 103 158 184 184 184 184 184 183 184 184 183 180 206 252 253 249 238 237 237 237 237 240 252 253 253 253 253 253
237 237 237 237 237 238 250 253 253 253 253 252 241 237 237 203 86 66 66 66 66 66 66 66 66 66 66 66 66 66 66 66 66 66 66 66 66 66 66 68 69 69 69 69 69 69 71 71 71 71 71 72 76 124 107 82 84 76 76 76 76 77 77 77 77 79 80 80 80 81 84 130 183 184 184 184 184 184 184 184 184 184 182 183 184 184 184 184 184 184 184 180 183 184 184 184 184 184 184 184 184 184 184 184 184 184 184 184 184 184 184 184 184 184 184 184 184 184 184 184 184 184 184 184 183 171 178 183 179 176 169 154 169 182 184 184 184 184 184 183 151 121 121 121 121 121 121 122 122 123 124 124 124 124 124 124 125 125 125 126 126 126 126 126 126 126 126 126 126 126 126 126 126 126 126 126 126 126 126 126 126 126 126 126 126 126 126 126 126 125 125 124 124 124 124 124 124 123 122 121 121 121 120 120 119 119 118 118 117 117 117 117 115 114 113 113 112 111 109 108 107 107 106 105 104 102 101 100 109 169 184 184 184 184 184 183 184 184 182 180 232 253 253 249 238 237 237 237 237 240 252 253 253 253 253 253
242 242 242 242 242 242 247 249 249 249 249 248 244 242 242 236 136 67 66 66 66 66 66 66 66 66 66 66 66 66 66 66 66 66 66 66 66 66 66 67 69 69 69 69 69 69 70 71 71 71 71 71 73 88 80 75 77 75 76 76 76 76 77 77 77 77 79 80 80 80 88 154 184 184 184 184 184 184 184 184 183 184 184 182 182 184 184 184 184 184 184 183 183 184 184 184 184 184 184 184 184 184 184 184 184 184 184 184 184 184 184 184 184 184 184 184 184 184 184 184 184 184 184 184 184 183 184 184 181 173 172 163 183 184 184 184 184 184 184 184 167 140 148 145 135 130 126 130 136 135 125 122 123 124 124 124 124 124 124 124 125 125 125 125 125 126 126 126 126 126 126 126 126 126 126 126 126 126 126 126 126 126 126 125 125 125 125 124 124 124 124 124 124 124 123 122 121 121 121 121 120 120 119 119 119 118 117 117 117 117 116 114 113 113 112 112 111 109 108 107 107 106 105 104 102 101 100 100 137 182 184 184 184 184 183 183 184 183 181 192 244 249 249 247 242 242 242 242 242 243 248 249 249 249 249 249
253 253 253 253 253 252 240 238 238 238 238 239 249 253 253 252 206 82 66 66 66 66 66 66 66 66 66 66 66 66 66 66 66 66 66 66 66 66 66 66 67 69 69 69 69 69 69 70 71 71 71 71 72 73 73 74 73 73 75 76 76 76 76 77 77 77 77 79 80 80 82 143 184 184 184 184 184 184 184 184 183 184 184 183 180 182 184 184 184 184 184 184 183 184 184 184 184 184 184 184 184 184 184 184 184 184 184 184 184 184 184 184 184 184 184 184 184 184 184 184 184 184 184 184 184 184 184 184 184 184 182 179 184 184 184 184 184 184 184 184 176 177 183 183 179 176 171 174 180 179 161 132 122 121 122 122 123 123 124 124 124 124 124 124 124 124 124 124 124 124 124 124 125 125 125 125 124 124 124 124 124 124 124 124 124 124 124 124 124 123 123 123 122 121 121 121 121 120 120 119 119 119 118 118 117 117 117 117 116 114 113 113 113 112 111 110 109 108 107 106 105 105 104 102 101 100 99 101 160 184 184 184 184 184 183 182 184 183 180 213 237 238 238 241 252 253 253 253 253 250 239 238 238 238 238 238
253 253 253 253 253 252 240 237 237 237 237 238 249 253 253 253 245 132 66 66 66 66 66 66 66 66 66 66 66 66 66 66 66 66 66 66 66 66 66 66 66 68 69 69 69 69 69 69 70 71 71 71 71 72 73 73 73 73 74 75 76 76 76 76 77 77 77 77 79 80 80 123 183 183 184 184 184 184 184 184 183 184 184 184 184 182 184 184 184 184 184 184 184 184 184 184 184 184 184 184 184 184 184 184 184 184 184 184 184 184 184 184 184 184 184 184 184 184 184 184 184 184 184 184 184 184 184 184 184 184 184 184 184 184 184 184 184 184 184 184 181 184 184 184 184 184 184 184 184 184 184 173 144 123 121 121 121 121 121 122 122 122 123 123 123 124 124 124 124 124 124 124 124 124 124 124 124 124 124 124 124 124 124 124 123 123 123 122 122 121 121 121 121 121 120 120 119 119 119 119 118 117 117 117 117 117 116 115 113 113 113 112 112 111 109 108 107 107 106 105 104 103 101 100 100 99 97 104 167 184 184 184 184 183 180 178 181 181 186 231 237 237 237 241 252 253 253 253 253 250 238 237 237 237 237 237
253 253 253 253 253 252 240 237 237 237 237 238 249 253 253 253 253 202 79 66 66 66 66 66 66 66 66 66 66 66 66 66 66 66 66 66 66 66 66 66 66 67 69 69 69 69 69 69 69 71 71 71 71 71 72 73 73 73 73 74 76 76 76 76 76 77 77 77 77 79 80 110 173 177 183 184 184 184 184 184 183 184 184 184 184 183 183 182 181 181 182 183 184 184 184 184 184 184 184 184 184 184 184 184 184 184 184 184 184 184 184 184 184 184 184 184 184 184 184 184 184 184 184 184 184 184 184 184 184 184 184 184 184 184 184 184 184 184 184 184 184 184 184 184 184 184 184 184 184 184 184 184 179 148 122 121 121 121 121 121 121 121 121 121 121 121 122 122 122 122 122 123 123 123 123 123 123 123 122 122 122 122 121 121 121 121 121 121 121 121 121 120 120 119 119 119 119 119 118 118 117 117 117 117 116 115 113 113 113 113 112 111 110 109 108 107 107 106 105 104 103 101 100 100 99 97 96 110 175 184 184 184 184 184 183 181 179 177 208 237 237 237 237 241 252 253 253 253 253 250 238 237 237 237 237 237
253 253 253 253 253 252 240 237 237 237 237 238 249 253 253 253 253 244 129 67 66 66 66 66 66 66 66 66 66 66 66 66 66 66 66 66 66 66 66 66 66 66 67 69 69 69 69 69 69 70 71 71 71 71 71 73 73 73 73 73 74 76 76 76 76 76 77 77 77 78 79 83 111 139 178 184 184 183 184 184 184 184 184 184 184 184 183 183 184 184 183 181 184 184 184 184 184 184 184 184 184 184 184 184 184 184 184 184 184 184 184 184 184 184 184 184 184 184 184 184 184 184 184 184 184 184 184 184 184 184 184 184 184 184 184 184 184 184 184 184 184 184 184 184 184 184 184 184 184 184 184 184 184 178 143 123 122 122 120 120 120 121 121 121 121 121 121 121 121 121 121 121 121 121 121 121 121 121 121 121 121 121 121 121 121 120 120 120 120 119 119 119 119 119 119 118 118 117 117 117 117 117 116 114 113 113 113 113 112 112 111 109 108 107 107 106 105 105 104 103 101 101 100 99 97 96 94 123 181 184 184 184 184 184 183 183 180 184 229 237 237 237 237 241 252 253 253 253 253 250 238 237 237 237 237 237
253 253 253 253 253 252 240 237 237 237 237 238 249 253 253 253 253 253 195 79 66 66 66 66 66 66 66 66 66 66 66 66 66 66 66 66 66 66 66 66 66 66 66 68 69 69 69 69 69 69 70 71 71 71 71 71 72 73 73 73 73 74 76 76 76 76 76 77 77 77 78 79 83 111 174 184 184 182 184 184 184 184 184 184 184 184 184 184 184 184 183 182 184 184 184 184 184 184 184 184 184 184 184 184 184 184 184 184 184 184 184 184 184 184 184 184 184 184 184 184 184 184 184 184 184 184 184 184 184 184 184 184 184 184 184 184 184 184 184 184 184 184 184 184 184 184 184 184 184 184 184 184 184 184 179 167 165 158 126 119 119 119 120 120 120 120 120 120 120 121 121 121 121 121 121 121 121 120 120 120 120 120 120 119 119 119 119 119 119 119 119 118 118 118 117 117 117 117 117 116 115 114 113 113 113 113 112 112 111 110 109 108 107 107 106 105 105 104 102 101 100 100 98 97 96 94 95 145 184 184 184 184 184 183 183 181 179 212 237 237 237 237 237 241 252 253 253 253 253 250 238 237 237 237 237 237
246 246 246 246 246 246 245 244 244 244 244 244 246 246 246 246 246 246 237 132 67 66 66 66 66 66 66 66 66 66 66 66 66 66 66 66 66 66 66 66 66 66 66 66 69 69 69 69 69 69 69 70 71 71 71 71 72 73 73 73 73 73 75 76 76 76 76 76 77 77 77 77 85 147 183 184 183 182 184 184 184 184 184 184 184 184 184 184 184 184 183 182 184 184 184 184 184 184 184 184 184 184 184 184 184 184 184 184 184 184 184 184 184 184 184 184 184 184 184 184 184 184 184 184 184 184 184 184 184 184 184 184 184 184 184 184 184 184 184 184 184 184 184 184 184 184 184 184 184 184 184 184 184 184 184 184 184 181 139 118 119 119 119 119 119 119 119 119 119 119 119 119 119 119 119 119 119 119 119 119 119 119 119 119 119 119 119 118 118 118 117 117 117 117 117 117 116 115 114 114 113 113 113 113 112 112 111 110 109 108 107 107 107 106 105 105 103 101 101 100 100 98 97 96 94 94 106 169 184 184 184 184 182 182 184 182 190 237 244 244 244 244 244 245 246 246 246 246 246 246 244 244 244 244 244 244
237 237 237 237 237 238 250 253 253 253 253 252 241 237 237 237 237 237 248 207 85 66 66 66 66 66 66 66 66 66 66 66 66 66 66 66 66 66 66 66 66 66 66 66 67 69 69 69 69 69 69 69 71 71 71 71 71 72 73 73 73 73 73 75 76 76 76 76 76 77 77 77 109 175 183 184 182 183 184 184 184 184 184 184 184 184 184 184 184 184 183 182 182 184 184 184 184 184 184 184 184 184 184 184 184 184 184 184 184 184 184 184 184 184 184 184 184 184 184 184 184 184 184 184 184 184 184 184 184 184 184 184 184 184 184 184 184 184 184 184 184 184 184 184 184 184 184 184 184 184 184 184 184 184 184 184 184 183 151 118 117 117 118 118 118 118 118 118 118 118 119 119 119 119 119 119 118 118 118 118 118 118 118 117 117 117 117 117 117 117 117 117 117 116 115 114 113 113 113 113 113 112 112 112 111 110 109 108 108 107 107 106 105 105 104 102 101 101 100 100 98 97 96 94 94 95 135 182 184 184 184 183 182 184 184 182 212 242 253 253 253 253 253 249 238 237 237 237 237 240 252 253 253 253 253 253
237 237 237 237 237 238 250 253 253 253 253 252 241 237 237 237 237 237 248 247 146 68 66 66 66 66 66 66 66 66 66 66 66 66 66 66 66 66 66 66 66 66 66 66 66 67 69 69 69 69 69 69 70 71 71 71 71 71 72 73 73 73 73 73 75 76 76 76 76 77 77 80 141 182 178 175 183 184 184 184 184 184 184 184 184 184 184 184 184 183 183 183 183 184 184 184 184 184 184 184 184 184 184 184 184 184 184 184 184 184 184 184 184 184 184 184 184 184 184 184 184 184 184 184 184 184 184 184 184 184 184 184 184 184 184 184 184 184 184 184 184 184 184 184 184 184 184 184 184 184 184 184 184 184 184 184 184 184 164 120 117 117 117 117 117 117 117 117 117 117 117 117 117 117 117 117 117 117 117 117 117 117 117 117 117 117 117 117 116 116 115 114 114 114 113 113 113 113 113 112 112 111 111 109 109 108 107 107 107 106 105 105 105 104 102 101 100 100 99 98 97 95 94 94 93 110 170 184 184 184 184 182 184 184 182 193 231 242 253 253 253 253 253 249 238 237 237 237 237 240 252 253 253 253 253 253
237 237 237 237 237 238 250 253 253 253 253 252 241 237 237 237 237 237 248 253 221 94 66 66 66 66 66 66 66 66 66 66 66 66 66 66 66 66 66 66 66 66 66 66 66 66 68 69 69 69 69 69 69 70 71 71 71 71 71 72 73 73 73 73 74 75 76 76 76 76 76 79 125 180 182 169 180 184 184 184 184 184 184 184 184 184 184 184 182 183 184 184 184 184 184 184 184 184 184 184 184 184 184 184 184 184 184 184 184 184 184 184 184 184 184 184 184 184 184 184 184 184 184 184 184 184 184 184 184 184 184 184 184 184 184 184 184 184 184 184 184 184 184 184 184 184 184 184 184 184 184 184 184 184 184 184 184 184 174 123 115 115 116 116 116 117 117 117 117 117 117 117 117 117 117 117 117 117 117 117 117 117 116 116 115 115 114 114 113 113 113 113 113 113 113 112 112 112 112 111 110 109 109 108 108 107 107 106 106 105 105 104 103 101 101 100 100 99 97 97 95 94 94 93 98 152 183 184 184 184 183 183 184 183 183 217 237 242 253 253 253 253 253 249 238 237 237 237 237 240 252 253 253 253 253 253
237 237 237 237 237 238 250 253 253 253 253 252 241 237 237 237 237 237 248 253 251 167 71 66 66 66 66 66 66 66 66 66 66 66 66 66 66 66 66 66 66 66 66 66 66 66 66 68 69 69 69 69 69 69 70 71 71 71 71 71 72 73 73 73 73 73 75 76 76 76 76 76 92 164 184 184 183 184 184 184 184 184 184 184 184 184 184 183 183 184 184 184 184 184 184 184 184 184 184 184 184 184 184 184 184 184 184 184 184 184 184 184 184 184 184 184 184 184 184 184 184 184 184 184 184 184 184 184 184 184 184 184 184 184 184 184 184 184 184 184 184 184 184 184 184 184 184 184 184 184 184 184 184 184 184 184 184 184 178 127 113 113 113 113 113 114 114 114 114 115 115 115 115 115 115 115 115 115 115 114 114 114 113 113 113 113 113 113 113 113 113 113 112 112 112 112 111 110 110 109 109 108 107 107 107 107 106 105 105 104 103 102 101 100 100 100 98 97 96 95 94 94 93 93 131 181 184 184 184 184 183 184 184 182 198 234 237 242 253 253 253 253 253 249 238 237 237 237 237 240 252 253 253 253 253 253
237 237 237 237 237 238 250 253 253 253 253 252 241 237 237 237 237 237 248 253 253 234 111 66 66 66 66 66 66 66 66 66 66 66 66 66 66 66 66 66 66 66 66 66 66 66 66 66 68 69 69 69 69 69 69 70 71 71 71 71 71 72 73 73 73 73 74 75 76 76 76 76 78 119 180 184 184 184 184 184 184 184 184 184 184 184 184 183 184 184 184 184 184 184 184 184 184 184 184 184 184 184 184 184 184 184 184 184 184 184 184 184 184 184 184 184 184 184 184 184 184 184 184 184 184 184 184 184 184 184 184 184 184 184 184 184 184 184 184 184 184 184 184 184 184 184 184 184 184 184 184 184 184 184 184 184 184 184 174 123 113 113 113 113 113 113 113 113 113 113 113 113 113 113 113 113 113 113 113 113 113 113 113 113 113 113 113 113 112 112 112 112 112 111 110 110 109 109 109 108 107 107 107 107 106 105 105 105 103 102 101 101 100 100 99 98 97 96 94 94 94 93 92 108 171 184 184 184 184 183 182 184 182 185 225 237 237 242 253 253 253 253 253 249 238 237 237 237 237 240 252 253 253 253 253 253
247 247 247 247 247 247 244 244 244 244 244 244 246 247 247 247 247 247 245 244 244 243 185 78 66 66 66 66 66 66 66 66 66 66 66 66 66 66 66 66 66 66 66 66 66 66 66 66 67 68 69 69 69 69 69 69 70 71 71 71 71 71 72 73 73 73 73 74 76 76 76 76 76 104 166 183 184 184 184 184 184 184 184 184 184 184 184 183 183 184 184 184 184 184 184 184 184 184 184 184 184 184 184 184 184 184 184 184 184 184 184 184 184 184 184 184 184 184 184 184 184 184 184 184 184 184 184 184 184 184 184 184 184 184 184 184 184 184 184 184 184 184 184 184 184 184 184 184 184 184 184 184 184 184 184 184 184 184 166 117 112 112 112 112 112 112 113 113 113 113 113 113 113 113 113 113 113 113 113 112 112 112 112 112 112 112 112 112 112 111 110 110 110 109 109 109 108 108 107 107 107 106 106 105 105 105 104 102 101 101 100 100 100 98 98 97 96 94 94 94 93 91 94 147 183 184 184 184 184 183 184 183 184 217 246 247 247 246 244 244 244 244 244 244 247 247 247 247 247 246 244 244 244 244 244 244
253 253 253 253 253 252 240 237 237 237 237 238 249 253 253 253 253 253 242 237 237 237 229 133 68 66 66 66 66 66 66 66 66 66 66 66 66 66 66 66 66 66 66 66 66 66 66 66 66 67 69 69 69 69 69 69 69 70 71 71 71 71 71 72 73 73 73 73 74 75 76 76 76 78 95 151 182 184 184 184 184 184 184 184 184 184 184 180 181 184 184 184 184 184 184 184 184 184 184 184 184 184 184 184 184 184 184 184 184 184 184 184 184 184 184 184 184 184 184 184 184 184 184 184 184 184 184 184 184 184 184 184 184 184 184 184 184 184 184 184 184 184 184 184 184 184 184 184 184 184 184 184 184 184 184 184 184 183 151 112 111 111 112 112 112 112 112 112 112 112 112 112 112 112 112 112 112 112 112 112 112 112 112 111 111 111 110 109 109 109 109 109 108 108 107 107 107 107 106 106 105 105 105 105 104 102 101 101 100 100 100 99 98 97 96 95 94 94 93 93 91 90 117 176 184 184 184 184 183 183 184 182 202 247 253 253 253 248 237 237 237 237 237 241 252 253 253 253 253 250 238 237 237 237 237 237
253 253 253 253 253 252 240 237 237 237 237 238 249 253 253 253 253 253 242 237 237 237 237 206 93 66 66 66 66 66 66 66 66 66 66 66 66 66 66 66 66 66 66 66 66 66 66 66 66 66 67 69 69 69 69 69 69 69 70 71 71 71 71 71 72 73 73 73 73 74 75 76 76 76 76 91 151 182 184 184 184 184 184 184 184 184 184 182 184 184 184 184 184 184 184 184 184 184 184 184 184 184 184 184 184 184 184 184 184 184 184 184 184 184 184 184 184 184 184 184 184 184 184 184 184 184 184 184 184 184 184 184 184 184 184 184 184 184 184 184 184 184 184 184 184 184 184 184 184 184 184 184 184 184 184 184 184 176 127 109 109 109 109 109 110 110 110 110 111 111 111 111 111 111 111 111 110 110 110 110 110 110 109 109 109 109 109 109 108 108 108 107 107 107 107 107 106 106 105 105 105 104 103 102 101 101 100 100 100 100 98 97 97 96 94 94 94 93 92 91 90 96 156 184 184 184 184 184 183 184 182 189 234 253 253 253 253 248 237 237 237 237 237 241 252 253 253 253 253 250 238 237 237 237 237 237
253 253 253 253 253 252 240 237 237 237 237 238 249 253 253 253 253 253 242 237 237 237 237 235 169 73 66 66 66 66 66 66 66 66 66 66 66 66 66 66 66 66 66 66 66 66 66 66 66 66 66 67 69 69 69 69 69 69 69 71 71 71 71 71 71 72 73 73 73 73 73 75 76 76 76 76 92 154 183 184 184 184 184 184 184 184 184 182 184 184 184 184 184 184 184 184 184 184 184 184 184 184 184 184 184 184 184 184 184 184 184 184 184 184 184 184 184 184 184 184 184 184 184 184 184 184 184 184 184 184 184 184 184 184 184 184 184 184 184 184 184 184 184 184 184 184 184 184 184 184 184 184 184 184 184 184 181 141 110 108 109 109 109 109 109 109 109 109 109 109 109 109 109 109 109 109 109 109 109 109 109 109 108 108 108 108 107 107 107 107 107 107 107 106 105 105 105 105 105 104 103 101 101 101 100 100 100 100 99 97 97 96 95 94 94 94 93 92 90 90 89 122 179 184 184 184 184 183 183 183 183 212 252 253 253 253 253 248 237 237 237 237 237 241 252 253 253 253 253 250 238 237 237 237 237 237
253 253 253 253 253 252 240 237 237 237 237 238 249 253 253 253 253 253 242 237 237 237 237 237 234 127 67 66 66 66 66 66 66 66 66 66 66 66 66 66 66 66 66 66 66 66 66 66 66 66 66 66 67 69 69 69 69 69 69 69 71 71 71 71 71 71 72 73 73 73 73 74 75 76 76 76 76 95 159 184 184 184 184 184 184 184 184 182 183 184 184 184 184 184 184 184 184 184 184 184 184 184 184 184 184 184 184 184 184 184 184 184 184 184 184 184 184 184 184 184 184 184 184 184 184 184 184 184 184 184 184 184 184 184 184 184 184 184 184 184 184 184 184 184 184 184 184 184 184 184 184 184 184 184 184 184 163 114 107 107 107 107 107 107 107 107 108 108 108 108 108 108 108 108 108 108 107 107 107 107 107 107 107 107 107 107 107 107 107 106 106 106 105 105 105 105 104 103 102 101 101 101 100 100 100 100 99 98 97 97 95 94 94 94 93 93 91 90 89 88 96 161 184 184 184 184 184 182 179 182 192 236 253 253 253 253 253 248 237 237 237 237 237 241 252 253 253 253 253 250 238 237 237 237 237 237
252 252 252 252 252 251 241 238 238 238 238 239 249 252 252 252 252 252 242 238 238 238 238 238 247 214 94 66 66 66 66 66 66 66 66 66 66 66 66 66 66 66 66 66 66 66 66 66 66 66 66 66 66 68 69 69 69 69 69 69 70 71 71 71 71 71 71 72 73 73 73 73 73 75 76 76 76 76 99 165 184 184 184 184 184 184 184 184 183 183 184 184 184 184 184 184 184 184 184 184 184 184 184 184 184 184 184 184 184 184 184 184 184 184 184 184 184 184 184 184 184 184 184 184 184 184 184 184 184 184 184 184 184 184 184 184 184 184 184 184 184 184 184 184 184 184 184 184 184 184 184 184 184 184 184 170 123 107 107 107 107 107 107 107 107 107 107 107 107 107 107 107 107 107 107 107 107 107 107 107 107 107 107 106 106 106 106 106 105 105 105 105 105 104 103 102 102 101 101 101 100 100 100 99 99 98 97 97 95 95 94 94 94 93 92 91 90 89 87 86 128 181 184 184 183 184 182 178 180 185 217 243 252 252 252 252 252 248 238 238 238 238 238 241 251 252 252 252 252 250 239 238 238 238 238 238
241 241 241 241 241 242 248 249 249 249 249 249 243 241 241 241 241 241 247 249 249 249 249 249 244 239 170 75 66 66 66 66 66 66 66 66 66 66 66 66 66 66 66 66 66 66 66 66 66 66 66 66 66 66 68 69 69 69 69 69 69 69 71 71 71 71 71 71 72 73 73 73 73 73 74 76 76 76 77 112 176 184 184 184 184 184 184 184 184 183 184 184 184 184 184 184 184 184 184 184 184 184 184 184 184 184 184 184 184 184 184 184 184 184 184 184 184 184 184 184 184 184 184 184 184 184 184 184 184 184 184 184 184 184 184 184 184 184 184 184 184 184 184 184 184 184 184 184 184 184 184 184 184 184 173 126 106 105 105 105 106 106 106 106 106 106 106 106 106 106 106 106 106 106 106 106 106 106 106 106 106 105 105 105 105 105 105 105 105 104 103 103 102 101 101 101 101 101 100 100 100 99 99 97 97 97 96 95 94 94 94 93 93 91 90 90 89 87 85 98 165 183 183 183 182 181 180 180 184 209 246 246 241 241 241 241 241 244 249 249 249 249 249 247 242 241 241 241 241 243 249 249 249 249 249 249
237 237 237 237 237 238 250 253 253 253 253 252 241 237 237 237 237 237 248 253 253 253 253 253 243 237 227 133 68 66 66 66 66 66 66 66 66 66 66 66 66 66 66 66 66 66 66 66 66 66 66 66 66 66 66 68 69 69 69 69 69 69 69 71 71 71 71 71 71 72 73 73 73 73 73 74 76 76 76 80 136 182 184 184 184 184 184 184 184 183 179 180 183 184 184 184 184 184 184 184 184 184 184 184 184 184 184 184 184 184 184 184 184 184 184 184 184 184 184 184 184 184 184 184 184 184 184 184 184 184 184 184 184 184 184 184 184 184 184 184 184 184 184 184 184 184 184 184 184 184 184 184 184 182 144 106 104 104 105 105 105 105 105 105 105 105 105 105 105 105 105 105 105 105 105 105 105 105 105 105 105 105 105 104 104 104 103 102 102 101 101 101 101 101 100 100 100 100 100 99 98 97 97 96 96 95 94 94 94 93 93 92 90 90 90 88 86 85 87 133 181 182 184 184 183 181 183 183 198 243 253 247 237 237 237 237 237 242 253 253 253 253 253 249 238 237 237 237 237 240 252 253 253 253 253 253
237 237 237 237 237 238 250 253 253 253 253 252 241 237 237 237 237 237 248 253 253 253 253 253 243 237 237 212 103 66 66 66 66 66 66 66 66 66 66 66 66 66 66 66 66 66 66 66 66 66 66 66 66 66 66 66 67 69 69 69 69 69 69 69 70 71 71 71 71 71 71 72 73 73 73 73 74 75 76 76 90 159 184 184 184 184 184 184 184 184 181 176 182 183 182 184 184 184 184 184 184 180 181 182 183 184 184 184 184 184 184 184 184 184 184 184 184 184 184 184 184 184 184 184 184 184 184 184 184 184 184 184 184 184 184 184 184 184 184 184 184 184 184 184 184 184 184 184 184 184 184 184 184 169 112 101 101 102 102 102 103 103 103 104 104 104 104 104 104 104 104 104 104 104 104 104 104 104 103 103 103 102 102 102 101 101 101 101 101 101 101 100 100 100 100 100 99 99 98 97 97 96 96 94 94 94 94 93 93 92 91 90 90 89 87 86 85 85 100 167 184 184 184 184 183 184 182 190 234 253 253 247 237 237 237 237 237 242 253 253 253 253 253 249 238 237 237 237 237 240 252 253 253 253 253 253
237 237 237 237 237 238 250 253 253 253 253 252 241 237 237 237 237 237 248 253 253 253 253 253 243 237 237 236 186 82 66 66 66 66 66 66 66 66 66 66 66 66 66 66 66 66 66 66 66 66 66 66 66 66 66 66 66 68 69 69 69 69 69 69 69 71 71 71 71 71 71 71 72 73 73 73 73 73 75 76 76 107 173 184 184 184 184 184 184 184 184 184 183 184 182 183 184 184 184 184 182 181 184 183 182 184 184 184 184 184 184 184 184 184 184 184 184 184 184 184 184 184 184 184 184 184 184 184 184 184 184 184 184 184 184 184 184 184 184 184 184 184 184 184 184 184 184 184 184 184 184 184 184 150 103 101 101 101 101 101 101 101 101 101 101 101 101 102 102 102 102 102 102 101 101 101 101 101 101 101 101 101 101 101 101 101 100 100 100 100 100 100 100 100 98 98 97 97 97 96 95 94 94 94 94 93 93 92 91 90 90 90 88 87 85 85 85 86 129 182 184 184 184 183 183 183 185 222 252 253 253 247 237 237 237 237 237 242 253 253 253 253 253 249 238 237 237 237 237 240 252 253 253 253 253 253
237 237 237 237 237 238 250 253 253 253 253 252 241 237 237 237 237 237 248 253 253 253 253 253 243 237 237 237 233 157 73 66 66 66 66 66 66 66 66 66 66 66 66 66 66 66 66 66 66 66 66 66 66 66 66 66 66 66 67 69 69 69 69 69 69 69 70 71 71 71 71 71 71 72 73 73 73 73 73 75 76 78 121 177 184 184 184 184 184 184 184 184 184 184 184 182 182 180 182 182 183 184 184 184 183 184 184 184 184 184 184 184 184 184 184 184 184 184 184 184 184 184 184 184 184 184 184 184 184 184 184 184 184 184 184 184 184 184 184 184 184 184 184 184 184 184 184 184 184 184 184 182 171 123 100 100 100 100 100 101 101 101 101 101 101 101 101 101 101 101 101 101 101 101 101 101 101 101 101 101 100 100 100 100 100 100 100 100 100 99 99 98 98 97 97 97 96 95 95 94 94 94 94 93 93 92 91 90 90 89 89 87 86 85 85 85 85 94 161 184 184 184 184 183 184 182 209 249 253 253 253 247 237 237 237 237 237 242 253 253 253 253 253 249 238 237 237 237 237 240 252 253 253 253 253 253
239 239 239 239 239 240 249 252 252 252 252 251 242 239 239 239 239 239 248 252 252 252 252 252 244 239 239 239 239 226 131 69 66 66 66 66 66 66 66 66 66 66 66 66 66 66 66 66 66 66 66 66 66 66 66 66 66 66 66 67 69 69 69 69 69 69 69 70 71 71 71 71 71 71 72 73 73 73 73 73 74 75 81 131 180 184 184 184 184 184 184 184 184 184 184 182 181 180 181 182 184 184 184 184 181 182 184 184 184 184 184 184 184 184 184 184 184 184 184 184 184 184 184 184 184 184 184 184 184 184 184 184 184 184 184 184 184 184 184 184 184 184 184 184 184 184 184 184 184 184 184 170 119 102 100 100 100 100 100 100 100 100 100 100 100 100 100 100 100 100 100 100 100 100 100 100 100 100 100 100 100 100 100 100 100 99 99 98 98 97 97 97 97 97 96 95 94 94 94 94 93 93 93 92 91 90 90 90 89 88 86 86 85 85 85 84 84 117 180 184 184 184 182 184 183 197 242 252 252 252 252 247 239 239 239 239 239 243 252 252 252 252 252 248 240 239 239 239 239 241 251 252 252 252 252 252
251 251 251 251 251 250 242 240 240 240 240 240 248 251 251 251 251 251 243 240 240 240 240 240 247 251 251 251 251 251 221 110 67 66 66 66 66 66 66 66 66 66 66 66 66 66 66 66 66 66 66 66 66 66 66 66 66 66 66 66 67 69 69 69 69 69 69 69 70 71 71 71 71 71 71 71 73 73 73 73 73 73 75 83 139 182 184 184 184 184 184 184 184 184 184 184 184 184 184 184 184 184 184 184 183 182 183 184 184 184 184 184 184 184 184 184 184 184 184 184 184 184 184 184 184 184 184 184 184 184 184 184 184 184 184 184 184 184 184 184 184 184 184 184 184 184 184 184 184 184 184 156 101 98 98 98 99 99 99 99 100 100 100 100 100 100 100 100 100 100 100 100 100 100 100 100 100 99 99 99 99 98 98 98 98 97 97 97 97 97 96 96 95 95 94 94 94 94 93 93 92 92 91 90 90 90 89 88 87 86 85 85 85 85 84 83 87 151 184 184 184 183 183 183 189 229 239 240 240 240 240 244 251 251 251 251 251 247 240 240 240 240 240 242 250 251 251 251 251 249 240 240 240 240 240 240
253 253 253 253 253 252 240 237 237 237 237 238 249 253 253 253 253 253 242 237 237 237 237 237 247 253 253 253 253 253 245 201 95 66 66 66 66 66 66 66 66 66 66 66 66 66 66 66 66 66 66 66 66 66 66 66 66 66 66 66 66 67 69 69 69 69 69 69 69 70 71 71 71 71 71 71 71 72 73 73 73 73 73 74 86 150 183 184 184 184 184 184 184 184 184 184 184 184 184 184 184 184 184 184 184 184 182 182 179 183 184 184 184 184 184 184 184 184 184 184 184 184 184 184 184 184 184 184 184 184 184 184 184 184 184 184 184 184 184 184 184 184 184 184 184 184 184 184 184 184 184 149 99 97 97 97 97 97 97 97 97 98 98 98 98 98 98 98 98 98 98 98 98 98 98 98 97 97 97 97 97 97 97 97 97 97 96 95 95 95 94 94 94 94 93 93 93 93 92 91 90 90 90 90 89 88 87 86 85 85 85 85 84 83 83 82 104 175 184 184 183 183 184 186 226 245 237 237 237 237 237 243 253 253 253 253 253 248 237 237 237 237 237 241 252 253 253 253 253 250 238 237 237 237 237 237
253 253 253 253 253 252 240 237 237 237 237 238 249 253 253 253 253 253 242 237 237 237 237 237 247 253 253 253 253 253 245 235 184 85 66 66 66 66 66 66 66 66 66 66 66 66 66 66 66 66 66 66 66 66 66 66 66 66 66 66 66 66 67 68 69 69 69 69 69 69 69 71 71 71 71 71 71 71 72 73 73 73 73 73 74 92 160 184 184 184 184 184 184 184 184 184 184 184 184 182 184 184 184 184 184 184 184 183 181 183 182 184 184 184 184 184 184 184 184 184 184 184 184 184 184 184 184 184 184 184 184 184 184 184 184 184 184 184 184 184 184 184 184 184 184 184 184 184 184 184 184 146 97 96 96 96 96 97 97 97 97 97 97 97 97 97 97 97 97 97 97 97 97 97 97 97 97 97 97 96 96 96 96 95 95 94 94 94 94 94 94 93 93 93 93 92 91 91 90 90 90 90 89 88 87 86 85 85 85 85 85 84 83 83 82 81 134 183 184 183 182 184 184 217 251 246 237 237 237 237 237 243 253 253 253 253 253 248 237 237 237 237 237 241 252 253 253 253 253 250 238 237 237 237 237 237
253 253 253 253 253 252 240 237 237 237 237 238 249 253 253 253 253 253 242 237 237 237 237 237 247 253 253 253 253 253 245 237 233 168 78 66 66 66 66 66 66 66 66 66 66 66 66 66 66 66 66 66 66 66 66 66 66 66 66 66 66 66 66 66 68 69 69 69 69 69 69 69 70 71 71 71 71 71 71 72 72 73 73 73 73 74 102 170 184 184 184 184 184 184 184 184 184 184 184 181 184 184 184 184 184 184 184 184 184 184 183 183 183 183 183 184 184 184 184 184 184 184 184 184 184 184 184 184 184 184 184 184 184 184 184 184 184 184 184 184 184 184 184 184 184 184 184 184 184 184 183 138 95 94 94 94 94 94 95 95 95 95 95 96 96 96 96 96 96 96 96 96 95 95 95 95 95 95 95 94 94 94 94 94 94 94 94 94 93 93 93 93 92 91 91 90 90 90 90 89 89 88 87 86 85 85 85 85 85 84 83 83 83 82 80 91 165 184 184 183 184 183 210 248 253 246 237 237 237 237 237 243 253 253 253 253 253 248 237 237 237 237 237 241 252 253 253 253 253 250 238 237 237 237 237 237
253 253 253 253 253 252 240 237 237 237 237 238 249 253 253 253 253 253 242 237 237 237 237 237 247 253 253 253 253 253 245 237 237 230 152 72 66 66 66 66 66 66 66 66 66 66 66 66 66 66 66 66 66 66 66 66 66 66 66 66 66 66 66 66 66 68 69 69 69 69 69 69 69 70 71 71 71 71 71 71 71 72 73 73 73 73 75 129 183 184 184 184 184 184 184 184 184 184 184 182 184 184 184 184 184 184 184 184 184 184 184 184 184 184 182 184 184 184 184 184 184 184 184 184 184 184 184 184 184 184 184 184 184 184 184 184 184 184 184 184 184 184 184 184 184 184 184 184 184 184 182 129 94 94 94 94 94 94 94 94 94 94 94 94 94 94 94 94 94 94 94 94 94 94 94 94 94 94 94 94 94 94 93 93 93 93 93 93 92 92 91 90 90 90 90 90 90 89 88 87 87 86 86 85 85 85 85 84 83 83 83 82 81 79 78 118 180 184 182 183 183 203 245 253 253 246 237 237 237 237 237 243 253 253 253 253 253 248 237 237 237 237 237 241 252 253 253 253 253 250 238 237 237 237 237 237
250 250 250 250 250 249 242 240 240 240 240 241 248 250 250 250 250 250 243 240 240 240 240 240 246 250 250 250 250 250 245 240 240 240 230 136 69 66 66 66 66 66 66 66 66 66 66 66 66 66 66 66 66 66 66 66 66 66 66 66 66 66 66 66 66 66 67 69 69 69 69 69 69 69 70 71 71 71 71 71 71 71 71 73 73 73 73 93 160 183 184 184 184 184 184 184 184 184 184 184 183 184 184 184 184 184 184 184 184 184 184 184 184 184 181 181 184 184 184 184 184 184 184 184 184 184 184 184 184 184 184 184 184 184 184 184 184 184 184 184 184 184 184 184 184 184 184 184 184 184 180 121 93 93 93 93 93 93 94 94 94 94 94 94 94 94 94 94 94 94 94 94 94 94 94 93 93 93 93 93 93 93 93 93 92 91 91 90 90 90 90 90 90 90 89 88 88 87 87 86 85 85 85 85 85 84 84 83 83 83 82 80 78 77 90 159 184 183 183 182 193 238 250 250 250 246 240 240 240 240 240 244 250 250 250 250 250 247 240 240 240 240 240 243 249 250 250 250 250 248 241 240 240 240 240 240
238 238 238 238 238 239 249 252 252 252 252 251 242 238 238 238 238 238 248 252 252 252 252 252 243 238 238 238 238 238 246 252 252 252 252 232 122 68 66 66 66 66 66 66 66 66 66 66 66 66 66 66 66 66 66 66 66 66 66 66 66 66 66 66 66 66 66 67 69 69 69 69 69 69 69 69 70 71 71 71 71 71 71 71 72 73 73 74 96 161 183 184 184 184 184 184 184 184 184 183 183 184 184 184 184 184 184 184 184 184 184 184 184 184 182 179 184 184 184 184 184 184 184 184 184 184 184 184 184 184 184 184 184 184 184 184 184 184 184 184 184 184 184 184 184 184 184 184 184 184 177 113 92 92 92 93 93 93 93 93 93 93 93 93 93 93 93 93 93 93 93 93 93 93 93 93 93 92 92 92 91 91 90 90 90 90 90 90 90 90 90 89 88 88 87 87 87 86 85 85 85 85 85 84 84 83 83 83 82 81 79 78 77 82 138 182 183 183 183 189 224 238 238 238 238 245 252 252 252 252 252 247 238 238 238 238 238 243 252 252 252 252 252 249 239 238 238 238 238 241 251 252 252 252 252 252
237 237 237 237 237 238 250 253 253 253 253 252 241 237 237 237 237 237 248 253 253 253 253 253 243 237 237 237 237 237 246 253 253 253 253 253 219 111 68 66 66 66 66 66 66 66 66 66 66 66 66 66 66 66 66 66 66 66 66 66 66 66 66 66 66 66 66 66 67 68 69 69 69 69 69 69 69 70 71 71 71 71 71 71 71 71 73 73 74 95 154 181 184 184 184 184 184 184 184 171 174 184 184 184 184 184 184 184 184 184 184 184 184 184 183 181 184 184 184 184 184 184 184 184 184 184 184 184 184 184 184 184 184 184 184 184 184 184 184 184 184 184 184 184 184 184 184 184 184 184 172 105 90 90 90 90 90 91 91 91 91 91 92 92 92 92 92 92 92 92 91 91 91 91 91 90 90 90 90 90 90 90 90 90 90 90 90 89 89 88 88 87 87 86 86 85 85 85 85 85 85 84 83 83 83 83 83 82 80 79 78 77 78 119 178 184 183 182 190 225 237 237 237 237 237 245 253 253 253 253 253 247 237 237 237 237 237 242 253 253 253 253 253 249 238 237 237 237 237 240 252 253 253 253 253 253
237 237 237 237 237 238 250 253 253 253 253 252 241 237 237 237 237 237 248 253 253 253 253 253 243 237 237 237 237 237 246 253 253 253 253 253 246 207 108 67 66 66 66 66 66 66 66 66 66 66 66 66 66 66 66 66 66 66 66 66 66 66 66 66 66 66 66 66 66 66 68 69 69 69 69 69 69 69 70 70 71 71 71 71 71 71 71 72 73 73 85 125 166 183 184 184 184 184 184 154 124 167 184 184 184 184 184 184 184 184 184 184 184 184 184 182 181 183 183 184 184 184 184 184 184 184 184 184 184 184 184 184 184 184 184 184 184 184 184 184 184 184 184 184 184 184 184 184 184 184 164 98 90 90 90 90 90 90 90 90 90 90 90 90 90 90 90 90 90 90 90 90 90 90 90 90 90 90 90 90 90 90 90 89 88 88 88 87 87 87 86 86 85 85 85 85 85 85 85 84 83 83 83 83 83 82 81 79 78 77 77 76 103 171 183 181 179 189 230 243 237 237 237 237 237 245 253 253 253 253 253 247 237 237 237 237 237 242 253 253 253 253 253 249 238 237 237 237 237 240 252 253 253 253 253 253
237 237 237 237 237 238 250 253 253 253 253 252 241 237 237 237 237 237 248 253 253 253 253 253 243 237 237 237 237 237 246 253 253 253 253 253 246 236 206 106 67 66 66 66 66 66 66 66 66 66 66 66 66 66 66 66 66 66 66 66 66 66 66 66 66 66 66 66 66 66 66 67 69 69 69 69 69 69 69 69 70 71 71 71 71 71 71 71 72 72 73 75 91 133 170 183 184 184 184 182 159 145 178 184 184 184 184 184 184 184 184 184 184 184 184 184 183 183 183 183 184 184 184 184 184 184 184 184 184 184 184 184 184 184 184 184 184 184 184 184 184 184 184 184 184 184 184 184 184 181 132 90 89 89 89 89 89 90 90 90 90 90 90 90 90 90 90 90 90 90 90 90 90 90 89 89 89 89 88 88 88 88 87 87 87 87 86 86 86 85 85 85 85 85 85 85 84 84 83 83 83 83 83 82 81 80 78 77 77 76 76 91 158 183 180 181 190 230 252 244 237 237 237 237 237 245 253 253 253 253 253 247 237 237 237 237 237 242 253 253 253 253 253 249 238 237 237 237 237 240 252 253 253 253 253 253
237 237 237 237 237 238 250 253 253 253 253 252 241 237 237 237 237 237 248 253 253 253 253 253 243 237 237 237 237 237 246 253 253 253 253 253 246 237 237 205 107 67 66 66 66 66 66 66 66 66 66 66 66 66 66 66 66 66 66 66 66 66 66 66 66 66 66 66 66 66 66 66 67 68 69 69 69 69 69 69 69 70 70 71 71 71 71 71 71 71 72 73 73 75 95 138 174 183 184 184 184 178 183 184 184 184 184 184 184 184 184 184 184 184 184 184 184 184 184 182 184 184 184 184 184 184 184 184 184 184 184 184 184 184 184 184 184 184 184 184 184 184 184 184 184 184 184 184 184 161 96 87 87 87 87 87 87 88 88 88 88 88 88 88 88 88 88 88 88 88 88 88 88 88 87 87 87 87 87 87 87 87 86 86 86 85 85 85 85 85 85 85 85 84 84 83 83 83 83 83 83 82 81 80 79 78 77 77 76 76 83 144 182 180 181 192 231 252 253 244 237 237 237 237 237 245 253 253 253 253 253 247 237 237 237 237 237 242 253 253 253 253 253 249 238 237 237 237 237 240 252 253 253 253 253 253
242 242 242 242 242 243 247 248 248 248 248 248 244 242 242 242 242 242 246 248 248 248 248 248 245 242 242 242 242 242 246 248 248 248 248 248 246 242 242 242 211 111 68 66 66 66 66 66 66 66 66 66 66 66 66 66 66 66 66 66 66 66 66 66 66 66 66 66 66 66 66 66 66 66 68 69 69 69 69 69 69 69 69 70 71 71 71 71 71 71 71 71 72 73 73 77 101 145 176 184 183 180 184 184 184 184 184 184 184 184 184 184 184 184 184 184 184 184 184 184 182 183 184 184 184 184 184 184 184 184 184 184 184 184 184 184 184 184 184 184 184 184 184 184 184 184 184 184 183 129 86 86 86 86 87 87 87 87 87 87 87 87 87 87 87 87 87 87 87 87 87 87 87 87 87 87 86 86 86 86 85 85 85 85 85 85 85 85 85 85 84 84 83 83 83 83 83 83 83 82 81 80 79 78 77 77 76 76 75 77 126 180 181 181 192 227 247 248 248 245 242 242 242 242 242 245 248 248 248 248 248 246 242 242 242 242 242 244 248 248 248 248 248 247 243 242 242 242 242 243 248 248 248 248 248 248
253 253 253 253 253 252 240 237 237 237 237 238 249 253 253 253 253 253 242 237 237 237 237 237 247 253 253 253 253 253 245 237 237 237 237 237 244 253 253 253 252 221 115 68 66 66 66 66 66 66 66 66 66 66 66 66 66 66 66 66 66 66 66 66 66 66 66 66 66 66 66 66 66 66 66 67 69 69 69 69 69 69 69 69 69 70 71 71 71 71 71 71 71 71 72 73 73 79 106 151 178 179 183 184 184 184 184 184 184 184 184 184 184 184 184 184 184 184 184 184 183 183 184 184 184 184 184 184 184 184 184 184 184 184 184 184 184 184 184 184 184 184 184 184 184 184 184 184 175 105 85 85 85 85 85 85 85 85 85 85 86 86 86 86 86 86 86 86 86 86 86 85 85 85 85 85 85 85 85 85 85 85 85 85 85 85 85 84 84 83 83 83 83 83 83 83 83 82 81 80 79 78 77 77 77 76 75 75 74 109 174 182 183 192 222 237 237 237 237 246 253 253 253 253 253 246 237 237 237 237 237 243 253 253 253 253 253 248 237 237 237 237 237 241 252 253 253 253 253 250 238 237 237 237 237 237
253 253 253 253 253 252 240 237 237 237 237 238 249 253 253 253 253 253 242 237 237 237 237 237 247 253 253 253 253 253 245 237 237 237 237 237 244 253 253 253 253 253 221 117 69 66 66 66 66 66 66 66 66 66 66 66 66 66 66 66 66 66 66 66 66 66 66 66 66 66 66 66 66 66 66 66 67 68 69 69 69 69 69 69 69 69 70 71 71 71 71 71 71 71 71 72 72 73 73 81 121 177 183 183 184 184 184 184 184 184 184 184 184 184 184 184 184 184 184 184 184 184 184 184 184 184 184 184 184 184 184 184 184 184 184 184 184 184 184 184 184 184 184 184 184 184 184 184 159 91 85 85 85 85 85 85 85 85 85 85 85 85 85 85 85 85 85 85 85 85 85 85 85 85 85 85 85 85 85 85 85 85 84 84 84 83 83 83 83 83 83 83 83 83 82 82 81 80 79 78 77 77 77 76 76 75 73 73 92 164 183 182 193 226 237 237 237 237 237 246 253 253 253 253 253 246 237 237 237 237 237 243 253 253 253 253 253 248 237 237 237 237 237 241 252 253 253 253 253 250 238 237 237 237 237 237
253 253 253 253 253 252 240 237 237 237 237 238 249 253 253 253 253 253 242 237 237 237 237 237 247 253 253 253 253 253 245 237 237 237 237 237 244 253 253 253 253 253 248 216 128 71 66 66 66 66 66 66 66 66 66 66 66 66 66 66 66 66 66 66 66 66 66 66 66 66 66 66 66 66 66 66 66 66 67 68 69 69 69 69 69 69 69 69 70 71 71 71 71 71 71 71 71 71 72 73 80 150 183 182 183 184 184 184 184 184 184 184 184 184 184 184 183 184 181 178 182 183 184 184 184 184 184 184 184 184 184 184 184 184 184 184 184 184 184 184 184 184 184 184 184 184 184 182 130 86 85 85 85 85 85 85 85 85 85 85 85 85 85 85 85 85 85 85 85 85 85 85 85 85 85 85 84 84 84 84 83 83 83 83 83 83 83 83 83 83 83 82 82 81 80 80 79 78 77 77 77 76 76 75 74 73 73 82 146 182 183 195 235 243 237 237 237 237 237 246 253 253 253 253 253 246 237 237 237 237 237 243 253 253 253 253 253 248 237 237 237 237 237 241 252 253 253 253 253 250 238 237 237 237 237 237
253 253 253 253 253 252 240 237 237 237 237 238 249 253 253 253 253 253 242 237 237 237 237 237 247 253 253 253 253 253 245 237 237 237 237 237 244 253 253 253 253 253 248 237 223 143 74 66 66 66 66 66 66 66 66 66 66 66 66 66 66 66 66 66 66 66 66 66 66 66 66 66 66 66 66 66 66 66 66 66 68 69 69 69 69 69 69 69 69 70 70 71 71 71 71 71 71 71 71 72 73 107 177 183 182 184 184 184 184 184 184 184 184 184 184 183 183 184 184 184 182 181 184 184 184 184 184 184 184 184 184 184 184 184 184 184 184 184 184 184 184 184 184 184 184 184 184 162 97 83 84 84 84 84 84 84 84 84 84 84 84 84 84 84 84 84 84 84 84 84 84 84 84 84 83 83 83 83 83 83 83 83 83 83 83 83 83 83 83 82 81 80 80 80 79 78 77 77 77 76 76 76 74 73 73 72 75 122 177 183 199 239 253 243 237 237 237 237 237 246 253 253 253 253 253 246 237 237 237 237 237 243 253 253 253 253 253 248 237 237 237 237 237 241 252 253 253 253 253 250 238 237 237 237 237 237
253 253 253 253 253 252 240 237 237 237 237 238 249 253 253 253 253 253 242 237 237 237 237 237 247 253 253 253 253 253 245 237 237 237 237 237 244 253 253 253 253 253 248 237 237 228 159 80 66 66 66 66 66 66 66 66 66 66 66 66 66 66 66 66 66 66 66 66 66 66 66 66 66 66 66 66 66 66 66 66 66 67 68 69 69 69 69 69 69 69 69 70 70 71 71 71 71 71 71 71 71 79 152 184 182 184 184 184 184 184 184 184 184 184 184 184 184 184 184 184 184 182 184 184 184 184 184 184 184 184 184 184 184 184 184 184 184 184 184 184 184 184 184 184 184 184 174 113 84 83 83 83 83 83 83 83 83 83 83 83 83 83 83 83 83 83 83 83 83 83 83 83 83 83 83 83 83 83 83 83 83 83 83 83 83 82 82 81 80 80 80 79 78 78 77 77 77 76 76 75 75 74 73 72 72 74 117 174 185 206 243 253 253 243 237 237 237 237 237 246 253 253 253 253 253 246 237 237 237 237 237 243 253 253 253 253 253 248 237 237 237 237 237 241 252 253 253 253 253 250 238 237 237 237 237 237
245 245 245 245 245 245 245 245 245 245 245 245 245 245 245 245 245 245 245 245 245 245 245 245 245 245 245 245 245 245 245 245 245 245 245 245 245 245 245 245 245 245 246 245 245 245 240 183 91 66 66 66 66 66 66 66 66 66 66 66 66 66 66 66 66 66 66 66 66 66 66 66 66 66 66 66 66 66 66 66 66 66 66 68 69 69 69 69 69 69 69 69 69 70 71 71 71 71 71 71 71 71 111 180 183 182 184 184 184 184 184 184 184 184 184 184 184 184 184 184 184 183 183 184 184 184 184 184 184 184 184 184 184 184 184 184 184 184 184 184 184 184 184 184 184 183 144 86 83 83 83 83 83 83 83 83 83 83 83 83 83 83 83 83 83 83 83 83 83 83 83 83 83 83 83 83 83 83 83 83 83 82 82 81 81 80 80 80 79 79 78 77 77 77 77 77 76 76 75 73 73 72 72 71 72 110 174 186 209 240 245 245 245 245 245 245 245 245 245 245 245 245 245 245 245 246 245 245 245 245 245 245 245 245 245 245 245 245 245 245 245 245 245 245 245 245 245 245 245 245 245 245 245 245 245 245
237 237 237 237 237 238 250 253 253 253 253 252 241 237 237 237 237 237 248 253 253 253 253 253 243 237 237 237 237 237 246 253 253 253 253 253 246 237 237 237 237 237 243 253 253 253 253 250 201 100 67 66 66 66 66 66 66 66 66 66 66 66 66 66 66 66 66 66 66 66 66 66 66 66 66 66 66 66 66 66 66 66 66 66 67 68 69 69 69 69 69 69 69 69 69 70 71 71 71 71 71 71 83 161 184 182 183 184 184 184 184 184 184 184 184 184 184 184 184 184 184 183 179 183 183 184 184 184 184 184 184 184 184 184 184 184 184 184 184 184 184 184 176 165 156 145 103 82 82 83 83 83 83 83 83 83 83 83 83 83 83 83 83 83 83 83 83 83 83 83 83 83 83 83 83 82 82 82 81 81 80 80 80 80 80 79 78 78 77 77 77 77 77 76 76 76 74 74 73 73 72 71 71 71 100 168 190 214 234 237 237 237 237 248 253 253 253 253 253 244 237 237 237 237 237 245 253 253 253 253 253 247 237 237 237 237 237 242 253 253 253 253 253 249 238 237 237 237 237 240 252 253 253 253 253 253
237 237 237 237 237 238 250 253 253 253 253 252 241 237 237 237 237 237 248 253 253 253 253 253 243 237 237 237 237 237 246 253 253 253 253 253 246 237 237 237 237 237 243 253 253 253 253 253 248 205 114 70 66 66 66 66 66 66 66 66 66 66 66 66 66 66 66 66 66 66 66 66 66 66 66 66 66 66 66 66 66 66 66 66 66 66 67 68 69 69 69 69 69 69 69 69 69 70 71 71 71 71 72 127 183 184 184 184 184 182 183 183 183 183 182 183 184 184 184 184 184 183 177 180 182 183 184 184 184 184 184 184 184 184 184 184 184 184 184 184 184 171 118 92 86 82 80 80 80 80 81 81 81 81 81 82 82 82 82 82 82 82 82 82 82 82 82 82 82 81 81 81 81 81 80 80 80 80 80 80 80 79 78 78 77 77 77 77 77 77 76 76 76 75 74 73 73 73 72 71 71 71 71 99 164 194 231 241 237 237 237 237 237 248 253 253 253 253 253 244 237 237 237 237 237 245 253 253 253 253 253 247 237 237 237 237 237 242 253 253 253 253 253 249 238 237 237 237 237 240 252 253 253 253 253 253
237 237 237 237 237 238 250 253 253 253 253 252 241 237 237 237 237 237 248 253 253 253 253 253 243 237 237 237 237 237 246 253 253 253 253 253 246 237 237 237 237 237 243 253 253 253 253 253 249 237 217 138 75 66 66 66 66 66 66 66 66 66 66 66 66 66 66 66 66 66 66 66 66 66 66 66 66 66 66 66 66 66 66 66 66 66 66 66 67 69 69 69 69 69 69 69 69 69 69 70 70 71 71 96 174 184 184 183 181 183 184 183 182 183 184 184 184 184 184 184 184 184 184 184 184 183 183 184 184 184 184 184 184 184 184 184 184 184 184 182 160 111 80 79 79 79 79 80 80 80 80 80 80 80 80 80 80 80 80 80 80 80 80 80 80 80 80 80 80 80 80 80 80 80 80 80 79 79 78 78 77 77 77 77 77 77 77 76 76 76 76 75 74 73 73 73 72 71 71 71 70 72 106 167 200 238 252 242 237 237 237 237 237 248 253 253 253 253 253 244 237 237 237 237 237 245 253 253 253 253 253 247 237 237 237 237 237 242 253 253 253 253 253 249 238 237 237 237 237 240 252 253 253 253 253 253
237 237 237 237 237 238 250 253 253 253 253 252 241 237 237 237 237 237 248 253 253 253 253 253 243 237 237 237 237 237 246 253 253 253 253 253 246 237 237 237 237 237 243 253 253 253 253 253 249 238 237 228 166 87 67 66 66 66 66 66 66 66 66 66 66 66 66 66 66 66 66 66 66 66 66 66 66 66 66 66 66 66 66 66 66 66 66 66 66 66 68 69 69 69 69 69 69 69 69 69 69 70 70 81 160 184 184 183 181 182 184 184 184 184 184 184 184 184 184 184 184 184 184 184 184 184 181 182 183 184 184 184 184 184 184 184 184 184 177 139 92 78 77 77 77 77 77 78 78 78 79 79 79 79 79 80 80 80 80 80 80 80 80 80 80 80 80 79 79 79 79 79 78 78 78 77 77 77 77 77 77 77 77 77 76 76 76 76 75 74 73 73 73 73 72 71 71 71 70 70 74 117 174 212 245 253 253 242 237 237 237 237 237 248 253 253 253 253 253 244 237 237 237 237 237 245 253 253 253 253 253 247 237 237 237 237 237 242 253 253 253 253 253 249 238 237 237 237 237 240 252 253 253 253 253 253
237 237 237 237 237 238 250 253 253 253 253 252 241 237 237 237 237 237 248 253 253 253 253 253 243 237 237 237 237 237 246 253 253 253 253 253 246 237 237 237 237 237 243 253 253 253 253 253 249 238 237 237 235 194 109 69 66 66 66 66 66 66 66 66 66 66 66 66 66 66 66 66 66 66 66 66 66 66 66 66 66 66 66 66 66 66 66 66 66 66 66 66 67 69 69 69 69 69 69 69 69 69 69 72 126 182 184 184 183 182 184 184 184 184 184 184 184 184 184 182 182 184 184 184 184 184 183 183 177 184 184 184 184 184 184 184 183 167 117 81 77 76 77 77 77 77 77 77 77 77 77 77 77 77 77 78 78 78 78 78 78 78 78 78 78 78 78 77 77 77 77 77 77 77 77 77 77 77 77 76 76 76 76 76 75 75 74 73 73 73 73 72 72 71 71 71 71 70 69 76 124 181 225 250 253 253 253 242 237 237 237 237 237 248 253 253 253 253 253 244 237 237 237 237 237 245 253 253 253 253 253 247 237 237 237 237 237 242 253 253 253 253 253 249 238 237 237 237 237 240 252 253 253 253 253 253
248 248 248 248 248 247 244 243 243 243 243 243 246 248 248 248 248 248 244 243 243 243 243 243 246 248 248 248 248 248 245 243 243 243 243 243 245 248 248 248 248 248 246 243 243 243 243 243 244 248 248 248 248 247 225 144 79 66 66 66 66 66 66 66 66 66 66 66 66 66 66 66 66 66 66 66 66 66 66 66 66 66 66 66 66 66 66 66 66 66 66 66 66 67 68 68 69 69 69 69 69 69 69 69 86 164 184 184 182 183 184 184 184 184 184 184 184 184 184 184 184 184 184 182 184 184 184 182 174 184 184 184 184 184 184 184 170 102 77 76 76 76 76 76 76 76 77 77 77 77 77 77 77 77 77 77 77 77 77 77 77 77 77 77 77 77 77 77 77 77 77 77 77 77 77 76 76 76 76 76 75 75 74 74 73 73 73 73 72 72 71 71 71 71 71 70 69 69 79 124 182 228 242 243 243 243 243 247 248 248 248 248 248 245 243 243 243 243 243 246 248 248 248 248 248 246 243 243 243 243 243 245 248 248 248 248 248 246 243 243 243 243 243 244 247 248 248 248 248 247 243 243 243 243 243 243
253 253 253 253 253 252 240 237 237 237 237 238 249 253 253 253 253 253 242 237 237 237 237 237 247 253 253 253 253 253 245 237 237 237 237 237 244 253 253 253 253 253 248 237 237 237 237 237 242 253 253 253 253 253 250 232 181 101 68 66 66 66 66 66 66 66 66 66 66 66 66 66 66 66 66 66 66 66 66 66 66 66 66 66 66 66 66 66 66 66 66 66 66 66 66 66 68 68 69 69 69 69 69 69 71 120 180 183 182 184 184 184 184 184 184 184 184 184 184 184 184 184 184 180 182 184 184 183 175 183 184 184 184 184 184 184 168 91 75 75 76 76 76 76 76 76 76 76 76 76 76 76 76 76 76 76 77 77 77 77 77 77 77 77 77 77 76 76 76 76 76 76 76 76 76 76 75 75 75 74 73 73 73 73 73 73 72 71 71 71 71 71 71 70 69 69 69 71 121 202 246 241 237 237 237 237 238 249 253 253 253 253 253 243 237 237 237 237 237 246 253 253 253 253 253 246 237 237 237 237 237 243 253 253 253 253 253 248 237 237 237 237 237 241 252 253 253 253 253 250 238 237 237 237 237 237
253 253 253 253 253 252 240 237 237 237 237 238 249 253 253 253 253 253 242 237 237 237 237 237 247 253 253 253 253 253 245 237 237 237 237 237 244 253 253 253 253 253 248 237 237 237 237 237 242 253 253 253 253 253 250 238 236 212 141 81 66 66 66 66 66 66 66 66 66 66 66 66 66 66 66 66 66 66 66 66 66 66 66 66 66 66 66 66 66 66 66 66 66 66 66 66 66 66 67 68 69 69 69 69 69 81 161 184 183 183 184 184 184 184 184 184 184 184 184 184 184 184 184 181 183 184 184 184 183 183 183 184 184 184 184 184 178 104 73 73 74 74 74 74 75 75 75 76 76 76 76 76 76 76 76 76 76 76 76 76 76 76 76 76 76 76 76 76 76 75 75 75 74 74 74 73 73 73 73 73 73 73 73 72 72 71 71 71 71 71 71 70 69 69 69 68 81 146 226 252 252 241 237 237 237 237 238 249 253 253 253 253 253 243 237 237 237 237 237 246 253 253 253 253 253 246 237 237 237 237 237 243 253 253 253 253 253 248 237 237 237 237 237 241 252 253 253 253 253 250 238 237 237 237 237 237
253 253 253 253 253 252 240 237 237 237 237 238 249 253 253 253 253 253 242 237 237 237 237 237 247 253 253 253 253 253 245 237 237 237 237 237 244 253 253 253 253 253 248 237 237 237 237 237 242 253 253 253 253 253 250 238 237 237 231 187 109 70 66 66 66 66 66 66 66 66 66 66 66 66 66 66 66 66 66 66 66 66 66 66 66 66 66 66 66 66 66 66 66 66 66 66 66 66 66 66 67 68 69 69 69 70 129 183 184 183 184 184 184 184 184 184 184 184 184 184 184 184 184 181 183 183 183 180 182 181 183 184 184 184 184 184 180 108 73 73 73 73 73 73 73 73 73 73 74 74 74 74 75 75 75 75 75 75 75 75 75 75 75 74 74 74 74 73 73 73 73 73 73 73 73 73 73 73 72 72 71 71 71 71 71 71 71 71 70 70 69 69 69 68 70 107 193 246 253 253 252 241 237 237 237 237 238 249 253 253 253 253 253 243 237 237 237 237 237 246 253 253 253 253 253 246 237 237 237 237 237 243 253 253 253 253 253 248 237 237 237 237 237 241 252 253 253 253 253 250 238 237 237 237 237 237
253 253 253 253 253 252 240 237 237 237 237 238 249 253 253 253 253 253 242 237 237 237 237 237 247 253 253 253 253 253 245 237 237 237 237 237 244 253 253 253 253 253 248 237 237 237 237 237 242 253 253 253 253 253 250 238 237 237 237 236 220 159 88 67 66 66 66 66 66 66 66 66 66 66 66 66 66 66 66 66 66 66 66 66 66 66 66 66 66 66 66 66 66 66 66 66 66 66 66 66 66 66 67 68 68 69 95 175 184 182 183 184 184 184 184 184 184 184 184 184 184 184 184 183 183 182 182 181 181 182 184 184 184 184 184 184 171 92 73 73 73 73 73 73 73 73 73 73 73 73 73 73 73 73 73 73 73 73 73 73 73 73 73 73 73 73 73 73 73 73 73 73 73 73 72 72 72 71 71 71 71 71 71 71 71 71 70 69 69 69 69 68 68 82 146 227 252 253 253 253 252 241 237 237 237 237 238 249 253 253 253 253 253 243 237 237 237 237 237 246 253 253 253 253 253 246 237 237 237 237 237 243 253 253 253 253 253 248 237 237 237 237 237 241 252 253 253 253 253 250 238 237 237 237 237 237
252 252 252 252 252 251 241 238 238 238 238 239 249 252 252 252 252 252 242 238 238 238 238 238 247 252 252 252 252 252 245 238 238 238 238 238 244 252 252 252 252 252 248 238 238 238 238 238 242 252 252 252 252 252 250 239 238 238 238 238 241 247 209 126 74 66 66 66 66 66 66 66 66 66 66 66 66 66 66 66 66 66 66 66 66 66 66 66 66 66 66 66 66 66 66 66 66 66 66 66 66 66 66 66 66 67 75 151 184 183 184 184 184 184 184 184 184 184 184 184 184 184 184 184 184 184 180 170 183 184 184 184 184 184 184 184 148 77 71 71 72 72 72 72 72 73 73 73 73 73 73 73 73 73 73 73 73 73 73 73 73 73 73 73 73 73 72 72 72 72 72 71 71 71 71 71 71 71 71 71 71 71 71 70 69 69 69 69 69 68 67 72 115 192 234 250 252 252 252 252 251 241 238 238 238 238 239 249 252 252 252 252 252 243 238 238 238 238 238 246 252 252 252 252 252 246 238 238 238 238 238 243 252 252 252 252 252 248 238 238 238 238 238 242 251 252 252 252 252 250 239 238 238 238 238 238
241 241 241 241 241 241 248 250 250 250 250 249 243 241 241 241 241 241 247 250 250 250 250 250 244 241 241 241 241 241 246 250 250 250 250 250 246 241 241 241 241 241 244 250 250 250 250 250 247 241 241 241 241 241 243 249 250 250 250 250 249 242 241 228 171 100 69 66 66 66 66 66 66 66 66 66 66 66 66 66 66 66 66 66 66 66 66 66 66 66 66 66 66 66 66 66 66 66 66 66 66 66 66 66 66 66 67 114 181 184 184 184 184 184 184 184 184 184 184 184 184 184 184 184 184 184 175 176 184 184 184 184 184 184 184 178 109 71 71 71 71 71 71 71 71 71 71 71 71 72 72 72 72 72 72 72 72 72 72 72 72 72 72 71 71 71 71 71 71 71 71 71 71 71 71 71 71 71 71 70 70 70 69 69 69 69 69 68 67 68 95 171 235 250 249 242 241 241 241 241 241 248 250 250 250 250 250 244 241 241 241 241 241 247 250 250 250 250 250 245 241 241 241 241 241 245 250 250 250 250 250 246 241 241 241 241 241 244 250 250 250 250 250 247 241 241 241 241 241 242 249 250 250 250 250 250
237 237 237 237 237 238 250 253 253 253 253 252 241 237 237 237 237 237 248 253 253 253 253 253 243 237 237 237 237 237 246 253 253 253 253 253 246 237 237 237 237 237 243 253 253 253 253 253 249 238 237 237 237 237 241 252 253 253 253 253 251 239 237 237 235 215 154 93 68 66 66 66 66 66 66 66 66 66 66 66 66 66 66 66 66 66 66 66 66 66 66 66 66 66 66 66 66 66 66 66 66 66 66 66 66 66 66 84 166 183 184 184 184 184 184 184 184 184 184 184 184 184 184 184 184 182 174 183 184 184 184 184 184 178 156 142 78 71 71 71 71 71 71 71 71 71 71 71 71 71 71 71 71 71 71 71 71 71 71 71 71 71 71 71 71 71 71 71 71 71 71 71 71 71 71 71 70 70 69 69 69 69 69 69 69 68 67 67 82 145 220 251 253 253 252 240 237 237 237 237 238 250 253 253 253 253 253 242 237 237 237 237 237 248 253 253 253 253 253 244 237 237 237 237 237 245 253 253 253 253 253 247 237 237 237 237 237 242 253 253 253 253 253 249 238 237 237 237 237 240 252 253 253 253 253 253
237 237 237 237 237 238 250 253 253 253 253 252 241 237 237 237 237 237 248 253 253 253 253 253 243 237 237 237 237 237 246 253 253 253 253 253 246 237 237 237 237 237 243 253 253 253 253 253 249 238 237 237 237 237 241 252 253 253 253 253 251 239 237 237 237 237 236 219 151 89 67 66 66 66 66 66 66 66 66 66 66 66 66 66 66 66 66 66 66 66 66 66 66 66 66 66 66 66 66 66 66 66 66 66 66 66 66 70 136 183 182 184 184 184 184 184 184 184 184 184 184 184 184 184 184 182 181 182 181 182 184 184 184 162 110 88 71 71 71 71 71 71 71 71 71 71 71 71 71 71 71 71 71 71 71 71 71 71 71 71 71 71 71 71 71 71 71 71 71 71 71 70 70 70 69 69 69 69 69 69 69 69 68 67 66 66 76 122 195 246 253 254 253 253 252 240 237 237 237 237 238 250 253 253 253 253 253 242 237 237 237 237 237 248 253 253 253 253 253 244 237 237 237 237 237 245 253 253 253 253 253 247 237 237 237 237 237 242 253 253 253 253 253 249 238 237 237 237 237 240 252 253 253 253 253 253
237 237 237 237 237 238 250 253 253 253 253 252 241 237 237 237 237 237 248 253 253 253 253 253 243 237 237 237 237 237 246 253 253 253 253 253 246 237 237 237 237 237 243 253 253 253 253 253 249 238 237 237 237 237 241 252 253 253 253 253 251 239 237 237 237 237 239 251 248 216 147 87 68 66 66 66 66 66 66 66 66 66 66 66 66 66 66 66 66 66 66 66 66 66 66 66 66 66 66 66 66 66 66 66 66 66 66 66 94 169 181 183 184 184 184 184 184 184 184 184 184 184 184 184 184 183 183 184 182 182 183 183 183 143 83 70 69 70 70 70 70 71 71 71 71 71 71 71 71 71 71 71 71 71 71 71 71 71 71 71 71 71 71 71 71 71 70 70 70 69 69 69 69 69 69 69 69 69 69 68 68 67 66 67 76 117 184 227 239 252 253 253 253 253 252 240 237 237 237 237 238 250 253 253 253 253 253 242 237 237 237 237 237 248 253 253 253 253 253 244 237 237 237 237 237 245 253 253 253 253 253 247 237 237 237 237 237 242 253 253 253 253 253 249 238 237 237 237 237 240 252 253 253 253 253 253
237 237 237 237 237 238 250 253 253 253 253 252 241 237 237 237 237 237 248 253 253 253 253 253 243 237 237 237 237 237 246 253 253 253 253 253 246 237 237 237 237 237 243 253 253 253 253 253 249 238 237 237 237 237 241 252 253 253 253 253 251 239 237 237 237 237 239 251 253 253 248 214 144 85 67 66 66 66 66 66 66 66 66 66 66 66 66 66 66 66 66 66 66 66 66 66 66 66 66 66 66 66 66 66 66 66 66 66 68 119 179 182 184 184 184 184 184 184 184 184 184 184 184 184 184 183 181 184 184 184 184 182 174 102 69 69 69 69 69 69 69 69 69 69 69 69 70 70 70 70 70 70 70 70 70 70 70 70 70 70 70 69 69 69 69 69 69 69 69 69 69 69 69 69 69 69 68 68 67 66 66 66 77 118 183 227 237 237 240 252 253 253 253 253 252 240 237 237 237 237 238 250 253 253 253 253 253 242 237 237 237 237 237 248 253 253 253 253 253 244 237 237 237 237 237 245 253 253 253 253 253 247 237 237 237 237 237 242 253 253 253 253 253 249 238 237 237 237 237 240 252 253 253 253 253 253
239 239 239 239 239 240 249 251 251 251 251 250 242 239 239 239 239 239 247 251 251 251 251 251 244 239 239 239 239 239 246 251 251 251 251 251 246 239 239 239 239 239 243 251 251 251 251 251 248 240 239 239 239 239 242 250 251 251 251 251 250 241 239 239 239 239 240 250 251 251 251 251 245 205 140 87 68 66 66 66 66 66 66 66 66 66 66 66 66 66 66 66 66 66 66 66 66 66 66 66 66 66 66 66 66 66 66 66 66 74 144 182 182 184 184 184 184 184 184 184 184 184 184 184 184 183 177 183 184 184 184 181 133 75 69 69 69 69 69 69 69 69 69 69 69 69 69 69 69 69 69 69 69 69 69 69 69 69 69 69 69 69 69 69 69 69 69 69 69 69 69 69 69 68 67 67 66 66 66 67 81 127 194 229 239 239 239 239 241 250 251 251 251 251 250 241 239 239 239 239 240 249 251 251 251 251 251 243 239 239 239 239 239 247 251 251 251 251 251 244 239 239 239 239 239 245 251 251 251 251 251 247 239 239 239 239 239 243 251 251 251 251 251 248 240 239 239 239 239 241 250 251 251 251 251 251
251 251 251 251 251 250 241 239 239 239 239 240 248 251 251 251 251 251 243 239 239 239 239 239 247 251 251 251 251 251 245 239 239 239 239 239 244 251 251 251 251 251 247 239 239 239 239 239 243 251 251 251 251 251 249 240 239 239 239 239 241 250 251 251 251 251 250 241 239 239 239 239 240 249 246 216 154 97 70 66 66 66 66 66 66 66 66 66 66 66 66 66 66 66 66 66 66 66 66 66 66 66 66 66 66 66 66 66 66 66 88 164 182 182 184 184 184 184 184 184 184 184 184 184 184 184 171 166 175 181 180 160 87 69 69 69 69 69 69 69 69 69 69 69 69 69 69 69 69 69 69 69 69 69 69 69 69 69 69 69 69 69 69 69 69 69 69 69 69 68 68 67 67 66 66 66 66 70 91 139 196 230 241 250 251 251 251 251 250 240 239 239 239 239 241 250 251 251 251 251 250 242 239 239 239 239 240 248 251 251 251 251 251 243 239 239 239 239 239 246 251 251 251 251 251 246 239 239 239 239 239 244 251 251 251 251 251 247 239 239 239 239 239 242 250 251 251 251 251 249 240 239 239 239 239 239
253 253 253 253 253 252 240 237 237 237 237 238 249 253 253 253 253 253 242 237 237 237 237 237 247 253 253 253 253 253 245 237 237 237 237 237 244 253 253 253 253 253 248 237 237 237 237 237 242 253 253 253 253 253 250 238 237 237 237 237 240 252 253 253 253 253 252 240 237 237 237 237 238 250 253 253 250 226 171 108 75 67 66 66 66 66 66 66 66 66 66 66 66 66 66 66 66 66 66 66 66 66 66 66 66 66 66 66 66 66 67 109 177 183 183 184 184 184 184 184 184 184 184 184 184 184 174 145 114 108 104 86 68 68 68 69 69 69 69 69 69 69 69 69 69 69 69 69 69 69 69 69 69 69 69 69 69 69 69 69 69 69 69 68 68 68 67 67 66 66 66 66 66 66 67 76 109 162 210 233 237 237 241 252 253 253 253 253 251 239 237 237 237 237 239 251 253 253 253 253 252 241 237 237 237 237 238 249 253 253 253 253 253 243 237 237 237 237 237 246 253 253 253 253 253 246 237 237 237 237 237 243 253 253 253 253 253 248 237 237 237 237 237 241 252 253 253 253 253 250 238 237 237 237 237 237
253 253 253 253 253 252 240 237 237 237 237 238 249 253 253 253 253 253 242 237 237 237 237 237 247 253 253 253 253 253 245 237 237 237 237 237 244 253 253 253 253 253 248 237 237 237 237 237 242 253 253 253 253 253 250 238 237 237 237 237 240 252 253 253 253 253 252 240 237 237 237 237 238 250 253 253 253 253 251 227 185 129 87 69 66 66 66 66 66 66 66 66 66 66 66 66 66 66 66 66 66 66 66 66 66 66 66 66 66 66 66 72 141 183 181 184 184 184 184 184 184 184 184 184 184 184 184 183 151 80 66 66 66 66 66 66 67 67 68 68 68 68 68 68 69 69 69 69 69 69 69 69 69 69 68 68 68 68 68 67 67 67 66 66 66 66 66 66 66 66 66 66 70 91 138 198 233 236 237 237 237 237 241 252 253 253 253 253 251 239 237 237 237 237 239 251 253 253 253 253 252 241 237 237 237 237 238 249 253 253 253 253 253 243 237 237 237 237 237 246 253 253 253 253 253 246 237 237 237 237 237 243 253 253 253 253 253 248 237 237 237 237 237 241 252 253 253 253 253 250 238 237 237 237 237 237
253 253 253 253 253 252 240 237 237 237 237 238 249 253 253 253 253 253 242 237 237 237 237 237 247 253 253 253 253 253 245 237 237 237 237 237 244 253 253 253 253 253 248 237 237 237 237 237 242 253 253 253 253 253 250 238 237 237 237 237 240 252 253 253 253 253 252 240 237 237 237 237 238 250 253 253 253 253 253 242 237 231 206 160 111 79 67 66 66 66 66 66 66 66 66 66 66 66 66 66 66 66 66 66 66 66 66 66 66 66 66 66 95 174 182 183 184 184 184 184 184 184 184 184 184 184 184 184 180 113 66 66 66 66 66 66 66 66 66 66 66 66 66 66 66 66 67 67 67 67 67 66 66 66 66 66 66 66 66 66 66 66 66 66 66 66 66 66 66 67 78 114 171 222 248 253 249 238 237 237 237 237 241 252 253 253 253 253 251 239 237 237 237 237 239 251 253 253 253 253 252 241 237 237 237 237 238 249 253 253 253 253 253 243 237 237 237 237 237 246 253 253 253 253 253 246 237 237 237 237 237 243 253 253 253 253 253 248 237 237 237 237 237 241 252 253 253 253 253 250 238 237 237 237 237 237
253 253 253 253 253 252 240 237 237 237 237 238 249 253 253 253 253 253 242 237 237 237 237 237 247 253 253 253 253 253 245 237 237 237 237 237 244 253 253 253 253 253 248 237 237 237 237 237 242 253 253 253 253 253 250 238 237 237 237 237 240 252 253 253 253 253 252 240 237 237 237 237 238 250 253 253 253 253 253 242 237 237 237 236 226 205 159 111 81 68 66 66 66 66 66 66 66 66 66 66 66 66 66 66 66 66 66 66 66 66 66 66 72 144 182 182 183 184 184 184 184 184 184 184 184 183 181 179 164 93 66 66 66 66 66 66 66 66 66 66 66 66 66 66 66 66 66 66 66 66 66 66 66 66 66 66 66 66 66 66 66 66 66 66 66 66 67 75 99 142 197 240 252 253 253 253 249 238 237 237 237 237 241 252 253 253 253 253 251 239 237 237 237 237 239 251 253 253 253 253 252 241 237 237 237 237 238 249 253 253 253 253 253 243 237 237 237 237 237 246 253 253 253 253 253 246 237 237 237 237 237 243 253 253 253 253 253 248 237 237 237 237 237 241 252 253 253 253 253 250 238 237 237 237 237 237
249 249 249 249 249 249 243 241 241 241 241 241 247 249 249 249 249 249 244 241 241 241 241 241 246 249 249 249 249 249 245 241 241 241 241 241 245 249 249 249 249 249 247 241 241 241 241 241 244 250 249 249 249 249 248 241 241 241 241 241 243 249 249 249 249 249 249 243 241 241 241 241 241 248 249 249 249 249 250 244 241 241 241 241 241 247 248 237 206 160 114 84 69 66 66 66 66 66 66 66 66 66 66 66 66 66 66 66 66 66 66 66 66 84 148 181 182 183 184 184 184 184 184 184 183 149 112 101 84 68 66 66 66 66 66 66 66 66 66 66 66 66 66 66 66 66 66 66 66 66 66 66 66 66 66 66 66 66 66 66 66 66 66 68 79 107 147 191 224 239 244 249 249 249 249 249 247 241 241 241 241 241 243 249 249 249 249 249 248 242 241 241 241 241 242 248 249 249 249 249 249 243 241 241 241 241 241 247 249 249 249 249 249 244 241 241 241 241 241 246 249 249 249 249 249 246 241 241 241 241 241 244 249 249 249 249 249 247 241 241 241 241 241 243 249 249 249 249 249 248 241 241 241 241 241 241
238 238 238 238 238 239 250 252 252 252 252 251 242 238 238 238 238 238 248 252 252 252 252 252 243 238 238 238 238 238 246 252 252 252 252 252 246 238 238 238 238 238 243 252 252 252 252 252 249 239 238 238 238 238 241 251 252 252 252 252 250 240 238 238 238 238 240 250 252 252 252 252 251 241 238 238 238 238 239 249 252 252 252 252 252 243 238 238 238 236 227 211 177 129 94 75 68 66 66 66 66 66 66 66 66 66 66 66 66 66 66 66 66 66 79 131 175 182 184 184 184 184 184 183 177 156 81 66 66 66 66 66 66 66 66 66 66 66 66 66 66 66 66 66 66 66 66 66 66 66 66 66 66 66 66 66 66 66 66 67 73 88 116 156 202 237 250 252 252 252 248 238 238 238 238 238 242 252 252 252 252 252 250 239 238 238 238 238 241 251 252 252 252 252 251 241 238 238 238 238 239 250 252 252 252 252 252 242 238 238 238 238 238 248 252 252 252 252 252 244 238 238 238 238 238 245 252 252 252 252 252 247 238 238 238 238 238 242 252 252 252 252 252 249 239 238 238 238 238 241 251 252 252 252 252 252
237 237 237 237 237 238 250 253 253 253 253 252 241 237 237 237 237 237 248 253 253 253 253 253 243 237 237 237 237 237 246 253 253 253 253 253 246 237 237 237 237 237 243 253 253 253 253 253 249 238 237 237 237 237 241 252 253 253 253 253 251 239 237 237 237 237 239 251 253 253 253 253 252 241 237 237 237 237 238 249 253 253 253 253 253 243 237 237 237 237 237 246 252 247 229 198 159 121 91 75 68 66 66 66 66 66 66 66 66 66 66 66 66 66 66 71 104 153 167 181 184 184 184 181 141 109 78 66 66 66 66 66 66 66 66 66 66 66 66 66 66 66 66 66 66 66 66 66 66 66 66 66 66 66 66 67 73 88 111 143 181 211 229 236 244 253 253 253 253 253 248 237 237 237 237 237 242 253 253 253 253 253 250 238 237 237 237 237 240 252 253 253 253 253 252 240 237 237 237 237 238 250 253 253 253 253 253 242 237 237 237 237 237 248 253 253 253 253 253 244 237 237 237 237 237 245 253 253 253 253 253 247 237 237 237 237 237 242 253 253 253 253 253 249 238 237 237 237 237 240 252 253 253 253 253 253
237 237 237 237 237 238 250 253 253 253 253 252 241 237 237 237 237 237 248 253 253 253 253 253 243 237 237 237 237 237 246 253 253 253 253 253 246 237 237 237 237 237 243 253 253 253 253 253 249 238 237 237 237 237 241 252 253 253 253 253 251 239 237 237 237 237 239 251 253 253 253 253 252 241 237 237 237 237 238 249 253 253 253 253 253 243 237 237 237 237 237 246 253 253 253 253 252 238 214 190 157 124 98 81 72 68 66 66 66 66 66 66 66 66 66 66 67 80 107 133 166 182 184 184 179 150 87 66 66 66 66 66 66 66 66 66 66 66 66 66 66 66 66 66 66 66 66 66 66 66 67 71 81 99 125 160 194 223 234 235 237 237 237 237 244 253 253 253 253 253 248 237 237 237 237 237 242 253 253 253 253 253 250 238 237 237 237 237 240 252 253 253 253 253 252 240 237 237 237 237 238 250 253 253 253 253 253 242 237 237 237 237 237 248 253 253 253 253 253 244 237 237 237 237 237 245 253 253 253 253 253 247 237 237 237 237 237 242 253 253 253 253 253 249 238 237 237 237 237 240 252 253 253 253 253 253
237 237 237 237 237 238 250 253 253 253 253 252 241 237 237 237 237 237 248 253 253 253 253 253 243 237 237 237 237 237 246 253 253 253 253 253 246 237 237 237 237 237 243 253 253 253 253 253 249 238 237 237 237 237 241 252 253 253 253 253 251 239 237 237 237 237 239 251 253 253 253 253 252 241 237 237 237 237 238 249 253 253 253 253 253 243 237 237 237 237 237 246 253 253 253 253 253 246 237 237 236 232 221 208 192 164 136 112 95 82 73 69 67 66 66 66 66 66 69 73 95 149 177 183 184 175 100 67 66 66 66 66 66 66 66 66 66 66 66 66 66 66 66 67 69 73 79 90 105 126 151 179 210 234 246 251 253 253 245 237 237 237 237 237 244 253 253 253 253 253 248 237 237 237 237 237 242 253 253 253 253 253 250 238 237 237 237 237 240 252 253 253 253 253 252 240 237 237 237 237 238 250 253 253 253 253 253 242 237 237 237 237 237 248 253 253 253 253 253 244 237 237 237 237 237 245 253 253 253 253 253 247 237 237 237 237 237 242 253 253 253 253 253 249 238 237 237 237 237 240 252 253 253 253 253 253
237 237 237 237 237 238 250 253 253 253 253 252 241 237 237 237 237 237 248 253 253 253 253 253 243 237 237 237 237 237 246 253 253 253 253 253 246 237 237 237 237 237 243 253 253 253 253 253 249 238 237 237 237 237 241 252 253 253 253 253 251 239 237 237 237 237 239 251 253 253 253 253 252 241 237 237 237 237 238 249 253 253 253 253 253 243 237 237 237 237 237 246 253 253 253 253 253 246 237 237 237 237 237 243 253 253 250 242 231 211 186 167 151 134 118 106 98 88 81 77 75 90 118 142 163 172 148 130 104 70 67 67 67 67 69 71 74 78 83 91 103 116 133 152 172 192 203 213 225 233 236 237 247 253 253 253 253 253 245 237 237 237 237 237 244 253 253 253 253 253 248 237 237 237 237 237 242 253 253 253 253 253 250 238 237 237 237 237 240 252 253 253 253 253 252 240 237 237 237 237 238 250 253 253 253 253 253 242 237 237 237 237 237 248 253 253 253 253 253 244 237 237 237 237 237 245 253 253 253 253 253 247 237 237 237 237 237 242 253 253 253 253 253 249 238 237 237 237 237 240 252 253 253 253 253 253
243 243 243 243 243 243 247 247 247 247 247 247 244 243 243 243 243 243 246 247 247 247 247 247 245 243 243 243 243 243 246 247 247 247 247 247 245 243 243 243 243 243 245 247 247 247 247 247 246 243 243 243 243 243 244 247 247 247 247 247 247 244 243 243 243 243 244 247 247 247 247 247 247 244 243 243 243 243 243 246 247 247 247 247 247 245 243 243 243 243 243 245 247 247 247 247 247 246 243 243 243 243 243 245 248 247 247 248 248 246 243 243 242 240 237 232 228 221 211 202 194 187 182 181 183 191 197 203 196 172 165 165 170 177 186 192 199 207 215 222 232 239 243 245 247 247 244 243 243 243 243 243 246 247 247 247 247 247 245 243 243 243 243 243 245 247 247 247 247 247 246 243 243 243 243 243 244 248 247 247 247 247 247 243 243 243 243 243 244 247 247 247 247 247 247 244 243 243 243 243 243 247 247 247 247 247 248 245 243 243 243 243 243 246 247 247 247 247 247 245 243 243 243 243 243 245 247 247 247 247 247 246 243 243 243 243 243 244 247 247 247 247 247 246 243 243 243 243 243 244 247 247 247 247 247 247
253 253 253 253 253 252 240 237 237 237 237 238 249 253 253 253 253 253 242 237 237 237 237 237 247 253 253 253 253 253 245 237 237 237 237 237 244 253 253 253 253 253 248 237 237 237 237 237 242 253 253 253 253 253 250 238 237 237 237 237 240 252 253 253 253 253 252 240 237 237 237 237 238 250 253 253 253 253 253 242 237 237 237 237 237 248 253 253 253 253 253 244 237 237 237 237 237 245 253 253 253 253 253 247 237 237 237 237 237 242 253 253 253 253 253 249 238 237 237 237 237 240 252 253 253 253 253 251 239 237 237 237 237 238 250 253 253 253 253 252 241 237 237 237 237 237 248 253 253 253 253 253 243 237 237 237 237 237 246 253 253 253 253 253 246 237 237 237 237 237 243 253 253 253 253 253 249 238 237 237 237 237 241 252 253 253 253 253 251 239 237 237 237 237 239 251 253 253 253 253 252 241 237 237 237 237 238 249 253 253 253 253 253 243 237 237 237 237 237 246 253 253 253 253 253 246 237 237 237 237 237 243 253 253 253 253 253 248 237 237 237 237 237 241 252 253 253 253 253 250 238 237 237 237 237 237
253 253 253 253 253 252 240 237 237 237 237 238 249 253 253 253 253 253 242 237 237 237 237 237 247 253 253 253 253 253 245 237 237 237 237 237 244 253 253 253 253 253 248 237 237 237 237 237 242 253 253 253 253 253 250 238 237 237 237 237 240 252 253 253 253 253 252 240 237 237 237 237 238 250 253 253 253 253 253 242 237 237 237 237 237 248 253 253 253 253 253 244 237 237 237 237 237 245 253 253 253 253 253 247 237 237 237 237 237 242 253 253 253 253 253 249 238 237 237 237 237 240 252 253 253 253 253 251 239 237 237 237 237 238 250 253 253 253 253 252 241 237 237 237 237 237 248 253 253 253 253 253 243 237 237 237 237 237 246 253 253 253 253 253 246 237 237 237 237 237 243 253 253 253 253 253 249 238 237 237 237 237 241 252 253 253 253 253 251 239 237 237 237 237 239 251 253 253 253 253 252 241 237 237 237 237 238 249 253 253 253 253 253 243 237 237 237 237 237 246 253 253 253 253 253 246 237 237 237 237 237 243 253 253 253 253 253 248 237 237 237 237 237 241 252 253 253 253 253 250 238 237 237 237 237 237
253 253 253 253 253 252 240 237 237 237 237 238 249 253 253 253 253 253 242 237 237 237 237 237 247 253 253 253 253 253 245 237 237 237 237 237 244 253 253 253 253 253 248 237 237 237 237 237 242 253 253 253 253 253 250 238 237 237 237 237 240 252 253 253 253 253 252 240 237 237 237 237 238 250 253 253 253 253 253 242 237 237 237 237 237 248 253 253 253 253 253 244 237 237 237 237 237 245 253 253 253 253 253 247 237 237 237 237 237 242 253 253 253 253 253 249 238 237 237 237 237 240 252 253 253 253 253 251 239 237 237 237 237 238 250 253 253 253 253 252 241 237 237 237 237 237 248 253 253 253 253 253 243 237 237 237 237 237 246 253 253 253 253 253 246 237 237 237 237 237 243 253 253 253 253 253 249 238 237 237 237 237 241 252 253 253 253 253 251 239 237 237 237 237 239 251 253 253 253 253 252 241 237 237 237 237 238 249 253 253 253 253 253 243 237 237 237 237 237 246 253 253 253 253 253 246 237 237 237 237 237 243 253 253 253 253 253 248 237 237 237 237 237 241 252 253 253 253 253 250 238 237 237 237 237 237
253 253 253 253 253 252 240 237 237 237 237 238 249 253 253 253 253 253 242 237 237 237 237 237 247 253 253 253 253 253 245 237 237 237 237 237 244 253 253 253 253 253 248 237 237 237 237 237 242 253 253 253 253 253 250 238 237 237 237 237 240 252 253 253 253 253 252 240 237 237 237 237 238 250 253 253 253 253 253 242 237 237 237 237 237 248 253 253 253 253 253 244 237 237 237 237 237 245 253 253 253 253 253 247 237 237 237 237 237 242 253 253 253 253 253 249 238 237 237 237 237 240 252 253 253 253 253 251 239 237 237 237 237 238 250 253 253 253 253 252 241 237 237 237 237 237 248 253 253 253 253 253 243 237 237 237 237 237 246 253 253 253 253 253 246 237 237 237 237 237 243 253 253 253 253 253 249 238 237 237 237 237 241 252 253 253 253 253 251 239 237 237 237 237 239 251 253 253 253 253 252 241 237 237 237 237 238 249 253 253 253 253 253 243 237 237 237 237 237 246 253 253 253 253 253 246 237 237 237 237 237 243 253 253 253 253 253 248 237 237 237 237 237 241 252 253 253 253 253 250 238 237 237 237 237 237
253 253 253 253 253 252 240 237 237 237 237 238 249 253 253 253 253 253 242 237 237 237 237 237 247 253 253 253 253 253 245 237 237 237 237 237 244 253 253 253 253 253 248 237 237 237 237 237 242 253 253 253 253 253 250 238 237 237 237 237 240 252 253 253 253 253 252 240 237 237 237 237 238 250 253 253 253 253 253 242 237 237 237 237 237 248 253 253 253 253 253 244 237 237 237 237 237 245 253 253 253 253 253 247 237 237 237 237 237 242 253 253 253 253 253 249 238 237 237 237 237 240 252 253 253 253 253 251 239 237 237 237 237 238 250 253 253 253 253 252 241 237 237 237 237 237 248 253 253 253 253 253 243 237 237 237 237 237 246 253 253 253 253 253 246 237 237 237 237 237 243 253 253 253 253 253 249 238 237 237 237 237 241 252 253 253 253 253 251 239 237 237 237 237 239 251 253 253 253 253 252 241 237 237 237 237 238 249 253 253 253 253 253 243 237 237 237 237 237 246 253 253 253 253 253 246 237 237 237 237 237 243 253 253 253 253 253 248 237 237 237 237 237 241 252 253 253 253 253 250 238 237 237 237 237 237
245 245 245 245 245 245 246 246 246 246 246 246 245 245 245 245 245 245 245 246 246 246 246 246 245 245 245 245 245 245 246 246 246 246 246 246 245 245 245 245 245 245 245 246 246 246 246 246 246 245 245 245 245 245 245 246 246 246 246 246 246 245 245 245 245 245 245 246 246 246 246 246 246 245 245 245 245 245 245 246 246 246 246 246 246 245 245 245 245 245 245 245 246 246 246 246 246 246 245 245 245 245 245 245 246 246 246 246 246 245 245 245 245 245 245 245 246 246 246 246 246 246 245 245 245 245 245 245 246 246 246 246 246 246 245 245 245 245 245 245 245 246 246 246 246 246 245 245 245 245 245 245 245 246 246 246 246 246 245 245 245 245 245 245 245 246 246 246 246 246 246 245 245 245 245 245 245 246 246 246 246 246 246 245 245 245 245 245 245 246 246 246 246 246 246 245 245 245 245 245 245 246 246 246 246 246 246 245 245 245 245 245 245 246 246 246 246 246 246 245 245 245 245 245 245 245 246 246 246 246 246 245 245 245 245 245 245 245 246 246 246 246 246 245 245 245 245 245 245 245 246 246 246 246 246 246
237 237 237 237 237 238 250 253 253 253 253 252 241 237 237 237 237 237 248 253 253 253 253 253 243 237 237 237 237 237 246 253 253 253 253 253 246 237 237 237 237 237 243 253 253 253 253 253 249 238 237 237 237 237 241 252 253 253 253 253 251 239 237 237 237 237 239 251 253 253 253 253 252 241 237 237 237 237 238 249 253 253 253 253 253 243 237 237 237 237 237 246 253 253 253 253 253 246 237 237 237 237 237 243 253 253 253 253 253 248 237 237 237 237 237 241 252 253 253 253 253 250 238 237 237 237 237 239 251 253 253 253 253 252 240 237 237 237 237 238 249 253 253 253 253 253 242 237 237 237 237 237 247 253 253 253 253 253 245 237 237 237 237 237 244 253 253 253 253 253 248 237 237 237 237 237 242 253 253 253 253 253 250 238 237 237 237 237 240 252 253 253 253 253 252 240 237 237 237 237 238 250 253 253 253 253 253 242 237 237 237 237 237 248 253 253 253 253 253 244 237 237 237 237 237 245 253 253 253 253 253 247 237 237 237 237 237 242 253 253 253 253 253 249 238 237 237 237 237 240 252 253 253 253 253 253
237 237 237 237 237 238 250 253 253 253 253 252 241 237 237 237 237 237 248 253 253 253 253 253 243 237 237 237 237 237 246 253 253 253 253 253 246 237 237 237 237 237 243 253 253 253 253 253 249 238 237 237 237 237 241 252 253 253 253 253 251 239 237 237 237 237 239 251 253 253 253 253 252 241 237 237 237 237 238 249 253 253 253 253 253 243 237 237 237 237 237 246 253 253 253 253 253 246 237 237 237 237 237 243 253 253 253 253 253 248 237 237 237 237 237 241 252 253 253 253 253 250 238 237 237 237 237 239 251 253 253 253 253 252 240 237 237 237 237 238 249 253 253 253 253 253 242 237 237 237 237 237 247 253 253 253 253 253 245 237 237 237 237 237 244 253 253 253 253 253 248 237 237 237 237 237 242 253 253 253 253 253 250 238 237 237 237 237 240 252 253 253 253 253 252 240 237 237 237 237 238 250 253 253 253 253 253 242 237 237 237 237 237 248 253 253 253 253 253 244 237 237 237 237 237 245 253 253 253 253 253 247 237 237 237 237 237 242 253 253 253 253 253 249 238 237 237 237 237 240 252 253 253 253 253 253
237 237 237 237 237 238 250 253 253 253 253 252 241 237 237 237 237 237 248 253 253 253 253 253 243 237 237 237 237 237 246 253 253 253 253 253 246 237 237 237 237 237 243 253 253 253 253 253 249 238 237 237 237 237 241 252 253 253 253 253 251 239 237 237 237 237 239 251 253 253 253 253 252 241 237 237 237 237 238 249 253 253 253 253 253 243 237 237 237 237 237 246 253 253 253 253 253 246 237 237 237 237 237 243 253 253 253 253 253 248 237 237 237 237 237 241 252 253 253 253 253 250 238 237 237 237 237 239 251 253 253 253 253 252 240 237 237 237 237 238 249 253 253 253 253 253 242 237 237 237 237 237 247 253 253 253 253 253 245 237 237 237 237 237 244 253 253 253 253 253 248 237 237 237 237 237 242 253 253 253 253 253 250 238 237 237 237 237 240 252 253 253 253 253 252 240 237 237 237 237 238 250 253 253 253 253 253 242 237 237 237 237 237 248 253 253 253 253 253 244 237 237 237 237 237 245 253 253 253 253 253 247 237 237 237 237 237 242 253 253 253 253 253 249 238 237 237 237 237 240 252 253 253 253 253 253
237 237 237 237 237 238 250 253 253 253 253 252 241 237 237 237 237 237 248 253 253 253 253 253 243 237 237 237 237 237 246 253 253 253 253 253 246 237 237 237 237 237 243 253 253 253 253 253 249 238 237 237 237 237 241 252 253 253 253 253 251 239 237 237 237 237 239 251 253 253 253 253 252 241 237 237 237 237 238 249 253 253 253 253 253 243 237 237 237 237 237 246 253 253 253 253 253 246 237 237 237 237 237 243 253 253 253 253 253 248 237 237 237 237 237 241 252 253 253 253 253 250 238 237 237 237 237 239 251 253 253 253 253 252 240 237 237 237 237 238 249 253 253 253 253 253 242 237 237 237 237 237 247 253 253 253 253 253 245 237 237 237 237 237 244 253 253 253 253 253 248 237 237 237 237 237 242 253 253 253 253 253 250 238 237 237 237 237 240 252 253 253 253 253 252 240 237 237 237 237 238 250 253 253 253 253 253 242 237 237 237 237 237 248 253 253 253 253 253 244 237 237 237 237 237 245 253 253 253 253 253 247 237 237 237 237 237 242 253 253 253 253 253 249 238 237 237 237 237 240 252 253 253 253 253 253
237 237 237 237 237 238 250 253 253 253 253 252 241 237 237 237 237 237 248 253 253 253 253 253 243 237 237 237 237 237 246 253 253 253 253 253 246 237 237 237 237 237 243 253 253 253 253 253 249 238 237 237 237 237 241 252 253 253 253 253 251 239 237 237 237 237 239 251 253 253 253 253 252 241 237 237 237 237 238 249 253 253 253 253 253 243 237 237 237 237 237 246 253 253 253 253 253 246 237 237 237 237 237 243 253 253 253 253 253 248 237 237 237 237 237 241 252 253 253 253 253 250 238 237 237 237 237 239 251 253 253 253 253 252 240 237 237 237 237 238 249 253 253 253 253 253 242 237 237 237 237 237 247 253 253 253 253 253 245 237 237 237 237 237 244 253 253 253 253 253 248 237 237 237 237 237 242 253 253 253 253 253 250 238 237 237 237 237 240 252 253 253 253 253 252 240 237 237 237 237 238 250 253 253 253 253 253 242 237 237 237 237 237 248 253 253 253 253 253 244 237 237 237 237 237 245 253 253 253 253 253 247 237 237 237 237 237 242 253 253 253 253 253 249 238 237 237 237 237 240 252 253 253 253 253 253
