P2
256 256
255
255 255 255 255 255 255 255 255 255 255 255 255 255 255 255 255 255 255 255 255 255 255 255 255 255 255 255 255 255 255 255 255 255 255 255 255 255 255 255 255 255 255 255 255 255 255 255 255 255 255 255 255 255 255 255 255 255 255 255 255 255 255 255 255 255 255 255 255 255 255 255 255 255 255 255 255 255 255 255 255 255 255 255 255 255 255 255 255 255 255 255 255 255 255 255 255 255 255 255 255 255 255 255 255 255 255 255 255 255 255 255 255 255 255 255 255 255 255 255 255 255 255 255 255 255 255 255 255 255 255 255 255 255 255 255 255 255 255 255 255 255 255 255 255 255 255 255 255 255 255 255 255 255 255 255 255 255 255 255 255 255 255 255 255 255 255 255 255 255 255 255 255 255 255 255 255 255 255 255 255 255 255 255 255 255 255 255 255 255 255 255 255 255 255 255 255 255 255 255 255 255 255 255 255 255 255 255 255 255 255 255 255 255 255 255 255 255 255 255 255 255 255 255 255 255 255 255 255 255 255 255 255 255 255 255 255 255 255 255 255 255 255 255 255 255 255 255 255 255 255 255 255 255 255 255 255
255 255 255 255 255 255 255 255 255 255 255 255 255 255 255 255 255 255 255 255 255 255 255 255 255 255 255 255 255 255 255 255 255 255 255 255 255 255 255 255 255 255 255 255 255 255 255 255 255 255 255 255 255 255 255 255 255 255 255 255 255 255 255 255 255 255 255 255 255 255 255 255 255 255 255 255 255 255 255 255 255 255 255 255 255 255 255 255 255 255 255 255 255 255 255 255 255 255 255 255 255 255 255 255 255 255 255 255 255 255 255 255 255 255 255 255 255 255 255 255 255 255 255 255 255 255 255 255 255 255 255 255 255 255 255 255 255 255 255 255 255 255 255 255 255 255 255 255 255 255 255 255 255 255 255 255 255 255 255 255 255 255 255 255 255 255 255 255 255 255 255 255 255 255 255 255 255 255 255 255 255 255 255 255 255 255 255 255 255 255 255 255 255 255 255 255 255 255 255 255 255 255 255 255 255 255 255 255 255 255 255 255 255 255 255 255 255 255 255 255 255 255 255 255 255 255 255 255 255 255 255 255 255 255 255 255 255 255 255 255 255 255 255 255 255 255 255 255 255 255 255 255 255 255 255 255
255 255 255 255 255 255 255 255 255 255 255 255 255 255 255 255 255 255 255 255 255 255 255 255 255 255 255 255 255 255 255 255 255 255 255 255 255 255 255 255 255 255 255 255 255 255 255 255 255 255 255 255 255 255 255 255 255 255 255 255 255 255 255 255 255 255 255 255 255 255 255 255 255 255 255 255 255 255 255 255 255 255 255 255 255 255 255 255 255 255 255 255 255 255 255 255 255 255 255 255 255 255 255 255 255 255 255 255 255 255 255 255 255 255 255 255 255 255 255 255 255 255 255 255 255 255 255 255 255 255 255 255 255 255 255 255 255 255 255 255 255 255 255 255 255 255 255 255 255 255 255 255 255 255 255 255 255 255 255 255 255 255 255 255 255 255 255 255 255 255 255 255 255 255 255 255 255 255 255 255 255 255 255 255 255 255 255 255 255 255 255 255 255 255 255 255 255 255 255 255 255 255 255 255 255 255 255 255 255 255 255 255 255 255 255 255 255 255 255 255 255 255 255 255 255 255 255 255 255 255 255 255 255 255 255 255 255 255 255 255 255 255 255 255 255 255 255 255 255 255 255 255 255 255 255 255
255 255 255 255 255 255 255 255 255 255 255 255 255 255 255 255 255 255 255 255 255 255 255 255 255 255 255 255 255 255 255 255 255 255 255 255 255 255 255 255 255 255 255 255 255 255 255 255 255 255 255 255 255 255 255 255 255 255 255 255 255 255 255 255 255 255 255 255 255 255 255 255 255 255 255 255 255 255 255 255 255 255 255 255 255 255 255 255 255 255 255 255 255 255 255 255 255 255 255 255 255 255 255 255 255 255 255 255 255 255 255 255 255 255 255 255 255 255 255 255 255 255 255 255 255 255 255 255 255 255 255 255 255 255 255 255 255 255 255 255 255 255 255 255 255 255 255 255 255 255 255 255 255 255 255 255 255 255 255 255 255 255 255 255 255 255 255 255 255 255 255 255 255 255 255 255 255 255 255 255 255 255 255 255 255 255 255 255 255 255 255 255 255 255 255 255 255 255 255 255 255 255 255 255 255 255 255 255 255 255 255 255 255 255 255 255 255 255 255 255 255 255 255 255 255 255 255 255 255 255 255 255 255 255 255 255 255 255 255 255 255 255 255 255 255 255 255 255 255 255 255 255 255 255 255 255
255 255 255 255 255 255 255 255 255 255 255 255 255 255 255 255 255 255 255 255 255 255 255 255 255 255 255 255 255 255 255 255 255 255 255 255 255 255 255 255 255 255 255 255 255 255 255 255 255 255 255 255 255 255 255 255 255 255 255 255 255 255 255 255 255 255 255 255 255 255 255 255 255 255 255 255 255 255 255 255 255 255 255 255 255 255 255 255 255 255 255 255 255 255 255 255 255 255 255 255 255 255 255 255 255 255 255 255 255 255 255 255 255 255 255 255 255 255 255 255 255 255 255 255 255 255 255 255 255 255 255 255 255 255 255 255 255 255 255 255 255 255 255 255 255 255 255 255 255 255 255 255 255 255 255 255 255 255 255 255 255 255 255 255 255 255 255 255 255 255 255 255 255 255 255 255 255 255 255 255 255 255 255 255 255 255 255 255 255 255 255 255 255 255 255 255 255 255 255 255 255 255 255 255 255 255 255 255 255 255 255 255 255 255 255 255 255 255 255 255 255 255 255 255 255 255 255 255 255 255 255 255 255 255 255 255 255 255 255 255 255 255 255 255 255 255 255 255 255 255 255 255 255 255 255 255
255 255 255 255 255 255 255 255 255 255 255 255 255 255 255 255 255 255 255 255 255 255 255 255 255 255 255 255 255 255 255 255 255 255 255 255 255 255 255 255 255 255 255 255 255 255 255 255 255 255 255 255 255 255 255 255 255 255 255 255 255 255 255 255 255 255 255 255 255 255 255 255 255 255 255 255 255 255 255 255 255 255 255 255 255 255 255 255 255 255 255 255 255 255 255 255 255 255 255 255 255 255 255 255 255 255 255 255 255 255 255 255 255 255 255 255 255 255 255 255 255 255 255 255 255 255 255 255 255 255 255 255 255 255 255 255 255 255 255 255 255 255 255 255 255 255 255 255 255 255 255 255 255 255 255 255 255 255 255 255 255 255 255 255 255 255 255 255 255 255 255 255 255 255 255 255 255 255 255 255 255 255 255 255 255 255 255 255 255 255 255 255 255 255 255 255 255 255 255 255 255 255 255 255 255 255 255 255 255 255 255 255 255 255 255 255 255 255 255 255 255 255 255 255 255 255 255 255 255 255 255 255 255 255 255 255 255 255 255 255 255 255 255 255 255 255 255 255 255 255 255 255 255 255 255 255
255 255 255 255 255 255 255 255 255 255 255 255 255 255 255 255 255 255 255 255 255 255 255 255 255 255 255 255 255 255 255 255 255 255 255 255 255 255 255 255 255 255 255 255 255 255 255 255 255 255 255 255 255 255 255 255 255 255 255 255 255 255 255 255 255 255 255 255 255 255 255 255 255 255 255 255 255 255 255 255 255 255 255 255 255 255 255 255 255 255 255 255 255 255 255 255 255 255 255 255 255 255 255 255 255 255 255 255 255 255 255 255 255 255 255 255 255 255 255 255 255 255 255 255 255 255 255 255 255 255 255 255 255 255 255 255 255 255 255 255 255 255 255 255 255 255 255 255 255 255 255 255 255 255 255 255 255 255 255 255 255 255 255 255 255 255 255 255 255 255 255 255 255 255 255 255 255 255 255 255 255 255 255 255 255 255 255 255 255 255 255 255 255 255 255 255 255 255 255 255 255 255 255 255 255 255 255 255 255 255 255 255 255 255 255 255 255 255 255 255 255 255 255 255 255 255 255 255 255 255 255 255 255 255 255 255 255 255 255 255 255 255 255 255 255 255 255 255 255 255 255 255 255 255 255 255
255 255 255 255 255 255 255 255 255 255 255 255 255 255 255 255 255 255 255 255 255 255 255 255 255 255 255 255 255 255 255 255 255 255 255 255 255 255 255 255 255 255 255 255 255 255 255 255 255 255 255 255 255 255 255 255 255 255 255 255 255 255 255 255 255 255 255 255 255 255 255 255 255 255 255 255 255 255 255 255 255 255 255 255 255 255 255 255 255 255 255 255 255 255 255 255 255 255 255 255 255 255 255 255 255 255 255 255 255 255 255 255 255 255 255 255 255 255 255 255 255 255 255 255 255 255 255 255 255 255 255 255 255 255 255 255 255 255 255 255 255 255 255 255 255 255 255 255 255 255 255 255 255 255 255 255 255 255 255 255 255 255 255 255 255 255 255 255 255 255 255 255 255 255 255 255 255 255 255 255 255 255 255 255 255 255 255 255 255 255 255 255 255 255 255 255 255 255 255 255 255 255 255 255 255 255 255 255 255 255 255 255 255 255 255 255 255 255 255 255 255 255 255 255 255 255 255 255 255 255 255 255 255 255 255 255 255 255 255 255 255 255 255 255 255 255 255 255 255 255 255 255 255 255 255 255
255 255 255 255 255 255 255 255 255 255 255 255 255 255 255 255 255 255 255 255 255 255 255 255 255 255 255 255 255 255 255 255 255 255 255 255 255 255 255 255 255 255 255 255 255 255 255 255 255 255 255 255 255 255 255 255 255 255 255 255 255 255 255 255 255 255 255 255 255 255 255 255 255 255 255 255 255 255 255 255 255 255 255 255 255 255 255 255 255 255 255 255 255 255 255 255 255 255 255 255 255 255 255 255 255 255 255 255 255 255 255 255 255 255 255 255 255 255 255 255 255 255 255 255 255 255 255 255 255 255 255 255 255 255 255 255 255 255 255 255 255 255 255 255 255 255 255 255 255 255 255 255 255 255 255 255 255 255 255 255 255 255 255 255 255 255 255 255 255 255 255 255 255 255 255 255 255 255 255 255 255 255 255 255 255 255 255 255 255 255 255 255 255 255 255 255 255 255 255 255 255 255 255 255 255 255 255 255 255 255 255 255 255 255 255 255 255 255 255 255 255 255 255 255 255 255 255 255 255 255 255 255 255 255 255 255 255 255 255 255 255 255 255 255 255 255 255 255 255 255 255 255 255 255 255 255
255 255 255 255 255 255 255 255 255 255 255 255 255 255 255 255 255 255 255 255 255 255 255 255 255 255 255 255 255 255 255 255 255 255 255 255 255 255 255 255 255 255 255 255 255 255 255 255 255 255 255 255 255 255 255 255 255 255 255 255 255 255 255 255 255 255 255 255 255 255 255 255 255 255 255 255 255 255 255 255 255 255 255 255 255 255 255 255 255 255 255 255 255 255 255 255 255 255 255 255 255 255 255 255 255 255 255 255 255 255 255 255 255 255 255 255 255 255 255 255 255 255 255 255 255 255 255 255 255 255 255 255 255 255 255 255 255 255 255 255 255 255 255 255 255 255 255 255 255 255 255 255 255 255 255 255 255 255 255 255 255 255 255 255 255 255 255 255 255 255 255 255 255 255 255 255 255 255 255 255 255 255 255 255 255 255 255 255 255 255 255 255 255 255 255 255 255 255 255 255 255 255 255 255 255 255 255 255 255 255 255 255 255 255 255 255 255 255 255 255 255 255 255 255 255 255 255 255 255 255 255 255 255 255 255 255 255 255 255 255 255 255 255 255 255 255 255 255 255 255 255 255 255 255 255 255
255 255 255 255 255 255 255 255 255 255 255 255 255 255 255 255 255 255 255 255 255 255 255 255 255 255 255 255 255 255 255 255 255 255 255 255 255 255 255 255 255 255 255 255 255 255 255 255 255 255 255 255 255 255 255 255 255 255 255 255 255 255 255 255 255 255 255 255 255 255 255 255 255 255 255 255 255 255 255 255 255 255 255 255 255 255 255 255 255 255 255 255 255 255 255 255 255 255 255 255 255 255 255 255 255 255 255 255 255 255 255 255 255 255 255 255 255 255 255 255 255 255 255 255 255 255 255 255 255 255 255 255 255 255 255 255 255 255 255 255 255 255 255 255 255 255 255 255 255 255 255 255 255 255 255 255 255 255 255 255 255 255 255 255 255 255 255 255 255 255 255 255 255 255 255 255 255 255 255 255 255 255 255 255 255 255 255 255 255 255 255 255 255 255 255 255 255 255 255 255 255 255 255 255 255 255 255 255 255 255 255 255 255 255 255 255 255 255 255 255 255 255 255 255 255 255 255 255 255 255 255 255 255 255 255 255 255 255 255 255 255 255 255 255 255 255 255 255 255 255 255 255 255 255 255 255
255 255 255 255 255 255 255 255 255 255 255 255 255 255 255 255 255 255 255 255 255 255 255 255 255 255 255 255 255 255 255 255 255 255 255 255 255 255 255 255 255 255 255 255 255 255 255 255 255 255 255 255 255 255 255 255 255 255 255 255 255 255 255 255 255 255 255 255 255 255 255 255 255 255 255 255 255 255 255 255 255 255 255 255 255 255 255 255 255 255 255 255 255 255 255 255 255 255 255 255 255 255 255 255 255 255 255 255 255 255 255 255 255 255 255 255 255 255 255 255 255 255 255 255 255 255 255 255 255 255 255 255 255 255 255 255 255 255 255 255 255 255 255 255 255 255 255 255 255 255 255 255 255 255 255 255 255 255 255 255 255 255 255 255 255 255 255 255 255 255 255 255 255 255 255 255 255 255 255 255 255 255 255 255 255 255 255 255 255 255 255 255 255 255 255 255 255 255 255 255 255 255 255 255 255 255 255 255 255 255 255 255 255 255 255 255 255 255 255 255 255 255 255 255 255 255 255 255 255 255 255 255 255 255 255 255 255 255 255 255 255 255 255 255 255 255 255 255 255 255 255 255 255 255 255 255
255 255 255 255 255 255 255 255 255 255 255 255 255 255 255 255 255 255 255 255 255 255 255 255 255 255 255 255 255 255 255 255 255 255 255 255 255 255 255 255 255 255 255 255 255 255 255 255 255 255 255 255 255 255 255 255 255 255 255 255 255 255 255 255 255 255 255 255 255 255 255 255 255 255 255 255 255 255 255 255 255 255 255 255 255 255 255 255 255 255 255 255 255 255 255 255 255 255 255 255 255 255 255 255 255 255 255 255 255 255 255 255 255 255 255 255 255 255 255 255 255 255 255 255 255 255 255 255 255 255 255 255 255 255 255 255 255 255 255 255 255 255 255 255 255 255 255 255 255 255 255 255 255 255 255 255 255 255 255 255 255 255 255 255 255 255 255 255 255 255 255 255 255 255 255 255 255 255 255 255 255 255 255 255 255 255 255 255 255 255 255 255 255 255 255 255 255 255 255 255 255 255 255 255 255 255 255 255 255 255 255 255 255 255 255 255 255 255 255 255 255 255 255 255 255 255 255 255 255 255 255 255 255 255 255 255 255 255 255 255 255 255 255 255 255 255 255 255 255 255 255 255 255 255 255 255
255 255 255 255 255 255 255 255 255 255 255 255 255 255 255 255 255 255 230 192 217 253 255 255 255 255 255 255 255 255 255 255 255 255 255 255 255 255 255 255 255 255 255 255 255 255 255 255 255 255 255 255 255 255 255 255 255 255 255 255 255 255 255 255 255 255 255 255 255 255 255 255 255 255 255 255 255 255 255 255 255 255 255 255 255 255 255 255 255 255 255 255 255 255 255 255 255 255 255 255 255 255 255 255 255 255 255 255 255 255 255 255 255 255 255 255 255 255 255 255 255 255 255 255 255 255 255 255 255 255 255 255 255 255 255 255 255 255 255 255 255 255 255 255 255 255 255 255 255 255 255 255 255 255 255 255 255 255 255 255 255 255 255 255 255 255 255 255 255 255 255 255 255 255 255 255 255 255 255 255 255 255 255 255 255 255 255 255 255 255 255 255 255 255 255 255 255 255 255 255 255 255 255 255 255 255 255 255 255 255 255 255 255 255 255 255 255 255 255 255 255 255 255 255 255 255 255 255 255 255 255 255 255 255 255 255 255 255 255 255 255 255 255 255 255 255 255 255 255 255 255 255 255 255 255 255
255 255 255 255 255 255 255 255 255 255 255 255 255 255 255 255 255 239 118 167 117 212 255 255 255 255 255 255 255 255 255 255 255 255 255 255 255 255 255 255 255 255 255 255 255 255 255 255 255 255 255 255 255 255 255 255 255 255 255 255 255 255 255 255 255 255 255 255 255 255 255 255 255 255 255 255 255 255 255 255 255 255 255 255 255 255 255 255 255 255 255 255 255 255 255 255 255 255 255 255 255 255 255 255 255 255 255 255 255 255 255 255 255 255 255 255 255 255 255 255 255 255 255 255 255 255 255 255 255 255 255 255 255 255 255 255 255 255 255 255 255 255 255 255 255 255 255 255 255 255 255 255 255 255 255 255 255 255 255 255 255 255 255 255 255 255 255 255 255 255 255 255 255 255 255 255 255 255 255 255 255 255 255 255 255 255 255 255 255 255 255 255 255 255 255 255 255 255 255 255 255 255 255 255 255 255 255 255 255 255 255 255 255 255 255 255 255 255 255 255 255 255 255 255 255 255 255 255 255 255 255 255 255 255 255 255 255 255 255 255 255 255 255 255 255 255 255 255 255 255 255 255 255 255 255 255
255 255 255 255 255 255 255 255 255 255 255 255 255 255 255 255 255 199 119 249 167 151 255 251 229 224 224 223 223 223 223 223 223 223 223 223 223 223 223 223 223 223 223 223 223 223 223 223 223 223 223 223 223 223 223 223 223 223 223 223 223 223 223 223 223 223 223 223 223 223 223 223 223 223 223 223 223 223 223 223 223 223 223 223 223 223 223 223 223 223 223 223 223 223 223 223 223 223 223 223 223 223 223 223 223 223 223 223 223 223 223 223 223 223 223 223 223 223 223 223 223 223 223 223 223 223 223 223 223 223 223 223 223 223 223 223 223 223 223 223 223 223 223 223 223 223 223 223 223 223 223 223 223 223 223 223 223 223 223 223 223 223 223 223 223 223 223 223 223 223 223 223 223 223 223 223 223 223 223 223 223 223 223 223 223 223 223 223 223 223 223 223 223 223 223 223 223 223 223 223 223 223 223 223 223 223 223 223 223 223 223 223 223 223 223 223 223 223 223 223 223 223 223 223 223 223 223 223 223 223 223 223 223 223 223 223 223 223 223 223 223 223 224 223 227 251 255 255 255 255 255 255 255 255 255 255
255 255 255 255 255 255 255 255 255 255 255 255 255 255 255 255 255 183 132 254 183 135 255 243 163 144 89 34 35 35 36 36 36 36 37 37 38 38 38 38 39 39 40 40 40 40 40 41 41 41 41 42 42 42 43 43 43 43 44 45 45 45 45 46 46 46 47 47 47 47 48 48 48 49 49 49 49 50 50 50 51 51 51 52 52 52 53 53 53 54 54 55 55 56 55 56 57 57 57 57 58 59 59 59 59 60 60 60 61 62 62 63 63 64 64 65 65 66 66 66 67 67 68 68 68 69 70 70 70 71 71 72 73 73 73 73 74 75 75 76 76 76 77 77 78 79 79 79 79 79 80 81 82 83 82 83 83 84 85 85 85 85 86 86 87 88 89 89 90 90 90 91 92 92 93 94 94 94 95 96 96 97 98 98 99 99 99 100 100 101 101 102 102 103 103 103 105 106 106 106 107 107 107 108 108 109 109 110 110 110 110 111 112 112 113 113 114 114 114 115 116 117 118 118 119 119 119 119 120 120 120 121 122 123 123 124 124 124 125 125 126 126 127 128 111 226 255 255 255 255 255 255 255 255 255 255
255 255 255 255 255 255 255 255 255 255 255 255 255 255 255 255 255 196 116 249 172 147 255 255 253 252 127 4 6 7 8 8 9 10 11 12 13 13 13 14 15 16 17 17 18 19 19 20 20 21 21 22 23 24 24 25 25 26 27 28 28 29 29 30 30 31 32 32 33 34 34 35 36 37 37 38 38 39 39 40 41 42 42 43 44 44 45 46 47 48 50 50 51 51 52 53 54 55 55 56 57 58 58 59 60 61 62 62 63 65 66 67 68 69 70 72 72 73 73 74 76 76 77 78 79 80 81 81 82 83 85 86 87 88 88 89 90 91 93 94 94 95 96 97 98 100 100 100 101 102 103 105 105 106 108 109 109 110 111 113 113 115 116 117 118 119 120 121 123 124 124 125 127 128 129 130 131 133 134 135 135 136 138 139 141 142 142 143 143 144 145 146 147 148 149 150 152 152 153 154 155 155 156 157 158 159 159 160 161 162 163 164 165 166 167 168 169 169 171 171 173 175 176 177 178 179 179 180 182 183 184 185 186 187 189 190 190 191 192 193 194 195 198 202 143 222 255 255 255 255 255 255 255 255 255 255
255 255 255 255 255 255 255 255 255 255 255 255 255 255 255 255 255 238 114 171 119 203 255 255 255 255 128 4 6 6 7 8 9 9 10 11 12 13 13 14 15 15 16 16 17 18 18 19 19 20 20 21 22 23 23 24 24 25 25 26 27 27 28 29 30 30 31 32 32 33 34 34 35 36 36 37 37 38 39 39 40 41 41 42 43 44 45 46 46 47 48 49 49 50 50 52 52 53 54 55 56 56 57 58 59 60 61 62 62 64 65 66 67 68 69 71 71 72 73 74 74 75 76 77 78 79 80 81 81 82 83 85 85 86 87 88 89 90 91 92 93 94 95 96 97 98 99 100 101 102 102 104 105 106 107 108 108 109 111 112 113 114 115 116 117 118 119 120 122 123 123 125 126 127 128 129 130 131 132 133 134 135 137 138 139 140 141 142 142 143 144 145 146 147 148 149 150 151 152 152 153 154 154 155 156 158 158 159 159 160 162 163 164 165 166 167 167 168 169 170 172 173 174 175 176 177 178 179 181 182 183 183 184 185 187 188 189 190 191 192 193 194 196 200 142 222 255 255 255 255 255 255 255 255 255 255
255 255 255 255 255 255 255 255 255 255 255 255 255 255 255 255 255 255 226 180 205 251 255 255 255 255 128 4 6 6 7 8 9 10 10 11 12 13 13 14 15 15 16 17 18 19 19 19 19 20 21 22 23 23 24 24 25 25 26 27 27 28 29 30 30 31 31 32 32 33 34 35 35 36 36 37 37 38 39 40 41 41 42 43 44 44 45 46 47 48 48 50 50 51 51 52 53 54 55 56 56 57 58 59 59 61 62 63 63 64 66 67 68 69 70 71 72 73 73 74 75 76 77 78 79 80 81 82 82 83 84 85 86 87 88 89 89 91 92 93 94 95 96 97 98 99 100 100 101 102 103 104 105 106 107 108 109 110 112 112 113 114 116 117 118 118 119 120 123 123 124 125 126 127 128 129 131 132 133 134 134 136 137 138 139 140 141 142 142 143 145 146 147 147 149 149 150 151 152 153 153 154 155 156 157 158 159 159 160 161 162 163 164 165 166 167 168 169 169 170 172 173 174 175 176 177 178 179 181 182 183 184 184 185 187 188 189 190 191 192 193 195 196 200 142 222 255 255 255 255 255 255 255 255 255 255
255 255 255 255 255 255 255 255 255 255 255 255 255 255 255 255 255 255 255 255 255 255 255 255 255 255 128 4 6 7 8 8 9 10 11 11 12 13 13 14 15 15 16 17 18 18 19 19 20 20 21 22 23 24 24 25 25 26 26 27 27 28 29 30 30 31 32 32 33 34 34 35 35 36 37 37 38 39 40 40 41 42 42 43 44 45 46 46 47 48 49 50 50 51 52 53 54 54 55 56 57 58 59 60 60 61 62 63 64 65 66 67 68 69 70 72 72 73 74 75 76 77 78 79 80 81 81 82 83 84 85 86 87 88 89 89 90 92 92 93 94 95 96 98 99 100 100 101 102 103 104 105 106 107 108 109 110 111 112 113 114 115 117 118 118 119 120 121 123 124 125 126 127 128 129 130 131 133 133 135 135 136 138 139 140 141 142 142 143 144 145 146 148 148 149 150 151 152 153 153 154 155 156 157 157 159 159 160 161 162 163 164 165 166 166 167 168 169 170 171 173 174 174 176 176 178 179 180 181 182 183 184 185 186 187 188 189 190 191 193 194 195 196 200 142 222 255 255 255 255 255 255 255 255 255 255
255 255 255 255 255 255 255 255 255 255 255 255 255 255 255 255 255 255 255 255 255 255 255 255 255 255 128 4 6 7 8 8 9 10 11 11 12 13 13 14 15 16 17 17 18 19 19 20 20 21 22 22 23 24 25 25 26 26 27 28 28 29 29 30 30 31 32 32 33 34 34 35 36 37 37 38 39 40 40 41 41 42 43 44 44 45 46 47 48 49 50 50 51 52 53 53 54 55 56 57 58 59 59 60 61 62 63 64 64 66 67 68 69 70 71 72 73 74 75 76 77 77 78 79 80 81 82 83 84 85 86 87 87 88 89 90 91 92 93 94 95 96 97 98 99 101 101 102 103 103 104 106 106 108 108 110 110 111 113 113 115 116 117 118 119 120 121 122 124 125 126 127 128 129 130 131 132 133 134 135 136 137 138 139 140 141 142 143 144 144 146 147 148 149 150 151 151 152 153 154 155 155 156 157 158 159 160 160 161 162 163 164 165 166 166 167 168 169 170 171 173 174 175 176 176 178 179 180 182 183 184 185 185 186 187 189 189 191 192 193 194 195 196 200 142 222 255 255 255 255 255 255 255 255 255 255
255 255 255 255 255 255 255 255 255 255 255 255 255 255 255 255 255 255 255 255 255 255 255 255 255 255 127 4 6 7 8 8 9 10 11 11 12 13 14 15 16 16 17 18 18 19 19 20 20 21 22 23 23 24 25 25 26 26 27 28 28 29 30 31 31 31 32 33 33 34 35 35 36 37 37 38 39 40 40 41 42 43 43 44 44 46 46 48 48 49 50 51 51 52 53 54 55 55 56 57 58 59 60 60 61 62 63 64 65 66 67 68 69 70 72 72 73 74 75 76 77 78 78 80 80 82 83 84 84 85 86 87 88 89 90 90 91 92 93 95 95 96 98 98 100 101 102 103 103 104 105 106 107 108 109 110 111 112 113 114 115 116 118 119 119 120 121 122 124 125 126 127 128 129 130 131 132 133 134 135 136 137 138 140 140 141 142 143 144 145 146 147 148 149 150 151 151 152 153 154 155 156 156 157 158 159 160 161 161 162 163 164 165 166 167 168 169 170 170 172 173 174 175 175 177 178 179 180 182 183 184 185 185 186 187 189 190 191 192 193 194 195 196 199 142 222 255 255 255 255 255 255 255 255 255 255
255 255 255 255 255 255 255 255 255 255 255 255 255 255 255 255 255 255 255 255 255 255 255 255 255 255 128 4 6 7 8 9 9 10 11 12 13 14 14 15 16 16 17 18 18 19 19 20 21 21 22 23 24 25 25 26 26 27 27 28 29 29 30 31 31 32 32 33 33 34 35 36 36 37 38 38 39 40 41 42 42 43 44 45 45 46 47 48 49 49 50 51 51 52 53 54 55 56 56 57 58 59 60 61 62 63 64 65 65 67 68 69 70 71 72 73 73 74 76 76 77 78 79 80 81 82 83 84 85 86 87 88 89 89 90 91 92 93 94 95 96 97 98 99 100 101 102 103 103 104 105 107 107 108 109 110 111 111 113 114 116 117 118 119 120 121 122 123 125 126 126 127 128 129 130 132 132 134 135 136 136 137 139 140 141 142 142 143 144 145 146 147 148 149 150 151 152 153 154 154 155 156 156 158 158 159 160 161 162 163 163 164 165 166 167 168 169 170 171 172 173 174 175 176 177 178 179 181 182 183 184 185 185 186 188 189 190 191 192 193 194 195 196 200 142 222 255 255 255 255 255 255 255 255 255 255
255 255 255 255 255 255 255 255 255 255 255 255 255 255 255 255 255 255 255 255 255 255 255 255 255 255 128 4 6 7 8 9 9 11 11 12 12 13 14 15 16 16 17 18 19 19 20 20 21 21 22 23 24 25 25 26 26 27 27 28 29 29 30 31 31 32 32 33 34 34 35 36 36 37 38 38 39 40 41 42 42 43 44 45 45 46 47 48 49 49 50 51 52 53 53 54 55 56 57 58 59 59 60 61 62 63 64 65 66 67 68 69 70 71 72 73 74 75 76 77 78 78 79 80 81 82 83 84 85 86 87 88 89 90 90 91 92 94 94 95 96 97 98 99 101 102 102 103 104 105 106 107 108 109 109 111 112 113 114 115 116 117 118 119 120 121 122 123 125 126 127 128 129 130 131 132 133 134 135 136 137 138 139 140 141 142 143 143 144 145 147 147 148 149 151 151 152 153 154 155 156 156 157 158 158 160 160 161 162 163 164 165 166 167 168 168 169 170 171 172 174 175 175 176 178 179 180 181 182 183 184 185 186 187 188 189 190 191 192 194 194 195 196 200 141 222 255 255 255 255 255 255 255 255 255 255
255 255 255 255 255 255 255 255 255 255 255 255 255 255 255 255 255 255 255 255 255 255 255 255 255 255 128 4 6 7 8 9 10 11 11 12 13 14 14 15 16 17 17 18 19 19 20 20 21 21 22 23 24 25 26 26 26 27 27 28 29 29 30 31 31 32 33 33 34 35 35 36 37 38 38 39 40 41 41 42 42 43 44 45 46 46 47 48 49 50 50 51 52 53 54 55 55 56 57 58 59 60 61 61 62 63 65 65 66 68 69 70 70 71 72 73 74 75 76 77 78 79 80 81 82 83 84 85 85 86 88 88 89 90 91 92 93 94 95 95 96 97 98 100 101 102 102 104 104 105 106 107 108 109 110 111 112 113 114 115 116 117 119 120 121 121 123 124 125 126 127 128 129 130 131 132 133 135 135 136 137 138 140 141 141 142 143 144 145 145 147 148 149 150 151 152 152 153 154 155 156 157 157 158 159 160 161 161 162 163 164 165 166 167 168 169 169 170 172 173 174 175 176 177 178 179 180 181 182 183 184 185 186 187 188 189 190 191 193 194 195 196 197 200 141 222 255 255 255 255 255 255 255 255 255 255
255 255 255 255 255 255 255 255 255 255 255 255 255 255 255 255 255 255 255 255 255 255 255 255 255 255 128 4 6 8 9 9 10 11 11 12 13 14 14 15 16 17 17 18 19 20 20 21 21 22 23 23 25 25 26 26 26 27 27 28 29 30 30 31 31 32 33 33 34 35 36 36 37 38 38 39 40 41 42 42 43 43 44 45 46 47 48 49 49 50 51 52 52 53 54 55 56 57 57 58 60 60 61 62 63 64 65 66 67 68 69 69 71 71 72 74 74 75 76 77 78 79 80 81 82 83 84 85 86 86 87 88 90 91 91 92 93 94 95 96 97 98 99 100 102 102 102 103 104 106 107 107 108 109 110 111 112 113 115 116 116 118 119 120 121 122 123 124 125 127 128 128 129 131 132 132 133 135 136 137 138 138 140 141 142 143 143 144 145 145 147 148 149 150 151 152 152 153 154 155 156 157 157 158 159 160 161 162 163 164 164 165 166 168 168 169 170 171 172 173 174 175 176 177 178 179 180 181 182 184 184 185 186 187 188 189 190 191 193 194 195 196 197 200 141 222 255 255 255 255 255 255 255 255 255 255
255 255 255 255 255 255 255 255 255 255 255 255 255 255 255 255 255 255 255 255 255 255 255 255 255 255 128 4 6 8 8 9 10 11 12 12 13 14 15 15 16 17 17 18 19 20 20 21 21 22 23 24 25 25 26 27 27 27 28 28 29 30 31 31 32 32 33 34 34 35 36 37 37 38 39 39 40 41 42 42 43 44 45 46 46 47 48 49 50 50 51 52 53 54 54 56 56 57 58 59 60 61 61 62 63 64 65 66 67 68 69 70 71 72 73 74 75 76 77 78 78 80 80 81 82 83 84 85 86 87 88 89 90 91 91 92 93 94 95 96 97 98 99 100 102 102 103 104 105 106 107 108 109 110 111 112 113 114 115 116 117 118 119 120 121 122 123 124 126 127 128 129 130 131 132 133 134 135 136 137 138 138 140 141 142 143 143 145 145 146 147 148 149 150 151 152 153 154 154 155 156 157 158 159 159 161 161 162 163 164 165 165 167 168 168 169 170 171 172 173 174 175 176 177 178 179 180 181 183 184 185 185 186 187 188 189 190 192 193 194 195 196 197 200 142 222 255 255 255 255 255 255 255 255 255 255
255 255 255 255 255 255 255 255 255 255 255 255 255 255 255 255 255 255 255 255 255 255 255 255 255 255 127 4 6 8 8 9 10 11 12 12 13 14 15 15 16 17 17 18 19 20 20 21 22 22 23 24 25 25 26 26 27 27 28 29 29 30 30 31 32 32 33 34 34 35 36 36 38 38 39 40 40 41 42 42 43 44 45 46 46 47 48 49 49 51 51 52 53 54 55 55 56 57 58 59 60 61 62 63 63 64 66 66 67 68 69 70 71 72 73 74 75 76 77 78 79 80 81 82 83 83 84 85 86 87 88 89 90 91 92 93 94 95 95 96 97 98 99 100 102 103 103 104 105 106 107 108 109 110 111 112 113 114 115 116 117 118 120 120 121 122 124 124 126 127 128 129 130 131 132 133 134 135 136 137 138 139 140 142 142 143 144 145 146 146 148 149 149 150 151 152 153 154 154 155 156 157 158 159 160 160 161 162 163 164 165 166 167 168 169 170 170 171 172 173 175 176 177 177 178 180 181 181 183 184 185 186 187 187 188 190 191 192 193 194 195 196 198 201 142 222 255 255 255 255 255 255 255 255 255 255
255 255 255 255 255 255 255 255 255 255 255 255 255 255 255 255 255 255 255 255 255 255 255 255 255 255 127 4 7 8 9 9 10 11 12 12 13 14 15 16 16 17 18 18 19 20 21 21 22 22 23 24 25 25 26 27 27 28 28 29 30 30 31 31 32 33 33 34 35 36 36 37 38 39 40 40 41 41 42 43 43 44 45 46 47 47 48 49 50 51 52 53 53 54 55 56 57 57 58 59 61 61 62 63 64 65 66 67 67 68 69 71 72 73 74 75 75 76 77 78 79 80 81 82 83 84 85 86 87 88 89 89 90 91 92 93 94 95 96 97 98 99 100 101 102 103 104 105 106 106 107 108 109 110 111 112 113 114 116 117 118 119 120 121 122 123 124 125 127 128 128 129 131 131 133 134 135 135 136 137 138 139 141 142 143 143 144 145 146 146 148 149 150 150 152 153 154 154 155 156 156 158 158 159 160 161 162 163 164 164 165 166 167 169 169 170 170 171 172 173 175 176 177 178 179 180 181 182 183 184 185 186 187 188 189 190 191 192 194 195 195 197 198 201 142 222 255 255 255 255 255 255 255 255 255 255
255 255 255 255 255 255 255 255 255 255 255 255 255 255 255 255 255 255 255 255 255 255 255 255 255 255 128 4 7 8 9 9 10 11 12 12 13 14 15 16 16 17 18 19 19 20 20 21 22 22 23 24 25 26 26 27 27 28 28 29 30 30 31 32 32 33 34 34 35 36 36 37 38 39 40 40 41 41 42 43 44 45 45 46 47 48 49 49 50 51 52 53 54 54 55 56 57 58 59 60 60 61 62 63 64 65 66 67 68 69 70 71 71 73 74 75 76 76 77 78 79 80 81 82 83 84 85 86 87 88 89 90 91 92 92 93 94 95 96 97 98 99 100 101 102 103 104 105 106 107 108 109 109 111 111 112 114 115 116 116 118 119 120 121 122 123 124 125 127 128 129 130 131 132 133 134 135 136 137 138 139 139 141 142 143 144 145 145 146 147 148 149 150 151 152 153 154 155 156 157 157 158 158 159 160 161 162 163 164 165 166 166 167 169 169 170 171 171 173 174 175 176 177 178 179 180 181 182 184 185 185 187 187 188 189 190 191 193 194 195 196 197 198 201 142 222 255 255 255 255 255 255 255 255 255 255
255 255 255 255 255 255 255 255 255 255 255 255 255 255 255 255 255 255 255 255 255 255 255 255 255 255 128 4 7 8 9 10 11 11 12 13 14 14 15 16 16 17 18 19 20 20 21 21 22 23 23 24 25 26 26 27 27 28 28 29 30 30 31 32 32 33 34 34 35 36 36 37 38 39 40 41 41 42 43 43 44 45 46 47 47 48 49 50 51 51 52 53 54 55 56 57 57 58 59 60 61 62 63 63 64 65 66 67 68 69 70 71 72 73 74 75 76 77 78 79 80 81 82 83 84 85 85 86 87 88 90 90 91 92 93 93 94 95 96 97 98 99 100 101 103 104 104 105 106 107 108 109 110 111 112 113 114 115 116 117 118 120 121 122 122 123 125 126 127 128 129 130 131 132 133 134 135 136 137 138 139 139 141 142 143 144 145 146 147 147 149 149 150 151 152 153 154 155 156 156 157 158 159 160 160 162 163 164 164 165 166 167 168 169 169 170 171 172 173 174 175 176 177 178 179 180 182 182 184 185 186 187 187 188 189 190 192 193 194 195 196 197 198 201 142 222 255 255 255 255 255 255 255 255 255 255
255 255 255 255 255 255 255 255 255 255 255 255 255 255 255 255 255 255 255 255 255 255 255 255 255 255 128 4 7 8 9 10 11 11 12 13 14 14 15 16 17 17 18 19 20 20 21 21 22 22 23 24 25 26 26 27 27 28 28 29 30 31 32 32 33 33 34 34 35 36 37 37 38 40 40 40 41 42 43 43 44 45 46 47 47 48 49 50 50 51 52 53 54 55 55 56 58 58 59 60 61 62 63 64 64 66 67 68 68 69 70 71 72 73 74 75 76 77 78 79 80 81 82 83 84 85 86 87 88 88 89 90 92 93 93 94 95 96 97 98 99 100 100 102 103 104 104 106 106 107 108 109 110 111 112 113 115 116 117 117 118 120 121 122 123 124 125 126 127 128 129 130 131 132 133 134 135 136 137 138 139 140 141 142 143 144 145 146 147 148 149 150 151 152 152 153 154 155 156 157 157 158 159 160 161 162 163 164 164 165 166 167 168 169 169 170 171 172 173 174 175 177 177 178 180 181 182 183 184 185 186 187 188 189 190 191 192 193 194 195 196 197 198 202 142 222 255 255 255 255 255 255 255 255 255 255
255 255 255 255 255 255 255 255 255 255 255 255 255 255 255 255 255 255 255 255 255 255 255 255 255 255 128 4 7 8 9 10 11 12 13 13 14 15 15 16 17 17 18 19 20 20 21 22 22 23 24 25 25 26 27 27 28 28 29 30 31 31 32 32 33 33 34 35 36 36 37 38 39 40 40 41 42 42 43 44 45 45 46 47 48 49 49 50 51 52 53 53 55 55 56 57 58 59 59 60 61 62 63 64 65 66 67 68 69 70 71 72 72 73 75 76 77 78 78 79 80 81 82 83 84 85 86 87 88 89 90 91 92 93 94 94 95 96 97 98 99 100 101 102 103 104 105 106 107 108 109 110 111 112 113 114 115 116 117 118 119 120 122 123 123 124 125 126 127 129 130 131 132 132 133 134 135 137 138 138 139 140 142 143 144 145 146 147 147 148 149 150 151 152 153 154 154 155 156 157 158 158 160 160 161 162 163 164 164 165 166 167 168 169 170 171 172 173 173 174 176 177 178 178 180 181 182 183 184 185 186 187 188 189 190 191 192 193 194 196 196 198 199 202 142 222 255 255 255 255 255 255 255 255 255 255
255 255 255 255 255 255 255 255 255 255 255 255 255 255 255 255 255 255 255 255 255 255 255 255 255 255 128 5 7 9 9 10 11 12 13 13 14 15 15 16 17 17 18 19 20 21 21 22 22 23 24 25 26 26 27 28 28 28 29 30 31 31 32 32 33 34 35 35 36 36 37 38 39 40 41 41 42 42 44 44 45 46 47 48 48 49 50 50 51 52 53 54 55 55 56 57 58 59 60 61 62 62 63 64 65 66 67 68 69 70 71 72 73 74 75 76 77 78 78 79 81 82 83 84 84 85 86 87 88 89 90 91 92 93 94 94 95 96 97 98 99 100 101 102 104 104 105 106 107 108 109 110 111 112 113 114 115 116 117 118 119 121 122 123 123 124 125 126 128 129 130 131 132 132 134 135 136 137 138 138 139 140 142 143 144 145 146 147 147 148 149 150 151 152 153 154 155 156 156 157 158 159 159 160 161 162 163 164 165 165 166 167 168 169 170 171 172 173 174 175 176 177 178 179 180 181 182 183 184 185 186 187 188 189 190 191 192 193 195 196 197 198 199 202 142 222 255 255 255 255 255 255 255 255 255 255
255 255 255 255 255 255 255 255 255 255 255 255 255 255 255 255 255 255 255 255 255 255 255 255 255 255 128 5 7 8 9 10 11 12 13 13 14 15 16 16 17 18 19 19 20 21 21 22 23 23 25 25 26 27 27 28 28 29 29 30 31 32 32 33 33 34 35 35 36 37 38 38 39 40 41 41 42 43 44 44 45 46 47 48 48 49 50 51 52 53 53 54 55 56 57 57 58 59 60 61 62 63 63 64 65 66 68 68 69 70 71 72 73 74 75 76 77 78 79 80 81 82 83 84 85 86 87 88 89 89 90 91 92 93 94 95 96 97 97 99 99 101 102 103 104 105 106 107 108 108 109 110 111 112 113 114 116 116 117 119 119 121 122 123 124 125 126 126 129 130 130 131 132 133 134 135 136 137 138 139 140 141 142 143 144 145 146 147 148 148 149 151 151 152 153 154 155 156 157 158 158 159 160 161 161 163 163 164 165 165 166 167 169 170 170 171 172 173 174 175 176 177 178 179 180 181 182 184 185 185 187 188 188 189 190 191 192 194 195 196 197 198 199 202 142 222 255 255 255 255 255 255 255 255 255 255
255 255 255 255 255 255 255 255 255 255 255 255 255 255 255 255 255 255 255 255 255 255 255 255 255 255 128 5 7 8 9 10 11 12 13 14 14 15 16 16 18 18 18 20 20 21 21 22 23 24 24 25 26 27 27 28 28 29 29 30 31 31 32 33 34 34 35 35 36 37 38 38 39 40 41 41 43 43 44 44 45 46 47 48 48 49 50 51 52 53 53 54 55 56 57 57 58 59 60 61 62 63 64 65 66 67 68 69 70 71 71 72 73 74 75 76 77 78 79 80 81 82 83 84 85 86 87 88 89 89 90 91 93 93 94 95 96 97 98 99 100 100 102 103 104 105 106 107 108 109 110 111 112 112 113 114 115 116 118 119 119 121 122 123 124 125 126 127 129 130 130 131 133 133 134 135 136 137 138 139 140 141 142 144 144 145 146 147 148 149 150 151 151 152 153 154 155 156 157 158 159 159 160 161 162 163 163 164 165 166 167 168 169 170 171 171 172 173 174 175 177 178 179 180 181 182 183 184 185 186 187 188 188 189 191 192 193 194 195 196 197 198 199 202 142 222 255 255 255 255 255 255 255 255 255 255
255 255 255 255 255 255 255 255 255 255 255 255 255 255 255 255 255 255 255 255 255 255 255 255 255 255 128 5 8 9 10 11 12 12 13 14 14 15 16 17 18 18 19 20 20 21 22 22 23 24 24 25 26 27 28 28 28 29 29 30 31 31 32 33 34 34 35 35 36 37 38 39 40 40 41 42 43 43 44 45 45 46 47 48 49 50 50 51 52 53 54 54 56 56 57 58 59 60 60 61 63 64 64 65 66 67 68 69 70 71 72 73 73 74 75 77 77 78 79 80 82 83 83 84 85 86 87 88 89 90 91 92 93 94 95 96 97 97 98 99 100 101 102 103 105 106 106 107 108 109 110 111 112 113 114 115 116 117 118 119 120 121 123 124 125 125 127 127 129 130 131 132 133 134 135 136 137 138 138 139 140 141 143 144 145 146 146 147 148 149 150 151 152 152 154 155 155 156 158 158 159 160 160 161 162 163 164 165 166 166 167 168 169 170 171 172 173 173 174 175 177 178 179 180 181 182 183 184 185 186 188 188 189 190 191 192 193 194 195 196 197 198 200 203 143 222 255 255 255 255 255 255 255 255 255 255
255 255 255 255 255 255 255 255 255 255 255 255 255 255 255 255 255 255 255 255 255 255 255 255 255 255 128 5 8 9 10 11 12 12 13 14 15 15 16 17 18 18 19 20 21 21 22 22 23 24 25 26 27 27 28 29 29 29 30 30 31 32 32 33 34 35 36 36 37 38 38 39 40 41 42 42 43 44 44 45 46 47 48 48 49 50 50 51 52 53 54 55 56 57 57 58 59 60 60 61 63 64 65 65 66 68 68 69 70 71 72 73 74 75 76 77 78 78 79 81 82 83 83 84 86 87 87 89 89 90 91 92 93 94 95 96 97 97 98 100 100 101 102 103 105 106 107 108 108 109 111 111 112 113 114 115 116 117 118 119 120 122 123 124 125 126 127 128 129 130 132 132 133 134 135 136 137 138 139 140 141 141 143 144 145 146 147 148 148 149 150 151 152 153 154 155 156 157 158 158 159 160 161 162 162 163 164 165 166 167 167 168 169 171 171 172 173 174 175 175 177 178 179 180 181 182 183 184 186 187 187 188 189 190 191 192 193 194 195 196 198 199 200 203 143 222 255 255 255 255 255 255 255 255 255 255
255 255 255 255 255 255 255 255 255 255 255 255 255 255 255 255 255 255 255 255 255 255 255 255 255 255 128 5 8 9 10 11 12 12 13 14 15 16 16 17 18 19 19 20 21 21 22 23 24 24 25 26 27 28 28 29 29 29 30 31 32 32 33 33 34 35 36 36 37 38 39 39 40 41 42 42 43 44 45 46 46 47 48 48 49 50 51 52 53 53 55 55 56 57 58 59 60 60 61 62 63 64 65 66 67 68 69 69 70 71 72 73 74 75 76 77 78 79 80 81 82 83 84 85 86 87 88 89 90 90 91 92 94 94 95 96 97 98 99 100 101 102 102 104 105 106 107 108 109 110 111 112 113 114 114 116 117 118 119 120 121 122 123 124 125 126 127 128 130 131 132 133 133 134 135 136 137 138 139 140 141 142 143 144 145 146 147 148 149 149 151 152 152 153 154 155 156 157 158 159 159 160 161 162 163 164 165 165 166 167 168 168 169 171 171 172 173 174 175 176 178 178 179 180 181 182 183 184 186 187 188 188 189 190 191 192 193 195 196 196 198 199 200 204 144 222 255 255 255 255 255 255 255 255 255 255
255 255 255 255 255 255 255 255 255 255 255 255 255 255 255 255 255 255 255 255 255 255 255 255 255 255 128 5 8 9 10 11 12 13 14 14 15 16 16 17 18 19 20 20 21 22 22 23 23 24 25 26 27 27 28 29 29 30 30 31 32 32 33 34 34 35 36 36 37 38 39 39 40 41 42 43 43 44 45 46 46 47 48 49 50 50 51 52 53 54 55 55 56 57 58 59 60 61 61 62 63 64 65 66 67 68 69 69 71 71 72 74 74 75 76 78 78 79 80 81 82 83 84 85 86 87 88 89 90 91 92 93 94 95 95 96 97 98 99 100 101 102 103 104 106 106 107 108 109 110 111 112 113 114 115 116 117 118 119 120 121 122 123 124 125 126 127 128 130 131 132 133 134 135 136 136 137 138 140 141 141 143 144 145 146 147 147 148 149 150 151 152 153 154 155 155 156 157 158 159 160 161 162 162 163 164 165 166 166 167 168 169 170 171 172 172 173 174 175 176 178 179 180 181 182 183 184 185 186 187 188 189 189 190 191 192 193 195 196 197 198 200 200 203 143 222 255 255 255 255 255 255 255 255 255 255
255 255 255 255 255 255 255 255 255 255 255 255 255 255 255 255 255 255 255 255 255 255 255 255 255 255 128 6 9 9 10 11 12 13 14 14 15 16 16 18 18 19 20 20 21 22 22 23 24 25 26 26 27 28 29 29 29 30 30 31 32 33 33 34 35 35 36 37 38 39 39 40 41 42 43 43 44 44 45 46 47 47 48 49 50 51 51 52 53 54 55 56 57 58 58 59 60 61 62 63 64 65 65 66 67 68 69 70 71 72 73 74 75 76 77 78 79 80 80 82 82 83 85 85 87 87 88 89 90 91 92 93 94 95 96 97 97 99 100 101 101 103 103 105 106 107 108 109 110 110 111 112 113 114 115 116 117 118 119 120 121 122 124 125 126 127 128 129 130 132 132 133 134 135 136 137 138 139 140 141 142 143 144 145 146 147 148 149 149 150 152 152 153 154 155 156 157 158 159 159 160 161 162 163 163 164 165 166 167 167 168 169 170 171 172 173 174 174 176 176 178 179 180 181 182 183 184 185 186 187 188 189 190 191 192 193 194 195 196 197 198 200 201 204 144 222 255 255 255 255 255 255 255 255 255 255
255 255 255 255 255 255 255 255 255 255 255 255 255 255 255 255 255 255 255 255 255 255 255 255 255 255 128 6 8 9 10 11 12 13 14 14 15 16 16 18 19 19 20 20 21 22 23 23 24 25 26 26 27 28 29 29 29 30 30 31 32 33 34 34 35 36 36 37 38 39 39 40 41 42 43 43 44 45 45 46 47 48 48 49 50 51 51 53 53 54 55 56 57 58 59 60 60 61 62 63 64 64 65 66 67 69 69 70 71 72 73 74 75 76 77 78 79 80 81 82 83 84 85 86 87 88 89 89 91 91 92 93 94 95 96 96 98 99 100 101 102 103 104 105 106 107 108 109 110 111 112 112 113 115 116 116 117 118 119 120 121 123 124 125 126 127 128 129 131 132 132 133 134 135 136 137 138 139 140 141 142 143 144 145 146 147 148 149 150 150 151 153 153 154 155 156 157 158 159 160 160 161 162 163 163 165 166 166 167 168 168 169 170 171 172 173 174 175 176 177 178 179 180 181 182 183 184 185 187 187 188 189 190 191 192 193 194 195 197 197 198 200 201 204 144 222 255 255 255 255 255 255 255 255 255 255
255 255 255 255 255 255 255 255 255 255 255 255 255 255 255 255 255 255 255 255 255 255 255 255 255 255 128 6 9 10 11 11 13 13 14 15 16 16 17 18 19 20 20 21 21 22 23 24 24 25 26 27 27 28 29 30 30 30 31 32 32 33 34 34 35 36 37 37 38 39 40 41 41 42 43 44 45 45 46 46 47 48 49 50 50 51 52 53 54 55 55 56 57 58 59 60 61 62 62 63 64 65 66 67 68 69 70 71 72 73 74 74 75 76 77 79 79 80 81 82 83 84 85 86 87 88 89 90 91 92 93 93 95 96 96 97 98 99 100 101 102 103 104 105 106 108 108 109 110 111 112 113 114 115 116 117 118 119 120 121 122 123 124 125 126 127 128 129 131 132 133 134 135 136 136 137 138 139 141 141 142 143 144 146 146 147 148 149 150 151 152 153 153 154 156 156 157 158 159 160 161 161 162 163 164 165 166 167 167 168 169 170 170 172 172 173 174 175 176 177 179 180 181 181 182 183 184 186 187 188 189 189 190 191 192 193 194 196 197 198 199 200 201 205 144 222 255 255 255 255 255 255 255 255 255 255
255 255 255 255 255 255 255 255 255 255 255 255 255 255 255 255 255 255 255 255 255 255 255 255 255 255 128 6 9 10 11 12 13 13 14 15 15 16 17 18 19 20 20 21 22 23 23 24 24 25 26 27 28 29 29 30 30 30 31 32 33 33 34 35 35 36 37 38 38 39 40 40 41 42 43 44 44 45 46 47 48 48 49 50 51 52 52 53 54 55 56 56 57 59 59 60 61 62 63 64 64 65 66 67 68 69 70 71 72 73 74 75 75 77 78 79 79 80 81 83 84 85 85 87 87 88 89 90 92 92 93 94 95 96 97 97 98 99 100 101 103 103 104 105 107 108 109 110 111 111 112 113 114 115 116 117 118 119 120 121 122 123 124 126 126 127 128 130 131 132 133 134 135 136 137 138 139 140 141 142 142 143 145 146 147 148 149 149 150 151 152 153 154 155 156 157 157 159 160 161 161 162 163 163 164 165 166 167 168 168 169 170 171 172 173 174 175 175 176 177 179 180 181 182 183 184 184 186 187 188 189 190 191 191 192 193 194 196 197 198 199 200 201 205 144 222 255 255 255 255 255 255 255 255 255 255
255 255 255 255 255 255 255 255 255 255 255 255 255 255 255 255 255 255 255 255 255 255 255 255 255 255 128 6 9 10 11 12 13 14 14 15 16 17 17 18 19 20 20 21 22 23 23 24 25 25 26 27 28 29 29 30 30 31 31 32 33 34 34 35 35 36 37 38 39 40 40 41 42 43 44 44 45 46 46 47 48 49 49 51 51 52 53 54 54 55 56 57 58 59 59 61 61 62 63 64 65 66 66 67 68 69 70 71 72 73 74 75 76 77 78 79 80 81 82 83 84 85 86 87 88 89 90 91 92 92 93 94 95 96 97 98 98 100 101 102 103 104 105 106 107 109 109 110 111 112 113 114 114 116 117 117 118 120 120 121 122 124 125 126 126 128 129 130 131 133 133 134 135 136 137 138 139 140 141 142 143 143 145 146 147 148 149 149 150 151 153 153 154 155 156 157 158 159 160 161 161 162 163 164 164 165 166 167 168 169 169 170 171 173 173 174 175 176 177 177 179 180 181 182 183 184 185 186 187 188 189 190 191 192 193 194 195 196 197 198 199 200 201 205 145 222 255 255 255 255 255 255 255 255 255 255
255 255 255 255 255 255 255 255 255 255 255 255 255 255 255 255 255 255 255 255 255 255 255 255 255 255 128 7 9 10 11 12 13 14 15 15 16 17 17 18 19 20 20 21 22 23 23 24 25 25 26 27 28 29 30 30 31 31 31 32 33 34 34 35 35 36 38 38 39 40 40 41 42 43 44 45 45 46 46 48 48 49 50 51 52 52 53 54 54 55 56 57 58 59 60 61 62 62 63 64 65 66 67 68 68 70 71 72 73 74 75 76 77 78 79 80 80 81 82 83 84 85 86 87 88 89 90 91 92 92 94 95 96 97 97 98 99 100 101 102 103 104 105 106 108 109 110 111 111 112 113 114 115 116 117 118 119 120 120 121 123 124 125 126 127 128 129 130 131 133 133 134 135 136 137 138 139 140 141 142 143 144 145 146 147 147 149 150 150 151 153 154 154 155 156 157 158 159 160 161 162 162 163 164 165 166 166 168 168 169 170 170 172 173 173 174 175 176 177 178 180 180 181 182 183 184 185 187 187 189 189 190 191 192 193 194 195 196 197 199 199 200 202 205 145 222 255 255 255 255 255 255 255 255 255 255
255 255 255 255 255 255 255 255 255 255 255 255 255 255 255 255 255 255 255 255 255 255 255 255 255 255 128 7 10 11 11 12 13 14 15 15 16 17 17 18 19 20 21 22 22 23 23 24 25 26 27 27 28 29 30 30 31 31 31 32 33 34 35 35 36 37 38 38 39 40 41 42 43 44 44 45 45 46 47 48 49 50 50 51 52 53 53 54 55 56 57 58 59 60 60 61 62 63 64 64 66 66 67 68 69 70 71 72 73 74 75 76 77 78 79 80 81 81 83 84 85 86 86 88 88 89 91 91 92 93 94 95 96 97 98 98 100 101 101 103 104 105 105 107 108 109 110 111 112 112 113 114 115 116 117 119 119 120 121 122 123 124 125 126 127 128 129 130 132 133 134 135 136 136 137 138 140 141 141 142 143 144 145 146 147 148 149 150 151 152 153 154 155 156 157 158 158 159 161 162 162 163 164 164 165 166 167 168 168 169 170 171 172 173 174 174 175 176 177 178 180 181 182 182 184 184 186 187 188 189 190 190 191 192 193 194 196 197 198 199 200 201 202 206 144 222 255 255 255 255 255 255 255 255 255 255
255 255 255 255 255 255 255 255 255 255 255 255 255 255 255 255 255 255 255 255 255 255 255 255 255 255 128 6 9 11 11 12 13 14 15 16 16 17 17 19 20 20 21 22 22 23 23 24 25 26 27 27 28 29 29 30 31 31 31 32 33 34 35 36 36 37 38 39 40 41 41 42 43 43 44 45 46 46 47 48 49 50 50 51 52 53 53 54 55 56 57 58 58 59 60 61 63 63 64 65 66 67 68 68 69 70 71 72 73 74 75 76 77 78 79 80 81 82 83 84 85 86 87 88 89 90 91 92 92 93 94 95 96 97 98 99 100 101 102 103 104 105 106 107 108 109 110 111 112 113 114 115 115 116 117 118 119 120 121 122 123 124 126 127 127 129 130 131 133 134 134 135 136 137 138 139 140 141 142 143 143 144 146 147 147 148 149 150 151 152 153 154 155 156 157 158 159 160 161 162 162 163 164 165 165 167 167 168 169 170 170 171 172 174 174 175 176 177 178 179 180 181 182 183 184 185 186 187 188 189 190 191 191 192 194 195 196 197 198 199 200 201 202 206 144 222 255 255 255 255 255 255 255 255 255 255
255 255 255 255 255 255 255 255 255 255 255 255 255 255 255 255 255 255 255 255 255 255 255 255 255 255 128 7 9 11 12 12 13 14 15 16 17 17 18 19 20 20 21 22 23 24 24 24 25 26 27 27 29 29 30 31 31 32 32 33 34 34 35 36 36 37 38 39 40 41 41 42 43 44 45 45 46 47 47 48 49 50 51 52 52 53 54 55 55 57 57 58 59 60 61 62 63 64 64 65 66 67 68 68 69 70 72 72 73 74 75 77 77 79 79 80 81 82 83 84 86 86 87 88 89 90 91 92 93 94 95 96 97 97 98 99 100 101 102 103 104 105 106 107 109 110 110 112 112 113 114 115 116 117 118 119 120 121 122 123 123 125 126 127 128 129 130 131 133 134 135 135 136 137 138 139 140 141 142 143 144 145 146 147 148 149 150 151 152 152 154 155 155 156 157 158 159 160 161 162 162 163 164 165 166 167 167 168 169 170 171 171 172 173 174 175 176 177 178 179 180 181 182 183 184 185 186 187 188 189 190 191 192 193 194 195 196 197 198 200 200 201 203 206 144 222 255 255 255 255 255 255 255 255 255 255
255 255 255 255 255 255 255 255 255 255 255 255 255 219 188 191 233 254 229 192 218 253 255 255 255 255 128 7 10 11 12 12 14 15 15 16 17 17 18 19 20 20 21 22 23 24 24 25 25 26 27 27 28 29 30 31 31 32 32 33 34 35 35 36 37 37 38 39 40 41 41 42 43 44 45 45 46 47 48 48 49 50 51 52 52 53 54 55 55 56 57 58 59 60 61 62 63 63 64 65 66 67 68 69 69 71 72 73 74 75 76 77 77 79 80 81 82 82 84 85 86 87 88 88 89 91 91 92 93 94 95 96 97 98 99 99 100 101 102 104 105 106 106 107 109 110 111 112 112 113 114 115 116 117 118 119 120 121 122 123 124 125 126 128 128 129 130 131 133 134 135 136 137 137 138 139 140 141 142 143 144 145 146 147 148 149 150 151 152 152 154 155 156 157 158 159 159 161 161 162 163 164 164 165 166 167 168 169 169 170 171 172 173 174 175 176 176 178 179 179 180 182 183 184 185 186 186 187 189 190 191 191 192 193 194 195 196 198 199 200 201 202 203 207 145 222 255 255 255 255 255 255 255 255 255 255
255 255 255 255 255 255 255 255 255 255 255 255 255 141 137 179 229 233 118 168 118 208 255 255 255 255 128 7 10 11 12 13 14 15 15 16 17 18 18 19 20 20 21 22 23 24 24 25 25 26 27 28 29 30 30 31 31 32 32 33 34 35 35 36 37 38 39 39 40 41 42 43 43 44 45 46 47 47 48 49 49 50 51 52 53 54 54 55 56 57 58 59 60 61 61 62 63 64 65 66 67 67 68 69 70 71 73 73 74 75 76 77 78 79 80 81 82 83 84 85 86 87 88 89 90 91 92 93 93 94 95 97 97 98 99 100 101 102 103 104 105 106 107 108 109 110 111 112 113 114 115 116 116 117 118 120 120 121 122 123 124 125 127 128 129 130 131 131 133 134 135 136 137 138 139 139 141 142 143 144 145 146 147 147 149 149 150 151 152 153 154 155 156 157 158 159 160 161 162 162 163 164 165 166 166 167 168 169 170 170 171 172 173 174 175 176 177 178 179 180 181 182 183 184 185 186 187 188 189 190 191 192 192 193 195 196 197 198 199 200 201 202 203 207 145 222 255 255 255 255 255 255 255 255 255 255
255 255 255 255 255 255 255 255 255 255 255 255 254 136 137 190 240 186 130 252 174 141 254 254 239 235 119 8 11 11 12 13 14 15 16 16 17 18 18 19 20 21 21 22 23 24 24 25 26 27 28 28 29 30 31 31 31 32 32 34 34 35 35 36 37 38 39 39 40 41 42 42 44 44 45 46 47 47 48 49 50 51 51 52 53 53 54 56 56 57 58 59 60 61 62 62 63 64 65 66 67 68 68 69 70 72 73 73 74 75 77 77 78 79 80 81 82 83 85 85 86 87 88 89 90 91 92 93 94 95 95 97 98 98 99 100 101 102 103 104 105 106 107 108 110 111 112 113 113 114 115 116 117 118 119 120 121 122 123 123 125 126 127 128 129 130 131 132 134 135 136 137 137 138 139 140 141 142 143 144 144 146 147 148 149 150 151 152 152 153 154 156 156 157 158 159 160 161 162 163 163 164 165 166 167 167 168 169 170 171 172 172 173 175 175 176 177 178 179 180 181 182 183 184 185 186 187 188 189 190 191 192 193 194 195 196 197 198 199 200 201 202 203 207 144 222 255 255 255 255 255 255 255 255 255 255
255 255 255 255 255 255 255 255 255 255 255 255 254 195 175 137 138 164 143 255 192 123 252 247 161 133 66 7 11 12 13 14 14 15 16 17 17 18 19 20 20 21 22 23 23 24 25 25 26 27 28 28 29 30 31 31 32 32 33 34 35 35 36 37 37 38 39 40 41 42 42 43 44 45 46 46 48 48 49 49 50 51 52 53 53 54 55 56 56 58 58 59 61 62 62 63 64 64 65 67 67 68 69 70 70 72 73 74 75 76 77 78 79 80 81 82 82 84 85 86 86 88 89 90 91 92 92 93 94 95 96 97 98 99 99 100 101 102 103 105 106 107 108 109 110 111 112 113 114 114 115 116 117 118 119 120 121 122 123 124 125 126 128 128 129 130 131 132 134 135 136 137 138 139 139 140 141 142 143 144 145 146 147 148 149 150 151 152 153 154 155 156 156 158 159 160 160 162 162 163 164 165 165 166 167 168 169 169 170 171 172 172 174 175 176 176 177 178 179 180 182 183 184 185 185 186 187 188 190 191 191 192 193 194 195 196 197 198 199 200 201 202 204 207 145 222 255 255 255 255 255 255 255 255 255 255
255 255 255 255 255 255 255 255 255 255 255 255 254 254 254 223 105 175 133 253 178 137 254 255 250 247 124 8 11 12 13 14 14 15 16 17 17 18 19 20 21 21 22 23 24 24 25 25 26 27 28 28 30 31 31 31 32 33 33 34 35 35 37 37 38 39 39 40 41 42 42 43 44 45 46 46 47 48 49 50 50 51 52 53 54 55 55 56 57 58 59 60 61 62 62 63 64 65 66 66 67 68 69 70 71 72 73 74 75 76 77 78 79 80 81 82 83 84 85 86 87 88 89 90 91 92 93 94 94 95 96 97 99 99 100 101 102 103 104 105 106 107 108 109 110 111 112 113 114 115 116 117 118 119 119 120 121 122 123 124 125 126 128 129 130 131 132 133 134 135 136 137 138 138 140 141 141 143 144 144 145 146 147 148 149 150 151 152 153 154 155 156 157 158 159 160 161 162 162 163 164 165 166 166 167 168 169 170 170 171 172 173 174 175 176 177 178 178 180 180 182 183 184 185 185 187 188 189 190 191 192 192 193 194 195 196 197 199 200 201 202 203 203 207 145 222 255 255 255 255 255 255 255 255 255 255
255 255 255 255 255 255 255 255 255 255 255 255 251 187 192 144 136 225 117 185 122 197 255 255 255 254 128 8 11 12 13 14 15 15 16 17 18 19 19 20 21 22 22 23 24 24 25 26 26 27 28 29 30 31 31 32 32 33 34 34 35 36 37 38 38 39 40 41 41 42 43 44 44 45 46 47 48 49 49 50 51 51 53 54 54 55 56 57 58 58 59 60 61 62 63 64 65 65 66 67 68 69 70 71 71 72 74 74 75 76 77 78 79 81 82 82 83 84 86 86 87 88 89 90 92 92 93 94 95 96 97 98 99 100 101 101 102 103 104 105 106 107 108 109 111 112 113 114 114 115 116 117 118 119 120 121 121 122 124 125 126 127 128 129 130 131 132 133 135 136 137 137 139 139 141 141 142 143 144 145 146 146 148 149 150 150 151 152 153 154 156 157 158 158 160 160 161 162 163 163 164 165 166 167 168 169 169 171 171 172 172 173 174 175 176 177 178 179 180 181 182 183 184 185 186 187 188 189 190 191 192 193 194 194 195 196 198 199 200 201 202 203 204 208 145 222 255 255 255 255 255 255 255 255 255 255
255 255 255 255 255 255 255 255 255 255 255 255 253 204 167 179 238 254 221 180 204 251 255 255 255 255 128 8 11 12 13 14 15 16 16 17 18 19 19 20 21 22 22 23 24 25 25 26 26 28 28 29 30 31 31 32 33 33 34 35 35 36 37 38 38 39 40 40 42 43 43 44 45 46 46 47 48 49 49 50 51 52 53 54 54 55 56 57 58 59 60 61 61 62 63 64 65 66 66 67 68 69 70 71 72 73 74 75 76 77 78 79 80 81 82 83 84 85 86 87 88 89 90 91 91 92 93 94 95 96 97 98 99 100 100 102 102 103 105 106 107 108 109 110 111 112 113 114 115 116 117 117 118 120 120 121 122 123 124 125 126 127 129 129 131 132 132 134 135 136 137 138 139 139 140 141 142 143 144 145 146 147 148 149 150 151 152 153 154 154 156 157 158 159 160 160 161 162 163 164 164 166 166 167 168 169 170 171 171 172 173 174 175 176 177 178 178 179 180 181 183 184 184 186 186 187 189 190 191 192 192 193 194 195 196 197 198 199 200 201 202 203 204 208 145 222 255 255 255 255 255 255 255 255 255 255
255 255 255 255 255 255 255 255 255 255 255 255 255 255 254 255 255 255 255 255 255 255 255 255 255 255 128 8 11 12 13 14 15 16 16 17 18 19 19 20 21 22 23 23 24 25 25 26 27 28 29 29 30 31 32 33 33 33 34 35 36 36 37 38 39 39 40 41 42 43 44 44 45 46 47 48 48 49 50 51 51 52 53 54 55 56 57 58 58 59 60 61 62 63 63 64 65 66 67 67 69 69 70 72 72 73 74 75 76 77 78 79 80 81 82 83 84 85 86 87 88 89 90 91 92 93 94 95 96 96 98 99 99 101 101 102 103 104 105 106 107 108 109 110 111 112 113 114 115 116 117 118 119 120 121 122 123 124 124 126 127 128 129 130 131 132 133 134 136 137 137 138 139 140 141 141 142 143 144 145 146 147 148 149 150 151 152 153 154 155 156 157 158 159 160 161 162 163 164 164 165 166 167 168 168 169 170 171 172 173 173 174 175 176 177 178 179 180 181 181 183 184 185 186 187 188 189 190 191 192 193 194 194 195 196 197 198 200 201 202 203 204 205 208 145 222 255 255 255 255 255 255 255 255 255 255
255 255 255 255 255 255 255 255 255 255 255 255 255 255 255 255 255 255 255 255 255 255 255 255 255 255 128 7 11 12 13 14 15 16 17 17 18 19 20 20 21 22 23 23 24 25 26 26 27 28 29 30 30 31 32 33 33 34 34 35 36 37 37 38 39 40 41 41 42 43 44 44 45 46 47 48 48 49 50 51 52 53 54 54 55 56 57 58 58 59 60 61 62 63 63 64 66 67 67 68 69 70 71 72 73 73 75 76 77 77 78 80 81 82 83 84 85 86 86 87 88 89 90 91 92 93 94 95 96 97 98 99 100 100 101 102 103 105 105 106 108 108 109 110 112 113 113 115 116 116 117 118 119 120 121 122 123 124 125 126 127 128 129 130 131 132 133 134 136 137 137 138 139 140 141 142 142 144 145 146 146 147 149 150 150 151 152 154 154 155 156 157 158 159 161 161 162 163 164 165 165 166 167 168 168 169 170 171 172 173 174 174 175 176 177 178 179 180 181 182 183 184 185 186 187 188 189 190 191 192 193 194 195 196 196 198 199 200 201 202 203 204 205 209 146 223 255 255 255 255 255 255 255 255 255 255
255 255 255 255 255 255 255 255 255 255 255 255 255 255 255 255 255 255 255 255 255 255 255 255 255 255 128 8 12 13 13 14 15 16 17 18 19 20 20 21 21 22 23 24 25 25 26 26 27 28 29 30 31 32 33 33 33 34 34 36 37 37 38 38 39 40 41 42 43 43 44 45 46 47 48 48 49 50 50 51 52 53 54 55 56 56 57 58 59 60 60 62 62 64 64 65 66 67 68 69 69 71 71 72 73 74 75 76 77 78 79 80 81 82 83 84 85 86 87 87 89 90 91 91 93 94 95 96 96 97 98 99 100 101 102 103 104 105 106 107 108 109 110 111 112 113 114 115 116 117 117 118 120 120 121 122 123 124 125 126 127 128 130 131 131 132 133 134 136 137 138 139 140 141 141 142 143 144 145 146 147 148 149 150 151 152 153 154 155 156 157 158 158 160 161 162 162 163 164 165 166 166 167 168 169 170 171 172 172 173 174 175 176 177 177 179 180 180 181 182 183 185 186 186 187 188 189 191 192 193 194 194 195 196 197 198 199 200 201 203 203 204 206 208 145 222 255 255 255 255 255 255 255 255 255 255
255 255 255 255 255 255 255 255 255 255 255 255 255 255 255 255 255 255 255 255 255 255 255 255 255 255 128 8 12 13 14 14 16 16 17 18 19 20 20 21 22 23 23 24 25 26 26 27 27 29 29 30 31 32 33 33 33 34 35 36 37 37 38 39 40 40 41 42 43 44 44 45 46 47 48 49 50 50 51 52 52 53 54 55 56 57 57 58 59 60 61 62 63 64 64 65 66 67 68 69 70 71 72 72 73 74 76 77 77 78 79 80 81 83 83 84 85 86 87 88 89 90 91 92 93 94 95 96 96 97 99 99 101 101 102 103 104 105 106 107 108 109 110 111 113 114 114 115 116 117 118 119 120 121 122 122 123 124 126 126 127 129 130 131 132 133 134 135 137 138 138 139 140 141 142 143 144 145 145 146 147 148 150 151 151 152 153 154 155 156 157 158 159 160 161 162 163 164 165 165 166 167 167 168 169 170 171 172 173 174 174 175 176 177 178 179 180 181 182 182 184 185 186 187 188 189 190 191 192 193 194 195 195 196 197 198 199 201 202 203 204 205 206 209 145 222 255 255 255 255 255 255 255 255 255 255
255 255 255 255 255 255 255 255 255 255 255 255 255 255 255 255 255 255 255 255 255 255 255 255 255 255 128 9 12 13 14 15 16 17 17 18 19 20 21 21 22 23 23 24 25 26 27 27 28 29 29 30 32 32 33 33 34 35 35 36 37 38 38 39 40 40 41 42 43 44 45 46 47 47 48 49 50 51 51 52 53 53 54 55 56 57 58 59 59 60 61 62 63 64 65 66 67 67 68 69 70 72 72 73 74 75 76 77 78 79 79 81 81 82 84 85 86 86 87 88 89 90 91 92 93 94 95 96 97 98 99 100 101 102 102 103 105 106 106 107 109 110 110 111 113 114 115 116 116 118 118 120 120 121 122 123 124 125 126 127 128 129 131 131 132 133 134 136 137 138 139 140 141 141 142 143 144 145 146 147 148 149 150 151 152 152 153 154 155 156 157 158 159 160 161 162 163 164 165 166 166 167 168 169 169 171 172 172 173 174 175 175 177 178 179 180 180 181 182 183 184 186 186 187 188 189 190 191 193 194 195 195 196 197 198 199 200 201 202 203 204 205 206 209 146 222 255 255 255 255 255 255 255 255 255 255
255 255 255 255 255 255 255 255 255 255 255 255 255 255 255 255 255 255 255 255 255 255 255 255 255 255 128 9 12 13 14 15 16 16 18 18 19 20 21 22 22 23 24 25 25 26 27 27 28 29 30 30 31 32 33 33 34 34 35 36 37 38 39 39 39 41 41 42 43 44 45 46 47 48 48 49 50 51 52 52 53 54 55 56 57 57 58 59 60 60 62 63 63 64 65 66 67 68 69 70 71 72 72 73 74 75 76 77 78 79 80 81 82 83 84 85 86 87 88 89 90 91 91 93 94 94 96 97 98 98 99 100 101 102 103 104 105 106 107 107 109 110 111 112 113 114 115 116 116 118 119 120 120 122 123 123 124 126 126 127 128 130 131 132 133 133 135 136 138 138 139 140 141 141 143 143 144 145 146 147 148 149 150 151 152 153 154 155 155 157 158 159 159 160 162 163 164 164 165 166 166 167 168 169 170 171 172 173 174 175 175 176 177 178 179 180 180 182 182 183 185 186 187 188 189 190 191 192 193 194 195 196 197 198 198 199 200 201 203 204 205 205 206 210 146 222 255 255 255 255 255 255 255 255 255 255
255 255 255 255 255 255 255 255 255 255 255 255 255 255 255 255 255 255 255 255 255 255 255 255 255 255 128 9 12 13 14 15 16 17 18 19 19 20 21 22 22 23 24 25 25 26 27 28 28 29 30 31 32 33 33 34 34 35 36 37 37 38 39 40 40 41 42 43 44 45 45 46 47 48 49 50 51 51 52 53 53 54 55 56 57 58 59 60 60 61 62 63 64 65 65 66 67 68 69 71 71 72 73 73 75 76 77 77 79 79 80 81 82 83 84 85 86 87 88 89 90 91 92 93 94 95 96 97 98 99 100 101 102 103 103 104 105 106 107 108 109 110 111 113 114 115 115 116 117 118 119 120 121 122 123 124 125 126 127 128 129 130 131 132 133 134 135 136 138 139 140 140 141 142 143 144 145 146 147 148 149 149 150 152 152 153 154 155 156 157 158 159 160 161 162 163 164 165 166 166 167 168 169 170 170 171 172 174 174 175 176 177 178 179 179 180 181 182 183 184 185 186 187 188 189 190 191 192 193 195 195 196 197 198 199 199 201 202 203 204 205 206 207 210 146 222 255 255 255 255 255 255 255 255 255 255
255 255 255 255 255 255 255 255 255 255 255 255 255 255 255 255 255 255 255 255 255 255 255 255 255 255 128 9 12 14 15 15 16 17 18 19 20 21 21 22 23 23 24 25 26 27 27 27 28 29 30 31 32 33 33 34 35 35 36 37 38 39 39 40 41 42 42 43 44 45 46 47 47 48 49 50 51 52 52 53 54 55 55 56 57 58 59 60 60 61 62 63 64 65 66 67 68 69 70 71 72 73 73 74 75 76 77 78 79 80 81 82 83 84 85 86 86 88 88 89 91 92 93 94 94 96 96 97 98 99 100 101 102 103 104 104 106 107 108 109 110 111 111 112 114 115 116 117 117 118 119 121 121 122 123 125 125 126 127 128 129 130 132 133 133 135 136 137 138 139 140 141 142 142 143 144 145 146 147 148 149 149 151 152 153 154 154 155 156 157 159 159 160 161 163 163 164 165 166 167 168 168 169 170 171 172 173 174 174 175 176 177 178 179 180 181 182 183 183 184 186 187 187 189 189 190 191 192 194 195 195 196 197 198 199 200 201 202 204 204 205 206 207 210 146 222 255 255 255 255 255 255 255 255 255 255
255 255 255 255 255 255 255 255 255 255 255 255 255 255 255 255 255 255 255 255 255 255 255 255 255 255 128 10 13 14 15 15 17 18 19 19 20 21 21 22 23 23 25 25 26 27 27 28 29 30 31 31 32 33 34 35 35 36 36 37 38 39 40 41 41 42 43 44 45 45 46 47 48 49 50 50 51 52 53 54 54 55 56 57 58 58 60 60 61 62 63 64 65 66 67 67 68 69 70 71 72 73 74 75 76 76 78 78 80 81 82 82 83 84 85 86 87 88 89 90 91 92 93 94 95 96 97 98 98 99 100 101 102 103 104 105 106 107 108 109 110 111 112 113 115 115 116 117 118 119 120 121 122 123 124 125 126 126 127 129 129 131 132 133 134 135 136 137 139 140 140 141 142 143 144 145 145 147 148 148 149 150 151 152 153 154 155 156 157 158 159 160 161 162 163 164 165 165 167 167 168 169 170 170 171 172 173 174 175 176 176 177 178 180 180 181 182 183 184 185 186 187 188 189 190 191 192 193 194 195 196 197 198 199 199 200 201 203 204 205 205 206 208 211 146 222 255 255 255 255 255 255 255 255 255 255
255 255 255 255 255 255 255 255 255 255 255 255 255 255 255 255 255 255 255 255 255 255 255 255 255 255 128 10 13 14 15 16 16 18 19 19 20 21 21 22 23 24 25 25 26 27 28 28 29 30 31 31 33 33 34 35 35 36 37 38 39 39 40 41 41 42 43 44 45 46 47 48 48 49 50 51 52 53 53 54 55 56 57 57 58 59 60 61 61 63 63 64 65 66 67 68 69 70 71 72 72 73 74 75 76 77 78 79 80 81 82 83 84 85 85 87 88 88 89 90 91 92 93 95 95 96 97 98 99 100 101 102 103 104 105 105 106 108 108 109 110 111 112 113 115 115 116 117 118 119 120 121 122 123 124 125 126 127 128 129 130 131 132 133 134 135 136 137 139 140 141 141 142 143 144 145 146 147 148 148 149 150 151 153 153 155 155 156 157 158 159 160 161 162 163 164 165 166 167 168 168 169 170 171 171 173 174 174 175 176 177 178 179 180 181 182 183 183 184 185 186 187 188 189 190 191 192 193 194 195 196 197 198 199 200 201 202 203 204 205 206 207 208 211 146 222 255 255 255 255 255 255 255 255 255 255
255 255 255 255 255 255 255 255 255 255 255 255 255 255 255 255 255 255 255 255 255 255 255 255 255 255 128 10 14 14 15 16 17 18 19 19 20 21 22 23 24 24 25 26 27 27 28 29 29 30 31 32 33 34 34 35 36 36 37 38 39 40 40 41 42 43 43 44 45 47 47 48 49 50 51 51 52 53 54 54 55 56 57 58 59 59 60 61 62 63 64 65 66 67 68 68 69 70 71 72 73 74 75 76 77 78 78 79 81 82 83 83 84 85 86 87 88 89 90 91 92 93 94 95 96 96 97 99 99 100 101 102 103 104 105 106 107 108 109 110 111 112 113 114 115 116 117 118 118 120 121 122 123 124 125 125 126 127 128 129 130 131 133 134 135 136 137 138 139 141 141 142 143 144 145 145 146 147 148 149 150 151 152 153 154 155 156 157 158 159 160 161 162 162 164 165 166 167 167 168 169 170 171 172 172 173 174 175 176 177 177 178 179 180 181 182 183 184 185 185 187 188 188 190 191 192 193 194 195 196 197 198 198 199 200 201 202 204 205 205 206 207 208 212 146 222 255 255 255 255 255 255 255 255 255 255
255 255 255 255 255 255 255 255 255 255 255 255 255 255 255 255 255 255 255 255 255 255 255 255 255 255 128 10 14 15 16 16 17 18 19 20 21 21 22 23 24 25 26 26 27 27 28 28 29 30 31 32 33 34 35 35 36 36 37 38 39 40 41 42 42 43 44 44 45 46 48 48 49 50 51 52 53 54 54 55 55 56 57 58 59 60 61 62 63 63 64 65 66 67 68 68 70 71 71 73 73 74 75 76 77 78 79 80 80 82 82 83 84 86 86 88 88 90 90 91 92 93 94 95 96 96 98 99 100 101 102 103 104 105 106 107 107 108 109 110 111 112 113 114 116 116 117 118 119 120 121 122 123 124 125 125 126 127 129 130 131 132 133 134 135 136 137 138 139 141 142 142 143 144 145 146 147 148 149 150 150 151 152 153 154 155 156 157 158 159 160 161 162 163 164 165 166 167 168 168 169 170 171 172 173 173 175 176 176 177 178 179 180 181 182 183 184 185 185 186 187 189 189 190 191 192 193 194 195 196 198 198 199 200 201 202 203 204 205 206 207 208 209 212 146 222 255 255 255 255 255 255 255 255 255 255
255 255 255 255 255 255 255 255 255 255 255 255 255 255 255 255 255 255 255 255 255 255 255 255 255 255 128 11 15 15 16 17 18 19 19 20 21 22 22 24 25 25 26 27 27 28 29 29 30 31 32 33 34 35 35 36 37 37 38 39 41 41 41 42 43 44 45 45 46 47 48 49 50 51 52 52 53 54 55 56 56 57 58 59 60 61 62 62 63 64 65 66 67 68 69 69 71 71 72 73 74 75 76 77 78 78 80 81 81 82 83 84 85 86 87 88 89 90 91 92 93 94 95 96 97 98 99 100 101 102 103 104 105 106 107 108 108 109 110 112 112 113 114 115 116 117 118 119 120 121 122 123 124 125 125 126 127 129 130 130 132 133 134 135 136 137 138 139 140 142 143 143 144 145 146 147 148 149 150 151 151 152 153 154 155 156 157 158 159 160 161 162 163 164 165 166 167 168 169 169 170 171 172 173 174 174 175 176 177 178 179 179 181 182 183 183 184 185 186 187 188 190 190 191 192 193 193 195 196 197 198 199 200 201 201 203 204 205 206 207 207 209 210 213 147 222 255 255 255 255 255 255 255 255 255 255
255 255 255 255 255 255 255 255 255 255 255 255 255 255 255 255 255 255 255 255 255 255 255 255 255 255 128 10 14 16 16 17 18 19 20 21 22 22 23 24 25 25 26 27 28 29 29 30 30 31 32 33 34 35 36 36 37 38 38 39 40 41 42 43 43 44 45 46 46 48 48 50 50 51 52 53 54 55 55 56 57 58 59 60 60 61 62 63 63 64 65 66 67 68 69 70 71 72 73 74 74 76 76 77 78 79 80 81 82 83 84 85 86 87 87 89 89 90 92 92 93 94 95 96 97 98 99 100 101 102 103 104 105 106 107 108 109 109 111 112 113 113 114 115 117 118 118 119 120 121 122 124 125 125 126 127 128 129 130 131 132 133 134 136 137 137 138 139 141 142 143 144 145 145 147 147 148 149 150 151 152 153 154 155 156 157 157 159 159 160 162 162 163 164 165 166 167 168 169 170 171 172 172 173 174 175 175 177 177 178 179 180 181 182 183 184 185 186 186 187 189 190 190 191 192 193 194 195 196 198 198 199 200 201 202 203 204 205 206 207 208 209 210 213 148 222 255 255 255 255 255 255 255 255 255 255
255 255 255 255 255 255 255 255 255 255 255 255 255 255 255 255 255 255 255 255 255 255 255 255 255 255 128 11 15 16 16 17 18 19 20 21 21 23 23 24 25 26 26 27 28 29 29 30 31 32 32 33 34 35 36 37 37 38 39 40 40 41 42 43 44 44 45 46 47 48 49 50 51 51 52 53 54 55 56 56 57 58 59 60 61 62 63 63 64 65 66 67 68 69 69 71 72 72 73 74 75 76 77 78 78 79 80 81 82 83 84 85 86 87 88 89 90 91 92 93 94 95 95 97 97 99 100 101 102 103 104 105 106 106 107 108 109 110 111 112 113 114 115 116 117 118 119 120 121 121 123 124 125 126 127 128 128 129 130 131 132 134 135 136 137 138 139 140 142 143 143 144 145 146 147 148 149 150 151 152 152 153 154 155 156 157 158 159 160 161 162 163 164 165 166 167 168 168 169 170 171 172 173 174 174 175 176 177 178 179 179 180 181 182 183 184 185 186 187 188 189 190 191 192 193 193 195 195 197 198 199 200 201 201 202 203 204 205 206 207 208 209 210 214 148 222 255 255 255 255 255 255 255 255 255 255
255 255 255 255 255 255 255 255 255 255 255 255 255 255 255 255 255 255 255 255 255 255 255 255 255 255 129 12 15 16 16 17 18 19 20 21 22 23 23 25 25 26 26 27 28 29 30 30 31 32 33 34 35 36 37 37 37 38 39 40 41 42 42 43 44 44 45 47 47 48 50 50 51 52 53 54 55 56 56 57 57 58 59 60 61 62 63 64 64 65 66 67 68 69 70 71 72 73 73 75 75 76 77 78 79 80 81 82 83 84 84 86 86 87 88 89 90 91 92 93 94 95 96 97 98 99 100 101 102 103 104 105 106 107 107 108 109 110 111 112 113 114 115 116 117 118 119 120 121 122 123 124 124 126 127 128 129 130 131 132 133 134 135 137 137 138 139 140 142 143 144 145 146 146 147 148 149 150 151 152 152 153 155 156 156 157 158 159 160 161 162 163 164 165 166 167 168 169 170 170 171 172 173 174 175 176 176 177 178 179 180 180 182 183 183 184 185 186 187 188 189 190 191 192 193 194 195 196 197 198 199 200 201 202 202 203 204 205 207 207 208 210 211 214 147 223 255 255 255 255 255 255 255 255 255 255
255 255 255 255 255 255 255 255 255 255 255 255 255 255 255 255 255 255 255 255 255 255 255 255 255 255 128 12 15 16 17 18 19 20 21 22 22 23 24 25 26 26 27 28 28 29 30 30 31 32 33 34 35 36 37 37 38 39 39 40 41 42 43 44 45 45 46 47 48 49 50 50 51 52 53 54 55 56 56 57 58 59 60 61 61 63 63 64 65 66 67 67 69 70 71 72 72 73 74 75 76 77 78 79 79 80 81 82 83 84 85 86 87 88 89 90 91 92 93 94 94 95 96 97 98 99 100 101 102 103 104 105 106 107 108 109 110 111 111 112 114 115 116 117 118 119 120 120 121 122 123 124 125 126 127 128 129 130 131 132 133 135 136 137 138 139 140 141 142 143 144 145 146 147 148 148 149 151 151 152 153 154 155 156 157 158 159 160 160 161 163 164 164 165 167 167 168 169 170 171 172 172 173 174 175 176 177 178 178 179 180 181 182 183 184 185 186 187 187 188 189 191 192 192 193 194 195 196 197 198 199 200 201 202 203 204 205 206 207 208 209 210 211 215 147 222 255 255 255 255 255 255 255 255 255 255
255 255 255 255 255 255 255 255 255 255 255 255 255 255 255 255 255 255 255 255 255 255 255 255 255 255 128 12 15 16 17 18 19 20 21 21 22 23 24 25 25 26 27 28 29 29 30 31 32 32 33 34 36 36 37 38 38 39 40 41 42 42 43 44 45 45 46 47 48 49 50 51 52 53 53 54 55 56 57 58 58 59 60 61 62 63 64 64 65 66 67 68 69 70 71 72 73 74 74 75 76 77 78 79 80 81 82 83 83 85 85 86 87 88 89 90 91 92 93 94 95 96 97 98 99 99 101 102 102 103 104 105 106 107 108 109 110 111 112 113 114 115 116 117 118 119 120 121 122 123 123 125 126 127 128 129 129 130 132 133 134 135 136 138 138 139 140 141 143 144 144 146 146 147 148 149 150 151 152 152 153 154 156 157 157 158 159 160 161 162 163 164 165 166 167 168 168 169 170 171 172 173 174 175 175 176 177 178 178 180 180 181 182 183 184 185 186 187 187 189 190 191 192 192 193 194 195 197 198 199 200 200 201 202 203 204 205 206 208 208 209 210 211 215 148 222 255 255 255 255 255 255 255 255 255 255
255 255 255 255 255 255 255 255 255 255 255 255 255 255 255 255 255 255 255 255 255 255 255 255 255 255 127 12 16 16 17 18 19 20 21 22 22 24 24 25 26 27 27 28 29 30 30 31 32 33 34 35 36 37 38 38 39 39 40 41 42 43 44 44 45 46 47 48 49 50 51 51 52 53 54 55 56 56 57 58 59 60 61 62 62 63 64 65 66 67 68 69 70 71 71 72 73 74 75 76 77 78 79 79 80 81 83 83 84 85 86 87 88 89 90 90 92 93 93 94 95 96 97 98 99 100 101 102 103 104 105 106 107 108 109 110 111 112 112 113 114 115 116 118 119 119 120 122 122 123 124 125 126 127 129 129 130 131 132 133 134 135 137 138 139 139 140 141 143 144 145 146 147 147 148 149 150 151 152 153 154 154 156 157 158 159 159 160 161 162 164 165 165 166 167 168 169 170 171 172 172 173 174 175 176 177 177 179 179 180 181 182 183 184 184 185 186 187 188 189 190 191 192 193 194 195 196 197 198 199 200 201 202 202 204 205 205 207 208 209 209 211 212 215 148 222 255 255 255 255 255 255 255 255 255 255
255 255 255 255 255 255 255 255 255 255 255 255 255 255 255 255 255 255 255 255 255 255 255 255 255 255 128 12 16 17 18 19 20 20 21 22 23 24 24 25 27 27 28 29 29 30 31 32 32 33 34 35 36 37 37 38 39 40 40 41 42 43 44 45 46 46 47 48 49 50 51 52 53 54 55 55 56 57 57 58 59 60 61 62 63 64 65 66 67 68 68 69 70 71 72 73 73 75 76 76 77 78 79 80 80 82 83 83 84 85 86 88 88 89 90 91 92 93 94 95 96 97 97 98 99 100 102 103 103 104 105 106 107 108 109 110 111 112 112 114 114 116 116 118 119 120 121 122 122 123 124 126 127 128 129 130 130 131 132 134 134 136 137 138 139 139 141 142 143 144 145 146 147 148 149 150 151 152 153 153 154 155 156 158 158 159 160 161 162 163 164 165 166 167 168 169 169 171 171 172 173 174 174 175 176 177 178 179 179 180 181 182 183 184 185 186 187 187 188 189 191 192 193 193 194 195 196 197 199 200 200 201 202 203 204 205 206 207 208 209 210 211 212 215 149 222 255 255 255 255 255 255 255 255 255 255
255 255 255 255 255 255 255 255 255 255 255 255 255 255 255 255 255 255 255 255 255 255 255 255 255 255 129 12 17 18 18 19 20 21 22 22 23 24 25 26 27 28 28 29 30 31 31 32 33 34 34 36 36 37 38 39 40 40 41 42 43 44 45 46 46 47 48 49 50 50 52 52 53 54 55 56 56 57 58 59 60 61 62 63 64 64 65 66 67 68 68 70 71 72 72 73 74 75 76 77 77 79 79 80 81 82 83 84 85 86 87 88 89 90 91 92 93 94 94 95 96 97 98 99 100 101 102 103 103 105 106 107 107 108 109 110 111 112 113 114 115 116 117 118 120 121 121 122 123 124 125 126 127 128 129 130 131 132 133 134 135 136 138 139 139 140 141 142 144 145 146 146 147 148 149 150 151 152 153 154 155 155 157 158 159 159 160 161 162 163 164 165 166 167 168 169 170 171 172 172 173 174 175 176 177 178 178 179 180 181 182 182 184 185 185 186 187 188 189 189 191 192 193 194 195 196 196 198 199 200 201 202 202 203 204 205 206 208 209 210 211 212 212 216 149 222 255 255 255 255 255 255 255 255 255 255
255 255 255 255 255 255 255 255 255 255 255 255 255 255 255 255 255 255 255 255 255 255 255 255 255 255 129 13 16 18 18 19 20 21 22 23 23 25 26 26 27 28 28 29 30 31 32 32 33 34 35 36 37 38 39 39 40 41 42 43 44 44 45 46 47 48 48 49 50 51 52 53 53 54 56 56 57 57 58 60 60 61 62 63 64 65 66 67 67 68 69 70 71 72 73 74 75 76 76 78 78 79 80 81 82 83 84 84 85 87 87 88 89 90 91 92 93 94 95 96 97 98 98 100 100 101 102 103 104 105 106 107 107 109 110 111 112 112 114 114 116 117 117 119 120 121 122 123 123 124 125 127 127 129 130 131 132 133 133 134 136 137 138 139 140 141 142 143 144 145 146 147 148 149 150 151 152 153 154 154 155 156 157 159 159 160 161 162 163 164 165 166 167 167 169 170 170 171 172 172 173 174 175 176 177 178 179 180 180 181 182 183 184 185 186 187 188 188 189 190 191 192 193 194 195 196 197 198 199 200 201 202 203 203 205 206 207 208 209 210 211 212 213 216 149 222 255 255 255 255 255 255 255 255 255 255
255 255 255 255 255 255 255 255 255 255 255 255 255 255 255 255 255 255 255 255 255 255 255 255 255 255 129 13 17 18 19 19 20 21 22 23 24 25 26 27 27 28 29 30 31 31 32 33 33 34 35 36 37 38 39 40 40 41 42 43 44 45 46 46 47 48 49 50 51 52 53 53 54 55 56 57 57 58 59 60 61 62 63 64 65 65 66 67 68 69 70 71 71 73 73 74 75 76 77 78 79 80 81 82 82 83 84 85 86 87 88 89 90 91 92 93 94 95 95 96 97 98 99 100 101 102 103 104 105 106 107 108 108 109 110 111 112 113 114 115 116 117 118 119 120 121 122 123 124 125 126 127 128 129 130 131 132 133 134 135 136 137 138 140 141 142 142 143 145 146 147 148 149 149 150 151 152 153 154 155 156 156 158 159 160 160 161 162 163 164 165 166 167 168 170 170 171 172 173 173 174 175 176 177 177 178 179 180 181 181 182 183 184 186 186 187 188 189 189 190 192 193 194 195 195 196 197 198 200 201 202 203 203 204 205 207 207 208 209 210 211 212 213 217 149 222 255 255 255 255 255 255 255 255 255 255
255 255 255 255 255 255 255 255 255 255 255 255 255 255 255 255 255 255 255 255 255 255 255 255 255 255 129 12 17 18 19 20 21 22 23 23 24 25 26 27 28 29 29 30 31 32 32 33 34 34 36 37 37 38 39 40 41 41 42 43 44 45 46 47 48 48 49 50 51 52 53 54 54 55 56 57 58 59 59 60 61 62 63 64 65 66 66 67 68 69 70 71 72 73 74 75 76 76 77 78 79 80 81 82 83 84 85 86 87 88 88 90 90 91 92 93 94 95 96 97 97 99 99 101 101 102 103 104 105 106 107 108 109 110 111 112 113 114 114 115 117 117 119 120 121 122 122 123 124 125 126 128 128 129 130 131 132 134 134 135 136 138 139 140 141 142 143 144 145 147 147 148 149 150 151 152 152 154 154 155 156 157 158 159 160 161 162 163 164 165 166 166 167 169 170 171 171 172 173 174 174 175 176 177 178 179 180 181 181 182 183 184 185 186 187 187 188 189 190 191 192 194 194 195 196 197 198 199 200 201 202 203 204 205 206 207 207 209 210 211 212 213 214 217 149 222 255 255 255 255 255 255 255 255 255 255
255 255 255 255 255 255 255 255 255 255 255 255 255 255 255 255 255 255 255 255 255 255 255 255 255 255 129 13 17 19 19 20 21 22 23 24 25 26 26 27 28 29 29 31 31 32 33 33 34 35 36 37 38 39 40 40 41 42 43 44 45 46 47 48 48 49 50 51 52 53 53 54 55 56 57 58 58 59 60 61 62 63 64 65 65 66 67 68 69 70 70 71 73 74 74 75 76 77 78 79 80 81 81 82 83 84 85 86 87 88 89 90 91 92 93 94 95 96 97 97 98 99 99 101 102 103 104 105 106 106 107 108 110 111 112 112 113 114 115 116 117 118 119 120 121 122 123 124 125 126 127 128 129 130 131 132 133 134 135 136 137 138 140 141 142 142 143 144 146 147 148 149 150 151 151 152 153 154 155 156 157 157 159 160 160 161 162 163 164 165 166 167 168 169 170 171 172 172 174 174 175 176 177 178 178 179 180 181 182 183 183 184 185 187 187 188 189 190 191 191 193 194 195 195 196 197 198 199 201 202 203 203 204 205 206 207 208 209 210 211 212 213 214 217 149 222 255 255 255 255 255 255 255 255 255 255
255 255 255 255 255 255 255 255 255 255 255 255 255 255 255 255 255 255 255 255 255 255 255 255 255 255 128 13 18 19 20 21 21 22 24 24 25 26 27 28 29 29 30 31 32 32 33 34 34 36 36 37 38 39 40 41 42 42 43 44 45 47 47 48 49 49 50 51 52 53 54 55 55 56 57 58 59 60 61 61 62 63 64 65 66 67 67 68 69 70 71 72 73 74 75 76 77 78 78 79 80 82 82 82 84 85 86 87 87 88 89 90 91 92 93 94 95 96 97 98 99 99 100 101 102 103 104 105 106 107 108 109 110 111 112 113 114 115 115 116 118 118 119 120 121 123 123 124 125 126 127 128 129 130 131 132 133 134 135 136 137 138 140 141 142 143 144 145 146 147 148 149 150 151 152 152 153 155 156 156 157 158 159 160 161 162 163 164 165 166 166 167 168 169 170 172 172 173 174 175 175 176 177 178 179 180 180 181 182 183 184 184 186 187 187 188 189 190 191 192 193 194 195 196 197 198 198 200 201 202 203 204 204 205 206 207 208 210 211 212 213 214 214 217 149 222 255 255 255 255 255 255 255 255 255 255
255 255 255 255 255 255 255 255 255 255 255 255 255 255 255 255 255 255 255 255 255 255 255 255 255 255 129 13 18 19 20 21 22 23 24 25 25 26 27 28 29 29 30 31 32 33 33 34 35 36 37 38 39 40 40 41 42 43 44 45 46 47 48 49 49 50 51 52 53 54 54 55 56 57 57 59 59 60 61 62 63 64 64 66 66 67 68 69 69 70 72 72 74 74 75 76 77 78 79 80 81 82 82 83 84 85 87 87 88 89 90 91 92 93 94 95 96 97 97 98 99 100 101 102 103 104 105 106 107 108 109 110 110 111 112 113 114 115 116 117 118 119 120 121 122 123 124 125 125 126 127 128 129 130 132 133 133 135 136 137 138 139 141 142 143 144 145 146 147 148 149 150 151 152 152 153 154 155 156 157 157 158 159 160 161 162 163 164 165 166 167 168 169 170 171 172 173 174 174 175 176 177 178 179 179 180 181 182 182 183 184 185 186 187 188 189 190 190 191 192 194 195 195 196 198 198 199 200 202 203 203 204 205 206 207 208 209 210 211 212 213 214 215 218 149 222 255 255 255 255 255 255 255 255 255 255
255 255 255 255 255 255 255 255 255 255 255 255 255 255 255 255 255 255 255 255 255 255 255 255 255 255 129 14 18 19 20 21 22 23 24 24 25 26 27 28 29 30 31 31 33 33 34 34 36 36 37 38 39 40 41 41 42 43 44 45 46 47 48 49 50 50 51 52 53 54 54 55 56 57 58 59 60 60 61 62 63 64 65 66 66 67 68 69 70 71 72 73 74 75 75 77 77 78 79 80 81 82 83 84 84 86 87 87 88 89 90 91 92 93 94 95 96 97 98 99 100 101 101 102 103 104 105 106 107 108 109 110 111 112 113 114 114 115 117 117 118 119 120 122 122 123 124 125 126 127 128 129 130 131 132 133 134 135 136 137 138 139 141 142 143 144 145 146 147 148 149 150 151 152 153 153 154 155 156 157 158 159 160 161 162 163 164 165 165 166 168 168 169 170 172 172 173 174 174 175 176 177 178 179 180 180 181 182 183 184 184 185 186 187 188 189 190 191 191 192 194 195 196 197 198 198 199 201 202 203 203 205 205 206 207 208 209 210 211 212 213 214 215 218 150 222 255 255 255 255 255 255 255 255 255 255
255 255 255 255 255 255 255 255 255 255 255 255 255 255 255 255 255 255 255 255 255 255 255 255 255 255 129 14 18 20 21 21 22 23 24 25 26 27 27 28 29 30 31 32 33 34 34 35 36 37 38 38 39 40 41 42 43 44 44 46 47 48 49 49 50 51 52 53 53 54 55 56 57 58 59 59 60 61 61 62 64 65 65 66 67 68 69 70 70 71 72 74 74 75 76 77 78 79 80 81 81 82 83 84 85 86 87 88 89 90 91 92 93 94 95 96 97 98 99 100 100 101 102 103 103 104 106 107 108 109 109 111 111 113 113 114 115 116 117 118 119 120 121 122 123 124 125 126 126 128 128 129 130 132 133 134 135 136 137 137 139 140 141 143 143 144 145 147 148 149 150 150 152 153 153 154 155 156 157 158 158 159 160 161 162 163 164 165 166 167 168 169 170 171 172 173 173 174 175 176 176 177 178 179 180 181 182 183 183 184 185 186 187 188 189 190 190 191 192 193 194 195 196 197 198 199 200 201 202 203 204 205 206 207 208 209 210 211 211 213 214 214 216 219 150 222 255 255 255 255 255 255 255 255 255 255
255 255 255 255 255 255 255 255 255 255 255 255 255 255 255 255 255 255 255 255 255 255 255 255 255 255 129 14 19 20 21 22 23 24 25 25 26 28 28 29 30 31 31 32 33 34 35 35 36 37 38 39 40 41 42 43 43 44 45 46 48 48 49 50 51 51 52 53 54 55 56 56 58 58 59 60 60 61 62 63 64 65 66 66 68 68 69 70 71 72 73 74 75 76 77 77 78 79 80 81 82 83 84 85 85 87 88 88 89 90 92 92 93 95 95 96 97 98 99 100 100 101 102 103 104 105 106 107 108 109 110 111 112 113 114 114 115 116 117 118 119 120 121 122 123 124 125 126 127 128 129 130 131 132 133 134 135 136 137 138 139 140 142 143 144 144 146 147 148 149 150 151 152 153 154 155 156 157 157 158 159 159 161 162 163 164 164 165 166 167 168 169 170 171 173 173 174 175 176 176 177 178 179 180 180 181 182 183 184 185 185 186 187 188 189 190 190 191 192 193 194 195 196 197 198 199 200 201 202 203 204 205 206 207 208 209 210 211 212 213 214 215 216 219 150 222 255 255 255 255 255 255 255 255 255 255
255 255 255 255 255 255 255 255 247 212 208 253 255 240 196 212 251 255 230 193 217 253 255 255 255 255 129 15 19 20 21 22 23 24 25 26 27 28 29 30 30 31 32 33 34 34 35 36 37 38 38 40 41 41 42 43 44 45 46 47 48 49 50 51 51 52 52 54 54 56 56 57 58 59 60 60 61 62 63 64 64 65 66 67 68 69 70 71 72 73 73 75 76 76 77 78 79 80 81 82 83 84 85 85 86 87 88 89 90 91 92 92 94 95 96 97 98 99 100 100 101 102 103 104 105 106 107 108 108 109 110 111 112 113 114 115 116 117 118 119 120 121 122 123 124 125 126 127 127 128 130 131 132 133 133 135 136 136 137 138 140 141 142 143 144 145 146 147 148 149 150 151 152 153 154 155 156 157 158 159 159 160 161 163 163 164 165 166 167 168 169 170 171 172 173 173 174 175 176 176 177 178 179 180 181 182 183 184 184 185 186 187 188 189 189 190 191 192 192 193 195 196 197 197 199 199 200 202 203 204 205 206 206 207 208 210 211 212 212 214 214 216 217 220 151 222 255 255 255 255 255 255 255 255 255 255
255 255 255 255 255 255 255 255 215 119 96 247 247 136 158 126 192 237 120 167 120 205 255 255 255 255 129 15 19 20 22 23 23 24 25 26 27 28 29 30 31 31 33 33 34 35 36 37 37 38 39 40 41 42 43 44 44 45 46 47 48 49 50 51 51 52 53 54 55 56 57 57 58 59 60 61 61 62 63 64 65 66 66 67 68 69 70 71 72 73 74 75 76 77 78 78 79 80 81 82 83 84 85 86 86 88 88 89 90 91 92 93 94 96 96 97 98 99 100 101 102 103 104 104 105 106 107 108 109 110 111 112 113 113 115 116 116 117 118 119 120 121 121 123 124 125 126 127 127 128 130 131 132 133 134 135 136 137 138 139 140 141 143 144 145 145 146 147 149 150 151 152 153 154 154 156 156 157 158 159 160 161 162 163 164 165 166 167 167 168 169 170 171 172 173 174 174 176 176 177 178 178 180 181 181 183 183 184 185 186 186 187 188 189 190 191 191 192 193 194 195 196 197 198 199 200 201 202 203 204 205 206 207 208 209 210 211 212 213 214 215 216 217 220 151 222 255 255 255 255 255 255 255 255 255 255
255 255 255 255 255 255 255 255 252 219 104 246 220 105 243 192 127 189 127 252 181 137 253 253 235 228 116 16 20 22 22 23 24 25 26 27 28 29 29 30 31 32 33 34 35 36 36 37 38 39 40 40 41 42 43 44 45 45 46 47 49 50 51 51 52 53 54 54 55 56 57 58 59 60 61 61 62 63 64 65 65 66 67 68 69 70 71 72 72 74 74 75 76 77 78 79 80 80 81 83 84 84 85 86 87 88 89 90 91 92 93 94 95 96 97 98 99 100 100 101 102 103 104 105 106 107 108 109 109 111 111 113 113 114 115 116 117 118 118 120 121 121 122 123 124 126 127 127 128 129 130 131 132 134 135 135 136 137 139 139 140 142 143 144 145 146 147 148 150 150 151 152 153 154 155 156 157 158 159 160 160 161 162 164 164 165 166 167 168 169 170 171 172 172 173 174 175 176 177 178 178 179 180 181 182 183 184 184 185 186 186 187 189 190 190 191 192 193 193 195 196 197 198 199 199 200 201 202 204 205 206 207 208 208 209 210 211 213 213 214 215 216 217 221 151 222 255 255 255 255 255 255 255 255 255 255
255 255 255 255 255 255 255 255 255 222 104 246 202 109 249 215 108 168 140 255 201 113 249 247 168 139 71 17 20 21 22 23 24 25 26 27 28 29 29 31 32 32 33 34 35 36 36 37 38 39 40 41 42 43 44 44 45 46 47 48 49 50 51 52 53 53 54 54 56 57 57 58 59 60 61 62 63 63 64 65 66 67 67 68 69 70 71 72 73 74 75 76 77 78 79 79 80 81 82 83 84 84 86 87 87 89 90 91 91 92 93 94 95 96 97 98 99 100 101 102 102 104 104 105 106 107 108 109 110 111 112 113 114 114 115 116 117 118 119 120 121 122 123 124 125 126 127 128 129 129 131 132 133 134 135 136 137 138 139 140 141 142 144 145 146 146 147 149 150 151 152 153 154 155 155 156 157 159 159 160 161 161 163 164 165 166 166 167 168 169 170 171 172 173 174 175 175 176 177 178 179 179 180 181 182 183 184 185 186 186 187 188 189 190 191 192 192 193 194 195 196 197 198 199 200 201 202 202 204 205 206 207 208 209 210 211 212 213 214 215 215 217 217 221 151 222 255 255 255 255 255 255 255 255 255 255
255 255 255 255 255 255 255 255 255 222 104 246 217 105 246 200 120 180 134 253 188 126 252 255 251 250 127 18 21 22 23 24 25 26 27 27 29 30 30 31 32 33 33 34 36 36 37 38 38 39 40 41 42 43 44 45 46 47 47 48 49 50 51 52 53 54 55 55 56 57 58 59 59 61 62 62 63 64 65 65 66 67 68 69 70 71 72 72 73 74 76 77 77 78 79 80 81 82 83 83 84 85 87 87 88 89 90 91 92 93 94 94 95 97 98 99 100 100 101 102 103 104 105 106 107 108 108 110 110 112 112 113 114 115 116 117 118 119 119 120 122 122 123 124 126 127 127 128 129 130 131 132 134 135 135 136 137 138 139 140 141 142 144 145 146 147 148 149 150 151 152 153 154 155 156 157 158 159 160 160 161 162 163 165 165 166 167 167 168 169 170 172 173 173 174 175 176 177 177 178 179 180 181 181 183 184 184 185 186 187 187 188 189 190 191 192 193 194 195 195 197 198 199 200 200 201 202 203 205 205 207 208 208 209 210 211 212 213 214 215 216 217 218 221 151 222 255 255 255 255 255 255 255 255 255 255
255 255 255 255 255 255 255 255 234 165 82 190 234 120 180 137 175 226 114 194 128 183 255 255 255 255 129 17 21 22 23 24 25 26 27 28 29 30 31 31 33 33 34 35 36 37 37 38 39 40 41 42 43 43 44 46 46 47 48 49 50 51 52 52 53 54 55 56 57 58 58 59 60 61 62 63 63 64 65 66 67 67 68 69 70 71 72 73 74 75 76 77 78 79 80 80 81 82 83 84 85 86 87 87 88 89 91 91 92 93 94 95 96 97 98 99 100 101 101 103 103 104 105 106 107 108 109 110 111 112 113 114 115 116 116 117 118 119 120 121 122 123 123 125 126 127 127 129 129 131 131 132 134 135 136 137 138 139 140 141 142 143 145 145 146 147 148 149 151 152 153 154 154 155 156 157 158 159 160 161 162 162 164 165 165 166 167 168 169 170 171 172 173 173 175 176 176 177 178 178 179 180 181 182 183 184 185 186 187 188 188 189 190 191 192 193 194 194 195 196 197 198 199 200 201 202 202 203 205 206 207 208 208 209 210 211 212 214 214 215 217 217 218 221 151 222 255 255 255 255 255 255 255 255 255 255
255 255 255 255 255 255 255 255 236 191 186 198 246 226 172 189 247 254 216 170 195 248 255 255 255 255 129 18 22 23 24 25 26 27 28 29 30 31 31 32 34 34 35 36 37 38 38 39 40 41 42 43 43 45 45 46 47 48 48 50 51 52 52 53 54 55 56 56 57 58 59 60 61 62 63 64 64 65 66 67 67 69 69 70 71 72 73 74 75 76 77 78 79 79 80 81 82 83 84 85 86 87 88 89 90 90 91 92 93 94 95 96 97 98 99 100 101 101 102 104 104 105 106 107 108 109 110 111 112 113 114 114 115 116 117 118 119 120 121 121 123 124 125 126 127 128 128 130 130 131 133 133 135 136 137 138 138 139 140 142 143 144 146 146 147 148 149 150 152 153 154 155 155 156 157 158 159 160 161 162 162 163 165 165 166 167 168 169 170 171 172 172 173 174 175 176 177 178 179 179 180 181 182 183 184 185 186 187 187 188 189 190 191 192 193 194 194 195 196 197 198 199 200 201 202 203 203 204 206 207 208 208 209 210 211 212 213 214 215 216 217 218 219 222 151 222 255 255 255 255 255 255 255 255 255 255
255 255 255 255 255 255 255 255 255 255 255 255 255 255 255 255 255 255 255 255 255 255 255 255 255 255 129 18 22 24 25 26 26 28 29 30 30 31 32 33 34 35 36 37 37 38 38 39 40 41 43 43 44 45 46 47 47 48 49 50 51 52 53 54 54 55 57 57 58 59 60 60 62 62 64 64 65 66 66 67 68 69 70 71 72 73 74 75 75 77 77 79 79 80 81 82 82 84 85 86 87 88 88 89 90 91 92 93 94 95 95 97 98 99 100 100 101 102 103 104 105 106 107 108 109 110 111 112 112 113 114 115 116 117 117 119 120 121 122 123 124 125 125 126 128 129 130 131 131 133 133 134 136 137 138 139 139 140 141 142 143 145 146 147 148 149 150 151 153 154 154 155 156 157 158 158 160 161 162 163 163 164 165 166 167 168 168 170 170 171 172 173 174 175 176 177 178 178 179 180 181 182 183 183 184 186 186 187 188 189 190 191 192 193 193 194 195 196 196 198 199 200 201 201 202 203 204 205 206 207 208 209 210 211 212 213 214 215 216 217 218 219 219 223 151 222 255 255 255 255 255 255 255 255 255 255
255 255 255 255 255 255 255 255 255 255 255 255 255 255 255 255 255 255 255 255 255 255 255 255 255 255 129 18 23 24 25 26 27 28 29 30 31 32 32 34 34 35 36 37 38 39 39 40 41 42 43 44 45 46 46 47 48 49 49 51 52 53 53 55 55 56 57 58 59 60 61 61 62 63 64 65 66 67 67 68 69 70 71 72 73 74 75 76 76 77 78 79 80 81 82 82 83 85 85 86 88 88 89 90 90 91 93 93 95 96 96 97 98 99 100 101 102 103 104 105 105 106 107 108 110 111 111 112 113 114 115 116 117 118 118 119 121 121 122 123 124 125 126 127 128 129 130 131 132 133 134 135 136 137 138 139 140 141 142 143 144 146 147 148 149 150 151 152 154 154 155 156 157 158 159 159 160 161 162 163 164 164 166 167 167 168 169 170 171 172 173 174 174 175 177 177 178 179 180 181 181 182 183 184 185 186 187 188 188 189 190 191 192 193 194 195 196 196 197 198 199 200 201 202 203 204 205 206 207 208 209 209 210 211 212 214 214 215 216 217 218 219 220 223 152 222 255 255 255 255 255 255 255 255 255 255
255 255 255 255 255 255 255 255 255 255 255 255 255 255 255 255 255 255 255 255 255 255 255 255 255 255 129 18 23 25 26 27 27 28 30 31 31 32 33 34 35 36 36 37 38 39 40 40 41 42 43 44 45 46 47 48 48 49 50 51 52 53 54 55 55 56 57 58 59 60 61 62 63 63 65 65 66 67 68 68 69 70 71 73 73 74 75 76 76 78 79 80 80 81 82 83 84 85 86 87 88 89 89 90 91 92 93 94 95 96 97 98 99 100 101 102 102 103 104 105 106 107 108 109 110 111 112 113 113 114 115 116 117 118 119 120 121 122 122 124 125 126 126 127 129 130 131 132 132 133 134 135 137 138 139 139 140 141 143 143 144 146 147 148 149 150 151 152 154 155 156 157 158 158 159 160 161 162 163 163 164 165 166 167 168 169 170 170 171 172 173 174 175 176 177 178 178 179 180 181 182 182 183 184 185 186 187 188 189 190 190 191 192 193 194 195 195 196 197 198 200 201 201 202 203 204 205 206 207 208 209 210 211 211 212 213 215 215 216 217 218 219 221 223 152 222 255 255 255 255 255 255 255 255 255 255
255 255 255 255 255 255 255 255 255 255 255 255 255 255 255 255 255 255 255 255 255 255 255 255 255 255 129 19 24 25 26 27 28 29 30 31 32 33 33 34 35 36 37 38 39 40 40 41 42 43 44 45 46 47 48 48 49 50 50 52 53 54 55 55 56 57 58 59 60 60 62 63 64 65 65 66 67 68 68 69 70 71 72 73 74 75 76 77 77 78 79 80 81 82 83 83 84 85 86 87 88 89 90 91 91 93 94 95 96 96 98 98 99 100 101 102 103 104 105 106 106 107 108 110 111 111 112 114 114 115 116 117 118 119 119 120 121 122 123 124 125 126 127 128 130 130 131 132 133 134 135 136 137 138 139 140 141 142 143 144 145 146 148 149 150 151 152 153 154 155 156 157 158 159 160 161 161 162 163 164 165 165 166 168 168 169 170 171 172 173 173 174 175 176 177 178 179 180 181 181 182 183 184 185 186 187 188 189 189 190 191 192 193 194 195 196 196 197 198 199 200 201 202 203 204 205 205 207 208 209 210 211 211 212 213 214 215 216 217 218 219 220 221 224 152 222 255 255 255 255 255 255 255 255 255 255
255 255 255 255 255 255 255 255 255 255 255 255 255 255 255 255 255 255 255 255 255 255 255 255 255 255 129 19 24 26 27 27 28 30 30 31 32 33 34 35 36 37 37 38 39 40 41 42 43 43 45 46 47 47 48 49 50 50 51 52 53 54 55 56 57 58 58 59 60 61 63 63 64 65 66 67 68 69 69 70 71 72 73 74 75 75 76 77 78 79 80 81 82 83 84 84 85 86 87 88 89 90 91 92 92 93 95 95 96 97 98 99 99 101 102 103 104 105 105 106 107 108 109 110 111 112 113 114 115 116 116 118 118 119 120 121 122 123 124 125 126 127 128 129 130 131 132 133 133 134 135 137 138 139 140 141 142 143 144 145 146 147 149 149 150 151 152 153 155 155 157 158 159 160 160 161 162 163 164 164 165 166 167 168 168 170 171 171 172 173 174 175 176 176 178 178 179 180 181 182 183 184 185 186 186 187 188 189 190 191 191 192 194 195 195 196 196 197 198 199 200 202 202 203 204 205 206 207 209 209 210 211 212 213 213 215 216 217 217 219 220 220 221 224 152 222 255 255 255 255 255 255 255 255 255 255
255 255 255 255 255 255 255 255 255 255 255 255 255 255 255 255 255 255 255 255 255 255 255 255 255 254 129 19 25 26 27 28 29 30 31 32 32 34 34 36 37 37 38 39 40 41 42 42 43 44 45 46 47 48 49 50 50 51 52 53 54 55 56 57 57 58 59 60 61 62 63 64 65 66 67 68 69 69 70 71 72 73 74 75 75 76 77 78 79 80 81 82 82 83 84 85 86 87 87 88 89 90 92 92 93 94 95 96 97 98 98 99 100 101 102 103 104 105 106 107 108 109 110 111 112 113 113 114 115 116 117 118 119 120 120 121 122 123 124 125 126 128 128 129 130 131 132 134 134 135 136 137 138 139 141 141 142 144 144 145 146 147 149 150 151 152 153 154 155 157 158 158 159 160 161 162 162 164 164 165 166 166 167 168 169 170 171 172 173 173 175 175 176 177 178 179 180 181 181 182 183 184 185 186 187 188 189 189 190 191 192 193 194 195 196 196 197 198 199 200 201 202 203 204 205 206 207 207 209 210 211 212 213 213 214 215 216 217 218 219 220 221 222 225 151 222 255 255 255 255 255 255 255 255 255 255
255 255 255 255 255 255 255 255 255 255 255 255 255 255 255 255 255 255 255 255 255 255 255 255 255 255 129 20 25 26 27 28 29 30 31 32 33 34 35 36 37 38 39 40 40 41 42 43 44 45 46 46 48 49 49 50 51 51 52 53 55 56 56 57 58 59 60 61 61 62 63 64 65 66 67 68 69 70 70 71 72 73 74 75 76 76 78 78 79 80 81 82 83 84 84 86 86 87 88 89 90 91 92 92 93 94 95 96 97 98 99 100 101 102 103 104 105 106 106 107 108 109 110 111 112 113 114 115 116 117 118 119 119 120 121 122 123 124 125 126 127 128 129 129 131 132 133 134 135 136 137 137 139 140 141 142 143 144 145 146 147 148 149 151 151 152 153 155 156 157 157 158 160 160 161 162 163 164 165 165 166 167 168 168 170 170 171 172 173 174 175 176 176 177 179 180 180 181 182 182 183 185 186 187 187 189 189 190 191 192 192 193 194 195 196 197 197 198 199 200 202 203 203 204 205 206 207 208 210 211 211 212 213 214 215 216 216 218 219 219 220 221 222 225 151 222 255 255 255 255 255 255 255 255 255 255
255 255 255 255 255 255 255 255 255 255 255 255 255 255 255 255 255 255 255 255 255 255 255 255 255 255 130 21 25 27 28 29 30 31 32 33 34 35 35 37 38 39 39 40 41 42 43 43 45 45 47 47 48 49 50 51 51 52 53 54 55 56 57 58 59 59 61 61 62 63 64 65 66 67 68 68 69 70 71 72 73 73 75 75 76 77 78 79 80 81 82 83 84 84 85 86 87 88 88 90 90 91 92 93 94 95 96 97 97 99 100 101 102 102 103 105 105 106 107 108 109 110 111 112 113 114 115 116 116 117 118 119 120 121 122 123 124 125 126 127 128 128 129 130 132 133 134 135 136 137 137 138 139 141 142 142 143 145 146 146 147 149 150 151 152 153 154 155 157 158 158 159 160 161 161 162 163 164 165 166 167 167 168 169 170 171 172 173 174 174 176 177 177 178 179 180 181 182 183 183 184 185 186 187 188 189 190 191 191 192 193 194 195 196 197 197 198 199 200 201 202 203 204 205 206 207 208 209 210 211 212 213 213 214 215 216 217 218 219 220 221 222 223 225 152 222 255 255 255 255 255 255 255 255 255 255
255 255 255 255 255 255 255 255 255 255 255 255 255 255 255 255 255 255 255 255 255 255 255 255 255 255 129 21 26 27 28 29 30 31 32 33 34 35 36 38 38 39 40 41 42 42 43 44 45 46 47 47 48 49 50 51 52 53 53 54 56 57 57 58 59 60 61 62 63 64 64 65 66 67 68 69 70 71 71 72 73 74 75 76 77 78 79 80 80 82 82 83 84 85 86 86 87 88 89 90 91 92 93 94 95 95 97 97 98 99 100 101 102 103 104 105 106 107 108 109 109 110 111 112 113 114 115 116 117 118 119 120 120 121 122 123 124 125 126 127 128 129 130 131 132 133 134 135 136 137 138 139 140 141 142 143 144 145 146 147 148 149 151 152 153 154 155 156 157 158 159 160 161 162 162 163 164 165 165 166 167 168 169 170 171 172 172 173 174 174 176 177 177 178 180 181 181 182 183 184 185 186 186 187 189 190 190 191 192 193 194 194 195 196 197 198 199 199 200 201 202 204 204 205 206 207 208 209 210 211 212 213 214 215 216 217 218 219 219 221 221 223 223 226 153 222 255 255 255 255 255 255 255 255 255 255
255 255 255 255 255 255 255 255 255 255 255 255 255 255 255 255 255 255 255 255 255 255 255 255 255 255 129 21 26 28 29 30 31 32 33 34 35 36 37 38 39 40 40 41 42 43 44 44 45 46 48 48 49 50 51 52 52 53 54 55 56 57 58 59 60 61 62 62 63 64 65 66 67 68 69 69 71 71 72 73 73 74 75 76 78 78 79 80 81 82 83 84 85 85 86 87 88 89 90 91 92 92 93 94 95 96 97 98 99 100 101 102 103 104 105 106 106 107 108 109 110 111 112 113 114 115 116 117 118 118 119 120 121 122 123 124 125 126 127 128 129 130 130 132 133 134 135 136 137 138 139 140 141 142 143 144 145 146 147 148 149 150 151 152 153 154 155 156 158 159 160 160 161 162 163 163 164 165 166 167 168 169 170 170 171 172 173 174 175 175 176 177 178 179 180 181 182 183 184 184 185 186 187 188 189 190 191 192 193 193 194 195 196 197 198 198 199 200 201 202 203 204 205 206 207 208 209 209 211 212 213 213 214 215 216 217 218 219 220 221 222 223 224 227 153 222 255 255 255 255 255 255 255 255 255 255
255 255 255 255 255 255 255 255 255 255 255 255 255 255 255 255 255 255 255 255 255 255 255 255 255 255 130 22 27 28 29 30 31 32 33 34 35 36 37 38 39 40 41 42 42 43 44 45 46 47 48 49 50 51 51 52 53 54 54 55 57 57 58 59 60 61 62 63 64 65 66 66 67 68 69 70 71 72 73 73 74 75 76 77 78 79 79 81 82 83 83 84 85 86 86 87 88 89 90 91 92 93 94 95 95 97 98 99 99 101 101 103 104 105 105 106 107 108 109 110 110 112 113 114 115 116 117 117 118 119 120 121 122 123 123 124 125 127 127 128 130 130 131 132 133 134 136 136 137 138 139 140 141 142 143 144 145 146 147 148 149 151 152 153 154 155 156 157 158 159 160 161 162 163 164 164 165 166 167 168 168 169 170 171 172 173 174 175 175 176 177 178 179 180 181 182 182 183 184 185 185 187 188 189 189 191 191 192 193 194 194 195 197 198 198 199 200 200 201 203 204 205 205 206 207 208 209 210 211 212 213 214 215 216 216 218 219 220 221 222 223 224 225 227 153 222 255 255 255 255 255 255 255 255 255 255
255 255 255 255 255 255 255 255 255 255 255 255 255 255 255 255 255 255 255 255 255 255 255 255 255 255 130 22 28 28 30 31 32 33 34 35 36 37 38 39 40 41 42 43 43 44 45 46 47 47 49 50 50 51 52 53 54 55 55 56 57 58 59 60 61 62 63 64 65 66 67 67 68 69 70 71 72 72 73 74 74 75 76 77 79 79 80 81 82 83 84 85 85 87 87 88 89 90 91 92 93 94 94 95 96 97 99 99 100 101 102 103 104 105 106 107 108 109 109 110 111 112 113 114 115 116 117 118 119 120 121 122 123 124 124 125 126 127 128 129 130 131 132 133 134 135 136 137 138 139 140 141 142 143 144 145 146 147 148 149 150 152 153 154 155 156 157 158 159 160 161 161 162 164 164 164 166 166 168 168 169 170 171 172 172 173 174 175 176 177 178 179 179 180 181 182 183 184 185 186 186 187 188 189 190 191 192 193 193 194 195 196 197 198 199 200 200 201 202 203 204 205 206 207 208 209 210 211 212 213 213 214 215 216 217 218 219 220 221 222 223 224 225 228 153 222 255 255 255 255 255 255 255 255 255 255
255 255 255 255 255 255 255 255 255 255 255 255 255 255 255 255 255 255 255 255 255 255 255 255 255 255 129 23 28 29 30 31 32 34 35 36 36 38 38 40 40 41 42 43 43 44 45 46 47 48 49 50 51 52 53 54 54 55 55 57 58 59 59 61 61 62 63 64 65 66 67 68 68 70 70 71 72 73 74 74 75 76 77 78 79 80 81 82 83 84 84 86 86 87 88 89 89 91 91 92 94 94 95 96 96 98 99 100 101 102 103 104 104 106 107 108 108 109 110 111 112 113 114 115 116 117 117 118 119 120 121 122 123 124 125 126 127 128 129 130 131 132 132 134 135 136 137 138 139 140 141 142 143 144 145 146 147 148 148 150 151 152 153 154 155 156 157 158 160 161 161 162 163 164 164 165 166 167 168 169 169 171 171 172 173 174 175 176 176 177 178 179 180 181 182 183 184 185 185 186 187 188 189 190 191 192 192 193 194 195 196 197 197 199 199 200 201 202 203 204 205 206 207 208 209 209 210 211 213 213 214 215 216 217 218 219 220 221 222 223 224 225 226 228 153 222 255 255 255 255 255 255 255 255 255 255
255 255 255 255 255 255 255 255 255 255 255 255 255 255 255 255 255 255 255 255 255 255 255 255 255 255 130 23 28 30 31 32 33 34 35 36 37 38 39 40 41 42 43 44 44 45 46 47 48 49 50 51 51 52 54 54 55 56 56 57 58 59 60 61 62 63 64 65 66 67 67 68 69 70 71 72 73 74 74 75 76 77 78 79 80 81 81 82 83 84 85 86 87 88 88 89 90 91 92 93 94 95 96 97 97 98 99 100 101 102 103 104 105 107 107 108 109 110 111 112 112 113 115 116 116 117 118 119 120 121 122 123 124 125 126 126 127 128 129 130 131 132 133 135 136 137 138 139 139 140 142 143 144 145 146 147 147 149 149 151 152 153 154 155 156 157 158 159 160 161 162 163 164 164 165 166 167 168 169 169 170 171 172 173 173 174 175 176 177 178 179 180 181 182 183 184 184 185 186 187 188 188 190 191 191 192 193 194 195 196 196 197 198 199 200 201 201 202 203 204 205 206 207 208 209 210 211 211 213 214 215 215 216 217 218 219 220 222 222 224 224 225 226 229 153 222 255 255 255 255 255 255 255 255 255 255
255 255 255 255 255 255 255 255 255 255 255 255 255 255 255 255 255 255 255 255 255 255 255 255 255 255 130 24 29 30 31 32 33 35 36 37 37 38 39 40 41 42 43 44 45 46 47 47 48 49 50 51 52 53 54 55 55 56 57 58 59 60 61 62 62 64 65 66 66 67 68 69 70 71 72 72 73 74 75 76 76 77 78 79 80 81 82 83 84 85 86 86 87 88 89 90 91 92 93 93 94 95 96 97 98 99 100 101 102 103 103 105 105 107 107 109 109 111 111 112 113 114 115 116 117 118 119 120 120 121 122 123 124 125 126 127 128 129 130 131 132 133 133 135 136 137 138 139 140 141 142 143 144 145 146 147 148 149 150 151 152 153 155 156 156 157 158 159 160 162 162 163 164 164 166 166 167 168 169 170 170 171 172 173 174 175 175 176 178 178 179 180 181 182 183 184 185 185 186 187 189 189 190 191 191 192 194 194 195 196 197 197 198 200 201 201 202 203 204 204 206 207 207 209 210 210 211 212 213 214 215 216 216 217 219 220 221 222 223 224 225 226 226 229 153 222 255 255 255 255 255 255 255 255 255 255
255 255 255 255 255 255 255 255 255 255 255 255 255 255 255 255 255 255 255 255 255 255 255 255 255 255 130 24 30 31 32 33 34 35 36 37 38 39 40 41 42 43 43 45 45 47 48 48 49 50 51 52 53 54 54 55 56 57 57 59 60 61 62 63 63 64 65 66 67 68 69 69 70 71 72 73 74 75 76 77 77 78 79 80 81 81 82 84 84 86 86 87 88 89 90 90 91 92 93 94 95 96 96 98 98 100 101 101 102 104 104 105 106 107 108 109 110 111 112 113 113 115 115 116 117 118 119 120 121 122 123 124 125 125 126 128 129 130 130 131 132 133 134 135 137 138 138 140 140 141 142 143 144 146 147 147 149 149 150 152 152 154 155 156 156 157 159 160 161 162 163 163 165 165 166 167 168 169 169 170 171 172 173 174 175 176 176 177 179 179 180 181 181 182 184 185 185 186 187 188 189 190 190 191 192 193 194 195 196 196 197 198 199 200 201 202 202 203 204 205 207 207 208 209 210 211 212 213 214 214 215 216 217 218 219 220 221 223 224 225 225 226 227 230 154 222 255 255 255 255 255 255 255 255 255 255
255 255 255 255 255 255 255 255 255 255 255 255 255 255 255 255 255 255 255 255 255 255 255 255 255 255 130 24 30 31 32 33 35 36 36 37 38 39 40 41 42 43 44 45 46 47 48 48 49 50 51 52 53 54 55 56 56 58 58 59 60 61 62 63 64 65 66 67 68 68 69 70 71 71 73 74 74 75 76 77 78 79 80 80 81 82 83 84 85 86 87 88 89 89 90 91 92 93 93 94 95 96 97 98 99 100 101 102 102 104 105 106 107 108 109 110 111 111 112 113 114 116 116 117 118 119 120 121 122 123 123 124 125 126 127 128 129 130 131 132 133 134 135 136 137 138 139 140 141 142 143 144 145 146 147 148 149 150 151 152 153 154 156 157 157 158 159 160 162 163 163 164 165 166 167 167 168 169 170 171 172 173 174 175 176 177 177 178 179 179 181 181 182 183 184 185 186 187 188 188 189 190 191 192 193 194 195 196 196 197 198 199 200 200 201 202 203 204 205 206 207 208 209 210 210 211 212 213 214 215 216 217 218 219 220 221 222 223 224 225 226 226 228 230 154 222 255 255 255 255 255 255 255 255 255 255
255 255 255 255 255 255 255 255 255 255 255 255 255 255 255 255 255 255 255 255 255 255 255 255 255 255 130 24 31 32 33 34 35 36 37 38 39 40 41 42 43 44 45 46 47 48 48 49 50 51 52 53 54 55 56 57 57 58 59 60 61 62 63 64 65 66 67 67 68 69 70 70 71 72 73 74 75 76 77 78 78 79 80 81 82 83 84 85 85 86 87 88 89 90 90 91 92 94 94 95 96 97 98 99 99 100 102 102 103 104 105 106 107 108 110 110 111 112 113 114 114 116 117 118 119 120 121 121 122 123 124 125 126 127 128 128 129 131 131 132 133 135 136 137 138 139 140 141 142 143 144 145 145 147 148 149 150 150 152 153 154 155 156 157 158 159 160 161 162 163 164 165 166 166 167 168 169 170 171 172 173 174 175 175 176 177 178 179 179 180 181 182 183 184 185 186 187 187 188 189 190 191 192 193 193 194 195 196 197 198 198 199 200 201 202 203 203 204 205 206 207 209 209 210 211 212 213 214 215 216 217 218 218 219 220 221 222 223 224 226 226 227 228 231 154 222 255 255 255 255 255 255 255 255 255 255
255 255 255 255 255 255 255 255 255 255 255 255 255 255 255 255 255 255 255 255 255 255 255 255 255 255 130 25 31 32 33 34 35 36 37 38 39 40 41 42 43 44 45 46 47 48 48 50 50 51 52 53 55 55 56 57 58 58 59 60 62 62 63 64 65 66 67 68 69 70 70 71 72 72 74 75 76 76 77 78 78 80 81 81 82 83 84 85 86 87 88 89 90 90 91 92 93 94 94 96 97 97 98 99 100 101 102 103 104 105 106 107 108 109 110 111 112 113 114 115 115 116 117 119 119 121 121 122 123 124 125 126 126 128 128 129 130 131 132 133 134 136 136 137 139 140 141 142 143 143 145 146 147 148 149 149 150 151 152 154 154 156 157 158 159 159 161 162 163 164 165 166 166 167 168 169 170 170 171 172 173 174 175 176 177 178 178 179 180 181 182 183 184 185 186 187 187 188 189 190 190 191 192 193 194 195 195 196 197 198 198 200 201 202 203 203 204 205 206 207 208 209 210 211 211 213 213 214 215 216 217 218 219 220 221 222 223 224 225 226 226 228 228 231 154 222 255 255 255 255 255 255 255 255 255 255
255 255 255 255 255 255 255 255 255 255 255 255 255 255 255 255 255 255 255 255 255 255 255 255 255 255 130 25 32 32 34 35 36 37 38 39 40 41 42 43 44 45 46 47 48 49 49 50 51 52 53 54 55 56 57 58 58 59 60 61 62 63 64 65 66 66 67 69 70 71 71 72 72 73 75 75 76 77 78 79 79 80 81 82 83 84 85 86 87 88 89 90 90 91 92 93 94 95 95 96 97 98 99 100 101 102 103 104 104 105 107 108 109 110 110 111 112 113 114 116 116 117 118 119 120 121 122 123 124 125 125 126 127 128 129 130 131 132 133 134 135 136 137 138 139 140 141 142 143 144 145 146 147 149 149 150 151 152 153 154 155 156 158 159 159 160 161 162 163 164 165 166 167 167 169 169 170 171 171 172 173 175 176 177 177 178 179 180 181 181 183 183 184 185 186 187 188 189 189 190 191 192 193 194 195 196 196 197 198 199 199 200 201 202 203 204 205 205 207 207 208 210 210 211 212 213 214 215 216 217 217 218 219 220 221 222 223 224 225 226 227 228 229 231 154 222 255 255 255 255 255 255 255 255 255 255
255 255 255 255 255 255 255 255 255 255 255 255 255 255 255 255 255 255 255 255 255 255 255 255 255 255 130 26 32 33 34 35 36 37 38 40 40 42 42 43 45 45 46 47 48 49 50 51 51 52 53 54 56 57 57 58 59 60 61 62 63 64 65 66 66 67 68 69 70 71 72 72 73 74 75 76 77 78 79 80 80 81 82 83 84 85 86 87 87 88 89 90 91 92 93 93 94 96 96 97 98 99 100 100 101 102 104 104 105 106 107 108 109 110 111 112 113 114 115 116 117 118 119 120 121 122 123 124 125 125 126 127 128 129 129 131 131 133 134 135 136 137 138 139 140 141 142 143 144 145 146 147 147 149 150 151 151 152 154 155 156 157 158 159 160 161 162 163 164 165 166 167 168 168 169 170 171 172 172 173 174 175 176 177 178 179 180 181 181 182 183 184 185 186 187 188 188 189 190 191 192 193 194 195 195 196 197 198 198 199 200 201 202 203 203 204 205 206 207 208 209 210 211 212 212 213 214 215 217 217 218 219 220 221 222 223 224 225 226 227 228 229 229 231 154 222 255 255 255 255 255 255 255 255 255 255
255 255 255 255 255 255 255 255 255 255 255 255 255 255 255 255 255 255 255 255 255 255 255 255 255 255 130 26 32 34 35 36 37 38 39 40 41 42 43 44 45 46 46 48 49 50 50 51 52 53 54 55 56 58 58 59 60 60 61 62 63 64 65 66 67 68 69 70 70 71 72 73 74 75 76 77 78 78 80 80 81 82 83 84 85 86 86 87 88 89 90 91 92 92 93 94 95 96 97 98 98 99 100 101 102 103 104 105 106 107 108 109 109 111 112 112 114 115 116 117 117 118 119 120 121 122 123 124 125 126 127 128 129 130 130 131 132 133 135 135 137 138 138 140 141 142 143 143 145 146 146 147 148 150 150 151 152 153 155 155 156 157 159 160 160 161 162 163 164 166 167 168 168 169 170 170 171 172 173 174 174 176 177 178 179 180 180 181 181 182 183 184 185 186 188 188 189 190 191 191 193 194 194 195 196 197 197 198 199 200 201 201 203 204 204 205 205 206 207 208 209 211 212 212 213 214 215 216 217 218 218 219 220 221 222 223 225 225 226 228 228 229 230 232 154 222 255 255 255 255 255 255 255 255 255 255
255 255 255 255 255 255 255 255 255 255 255 255 255 255 255 255 255 255 255 255 255 255 255 255 255 255 130 26 32 34 35 36 37 38 39 40 41 42 43 44 45 46 47 48 49 50 51 51 52 53 54 55 57 58 59 59 60 61 61 62 64 65 66 66 67 68 69 70 71 72 73 73 74 75 76 77 78 79 80 81 81 83 83 84 85 86 87 88 88 89 90 91 92 93 93 94 95 96 97 98 99 100 100 102 102 104 105 105 107 107 109 109 110 111 112 113 114 116 116 117 118 119 120 121 122 123 124 125 126 126 128 128 129 130 131 132 133 134 135 136 137 138 139 140 141 142 143 145 145 146 147 148 149 150 151 152 153 154 155 156 157 158 160 160 161 162 163 164 165 166 167 168 169 170 170 171 172 173 174 174 175 176 177 178 179 180 181 181 182 183 184 185 186 187 188 189 190 190 191 192 193 194 195 195 196 198 198 199 199 200 201 202 203 204 204 205 206 207 208 209 210 211 212 213 214 214 215 216 217 218 219 219 221 221 222 224 225 226 227 228 228 230 231 233 154 222 255 255 255 255 255 255 255 255 255 255
255 255 255 255 255 255 255 255 255 255 255 255 255 255 255 255 255 255 255 255 255 255 255 255 255 255 130 27 33 35 36 37 38 39 40 41 42 43 44 45 47 47 48 49 50 51 52 53 53 54 55 57 58 59 60 61 61 62 63 64 65 66 67 68 69 69 70 71 72 73 74 75 75 77 78 78 79 80 81 82 83 84 84 85 86 87 88 89 90 91 91 92 93 94 94 96 97 97 98 99 100 101 102 103 103 105 106 107 108 109 110 111 112 113 113 114 115 116 117 118 119 120 121 122 123 124 125 127 127 128 129 130 131 132 132 133 135 135 136 137 138 140 140 142 142 144 145 146 147 148 148 149 150 152 152 153 154 155 156 157 158 159 161 162 162 163 164 165 166 168 168 169 170 170 171 172 173 174 175 175 176 177 179 180 180 181 182 182 183 184 185 186 187 188 189 190 191 191 193 194 194 195 196 197 198 198 199 200 201 201 202 203 204 206 206 207 208 208 209 210 211 212 213 214 215 216 216 217 219 219 220 221 222 223 224 225 226 227 228 229 230 231 232 234 155 222 255 255 255 255 255 255 255 255 255 255
255 255 255 255 255 255 255 255 255 255 255 255 255 255 255 255 255 255 255 255 255 255 255 255 255 255 130 28 34 36 37 38 39 40 41 42 43 44 45 46 47 48 49 50 51 52 53 53 55 56 56 57 59 59 60 61 62 63 64 65 66 67 68 69 70 70 71 72 73 74 75 75 76 77 78 79 80 81 82 83 83 84 85 86 87 88 89 90 91 92 92 93 94 95 95 97 98 98 99 100 101 102 103 104 105 106 107 108 109 110 111 111 112 114 115 116 116 117 118 119 120 121 122 123 124 125 126 127 128 129 130 131 132 133 133 134 135 137 137 138 139 140 141 143 144 145 146 147 148 149 149 151 152 153 153 154 155 156 158 158 159 160 162 163 163 164 165 166 167 169 169 170 170 171 172 173 174 175 176 177 177 178 179 180 181 182 183 183 184 185 186 187 188 189 190 191 192 192 194 195 195 196 197 198 199 199 200 201 202 202 203 204 205 206 207 208 209 209 210 211 213 214 214 215 216 217 217 219 220 220 221 222 223 224 225 226 227 228 229 229 231 231 232 234 155 222 255 255 255 255 255 255 255 255 255 255
255 255 255 255 255 255 255 255 255 255 255 255 255 255 255 255 255 255 255 255 255 255 255 255 255 255 130 28 35 36 38 39 39 41 42 43 44 45 46 47 47 49 50 51 52 53 53 54 55 56 57 58 59 60 61 62 63 64 65 65 67 67 69 70 70 71 72 73 73 75 75 76 77 78 79 80 81 82 82 83 84 85 85 87 87 88 89 90 91 92 93 93 95 96 96 97 98 99 100 101 101 103 103 104 105 106 108 108 109 110 111 112 113 114 115 116 117 118 119 120 121 122 123 124 125 126 127 128 129 129 131 132 133 134 134 135 136 137 138 139 141 141 142 143 144 145 146 147 148 149 150 151 152 153 154 155 156 157 158 159 160 161 162 163 164 165 166 166 168 168 170 171 171 172 173 173 175 176 177 177 178 179 180 181 182 182 183 184 185 185 187 188 189 190 191 192 192 193 194 195 195 196 197 198 199 200 200 201 202 203 204 204 206 207 207 208 209 210 210 211 213 214 214 215 216 217 218 219 220 221 221 222 223 224 225 226 227 228 229 230 231 232 233 235 155 222 255 255 255 255 255 255 255 255 255 255
255 255 255 255 255 255 255 255 255 255 255 255 255 255 255 255 255 255 255 255 255 255 255 255 255 255 131 29 36 37 38 39 40 41 42 43 44 45 46 48 48 49 50 51 52 53 54 55 55 56 58 59 60 61 62 63 64 64 65 66 67 68 69 70 71 71 73 73 74 76 76 77 78 79 79 80 81 82 83 84 85 85 86 87 88 89 90 91 91 92 93 94 95 96 97 98 99 100 100 101 102 103 104 105 106 107 108 109 110 111 112 113 114 115 116 117 118 119 119 121 121 122 123 124 125 127 127 128 129 130 131 132 133 134 135 136 137 138 139 140 141 142 143 144 145 146 147 148 149 150 151 152 153 154 155 155 156 157 159 160 160 162 163 164 164 165 166 167 168 169 170 171 171 172 173 174 175 176 177 177 178 179 181 182 182 183 184 184 185 186 187 188 189 190 191 192 193 193 194 195 196 197 198 198 199 200 201 202 202 203 204 205 206 207 208 209 210 210 211 212 213 214 215 216 217 217 218 219 220 221 222 223 224 224 226 227 228 228 229 230 231 233 233 235 155 222 255 255 255 255 255 255 255 255 255 255
255 255 255 255 255 255 255 255 255 255 255 255 255 255 255 255 255 255 255 255 255 255 255 255 255 255 131 30 37 38 39 40 41 42 42 44 45 46 47 48 49 50 51 52 53 54 54 56 56 57 58 59 60 62 62 63 64 65 65 66 68 69 70 71 71 72 73 74 75 76 77 78 78 79 80 81 82 83 83 84 85 86 87 88 89 89 90 91 92 93 94 95 96 97 98 98 99 100 101 102 103 104 105 105 106 108 108 109 110 111 112 113 114 115 117 117 118 119 120 121 122 123 124 125 126 127 128 128 130 131 132 133 134 135 135 136 137 139 139 140 142 143 143 144 146 147 148 149 149 150 151 152 153 155 155 156 157 158 159 160 161 162 163 164 165 166 167 167 169 170 171 172 172 173 174 175 176 177 177 178 179 180 181 182 183 184 185 185 186 187 188 189 190 191 192 193 193 194 195 196 196 197 198 199 200 201 201 202 203 204 205 206 207 208 209 210 210 211 212 212 214 215 215 216 217 218 219 220 221 222 223 223 224 225 226 227 228 229 230 231 232 233 234 236 155 222 255 255 255 255 255 255 255 255 255 255
255 255 255 255 255 255 255 255 255 255 255 255 255 255 255 255 255 255 255 255 255 255 255 255 255 255 131 31 37 38 40 40 41 42 44 45 45 47 48 49 50 50 52 53 53 54 55 57 57 58 59 60 61 62 63 64 64 65 66 67 68 69 70 71 72 73 74 74 76 76 77 78 78 79 80 81 82 83 84 85 86 86 87 88 89 90 91 92 93 94 94 95 96 97 98 99 100 100 101 103 104 104 105 106 107 108 109 110 111 112 113 114 115 116 117 118 119 120 121 122 122 124 124 125 127 127 128 129 130 131 132 133 134 135 136 137 138 139 140 141 142 143 144 145 146 147 148 149 150 151 152 153 154 155 156 157 158 159 159 160 161 163 164 164 165 166 167 168 170 171 171 172 173 174 174 175 176 177 178 179 179 180 181 183 183 184 185 186 186 187 189 189 190 191 192 193 194 195 195 196 197 198 199 200 200 201 202 203 203 204 205 206 207 208 209 210 211 211 212 213 214 215 216 217 217 218 219 220 221 222 223 224 225 226 226 227 229 229 230 231 233 234 235 237 155 222 255 255 255 255 255 255 255 255 255 255
255 255 255 255 255 255 255 255 255 255 255 255 255 255 255 255 255 255 255 255 255 255 255 255 255 255 131 32 38 39 40 41 42 43 44 45 46 47 48 49 50 51 52 53 54 55 56 57 58 59 60 61 62 63 64 64 65 66 67 68 69 70 71 72 72 73 74 75 76 77 78 79 79 80 81 82 83 84 85 85 86 87 88 89 90 91 92 93 94 94 95 96 97 98 99 100 100 101 102 103 104 105 106 107 108 109 110 111 111 112 113 115 116 117 117 119 120 120 121 122 123 125 125 126 127 128 129 129 131 132 133 134 135 136 136 137 139 139 140 142 143 144 145 145 147 148 149 150 150 151 152 153 155 156 156 157 158 159 160 161 162 163 165 165 166 167 168 169 170 171 172 173 173 174 175 176 177 178 178 179 180 181 182 183 184 184 185 186 187 188 189 190 191 192 193 194 194 195 196 197 198 199 199 200 201 202 203 203 204 205 206 206 207 209 209 210 211 212 213 214 215 216 216 217 218 219 220 220 222 223 223 224 225 226 227 228 229 230 231 232 233 234 235 238 156 222 255 255 255 255 255 255 255 255 255 255
255 255 255 255 255 255 255 255 246 209 205 252 252 204 189 196 243 254 229 193 221 253 255 255 255 255 131 32 39 40 41 42 43 44 45 46 47 48 49 50 51 52 53 54 55 56 57 58 59 60 61 62 63 64 64 65 66 66 67 68 70 71 71 73 73 74 75 76 77 77 78 79 80 81 82 83 83 85 85 86 87 88 88 90 90 91 92 93 94 95 96 96 97 99 99 100 101 102 103 104 105 106 107 107 108 109 110 111 112 113 114 115 116 117 118 119 120 121 122 123 124 125 126 127 128 129 130 131 131 132 134 135 135 136 137 138 139 140 141 142 144 144 145 146 148 148 149 150 151 152 153 154 155 156 157 158 159 160 161 162 163 164 165 166 167 168 169 169 171 172 172 173 174 175 176 176 177 178 179 180 181 182 183 183 184 185 186 187 187 188 189 190 191 192 193 194 195 195 196 197 198 199 200 200 201 203 203 204 205 205 206 207 208 209 209 211 211 212 213 214 215 216 217 218 219 219 220 221 222 223 224 225 226 227 228 228 230 231 232 233 234 234 235 237 156 222 255 255 255 255 255 255 255 255 255 255
255 255 255 255 255 255 255 255 214 118 95 246 247 109 169 193 242 230 121 170 117 211 255 255 255 255 131 33 40 41 42 43 44 44 46 47 48 49 50 51 52 53 54 55 56 57 58 59 59 60 61 62 63 64 65 66 67 67 68 69 70 71 72 73 74 75 76 77 78 78 79 80 81 82 83 84 84 86 86 87 88 88 89 90 91 92 93 94 95 96 96 97 98 99 100 101 102 103 103 105 105 107 107 108 109 110 111 112 113 114 114 116 117 118 119 120 121 122 122 123 124 125 126 127 129 130 130 131 132 133 134 135 136 137 138 139 140 141 142 143 144 145 146 147 148 149 150 151 152 153 154 155 155 157 158 158 160 161 161 162 163 165 166 167 168 168 169 170 172 172 173 174 174 175 176 177 178 179 180 181 181 182 183 184 185 186 186 187 188 189 190 191 192 193 194 195 196 196 197 198 199 200 200 201 202 203 204 204 205 206 207 208 209 210 210 211 212 213 214 214 216 217 218 218 219 220 221 221 223 224 225 225 226 227 228 229 230 231 232 233 234 235 236 238 155 222 255 255 255 255 255 255 255 255 255 255
255 255 255 255 255 255 255 255 253 219 104 247 246 103 146 191 247 176 140 253 170 145 254 253 235 233 122 34 41 41 42 43 44 45 47 47 48 50 50 51 53 54 54 56 56 57 58 59 60 61 62 63 64 65 66 67 67 68 69 70 71 72 73 74 74 76 76 77 78 79 80 81 81 82 83 84 85 86 87 88 88 89 90 91 92 93 94 94 95 96 97 98 98 100 101 101 103 103 104 105 106 107 108 109 110 111 112 112 113 114 115 116 117 118 119 120 121 123 123 125 125 126 127 128 130 130 131 132 133 133 135 136 137 138 138 139 140 142 143 144 145 146 147 148 149 150 151 152 153 153 154 155 156 157 158 159 160 161 162 163 164 165 166 167 168 169 170 171 172 173 173 174 175 176 177 178 179 180 180 181 182 183 184 185 186 187 187 188 189 190 191 192 193 193 194 195 197 197 198 199 199 200 201 202 203 204 204 205 206 206 207 208 209 210 211 212 213 214 214 215 216 217 218 218 220 220 221 222 223 224 225 226 226 227 228 229 230 231 232 233 234 236 237 238 156 222 255 255 255 255 255 255 255 255 255 255
255 255 255 255 255 255 255 255 255 223 104 246 251 195 188 119 177 150 163 254 186 125 253 243 155 136 72 34 41 42 43 44 45 46 47 48 49 50 51 52 53 54 55 56 57 58 59 60 61 62 63 64 65 66 66 67 68 69 69 70 72 73 73 75 75 76 77 78 79 80 81 82 82 83 84 85 86 87 87 88 89 90 91 92 92 93 94 95 96 97 98 99 99 100 101 102 103 104 105 106 107 108 109 110 110 111 112 113 114 115 116 117 118 119 120 121 122 123 124 125 126 127 128 129 130 131 132 133 134 134 135 136 138 138 139 140 141 142 143 144 145 146 147 148 150 150 151 152 153 154 155 156 157 158 159 160 161 162 163 164 165 166 167 168 169 170 170 171 173 174 174 175 176 177 178 178 179 181 181 182 183 184 184 185 186 187 188 189 189 190 191 193 193 194 195 196 197 198 199 199 200 201 202 202 203 204 205 205 206 207 208 209 210 211 212 213 213 214 215 216 217 218 218 219 220 221 222 223 224 225 226 226 227 228 229 230 231 232 233 234 235 236 237 239 156 222 255 255 255 255 255 255 255 255 255 255
255 255 255 255 255 255 255 255 255 222 104 246 254 254 255 181 136 169 148 253 176 140 254 254 250 248 128 35 42 43 44 45 46 46 47 48 49 51 52 53 54 55 55 57 58 58 60 60 61 62 63 64 65 66 67 68 68 69 70 71 72 73 74 75 76 76 77 78 79 81 81 82 83 84 85 85 86 87 88 89 89 90 91 92 93 94 95 96 97 98 98 99 100 101 102 103 104 104 106 107 107 109 109 110 111 112 113 114 115 116 117 118 119 120 121 122 123 124 125 126 126 128 129 129 131 131 132 133 134 135 136 137 138 139 140 141 142 143 144 145 146 147 148 149 150 151 152 153 154 155 155 157 158 158 159 161 161 162 163 164 165 167 168 169 169 170 171 172 173 174 175 176 177 177 179 179 180 181 182 182 183 184 185 186 187 188 189 190 190 191 192 193 194 195 196 196 197 198 199 200 201 202 202 203 204 205 205 206 207 208 209 209 211 212 212 213 214 215 215 216 217 218 219 220 221 222 223 224 225 225 226 227 227 228 229 230 231 233 233 235 236 237 237 239 156 222 255 255 255 255 255 255 255 255 255 255
255 255 255 255 255 255 255 255 233 163 82 189 231 180 188 118 180 220 115 190 123 199 255 255 255 255 131 35 42 44 45 45 46 47 48 49 50 51 52 53 55 56 56 57 58 59 60 61 62 63 64 65 66 67 67 69 69 69 70 71 72 74 75 76 76 77 78 79 80 81 82 83 84 85 85 86 87 88 89 90 90 91 92 93 94 95 95 96 98 98 99 100 101 102 102 103 104 105 106 108 108 109 110 111 112 113 114 115 116 117 118 119 120 121 122 122 124 125 126 127 127 129 129 130 131 132 133 134 135 136 137 138 139 140 141 142 142 144 145 145 147 148 148 149 151 152 153 154 154 155 156 157 158 159 160 161 162 163 164 165 166 167 168 169 170 170 172 173 174 175 176 177 177 178 179 180 180 181 182 183 184 185 186 187 188 188 189 190 191 192 193 194 194 195 196 197 198 199 200 201 201 202 203 204 204 205 206 207 207 208 209 210 211 212 213 214 215 216 216 217 218 219 219 220 221 222 223 224 225 226 227 227 228 229 230 231 232 233 234 235 236 237 238 240 156 222 255 255 255 255 255 255 255 255 255 255
255 255 255 255 255 255 255 255 236 191 186 198 239 188 162 194 249 253 214 173 203 251 255 255 255 255 131 35 43 44 45 46 46 48 49 50 51 52 53 54 55 56 57 58 59 60 61 62 63 63 64 65 66 67 68 69 69 70 71 72 73 74 75 76 77 78 79 79 80 81 83 83 84 85 86 87 88 89 89 90 91 92 92 93 94 95 96 97 98 99 100 100 101 102 103 104 105 106 107 108 108 110 110 112 112 113 114 115 116 117 118 120 120 121 122 123 124 126 126 127 128 129 130 131 132 133 134 135 135 137 138 139 140 141 141 142 143 144 145 146 147 148 149 150 152 152 153 154 155 156 157 158 159 160 161 162 163 164 165 166 166 167 169 170 170 171 172 173 174 175 176 177 178 179 179 180 181 182 183 184 184 185 186 187 188 189 190 190 191 192 193 194 195 196 197 198 199 200 200 201 202 202 203 204 205 206 207 208 208 209 210 210 211 212 213 214 215 216 217 217 218 219 220 221 222 223 223 224 225 226 227 228 229 229 230 231 233 234 234 236 237 238 238 240 156 223 255 255 255 255 255 255 255 255 255 255
255 255 255 255 255 255 255 255 255 255 255 255 254 255 254 255 255 255 255 255 255 255 255 255 255 255 131 36 43 44 45 46 47 48 49 50 51 53 53 54 56 57 58 59 60 61 62 63 63 64 65 66 67 68 69 70 70 71 72 73 74 75 76 77 77 78 79 80 81 82 83 84 85 86 87 88 88 89 90 91 92 93 93 94 95 96 97 98 98 99 100 101 102 103 103 105 105 107 108 108 109 110 111 112 113 114 115 116 117 118 119 121 121 122 123 124 125 126 127 128 129 130 131 132 133 134 135 136 136 138 139 140 141 142 142 143 144 145 146 147 148 149 150 151 152 153 154 155 156 157 158 159 159 160 162 162 164 165 165 166 167 168 170 171 171 172 173 174 175 176 177 178 178 179 180 181 182 183 183 185 185 186 187 188 189 190 190 191 192 193 194 195 196 196 198 199 199 200 201 202 202 203 204 205 205 206 207 208 208 210 210 211 212 213 214 215 215 217 217 218 219 220 221 222 223 223 224 225 226 227 228 228 229 230 231 232 233 234 235 236 237 238 239 241 156 222 255 255 255 255 255 255 255 255 255 255
255 255 255 255 255 255 255 255 255 255 255 255 255 255 255 255 255 255 255 255 255 255 255 255 255 255 131 37 44 45 46 47 48 49 50 51 52 53 54 55 56 57 58 59 60 61 62 63 64 65 66 67 68 69 69 70 71 71 72 73 74 76 76 78 78 79 80 81 82 83 84 85 85 87 87 88 89 90 91 92 92 93 94 95 95 97 97 99 99 100 101 102 103 104 104 105 106 107 108 109 110 111 112 113 114 115 116 116 118 119 120 121 122 123 124 125 126 127 128 129 130 131 132 133 133 135 135 137 138 138 139 140 141 142 143 143 144 145 146 147 149 150 151 152 153 154 154 156 156 157 158 159 160 161 162 163 164 165 166 167 168 169 170 171 172 172 173 174 176 177 177 178 179 179 180 181 182 183 184 185 185 186 187 188 189 190 191 192 192 193 195 195 196 197 198 199 200 201 201 202 203 204 205 205 206 207 208 208 209 210 211 212 213 213 214 216 216 217 218 218 220 221 221 222 223 224 224 225 227 227 228 229 230 230 231 233 233 235 236 236 237 238 239 241 156 222 255 255 255 255 255 255 255 255 255 255
255 255 255 255 255 255 255 255 255 255 255 255 255 255 255 255 255 255 255 255 255 255 255 255 255 255 132 38 45 45 47 47 48 49 50 51 53 54 54 56 57 58 59 60 61 62 63 64 65 66 67 68 68 70 70 71 72 72 73 74 75 76 77 78 79 80 80 82 83 84 85 85 86 87 88 89 90 91 91 92 93 93 94 95 96 97 98 99 100 101 102 103 104 105 105 106 107 108 109 110 111 112 113 114 114 115 116 117 119 120 121 122 123 124 125 125 126 127 128 129 130 131 132 133 134 135 136 137 138 139 140 141 142 143 143 144 145 146 147 148 149 150 151 152 154 155 155 156 157 158 159 160 161 162 163 164 165 166 167 168 169 170 171 172 172 173 174 175 177 177 178 179 180 180 181 182 183 184 185 186 186 187 188 189 190 191 192 192 193 194 195 196 197 198 199 200 200 201 202 202 203 204 205 206 207 208 208 209 210 211 211 212 213 214 215 216 217 218 218 219 221 221 222 223 224 224 225 226 227 228 229 230 230 231 232 233 234 235 236 237 238 239 240 241 156 222 255 255 255 255 255 255 255 255 255 255
255 255 255 255 255 255 255 255 255 255 255 255 255 255 255 255 255 255 255 255 255 255 255 255 255 255 131 38 45 46 47 48 49 50 51 52 53 54 55 56 57 59 60 61 62 63 63 65 65 66 67 68 69 70 71 72 72 73 74 75 76 77 77 78 79 80 81 82 83 84 85 86 87 87 89 89 90 91 92 93 93 94 95 96 97 98 99 100 101 102 102 103 104 105 106 107 108 109 110 111 111 112 113 114 115 116 117 118 119 120 121 122 123 124 125 126 127 128 129 130 131 132 133 134 135 136 137 138 139 139 141 142 142 143 144 145 146 147 148 148 150 151 151 153 154 155 156 157 157 158 159 160 161 162 164 164 165 166 167 168 169 170 171 172 173 174 175 176 177 178 178 179 180 181 182 183 184 185 185 186 187 188 188 190 191 192 192 193 194 195 196 197 197 198 199 200 201 202 203 203 204 205 205 207 208 208 209 210 211 211 212 213 214 215 216 217 217 218 219 220 221 222 223 224 224 225 226 227 228 228 229 230 231 232 232 233 234 235 236 237 238 239 240 241 156 222 255 255 255 255 255 255 255 255 255 255
255 255 255 255 255 255 255 255 255 255 255 255 255 255 255 255 255 255 255 255 255 255 255 255 255 255 132 38 45 46 47 48 50 51 52 53 54 55 56 57 58 59 61 61 62 63 64 65 66 67 68 69 70 71 72 72 73 74 75 76 77 78 78 79 80 81 82 83 84 85 86 87 87 88 89 90 91 92 93 94 94 95 96 97 98 99 99 101 102 102 103 104 105 106 107 108 109 110 111 111 112 113 114 115 116 117 118 119 120 121 122 123 124 125 126 127 128 129 130 131 132 133 134 134 136 137 137 138 139 140 141 142 143 144 145 146 147 148 148 149 151 152 152 153 155 156 157 158 159 159 160 161 162 163 164 165 166 167 168 169 170 171 172 173 173 174 175 176 178 179 179 180 181 182 183 183 184 185 186 187 187 188 189 190 191 192 193 193 195 195 196 197 198 199 200 201 201 202 203 204 205 205 206 207 208 209 210 210 211 212 213 214 215 216 216 217 218 219 219 220 221 222 223 224 225 225 226 227 228 229 230 231 232 232 233 234 235 236 237 238 239 239 240 242 156 222 255 255 255 255 255 255 255 255 255 255
255 255 255 255 255 255 255 255 255 255 255 255 255 255 255 255 255 255 255 255 255 255 255 255 255 255 132 39 46 47 48 49 50 51 52 53 54 55 56 58 59 60 61 62 63 64 65 66 67 67 68 69 71 72 72 73 74 74 75 76 77 78 79 80 81 82 83 84 85 86 86 87 88 89 90 91 92 92 93 95 95 96 96 98 98 99 100 101 102 103 104 105 105 107 108 109 110 111 111 112 113 114 115 116 117 118 118 120 121 122 122 124 125 126 127 128 129 130 131 132 132 133 134 135 136 137 138 139 140 141 142 143 144 145 145 146 147 148 149 150 151 152 153 154 155 156 157 158 159 160 160 162 163 164 165 166 167 168 168 169 170 172 173 173 174 174 176 177 178 179 179 180 181 182 183 184 185 186 186 187 188 189 190 191 192 193 194 194 195 196 197 198 199 200 201 202 202 203 204 205 206 207 207 208 209 210 210 211 212 213 214 214 215 216 217 218 219 219 220 221 222 223 224 224 225 226 227 228 228 229 230 231 232 232 233 234 235 236 238 238 239 240 240 242 156 222 255 255 255 255 255 255 255 255 255 255
255 255 255 255 255 255 255 255 255 255 255 255 255 255 255 255 255 255 255 255 255 255 255 255 255 255 132 40 47 48 49 50 51 52 53 54 55 56 57 59 60 61 62 63 64 65 66 67 67 68 69 70 71 73 73 74 75 75 76 77 78 79 80 81 82 83 83 84 86 86 87 88 89 90 91 92 93 93 94 95 96 97 98 99 99 100 101 102 103 104 105 106 106 107 109 109 110 111 112 113 114 115 116 117 118 119 120 121 121 122 123 125 126 127 128 129 130 131 132 132 133 134 135 136 137 138 139 140 141 142 143 144 145 146 146 147 148 149 150 151 152 153 154 155 156 157 158 159 160 161 161 163 164 165 165 167 167 168 169 170 171 172 174 174 174 175 177 177 179 180 180 181 182 182 184 184 185 187 187 188 189 190 191 192 192 193 194 195 196 196 198 198 199 200 202 202 203 204 204 205 206 207 208 209 209 210 211 211 212 213 214 215 216 217 218 218 219 220 221 222 223 223 224 225 226 226 227 228 229 230 231 232 232 233 234 235 236 237 238 239 240 240 241 242 156 222 255 255 255 255 255 255 255 255 255 255
255 255 255 255 255 255 255 255 255 255 255 255 255 255 255 255 255 255 255 255 255 255 255 255 255 255 132 40 47 49 50 51 52 53 54 55 55 57 58 59 60 61 63 64 64 65 66 67 68 69 70 71 72 73 74 75 75 76 77 78 79 79 81 82 83 84 84 85 86 87 88 89 89 90 91 92 93 94 95 96 96 97 98 99 100 101 102 103 104 105 105 106 107 108 109 110 111 112 113 114 115 116 117 118 118 120 120 122 122 123 124 126 127 128 128 129 130 131 133 133 134 135 136 137 138 139 140 141 141 142 144 145 146 146 147 148 149 150 151 152 153 154 155 156 157 158 159 160 160 161 162 163 164 166 167 167 168 169 170 171 171 172 174 175 175 176 177 178 179 180 181 182 183 183 184 185 186 187 188 189 189 190 191 192 193 194 195 195 196 197 198 199 200 201 202 203 204 205 205 206 207 208 208 209 210 211 211 212 213 214 214 216 216 218 218 219 220 220 221 222 223 224 225 225 226 227 227 229 229 231 231 232 233 233 234 235 236 237 238 239 240 240 241 243 157 222 255 255 255 255 255 255 255 255 255 255
255 255 255 255 255 255 255 255 255 255 255 255 255 255 255 255 255 255 255 255 255 255 255 255 255 255 132 40 48 49 50 51 52 54 55 55 56 58 59 60 61 62 63 65 65 66 67 68 69 69 71 72 73 74 74 75 76 76 77 79 80 81 82 82 83 84 85 86 87 88 89 90 91 91 92 93 94 95 96 96 97 98 99 100 101 102 102 104 105 105 106 107 108 109 110 111 111 113 113 114 115 116 117 118 119 121 121 122 123 124 125 127 127 129 129 130 131 132 133 134 135 136 137 138 139 140 140 141 142 143 144 146 146 147 148 149 149 150 152 153 154 154 156 157 158 159 160 161 161 162 163 164 165 166 167 168 168 169 170 172 172 173 174 175 176 177 178 179 180 181 182 182 183 184 185 186 187 188 188 189 190 191 192 193 194 195 195 196 197 198 199 200 201 202 203 204 204 205 206 207 207 208 209 210 210 211 212 213 214 215 215 216 217 218 219 220 220 221 221 222 224 225 225 226 227 228 228 229 230 231 232 233 233 234 235 236 237 238 239 240 240 241 242 243 157 222 255 255 255 255 255 255 255 255 255 255
255 255 255 255 255 255 255 255 255 255 255 255 255 255 255 255 255 255 255 255 255 255 255 255 255 255 132 41 49 50 51 52 53 55 56 56 57 59 60 61 62 63 64 66 66 67 68 69 69 70 71 72 73 74 75 76 77 78 78 79 80 81 82 83 84 85 86 86 88 89 89 90 91 92 93 94 95 96 96 97 98 99 100 101 101 102 103 104 105 106 107 108 109 110 111 111 112 113 114 115 116 117 118 119 120 121 122 123 124 125 126 127 128 130 130 131 132 133 134 134 135 137 137 138 139 140 141 142 143 144 145 147 147 148 148 150 150 152 152 153 154 155 156 157 159 159 160 161 162 162 163 164 165 167 168 168 169 170 171 172 173 174 175 176 177 178 178 179 181 181 182 183 184 185 186 187 187 188 189 190 191 192 193 194 194 195 196 197 198 199 200 201 201 202 204 205 205 206 207 207 208 209 210 211 211 212 213 214 214 215 216 217 218 219 219 220 221 222 222 223 224 225 226 227 227 228 229 230 231 232 232 233 234 235 235 236 237 238 239 240 241 241 242 243 157 222 255 255 255 255 255 255 255 255 255 255
255 255 255 255 255 255 255 255 255 255 255 255 255 255 255 255 255 255 255 255 255 255 255 255 255 255 132 42 50 51 52 53 54 56 57 58 59 60 60 62 63 64 65 66 67 68 69 70 70 71 72 73 74 75 76 77 77 79 79 80 81 82 83 84 85 86 87 88 88 89 90 91 92 93 93 95 95 97 97 97 99 100 100 101 102 103 104 105 106 107 108 109 110 111 112 112 113 114 115 116 117 118 119 120 121 122 123 124 125 126 127 128 129 130 130 131 133 134 135 135 137 138 138 139 140 141 142 143 144 145 146 147 147 148 149 150 151 152 153 154 155 156 157 158 159 160 161 162 163 163 164 165 166 168 169 169 170 171 172 173 174 175 176 177 178 178 179 180 182 182 183 184 185 186 187 187 188 189 189 191 191 192 194 194 195 196 197 198 199 199 201 202 202 203 205 205 205 207 207 208 209 209 210 211 212 213 213 214 215 216 216 217 218 219 220 221 222 222 223 224 225 226 227 227 228 229 229 230 232 232 233 233 234 235 236 237 237 238 240 240 241 241 242 244 157 222 255 255 255 255 255 255 255 255 255 255
255 255 255 255 255 255 255 255 255 255 255 255 255 255 255 255 255 255 255 255 255 255 255 255 255 255 132 42 51 52 53 55 56 57 58 59 60 61 62 63 64 65 66 68 68 69 70 71 71 72 74 74 76 77 77 79 79 80 81 82 82 84 85 86 87 87 88 89 90 91 92 92 93 94 95 96 97 98 98 99 100 101 102 103 104 105 106 107 107 109 109 110 111 112 113 114 115 116 117 118 119 120 121 122 123 124 125 126 127 128 129 130 131 132 133 134 134 135 136 137 138 139 140 141 142 143 144 145 146 147 147 149 149 150 151 152 153 154 155 156 157 158 159 160 161 162 163 164 165 166 166 167 168 169 170 171 172 173 174 175 175 176 178 179 180 180 181 182 183 185 185 186 186 187 188 189 190 191 191 193 193 194 195 196 197 197 198 199 200 201 202 203 204 205 206 207 207 208 209 210 210 211 211 212 213 214 215 216 216 217 217 219 220 221 222 222 223 224 224 225 227 227 228 228 229 230 231 232 232 233 234 235 235 236 237 238 239 240 240 241 242 243 243 244 157 222 255 255 255 255 255 255 255 255 255 255
255 255 255 255 255 255 255 255 255 255 255 255 255 255 255 255 255 255 255 255 255 255 255 255 255 255 132 42 52 53 54 56 56 58 59 60 61 62 63 64 65 66 67 69 69 70 71 72 73 74 75 75 77 78 78 79 80 81 82 83 84 85 86 86 87 88 89 90 91 92 93 93 94 95 96 97 98 99 100 101 101 102 103 104 105 106 107 108 109 110 111 112 112 113 114 115 116 117 118 119 120 121 122 123 124 125 126 127 128 129 130 131 132 133 134 135 136 137 138 139 140 141 141 142 143 144 145 146 146 148 149 150 150 152 152 153 154 155 156 157 158 159 160 161 162 163 164 165 166 166 167 168 169 170 171 172 173 174 175 176 176 178 179 180 180 181 182 183 184 185 186 187 187 188 189 190 191 192 192 194 194 195 196 197 198 199 199 200 201 202 203 204 204 205 206 208 208 209 210 210 211 212 212 213 214 215 216 216 217 218 218 219 221 222 222 223 224 224 225 226 227 228 228 229 230 231 231 232 233 234 234 235 236 237 238 238 240 241 241 242 243 243 244 245 157 222 255 255 255 255 255 255 255 255 255 255
255 255 255 255 255 255 255 255 255 255 255 255 255 255 255 255 255 255 255 255 255 255 255 255 255 255 132 44 53 54 55 56 57 58 59 60 61 62 64 65 65 67 68 69 70 71 72 73 73 75 75 76 77 78 79 80 81 81 82 83 84 85 86 87 88 89 90 91 91 92 93 94 95 95 97 97 98 99 100 101 102 103 104 105 106 106 107 108 110 110 111 112 113 114 115 116 117 118 119 120 120 122 123 124 125 126 127 127 128 130 131 131 132 134 134 135 136 137 138 139 140 141 142 143 143 144 145 146 147 148 149 151 151 152 153 154 154 155 156 157 159 160 161 161 162 163 164 166 166 167 168 169 170 171 171 173 174 174 175 176 177 178 179 180 181 182 182 183 185 185 186 187 188 189 190 190 191 192 193 194 195 195 197 198 198 199 200 201 202 202 203 204 205 206 207 208 208 209 210 210 211 212 213 214 214 215 216 217 218 219 219 220 221 222 222 223 224 225 225 226 227 228 229 230 230 231 232 233 234 234 235 235 236 237 238 239 240 241 242 242 243 243 244 245 157 222 255 255 255 255 255 255 255 255 255 255
255 255 255 255 255 255 255 255 255 255 255 255 255 255 255 255 255 255 255 255 255 255 255 255 255 255 132 45 54 55 56 57 58 59 60 61 62 63 64 65 66 67 69 70 71 72 72 73 74 75 76 77 78 79 80 81 82 82 83 84 85 86 87 88 89 90 91 91 92 93 94 94 95 96 97 98 99 100 101 102 102 104 105 105 106 107 108 109 110 111 112 113 114 115 116 117 118 119 120 121 121 122 123 124 125 126 128 128 129 130 131 132 133 135 135 136 137 138 139 140 141 142 142 143 144 145 146 147 148 149 150 151 152 153 154 155 155 156 157 158 159 160 161 162 163 164 165 166 167 167 168 169 170 171 172 173 174 175 176 177 177 178 179 181 182 182 183 184 186 186 187 188 189 189 190 191 192 193 193 194 195 196 197 198 199 200 200 201 202 203 204 204 205 206 207 208 208 209 210 211 211 212 213 214 215 216 216 217 218 219 219 220 221 222 223 224 225 226 226 227 228 229 229 230 231 231 232 233 234 234 235 236 237 238 238 239 240 241 242 243 243 244 245 246 157 222 255 255 255 255 255 255 255 255 255 255
255 255 255 255 255 255 255 255 255 255 255 255 255 255 255 255 255 255 255 255 255 255 255 255 255 255 132 46 55 56 56 58 59 60 61 61 63 64 65 66 67 68 69 70 72 72 73 74 75 76 77 78 79 80 81 81 82 83 83 84 85 86 88 89 89 90 91 92 93 94 94 95 96 97 98 99 99 101 101 103 103 104 105 106 107 108 109 110 111 112 113 114 114 115 116 118 119 119 120 121 122 123 124 125 126 127 128 129 130 131 132 133 134 135 136 137 138 139 140 141 142 143 143 144 145 146 147 148 149 149 150 151 152 153 154 155 156 157 158 159 160 161 162 163 164 164 165 166 167 168 169 170 171 172 172 173 174 175 176 177 178 179 180 181 182 183 184 185 186 187 188 188 189 190 191 192 192 193 194 195 196 197 198 199 200 201 201 202 203 204 205 205 206 207 208 209 209 210 211 211 212 213 214 214 215 216 217 218 219 219 220 221 222 223 223 225 225 226 226 227 228 229 230 230 231 232 233 233 234 235 236 237 237 238 239 240 241 242 242 243 243 244 245 246 157 222 255 255 255 255 255 255 255 255 255 255
255 255 255 255 255 255 255 255 255 255 255 255 255 255 255 255 255 255 255 255 255 255 255 255 255 255 133 46 55 57 57 58 60 61 61 63 64 65 66 67 68 69 70 71 72 73 74 75 76 77 77 78 80 81 81 82 83 83 84 85 87 87 88 89 90 91 92 93 94 95 95 96 97 98 99 100 100 101 103 104 104 105 106 107 108 109 110 111 112 113 113 114 115 116 117 118 119 120 121 122 123 124 125 126 127 128 129 130 131 132 133 134 135 136 137 138 139 139 141 141 142 143 144 145 146 147 148 149 149 150 151 152 153 154 155 156 156 158 158 159 161 162 162 163 165 165 166 167 168 169 170 171 172 172 173 174 175 176 177 178 179 180 181 182 183 184 185 185 186 188 189 189 190 191 192 192 193 194 195 196 196 197 198 200 201 201 202 203 204 204 205 206 206 207 208 209 210 211 212 212 213 214 215 215 216 217 217 218 219 220 220 221 222 223 224 225 226 227 227 228 229 230 230 231 232 232 233 234 235 235 236 237 238 238 239 240 241 242 243 244 244 245 246 246 157 222 255 255 255 255 255 255 255 255 255 255
255 255 255 255 255 255 255 255 255 255 255 255 255 255 255 255 255 255 255 255 255 255 255 255 255 255 133 46 56 57 58 59 60 61 62 63 65 66 67 68 69 70 71 72 73 74 75 75 76 77 78 79 81 81 82 83 84 84 85 86 87 88 89 90 91 92 93 93 95 95 96 97 98 99 100 101 101 102 103 104 105 106 107 108 109 110 111 112 113 113 114 115 116 117 118 119 120 121 122 123 124 125 126 127 127 128 129 130 132 133 134 134 135 136 138 138 139 140 141 142 143 144 145 146 147 148 148 149 150 151 152 153 154 155 155 156 157 158 159 160 161 162 163 164 165 166 167 168 169 169 170 171 172 173 174 175 176 177 178 178 179 181 182 183 183 184 185 186 187 188 189 190 191 192 192 193 194 195 196 196 197 198 199 200 201 202 203 203 204 204 206 206 207 208 209 210 210 211 212 212 213 214 215 216 217 217 218 219 220 220 221 222 222 224 224 225 226 227 228 228 229 230 231 231 232 233 233 234 235 236 237 237 238 239 240 241 241 243 243 244 244 245 246 247 158 222 255 255 255 255 255 255 255 255 255 255
255 255 255 255 255 255 255 255 255 255 255 255 255 255 255 255 255 255 255 255 255 255 255 255 255 255 133 46 57 58 59 60 61 62 63 64 65 67 67 69 69 71 72 73 74 75 75 76 77 78 79 80 82 82 83 84 85 85 86 87 88 89 90 91 92 93 94 94 95 96 97 98 98 100 101 102 102 103 104 105 106 107 108 109 110 110 111 113 113 114 115 116 117 118 119 120 121 122 122 124 124 125 126 127 128 129 130 131 132 133 134 135 136 137 138 139 140 141 142 143 144 145 146 147 147 148 149 150 151 152 152 153 155 155 156 157 158 159 160 161 162 163 163 165 166 166 168 169 169 170 171 172 173 174 175 176 177 177 178 179 180 181 182 184 184 185 186 186 188 189 190 190 191 192 193 194 195 195 196 197 198 198 200 201 201 202 203 204 205 205 206 207 208 209 210 210 211 212 213 213 214 215 216 217 218 218 219 220 220 221 221 222 223 224 225 225 226 227 228 229 230 231 232 232 232 233 234 235 235 236 237 238 239 239 240 241 242 243 244 244 245 246 247 248 157 222 255 255 255 255 255 255 255 255 255 255
255 255 255 255 255 255 255 255 255 255 255 255 255 255 255 255 255 255 255 255 255 255 255 255 255 255 133 47 57 58 59 61 62 63 64 65 66 67 68 69 70 71 72 73 74 75 76 77 78 79 79 81 82 83 83 84 85 86 87 88 89 90 91 91 92 93 94 95 96 97 98 98 99 100 101 102 103 104 105 105 106 107 109 110 110 111 112 113 114 115 115 117 118 118 119 120 121 122 123 124 125 126 127 128 129 129 131 132 132 134 135 136 137 138 139 140 141 142 143 144 145 146 146 147 148 149 150 151 151 152 153 154 155 156 156 157 158 159 160 161 162 163 164 165 166 167 168 169 170 171 172 173 174 175 176 176 177 178 179 180 181 182 183 184 185 186 187 187 188 190 190 191 192 193 194 195 195 196 197 197 198 199 200 202 202 203 204 205 206 206 207 207 208 209 210 211 212 213 213 214 215 215 216 217 218 218 219 220 221 221 222 223 224 225 225 226 227 228 228 229 231 232 232 232 233 234 234 235 236 237 238 239 239 240 241 242 243 243 244 245 245 246 248 248 157 222 255 255 255 255 255 255 255 255 255 255
255 255 255 255 255 255 255 255 255 255 255 255 255 255 255 255 255 255 255 255 255 255 255 255 255 255 133 48 58 60 60 61 63 64 65 66 67 68 69 70 71 72 73 74 75 76 77 78 79 80 81 82 83 84 84 85 86 87 88 89 90 91 91 92 93 94 95 96 97 98 99 99 100 101 102 103 104 105 105 106 107 108 109 110 111 112 113 114 115 116 117 118 119 120 120 121 122 123 124 125 126 127 128 129 130 130 132 133 134 135 135 137 138 139 139 141 142 143 144 145 145 147 147 148 149 150 150 151 152 153 154 155 156 157 157 158 159 160 161 162 163 164 165 166 167 168 169 170 171 171 172 173 174 175 176 177 178 179 180 181 181 182 184 185 186 187 187 188 189 190 191 192 193 194 194 195 196 197 198 198 199 200 201 202 203 203 204 205 206 207 207 208 209 210 211 212 212 213 214 215 215 216 217 218 218 219 220 221 221 222 223 223 224 225 226 227 227 228 229 230 231 232 232 233 234 234 235 236 237 237 238 239 240 240 241 242 243 244 245 245 246 247 248 248 157 222 255 255 255 255 255 255 255 255 255 255
255 255 255 255 255 255 255 255 255 255 255 255 255 255 255 255 255 255 255 255 255 255 255 255 255 255 133 50 59 60 61 62 63 65 66 66 68 69 70 71 72 73 74 75 76 77 78 79 79 80 81 83 83 85 85 86 87 88 89 89 90 91 92 93 94 95 96 97 97 98 99 100 101 102 103 103 105 105 106 107 108 109 110 111 112 113 114 115 116 117 118 119 120 121 121 122 123 124 125 126 127 128 129 129 130 131 132 134 134 135 136 138 139 139 140 142 142 143 145 145 146 147 148 149 150 150 151 152 153 154 155 156 156 157 158 159 160 161 162 163 164 165 166 166 168 169 169 171 171 172 173 174 175 176 177 178 179 180 181 182 182 184 185 185 186 187 188 189 190 191 192 193 193 194 195 196 197 198 199 199 200 201 202 203 203 204 205 206 206 207 208 209 210 211 212 212 213 214 215 215 216 217 217 218 219 220 221 221 222 223 223 224 225 226 227 227 228 229 230 230 231 232 233 233 234 235 235 236 237 238 239 239 240 241 242 242 243 244 245 246 246 247 248 248 157 222 255 255 255 255 255 255 255 255 255 255
255 255 255 255 255 255 255 255 255 255 255 255 255 255 255 255 255 255 255 255 255 255 255 255 255 255 133 50 60 61 62 63 65 65 66 67 69 70 71 72 73 73 75 76 77 77 78 79 80 81 82 83 84 85 86 87 88 88 89 90 91 92 93 94 95 96 97 98 98 99 100 101 102 103 104 105 106 106 107 108 109 110 111 112 113 114 115 116 116 118 118 119 120 121 122 123 124 125 126 127 128 128 129 130 131 132 133 134 135 136 137 138 139 140 141 142 143 144 145 146 147 148 148 150 150 151 152 153 154 155 155 156 157 158 159 160 161 162 162 163 165 165 166 167 168 169 170 171 172 173 174 175 176 177 178 179 179 180 181 182 183 184 185 186 187 188 189 190 191 192 192 193 194 195 196 197 197 198 199 200 200 201 202 203 204 205 206 207 207 208 209 209 210 211 212 213 214 214 215 216 217 217 218 219 219 220 221 222 222 223 224 225 225 226 227 228 229 229 230 230 232 233 233 234 235 235 236 237 238 239 239 240 240 241 242 243 244 244 245 246 247 247 248 249 158 222 255 255 255 255 255 255 255 255 255 255
255 255 255 255 255 255 255 255 255 255 255 255 255 255 255 255 255 255 255 255 255 255 255 255 255 255 132 51 60 61 63 64 65 66 67 68 69 70 71 72 74 74 75 77 77 78 79 80 81 82 83 84 85 86 87 88 88 89 90 91 92 93 94 95 95 96 97 98 99 100 101 102 103 103 105 105 106 107 108 109 110 111 111 113 113 115 115 116 117 118 119 120 121 122 123 124 124 125 126 127 128 129 130 131 132 133 134 135 136 137 138 139 140 141 142 143 144 145 146 146 147 149 149 150 151 152 153 153 154 155 156 157 158 159 160 160 162 162 163 164 165 166 167 168 169 170 171 172 173 173 175 176 177 178 179 180 180 181 182 183 184 185 186 187 187 188 189 190 192 192 193 194 195 195 196 197 198 199 200 200 201 202 203 204 205 205 206 207 208 208 209 210 211 212 213 214 214 215 215 216 217 218 219 220 220 221 222 222 223 224 224 225 226 227 227 228 229 230 230 231 232 233 234 234 235 236 236 237 238 239 240 240 241 242 243 244 244 245 246 246 247 248 249 249 158 222 255 255 255 255 255 255 255 255 255 255
255 255 255 255 255 255 255 255 255 255 255 255 255 255 255 255 255 255 255 255 255 255 255 255 255 255 132 51 61 63 64 65 66 67 68 69 70 71 72 73 75 75 76 77 79 79 80 81 82 83 84 85 86 87 88 89 89 90 91 92 93 94 95 96 96 97 98 99 100 101 102 102 103 105 105 106 107 108 109 110 111 112 112 113 114 116 116 117 118 119 120 121 122 123 124 124 125 126 127 128 129 130 131 132 133 134 135 136 137 138 139 140 141 142 143 144 144 145 146 147 148 149 150 151 152 152 153 154 155 156 157 158 159 160 160 161 163 163 164 165 166 167 167 169 170 171 172 173 173 174 175 176 177 179 180 180 181 182 183 184 185 186 187 188 188 189 190 191 192 193 194 195 195 196 197 198 199 199 200 201 201 202 204 204 205 206 207 208 208 209 210 211 212 212 213 214 215 216 216 217 217 218 219 220 221 222 222 223 224 225 225 226 227 228 228 229 230 230 231 232 233 234 234 235 236 236 237 238 239 239 240 241 241 242 243 244 245 245 246 247 248 248 249 249 158 222 255 255 255 255 255 255 255 255 255 255
255 255 255 255 255 255 255 255 255 255 255 255 255 255 255 255 255 255 255 255 255 255 255 255 255 255 133 53 62 63 65 66 67 68 69 70 71 72 73 74 75 76 77 78 79 80 80 82 82 83 84 85 86 88 88 89 90 90 91 93 94 94 95 96 97 98 99 100 101 102 103 103 104 105 106 107 108 109 109 110 112 112 113 114 115 116 117 118 119 120 121 122 123 123 124 125 126 127 127 129 129 131 132 133 133 135 136 137 137 138 140 140 142 143 143 144 145 146 147 148 149 150 150 151 152 153 154 155 156 156 157 159 159 160 161 162 163 164 164 165 166 167 168 169 171 172 172 173 174 175 176 177 178 179 180 181 181 182 183 184 185 186 187 188 189 190 191 191 192 194 194 195 196 197 198 198 199 200 200 202 202 203 204 205 206 207 207 208 209 210 210 211 212 213 214 215 215 216 216 218 218 219 220 220 221 222 222 224 224 225 226 226 227 228 229 229 230 231 231 232 233 234 235 235 236 237 237 238 239 239 241 241 241 242 243 244 245 246 247 247 248 248 249 250 158 222 255 255 255 255 255 255 255 255 255 255
255 255 255 255 255 255 255 255 255 255 255 255 255 255 255 255 255 255 255 255 255 255 255 255 255 255 133 54 63 64 66 67 68 69 70 71 72 73 74 75 76 77 78 79 80 81 81 82 83 84 85 86 87 88 89 90 91 91 92 93 94 95 96 97 98 99 100 101 102 103 104 104 105 106 107 108 109 110 110 111 112 113 114 115 116 117 118 119 120 121 122 123 123 124 125 126 127 128 129 130 130 132 133 134 134 136 137 137 138 140 141 141 142 143 144 145 146 147 148 149 150 151 151 152 153 154 155 155 157 157 158 159 160 161 162 163 164 165 165 166 167 168 169 170 172 172 173 174 175 176 176 178 179 180 181 182 182 183 184 185 186 187 188 189 190 191 191 192 193 194 195 196 197 198 198 199 200 201 202 202 203 204 205 205 206 208 208 209 209 210 211 212 212 213 214 215 216 217 217 218 218 219 220 221 222 222 223 224 224 225 226 227 228 229 229 230 230 231 232 233 234 235 235 236 236 237 238 239 240 240 241 242 242 243 244 245 245 246 247 248 248 249 249 250 158 222 255 255 255 255 255 255 255 255 255 255
255 255 255 255 255 255 255 255 255 255 255 255 255 255 255 255 255 255 255 255 255 255 255 255 255 255 133 54 63 65 66 68 69 69 70 71 73 74 75 76 76 78 78 80 81 81 82 83 84 85 86 87 88 89 90 91 91 92 93 94 95 96 97 98 99 100 101 101 102 103 104 105 106 107 108 109 110 111 111 112 113 114 115 116 117 117 118 119 120 122 123 124 124 125 126 127 128 129 130 131 131 132 133 134 135 136 138 138 139 140 141 142 143 144 145 146 147 148 149 150 151 152 152 153 154 155 155 156 157 158 159 160 161 162 163 164 164 165 166 167 168 169 170 171 172 173 174 175 175 176 177 178 179 180 181 182 183 184 185 186 187 188 189 190 191 191 192 193 194 195 196 196 197 198 199 199 200 201 202 203 204 205 205 206 207 208 208 209 210 211 212 212 213 214 215 216 217 217 218 218 219 220 221 222 222 223 224 225 225 226 226 227 228 229 230 231 231 232 232 234 234 235 236 236 237 238 238 239 240 241 241 242 242 243 244 245 246 246 247 248 248 249 249 250 158 222 255 255 255 255 255 255 255 255 255 255
255 255 255 255 255 255 255 255 255 255 255 255 255 255 255 255 255 255 255 255 255 255 255 255 255 255 134 55 65 66 67 68 69 70 71 72 73 74 76 77 77 79 80 81 82 82 83 84 85 86 87 88 89 90 90 92 92 93 94 95 96 97 98 99 100 101 101 102 103 104 105 106 107 108 109 109 111 111 112 113 114 115 116 117 117 118 119 120 121 123 123 124 125 126 127 128 128 129 130 131 132 133 134 135 136 137 138 139 140 141 142 143 144 145 145 147 147 148 149 150 151 152 153 154 155 155 156 157 158 159 160 161 162 163 163 164 165 166 167 168 169 170 171 172 173 173 175 175 176 177 178 179 180 181 182 183 184 185 185 187 187 188 190 191 191 192 192 194 195 196 197 197 198 199 199 200 201 203 203 204 205 205 206 207 208 208 209 210 211 212 212 213 214 214 215 216 217 218 218 219 220 221 222 222 223 224 224 225 225 226 227 228 229 230 230 231 232 232 233 234 235 236 236 237 237 238 239 239 240 241 242 243 243 244 244 245 246 247 248 248 249 249 250 250 157 222 255 255 255 255 255 255 255 255 255 255
255 255 255 255 255 255 255 255 255 255 255 255 255 255 255 255 255 255 255 255 255 255 255 255 255 255 134 56 65 66 67 69 70 71 72 73 74 75 76 77 78 79 80 82 82 83 84 85 86 87 88 88 89 91 91 92 93 94 95 95 97 98 99 100 100 101 102 103 104 105 106 107 107 109 110 110 111 112 113 114 115 116 116 117 118 119 120 121 122 123 124 125 126 127 128 128 129 130 131 132 133 134 135 136 137 138 139 140 141 142 142 144 145 146 146 148 148 149 150 151 152 153 153 154 155 156 157 158 159 160 161 161 163 163 164 165 166 167 168 169 170 171 171 172 173 174 175 176 177 178 179 180 181 182 183 183 184 186 186 187 188 189 191 191 192 193 194 194 196 196 198 198 199 199 200 201 202 203 204 204 205 206 207 208 208 209 210 211 212 212 213 214 215 215 216 217 218 219 219 219 220 221 222 223 224 224 225 226 226 227 228 228 229 230 231 232 232 233 233 234 235 236 236 237 238 238 239 240 241 242 242 243 244 244 244 245 246 247 248 248 249 250 251 251 158 222 255 255 255 255 255 255 255 255 255 255
255 255 255 255 255 255 255 255 231 185 184 228 255 238 184 197 248 255 227 181 202 250 255 255 255 255 134 56 66 67 69 70 71 72 73 74 75 76 77 78 79 80 81 82 83 84 85 86 87 87 88 90 90 91 92 93 94 94 95 96 98 99 99 100 101 102 103 104 105 106 107 108 108 109 111 111 112 113 114 115 115 116 117 118 119 120 121 122 122 124 125 126 127 128 128 129 130 131 132 133 134 135 136 137 138 139 140 141 141 143 144 145 145 146 147 148 149 150 151 152 153 154 154 155 156 156 158 158 159 160 161 162 163 164 165 165 167 167 169 170 171 172 172 173 174 175 176 177 178 178 179 180 182 183 183 184 185 186 187 187 189 190 191 192 193 194 194 195 196 197 198 199 199 200 201 202 203 204 204 205 206 207 207 208 209 210 211 212 212 213 213 214 215 216 217 217 218 219 219 220 221 222 223 224 224 225 225 226 227 228 228 229 230 231 231 232 233 233 234 235 235 236 237 237 238 239 240 240 241 242 242 243 244 244 245 246 246 247 248 249 249 250 251 251 158 222 255 255 255 255 255 255 255 255 255 255
255 255 255 255 255 255 255 255 195 171 168 113 235 140 156 133 178 237 117 174 128 186 255 255 255 255 134 57 67 68 70 70 71 73 74 75 76 77 78 79 80 81 82 83 84 85 86 86 87 88 89 90 91 93 93 94 94 95 96 97 98 100 100 101 102 103 104 105 106 107 108 108 109 111 111 112 113 114 115 116 117 118 118 119 120 121 122 123 124 125 126 127 128 129 130 130 131 132 133 134 135 136 137 138 138 140 141 141 142 144 144 145 146 147 148 149 150 151 152 152 153 154 155 156 157 157 158 159 160 161 162 163 164 165 166 166 167 168 169 170 171 172 172 174 175 176 177 178 178 179 180 181 182 183 184 185 186 187 188 188 190 190 192 192 193 194 195 196 197 198 199 199 200 201 201 202 203 204 205 205 206 207 208 209 210 210 211 212 213 213 214 215 216 217 218 218 219 220 220 221 222 222 223 224 224 225 226 227 228 228 229 229 230 231 232 232 233 234 234 235 236 237 237 238 239 240 240 241 242 243 243 244 244 245 245 246 247 248 249 249 250 250 252 251 158 222 255 255 255 255 255 255 255 255 255 255
255 255 255 255 255 255 255 255 253 254 236 105 207 101 235 204 118 190 122 251 199 123 251 252 219 210 113 58 68 69 70 71 73 74 75 76 77 78 79 80 81 81 83 84 85 86 86 87 88 89 90 91 92 94 94 95 95 96 97 98 99 100 101 102 103 104 105 106 107 108 109 109 110 111 112 113 114 115 116 117 117 118 119 120 121 122 123 124 125 126 127 128 129 129 130 131 132 133 134 135 135 137 137 138 139 140 141 142 143 144 145 146 147 148 149 150 150 151 153 153 154 155 156 157 157 159 159 160 161 162 163 164 165 165 166 167 168 169 170 171 172 173 173 174 176 177 178 179 179 180 181 182 183 184 185 186 187 188 188 189 190 191 192 193 194 194 195 196 197 198 199 200 200 202 202 203 204 205 205 206 207 208 209 210 210 211 212 213 214 214 215 216 216 217 218 219 219 220 221 222 222 223 223 224 225 226 227 228 228 229 229 230 230 231 232 233 234 234 235 236 236 238 238 238 239 240 240 241 242 243 243 244 244 245 245 246 247 248 248 249 250 251 252 252 158 222 255 255 255 255 255 255 255 255 255 255
255 255 255 255 255 255 255 255 255 247 154 162 220 103 246 220 103 174 134 255 219 104 247 249 179 157 86 59 68 70 71 72 73 74 75 76 78 79 79 81 82 82 83 85 86 86 87 88 89 90 91 92 93 94 95 95 96 97 98 99 100 101 102 103 104 105 105 106 108 109 109 110 111 112 113 114 115 116 116 117 118 119 120 121 122 123 124 125 126 127 128 129 130 130 131 132 133 134 134 135 136 137 138 139 140 141 142 143 144 145 146 147 148 149 150 151 151 152 153 154 155 156 157 157 158 160 160 161 162 162 163 164 165 166 167 168 169 170 170 172 173 173 174 175 176 177 178 179 180 181 182 183 184 185 186 187 188 188 189 190 191 192 193 194 195 195 196 197 198 199 200 201 201 202 203 204 204 206 206 207 208 208 210 211 211 212 213 214 214 215 216 216 217 218 219 220 220 221 222 222 223 224 224 225 225 227 227 228 229 229 230 231 231 232 233 234 234 235 235 236 237 238 238 239 239 240 241 242 243 243 244 244 245 245 246 247 248 248 249 249 250 251 252 252 158 223 255 255 255 255 255 255 255 255 255 255
255 255 255 255 255 255 255 255 247 160 153 245 233 104 234 200 115 191 124 251 197 123 251 255 254 254 134 60 69 70 72 73 74 75 76 77 78 79 80 82 82 83 84 85 86 87 88 89 90 91 92 93 94 94 96 96 97 98 99 100 101 102 103 104 105 106 106 107 108 110 111 111 112 113 114 115 116 117 117 118 119 120 121 122 123 124 125 126 126 128 129 129 130 131 132 133 134 135 136 137 137 138 139 140 141 142 143 144 145 146 147 148 149 150 151 151 152 153 154 155 156 157 158 158 159 160 161 162 162 163 164 165 166 167 168 168 170 170 171 172 173 174 175 176 177 178 179 180 181 181 182 183 185 186 187 187 188 189 190 191 191 193 194 194 195 196 197 197 199 200 200 201 202 203 203 204 205 206 207 208 209 210 210 211 212 213 213 214 215 215 217 217 218 219 219 220 221 221 222 223 224 224 225 226 226 227 228 229 229 230 230 231 232 232 233 234 235 235 236 236 238 238 239 239 240 241 241 242 243 243 244 245 245 246 246 247 248 249 249 250 251 251 252 252 158 222 255 255 255 255 255 255 255 255 255 255
255 255 255 255 255 255 255 254 169 80 150 171 238 144 149 126 180 238 118 169 126 188 255 255 255 255 134 61 71 72 73 74 75 77 78 79 80 81 82 83 84 85 86 87 88 89 89 90 91 92 93 94 95 96 97 98 99 99 101 101 102 103 104 105 106 107 108 108 110 111 112 112 113 114 115 117 117 118 119 120 121 122 123 123 124 125 126 127 128 129 130 131 132 133 134 134 135 136 137 138 139 140 141 142 143 144 145 146 147 148 148 150 150 151 152 154 154 155 156 157 158 159 159 160 161 162 163 164 164 165 166 167 168 168 169 170 171 172 173 174 175 176 176 177 178 179 180 181 182 183 184 185 186 187 188 189 189 190 191 192 193 194 195 196 196 197 198 199 200 201 202 203 204 204 205 206 206 208 208 209 210 211 212 213 213 214 215 216 216 217 218 219 219 220 221 222 222 223 223 225 225 226 226 227 227 228 229 230 231 231 232 232 233 234 234 235 236 236 237 238 239 239 240 240 241 242 242 243 244 244 245 246 246 247 247 248 248 249 250 250 251 251 251 252 158 222 255 255 255 255 255 255 255 255 255 255
255 255 255 255 255 255 255 255 217 190 193 200 246 241 197 206 249 255 231 192 208 250 255 255 255 255 135 62 73 74 75 76 77 78 79 80 81 83 83 84 85 86 87 88 89 90 91 92 92 94 95 96 97 98 98 99 100 101 102 103 103 104 106 106 107 108 109 110 111 112 113 114 115 116 117 118 118 120 120 121 122 123 124 125 126 127 128 129 129 131 131 133 133 134 135 136 136 137 138 139 140 141 142 143 144 145 146 147 148 149 150 151 152 153 154 155 155 156 158 158 159 160 161 162 162 163 164 165 165 166 167 168 169 169 170 171 172 173 174 175 176 177 177 178 180 180 181 182 183 184 185 186 187 188 189 190 190 191 192 193 194 195 196 197 197 198 199 200 201 202 203 204 205 205 206 207 208 209 210 210 211 212 213 214 214 215 216 217 218 218 219 220 220 222 222 223 223 224 225 225 226 227 227 228 229 229 230 231 232 232 233 233 234 235 236 236 237 237 238 238 239 240 241 241 242 243 243 244 245 245 246 247 247 247 248 249 249 250 250 251 252 252 252 252 158 222 255 255 255 255 255 255 255 255 255 255
255 255 255 255 255 255 255 255 255 255 255 255 255 255 255 255 255 255 255 255 255 255 255 255 255 255 135 62 74 74 76 76 78 79 80 81 81 83 84 85 86 87 88 89 90 91 91 93 93 94 96 96 97 98 99 100 101 102 102 104 104 105 106 107 108 109 109 110 111 112 113 115 115 116 117 118 119 120 121 122 123 123 124 125 126 127 128 129 130 132 132 133 134 134 135 136 137 138 139 139 141 142 143 144 145 146 147 147 148 150 150 152 153 154 154 155 156 157 158 159 160 161 162 162 163 164 165 165 166 167 168 169 170 170 171 172 173 173 174 175 176 177 178 179 180 181 182 183 183 184 185 186 187 188 189 190 190 192 192 193 194 195 196 197 198 199 199 201 202 203 203 204 205 205 206 207 208 209 210 211 211 213 213 214 215 215 216 217 218 218 220 220 221 222 222 223 224 225 225 226 227 227 228 228 229 230 231 232 232 233 233 234 234 235 236 236 237 238 238 239 240 241 241 242 242 243 243 244 245 245 246 247 247 248 248 249 250 250 251 252 252 253 253 253 158 222 255 255 255 255 255 255 255 255 255 255
255 255 255 255 255 255 255 255 255 255 255 255 255 255 255 255 255 255 255 255 255 255 255 255 255 255 135 63 74 75 77 77 78 79 80 82 82 84 85 86 87 88 89 90 91 92 92 93 94 95 96 97 98 99 100 101 102 102 103 104 105 106 107 108 108 110 110 111 112 113 114 115 116 117 118 119 120 120 122 123 123 124 125 126 127 128 129 130 131 132 133 134 135 136 136 137 138 139 140 140 142 143 144 145 146 147 148 148 150 151 151 152 153 154 155 156 157 157 159 160 161 162 162 163 164 165 165 166 167 168 169 170 170 171 172 172 173 174 175 176 177 178 179 180 181 182 183 183 184 185 186 187 188 189 190 191 191 192 193 194 195 196 197 198 199 199 201 201 202 203 204 205 205 206 207 208 209 210 210 212 212 213 214 215 215 216 217 218 218 219 220 221 222 222 223 224 225 225 225 226 227 228 229 229 230 230 231 232 233 233 234 234 235 236 237 237 238 238 239 239 240 241 241 242 242 243 244 245 245 246 247 247 248 248 249 250 250 251 251 252 252 253 253 253 158 222 255 255 255 255 255 255 255 255 255 255
255 255 255 255 255 255 255 255 255 255 255 255 255 255 255 255 255 255 255 255 255 255 255 255 255 255 135 63 75 77 78 78 79 80 81 82 84 85 86 87 87 88 90 91 91 93 93 94 95 96 97 98 99 100 101 102 103 103 104 105 106 107 108 109 109 110 111 112 113 114 115 116 117 118 119 119 120 121 123 123 124 125 126 127 128 129 130 131 132 133 134 135 135 137 137 138 139 139 141 141 142 143 144 146 146 147 148 149 150 151 152 153 154 155 155 156 157 158 160 161 161 162 163 164 164 165 166 167 167 168 169 170 170 172 172 173 174 175 175 176 177 178 179 180 181 182 183 184 185 186 186 187 189 190 190 191 192 193 193 194 195 196 198 199 199 200 201 202 203 204 204 205 206 207 207 208 209 210 211 212 213 214 215 216 216 217 218 218 219 219 220 221 222 223 223 224 225 225 226 227 227 228 229 229 230 231 232 232 233 234 234 235 235 236 237 237 238 238 239 240 241 241 242 242 242 243 244 245 245 246 247 247 248 248 249 250 250 251 252 252 252 253 253 253 158 222 255 255 255 255 255 255 255 255 255 255
255 255 255 255 255 255 255 255 255 255 255 255 255 255 255 255 255 255 255 255 255 255 255 255 255 255 135 64 76 77 79 80 80 81 82 83 84 86 87 88 88 89 91 92 92 94 94 95 96 97 98 99 100 101 102 102 103 104 105 106 107 108 109 110 110 111 112 113 114 115 116 117 118 119 120 121 121 122 123 124 125 126 127 128 128 129 131 132 133 134 135 135 136 137 138 139 140 141 142 142 143 144 145 147 147 148 149 150 151 152 153 154 155 156 156 158 159 159 160 161 162 163 164 164 165 166 167 168 168 169 170 170 171 172 173 173 174 175 176 177 178 179 180 181 182 183 184 185 186 186 187 188 189 190 191 192 192 193 194 195 196 197 198 199 200 201 202 202 203 205 205 206 207 207 208 209 210 211 212 213 213 214 215 216 217 217 218 219 219 220 221 222 223 223 224 225 225 226 227 227 228 229 229 230 231 231 232 233 234 234 235 235 236 236 237 238 238 239 239 240 241 242 242 243 243 244 244 245 246 247 247 248 248 249 250 250 251 252 252 253 253 254 254 254 159 222 255 255 255 255 255 255 255 255 255 255
255 255 255 255 255 255 255 255 255 255 255 255 255 255 255 255 255 255 255 255 255 255 255 255 255 255 135 66 77 78 79 81 81 82 83 84 86 87 87 88 89 90 91 92 93 94 95 96 97 97 99 100 101 102 103 103 104 105 106 106 107 109 110 110 111 112 113 113 115 116 117 118 119 119 120 121 122 123 124 125 126 127 128 129 130 131 132 133 133 135 135 136 137 138 139 140 141 141 142 143 144 145 146 147 148 149 150 151 152 153 154 155 155 156 157 158 159 159 160 162 163 163 164 165 166 167 168 168 169 170 170 171 172 173 174 174 175 176 177 178 179 180 180 182 183 184 184 185 186 187 188 189 190 190 192 193 193 194 195 196 196 198 199 200 200 201 202 203 204 205 206 207 207 208 208 209 211 212 212 213 214 215 216 217 217 218 219 219 220 221 221 222 223 224 225 225 226 227 227 228 228 229 230 230 231 232 233 233 234 235 235 236 236 237 238 238 239 239 240 241 242 242 243 243 244 244 245 246 247 247 248 248 249 249 250 250 251 252 252 253 253 253 254 253 158 222 255 255 255 255 255 255 255 255 255 255
255 255 255 255 255 255 255 255 255 255 255 255 255 255 255 255 255 255 255 255 255 255 255 255 255 255 135 66 78 79 80 81 82 83 84 85 86 88 88 89 90 91 92 93 94 95 96 97 97 98 99 100 102 103 104 105 105 106 106 107 108 110 110 111 112 113 114 114 116 117 118 118 119 120 121 123 123 124 125 126 126 128 128 130 130 131 133 133 134 135 136 137 138 139 140 141 141 142 143 144 145 146 147 148 149 150 151 152 153 154 154 155 156 157 158 159 159 160 161 162 163 164 165 166 167 168 168 169 170 170 171 172 173 173 174 175 176 177 177 178 180 180 181 182 183 184 185 186 187 188 188 190 191 192 192 193 194 195 195 197 197 198 199 200 201 202 203 204 205 206 207 207 208 209 209 210 211 212 213 214 215 215 216 217 218 219 219 220 220 221 222 223 224 224 225 226 226 227 228 228 229 230 230 231 231 232 233 234 234 235 236 236 237 238 239 239 239 240 240 241 242 243 243 243 244 245 245 246 247 247 248 248 249 249 250 250 251 252 253 253 253 253 254 254 158 222 255 255 255 255 255 255 255 255 255 255
255 255 255 255 255 255 255 255 255 255 255 255 255 255 255 255 255 255 255 255 255 255 255 255 255 255 135 67 78 80 81 82 83 84 85 86 87 88 89 90 91 92 93 94 95 96 96 97 98 99 100 101 102 103 104 105 106 107 107 108 109 110 111 112 113 114 115 115 117 118 119 119 120 121 122 123 124 125 126 127 127 128 129 131 131 132 133 134 135 136 137 138 139 140 140 141 142 143 144 145 146 147 148 149 150 151 152 153 154 155 155 156 157 158 159 160 160 161 162 163 164 165 166 166 167 168 169 169 170 171 172 172 173 174 175 175 176 177 178 179 180 181 182 183 184 185 186 187 188 189 189 190 191 192 193 194 194 195 196 197 198 199 200 201 202 203 203 204 206 206 207 208 209 210 210 211 212 213 214 214 215 216 217 218 218 219 220 221 221 222 222 223 224 225 225 227 227 228 228 229 229 230 231 231 232 233 234 235 235 235 236 237 237 238 239 240 240 240 241 241 243 243 244 244 244 245 246 247 248 248 248 249 249 250 250 251 251 252 253 254 254 254 254 254 159 222 255 255 255 255 255 255 255 255 255 255
255 255 255 255 255 255 255 255 255 255 255 255 255 255 255 255 255 255 255 255 255 255 255 255 255 255 135 67 79 81 82 83 84 85 86 86 88 89 90 91 92 93 94 95 96 96 97 99 99 100 101 102 103 104 105 106 107 108 108 109 110 111 112 113 114 115 116 117 117 119 120 121 121 122 123 124 125 126 127 128 128 129 130 131 132 133 134 135 136 137 138 139 140 141 141 142 143 144 145 146 147 148 149 150 151 152 153 154 155 156 156 157 158 159 160 161 161 162 163 164 165 166 166 167 168 169 170 170 171 172 172 173 174 175 175 176 177 178 179 180 181 182 183 184 185 186 187 188 189 189 190 191 192 193 194 194 195 196 197 198 199 199 201 202 202 203 204 205 206 207 208 209 209 210 211 212 212 213 214 215 216 217 218 218 219 220 220 221 222 222 223 224 225 225 226 227 227 228 229 229 230 231 231 232 233 233 234 235 235 236 237 237 238 239 239 240 240 241 241 242 243 243 244 244 245 246 246 247 248 248 249 249 249 250 250 251 252 253 253 254 254 254 254 254 159 222 255 255 255 255 255 255 255 255 255 255
255 255 255 255 255 255 255 255 255 255 255 255 255 255 255 255 255 255 255 255 255 255 255 255 255 255 135 68 80 81 83 84 85 86 87 88 89 90 91 92 93 94 95 96 97 97 98 99 100 101 102 103 104 105 106 107 108 109 109 110 111 112 113 114 115 116 116 117 118 119 120 121 122 123 124 125 126 127 127 128 129 130 131 132 133 134 135 136 137 138 139 140 141 141 142 143 144 145 146 147 148 149 150 151 152 153 154 154 155 156 157 158 159 160 160 161 162 163 164 165 166 166 167 168 169 170 170 171 171 172 173 174 175 176 176 177 178 179 180 181 182 182 183 184 186 187 188 188 189 190 191 191 192 193 194 195 196 197 198 199 199 200 202 202 203 204 204 206 207 208 208 209 210 211 211 212 213 214 215 216 216 217 218 219 219 220 221 222 223 223 223 225 225 226 226 228 228 229 229 230 230 231 232 232 233 234 234 235 236 236 237 238 238 239 240 240 241 241 242 243 244 244 244 244 245 246 246 247 248 248 249 249 250 250 251 251 252 253 254 254 254 255 255 254 159 222 255 255 255 255 255 255 255 255 255 255
255 255 255 255 255 255 255 255 255 255 255 255 255 255 255 255 255 255 255 255 255 255 255 255 255 255 135 68 81 82 84 85 86 87 88 89 90 91 92 93 93 95 96 96 97 98 99 100 101 102 103 104 105 106 107 108 109 109 110 111 112 113 114 115 116 117 118 118 119 120 121 122 123 124 125 126 127 127 128 129 130 131 132 133 134 135 136 137 138 139 140 141 141 142 143 144 145 146 147 148 149 150 151 151 152 154 155 155 156 157 158 158 160 160 161 162 163 163 164 165 166 167 167 169 169 170 171 172 172 173 174 175 175 176 177 178 179 180 180 181 182 183 184 185 187 187 188 189 190 191 191 193 193 194 195 196 197 197 198 199 200 201 202 203 204 205 205 206 207 209 209 210 211 212 212 212 213 215 215 216 217 218 219 220 220 221 222 222 223 224 224 225 226 226 227 228 228 229 230 231 231 231 232 233 233 234 235 236 236 237 237 238 239 239 240 241 241 242 242 243 244 244 244 245 246 246 247 247 248 248 249 249 250 250 251 251 252 253 254 254 254 255 255 254 159 222 255 255 255 255 255 255 255 255 255 255
255 255 255 255 255 255 255 255 255 255 255 255 255 255 255 255 255 255 255 255 255 255 255 255 255 255 135 69 82 83 84 85 86 87 88 89 90 91 92 93 94 95 96 97 98 99 99 101 102 102 104 104 105 106 107 108 109 110 111 112 113 114 114 116 117 117 118 119 120 121 122 123 123 125 126 127 128 128 129 130 131 132 133 134 135 136 137 138 138 140 141 141 142 143 144 145 146 147 148 149 149 150 151 152 153 154 155 156 157 158 159 159 160 161 162 162 163 164 165 166 167 168 168 169 170 171 171 172 173 174 174 175 176 177 178 178 179 180 181 182 183 184 185 186 187 188 189 190 190 191 192 193 194 195 196 197 198 199 199 200 201 202 203 204 204 205 206 207 208 209 210 211 211 212 213 213 214 215 216 217 218 218 220 220 221 222 222 223 224 224 225 225 226 227 227 228 229 230 230 231 231 232 233 234 234 235 235 236 237 237 238 239 239 240 240 241 242 242 242 243 244 244 245 245 246 247 247 247 248 249 249 250 250 251 251 252 252 253 253 254 254 255 255 254 158 222 255 255 255 255 255 255 255 255 255 255
255 255 255 255 255 255 255 255 255 255 255 255 255 255 255 255 255 255 255 255 255 255 255 255 255 255 135 70 83 84 85 86 87 88 89 90 91 92 93 94 95 96 97 98 99 100 101 102 102 103 104 105 106 108 108 109 110 111 111 112 113 114 115 116 117 118 119 120 121 122 123 124 124 125 127 127 128 129 130 131 131 132 134 135 136 137 138 139 139 140 141 142 143 144 145 146 147 148 149 149 150 151 152 153 154 155 156 157 158 159 159 160 161 162 162 163 164 165 166 167 167 168 169 170 171 172 172 173 173 174 175 176 177 177 178 179 180 181 182 183 184 185 185 187 188 188 189 190 191 192 193 194 194 195 196 197 198 199 200 201 201 202 203 204 205 206 207 208 209 210 211 211 212 213 213 214 215 216 216 217 218 219 220 221 222 222 223 224 224 225 225 226 226 227 228 229 229 230 231 231 232 233 233 234 234 235 236 236 237 238 238 239 239 240 241 241 242 242 243 243 244 245 245 245 246 246 247 248 248 249 250 250 250 251 251 252 253 253 254 254 254 254 255 254 158 222 255 255 255 255 255 255 255 255 255 255
255 255 255 255 255 255 255 255 255 255 255 255 255 255 255 255 255 255 255 255 255 255 255 255 255 255 135 70 83 85 86 87 88 89 90 91 92 93 94 95 96 97 98 99 100 101 102 102 103 104 105 106 107 108 109 110 111 112 112 113 114 115 116 117 118 119 120 120 122 122 124 125 125 126 127 128 129 130 131 132 132 133 134 135 136 137 138 139 140 141 142 143 144 145 146 147 148 149 150 150 151 152 153 154 155 156 157 158 158 159 160 161 162 163 163 164 165 165 167 167 168 169 170 171 172 173 173 174 174 175 176 177 178 178 179 180 181 182 183 184 185 186 186 187 189 189 190 191 192 193 193 194 195 196 197 198 199 200 200 201 202 203 204 205 205 206 207 208 209 210 211 212 212 213 214 215 216 217 217 218 219 219 220 221 222 223 223 224 224 225 226 227 227 228 229 229 229 230 231 232 232 233 234 234 235 236 236 237 237 238 238 239 239 240 241 241 242 243 243 243 244 245 245 245 246 247 247 248 248 249 250 250 251 251 252 252 253 253 254 254 254 255 255 254 158 222 255 255 255 255 255 255 255 255 255 255
255 255 255 255 255 255 255 255 255 255 255 255 255 255 255 255 255 255 255 255 255 255 255 255 255 255 135 71 84 85 86 88 88 90 90 92 93 94 95 96 96 98 99 100 101 101 102 103 104 105 106 107 109 109 110 111 111 112 113 114 115 116 117 118 119 119 121 122 123 123 124 126 126 127 128 129 130 131 131 132 133 134 135 136 137 138 139 140 141 142 143 144 145 146 147 148 148 149 151 151 152 153 154 155 156 157 158 158 159 160 160 162 162 163 164 165 165 166 167 168 169 170 171 171 172 173 174 175 175 176 177 178 179 179 180 181 182 182 183 184 185 186 187 188 189 190 191 191 192 194 194 195 196 197 198 198 199 200 201 202 202 204 204 206 206 207 208 209 210 211 211 212 213 214 214 215 216 217 217 218 219 220 221 222 222 223 224 224 225 226 227 227 228 228 229 230 230 231 231 232 233 233 234 235 235 236 237 237 238 238 239 239 240 240 241 242 242 243 243 244 245 245 245 246 246 247 248 248 249 249 250 250 251 251 252 252 253 253 254 254 254 255 255 254 159 222 255 255 255 255 255 255 255 255 255 255
255 255 255 255 255 255 255 255 255 255 255 255 255 255 255 255 255 255 255 255 255 255 255 255 255 255 135 71 85 86 87 88 89 90 91 93 94 95 96 97 97 98 99 101 101 102 103 104 105 106 107 108 109 110 111 111 112 113 114 115 116 117 118 119 120 120 122 122 124 124 125 126 127 128 129 130 130 131 132 133 134 135 136 137 138 139 140 141 142 143 144 145 145 147 148 148 149 150 151 152 153 154 155 156 156 157 159 159 160 161 161 162 163 164 165 165 166 167 168 169 170 170 171 172 173 174 174 176 176 177 178 178 179 180 181 181 183 183 184 185 186 187 187 188 190 190 191 192 193 194 194 196 197 198 198 199 200 201 202 202 203 204 205 206 207 207 208 209 211 211 212 213 213 214 215 216 216 217 218 219 220 221 221 222 223 224 224 225 226 226 227 227 228 229 230 230 231 232 232 233 233 234 235 235 236 237 237 238 238 239 239 240 240 241 241 242 242 243 243 244 245 245 246 246 247 247 248 248 249 250 250 251 251 251 252 252 253 253 254 254 254 254 255 254 159 222 255 255 255 255 255 255 255 255 255 255
255 255 255 255 255 255 255 255 255 255 255 255 255 255 255 255 255 255 255 255 255 255 255 255 255 255 135 72 86 87 88 89 90 91 92 93 94 96 96 98 99 99 100 101 102 103 104 105 106 107 108 109 109 111 111 112 113 114 115 116 117 118 119 120 121 121 122 123 124 125 126 127 128 128 130 131 131 133 133 134 135 136 137 138 139 140 141 142 143 144 145 146 146 148 148 149 150 151 152 153 154 154 155 156 157 158 159 160 161 161 162 163 164 165 165 166 167 168 169 170 171 171 172 173 174 175 175 176 176 177 178 179 180 181 181 182 183 184 185 186 187 188 188 189 191 191 192 193 194 194 195 196 197 198 199 200 201 201 202 203 204 204 206 206 208 208 209 210 211 212 213 213 214 215 215 216 217 218 219 220 221 221 222 223 223 224 225 225 226 227 227 228 229 230 230 231 232 232 233 233 234 235 235 236 236 237 238 238 238 239 239 240 241 241 242 242 243 243 244 244 245 246 246 246 247 248 248 249 249 250 250 251 251 251 252 252 253 253 254 254 255 255 255 254 159 222 255 255 255 255 255 255 255 255 255 255
255 255 255 255 255 255 255 255 255 255 255 255 255 255 255 255 255 255 255 255 255 255 255 255 255 255 135 74 87 88 89 90 91 92 93 94 94 96 97 98 99 100 101 102 103 104 105 106 106 107 108 109 110 112 113 113 114 115 116 117 118 119 120 121 121 122 123 124 125 126 127 128 128 130 131 132 132 133 134 135 136 137 138 139 140 141 142 143 144 145 146 146 147 148 149 150 151 152 153 154 155 155 156 157 158 159 160 161 162 162 163 164 164 165 166 167 167 168 170 170 171 172 173 174 175 175 176 177 177 178 178 180 181 181 182 183 184 185 186 187 187 188 189 190 191 192 193 194 195 195 196 197 198 199 200 201 201 202 203 204 205 205 206 207 208 209 210 211 212 213 213 214 215 216 216 217 217 219 219 220 221 221 222 224 224 225 225 226 226 227 228 229 229 230 231 231 232 233 233 234 234 235 236 236 237 237 238 238 239 239 240 240 241 242 242 243 243 244 244 245 246 246 246 247 247 248 248 249 250 250 250 251 251 252 252 253 253 254 254 255 254 255 255 254 159 222 255 255 255 255 255 255 255 255 255 255
255 255 255 255 255 255 255 255 255 255 255 255 255 255 255 255 255 255 255 255 255 255 255 255 255 255 136 74 88 89 90 91 92 93 94 95 96 97 98 99 100 101 102 103 104 105 106 106 107 108 109 110 111 112 113 114 115 116 117 118 119 120 121 122 122 123 124 125 126 127 128 129 129 130 132 133 133 134 135 136 137 138 139 140 141 142 143 144 145 146 147 147 148 149 150 151 152 153 154 154 155 156 157 158 159 160 161 161 162 163 163 165 165 166 167 168 168 170 170 171 172 173 173 175 175 176 176 177 178 179 179 181 181 182 183 184 185 186 186 187 188 189 190 191 192 193 194 195 195 196 197 198 199 200 201 201 202 203 204 204 205 206 207 208 209 209 210 211 212 213 214 215 215 216 217 218 218 219 220 221 221 222 223 224 225 225 226 226 227 227 228 229 230 231 231 232 233 234 234 234 235 235 236 237 237 237 238 239 239 240 240 241 242 242 242 243 244 244 245 245 246 246 247 247 248 248 249 249 250 250 250 251 252 252 252 253 253 254 254 255 255 255 255 254 159 222 255 255 255 255 255 255 255 255 255 255
255 255 255 255 255 255 255 255 255 255 255 255 255 255 255 255 255 255 255 255 255 255 255 255 255 255 136 74 88 89 91 92 92 94 95 96 97 98 99 100 100 102 102 103 104 106 107 107 108 109 110 111 112 113 114 115 116 116 118 118 119 120 121 123 123 124 125 125 127 128 129 130 131 131 133 133 134 135 135 136 138 138 139 140 141 142 143 144 145 146 147 148 149 150 150 152 153 153 154 155 156 157 158 158 159 160 161 162 163 164 164 165 166 167 168 169 169 170 171 172 173 173 174 175 175 177 177 178 178 179 180 181 182 183 184 184 185 186 187 188 189 190 190 191 192 193 194 195 195 196 197 198 199 200 201 202 202 203 204 205 205 206 208 208 209 210 211 212 213 214 214 215 216 217 217 218 219 220 220 221 222 223 223 224 225 226 226 227 228 228 229 230 230 231 232 232 233 234 234 234 235 235 236 237 237 238 238 239 240 240 241 241 242 242 243 243 244 245 245 245 246 246 247 247 248 248 249 249 250 251 251 251 252 252 252 253 253 254 254 255 255 255 255 254 159 222 255 255 255 255 255 255 255 255 255 255
255 255 255 255 255 255 255 255 255 255 255 255 255 255 255 255 255 255 255 255 255 255 255 255 255 255 136 75 89 90 91 93 93 95 96 97 97 98 100 101 102 102 103 104 105 107 107 108 109 110 111 112 113 114 115 116 117 117 119 119 121 121 122 124 124 125 126 127 128 128 130 131 131 132 134 134 135 136 136 137 138 139 140 141 142 143 144 145 146 147 148 149 149 150 151 152 154 154 155 156 157 158 158 159 160 161 162 163 163 164 165 166 167 168 169 169 170 171 172 173 173 174 175 176 176 177 178 179 179 180 181 182 183 183 185 185 186 187 188 189 189 190 191 192 193 194 195 196 196 197 198 199 200 201 202 202 203 204 205 205 206 207 208 209 210 210 211 212 214 214 215 216 216 217 218 219 219 220 221 222 222 223 224 225 226 226 227 227 228 229 229 230 231 232 232 233 233 234 234 235 236 236 237 237 238 238 239 240 240 241 241 241 242 243 243 244 244 245 245 246 247 247 247 248 248 249 249 250 250 251 251 252 252 252 253 253 253 254 254 254 255 255 255 254 159 222 255 255 255 255 255 255 255 255 255 255
255 255 255 255 255 255 255 255 255 255 255 255 255 255 255 255 255 255 255 255 255 255 255 255 255 255 136 76 90 91 92 93 94 95 96 97 98 99 101 101 102 103 104 105 106 107 108 109 110 111 112 113 113 115 116 117 118 118 119 120 121 122 123 124 125 126 127 127 128 129 131 131 132 133 134 135 135 136 137 138 139 140 141 142 143 144 145 146 147 148 149 150 150 151 152 153 154 155 156 157 158 158 159 160 161 162 163 164 164 165 166 167 168 169 169 170 171 172 173 174 174 175 176 176 177 178 179 180 180 181 181 183 184 184 185 186 187 188 188 189 190 191 192 193 194 195 196 196 197 198 199 200 201 201 202 203 204 205 205 206 207 208 209 210 210 211 212 213 214 215 216 216 217 218 219 219 220 221 222 223 223 223 225 226 226 227 227 228 229 229 230 231 232 232 232 233 233 234 235 235 236 236 237 237 238 239 239 240 241 241 241 242 242 243 243 244 244 245 245 246 247 247 248 248 249 249 249 250 251 251 252 252 252 252 253 254 254 254 254 254 255 255 255 254 159 222 255 255 255 255 255 255 255 255 255 255
255 255 255 255 255 255 255 255 255 255 255 255 255 255 255 255 255 255 255 255 255 255 255 255 255 255 136 77 90 92 93 94 95 96 97 98 99 100 101 102 103 104 105 106 107 108 109 110 111 112 113 114 115 116 117 118 119 119 120 121 122 123 124 125 126 126 128 128 129 131 132 133 133 134 135 136 137 137 138 139 140 141 142 143 144 145 146 147 148 148 149 151 152 152 153 154 155 156 156 158 159 159 160 161 162 163 164 165 166 166 167 168 168 170 170 171 172 173 174 174 175 176 177 177 178 179 180 180 181 182 183 183 184 185 186 186 187 188 189 190 191 192 192 194 195 195 196 197 198 199 199 200 201 202 203 204 204 205 206 207 208 208 210 210 211 212 213 213 215 216 216 217 218 218 219 220 221 221 222 224 224 224 225 226 226 227 228 229 229 230 231 231 232 232 233 234 234 235 235 236 236 237 237 238 238 240 240 240 241 241 242 242 243 244 244 244 245 245 246 246 247 247 248 248 249 249 250 250 251 251 251 252 252 252 253 253 254 254 254 255 255 255 255 254 158 222 255 255 255 255 255 255 255 255 255 255
255 255 255 255 255 255 255 255 255 255 255 255 255 255 255 255 255 255 255 255 255 255 255 255 255 255 137 79 91 92 93 95 96 97 98 99 100 101 102 103 104 105 106 107 108 109 110 111 112 113 114 115 116 117 118 119 119 121 121 122 123 124 126 127 128 128 129 130 131 132 133 134 135 136 137 137 138 139 140 141 142 142 144 145 145 147 147 148 149 150 151 152 153 154 154 155 156 157 158 159 160 161 162 162 163 164 165 166 166 167 168 169 170 171 171 173 173 174 175 175 176 177 178 178 179 180 180 182 182 183 184 185 186 186 187 187 188 189 190 191 192 192 194 195 196 196 197 198 199 200 200 201 202 203 204 205 205 206 207 208 209 210 211 211 212 213 214 214 216 216 217 218 218 219 220 221 221 222 223 224 224 225 226 227 228 228 229 229 230 231 231 232 233 234 234 235 235 236 236 237 237 238 239 239 240 241 241 241 242 242 242 243 244 244 245 245 245 246 246 247 247 248 248 249 249 249 250 251 251 251 252 252 253 253 253 254 254 254 255 255 255 255 255 254 159 222 255 255 255 255 255 255 255 255 255 255
255 255 255 255 255 255 255 255 255 255 255 255 255 255 255 255 255 255 255 255 255 255 255 255 255 255 137 81 93 95 96 97 98 99 100 101 102 103 104 105 106 107 108 110 110 111 112 113 114 115 116 117 118 119 120 121 122 123 123 124 125 127 128 129 130 130 131 132 133 134 135 136 137 138 139 139 140 141 142 143 144 145 146 146 147 148 149 150 151 152 153 154 155 156 156 157 158 159 160 161 161 163 164 164 165 166 167 168 169 170 170 171 172 173 173 174 175 176 177 177 178 179 179 180 181 182 182 183 184 185 186 186 187 188 189 189 190 191 192 193 194 195 195 196 197 198 199 200 201 202 202 203 204 205 206 206 207 208 209 209 210 212 212 213 214 215 215 216 218 218 219 220 220 221 222 223 223 224 225 226 226 227 228 229 230 230 231 231 231 232 233 233 234 235 236 236 237 237 238 238 239 239 240 240 241 241 242 243 243 244 244 244 245 246 246 247 247 247 248 249 249 249 249 250 250 251 251 252 252 253 253 253 254 254 254 254 255 255 255 255 255 255 255 254 159 222 255 255 255 255 255 255 255 255 255 255
255 255 255 255 255 255 255 255 255 255 255 255 255 255 255 255 255 255 255 255 255 255 255 255 255 255 137 81 94 96 97 98 99 100 101 102 103 104 105 106 107 108 109 110 111 112 113 114 115 116 117 118 119 120 121 122 122 124 124 125 126 127 128 129 131 131 132 133 134 135 136 137 138 139 140 140 141 142 143 144 144 146 147 148 148 149 150 151 152 153 154 155 155 157 157 158 159 160 160 161 162 163 164 165 165 166 168 168 169 170 171 172 173 173 174 175 175 176 177 178 179 179 180 181 181 182 183 184 184 185 186 187 188 188 189 190 191 192 193 193 194 195 196 197 198 199 199 200 201 202 203 204 204 205 206 207 207 208 209 210 211 212 213 214 214 215 216 217 218 218 219 220 221 221 222 223 223 224 225 226 226 227 228 229 230 230 231 231 232 232 233 234 234 235 236 237 236 237 238 238 239 239 240 240 241 242 242 243 243 244 244 244 245 246 246 247 247 248 248 248 249 250 250 250 250 251 251 252 252 253 253 253 253 253 254 254 255 255 255 255 255 255 255 254 159 222 255 255 255 255 255 255 255 255 255 255
255 255 255 255 255 255 255 255 255 255 255 255 255 255 255 255 255 255 255 255 255 255 255 255 255 255 137 82 95 97 97 98 100 101 102 103 104 105 106 107 108 109 110 111 112 113 114 115 116 117 118 119 120 121 122 123 123 124 125 126 127 128 129 130 131 132 133 134 135 136 137 138 138 139 140 141 142 143 143 144 145 146 147 148 149 150 151 152 153 154 155 155 156 157 158 159 160 161 161 162 163 164 164 166 166 167 168 169 170 170 171 172 173 174 174 175 175 177 178 179 179 180 181 181 182 183 184 184 185 185 186 187 188 189 189 190 191 192 193 194 195 196 196 197 198 199 200 201 202 203 203 204 205 206 207 207 208 209 210 210 212 212 213 214 215 216 216 217 218 219 220 220 221 222 223 223 224 225 226 226 227 227 228 229 230 231 231 232 233 233 233 235 235 235 236 237 237 238 238 239 239 240 241 241 241 242 242 243 243 244 244 245 245 246 246 247 247 248 248 248 249 249 250 250 251 251 251 252 253 253 253 253 253 254 254 255 255 255 255 255 255 255 255 254 159 222 255 255 255 255 255 255 255 255 255 255
255 255 255 255 255 255 255 255 255 255 255 255 255 255 255 255 255 255 255 255 255 255 255 255 255 255 137 82 96 98 99 100 101 102 103 104 105 106 107 108 109 110 111 112 113 114 115 116 117 118 119 120 121 122 123 124 125 125 126 127 129 129 130 131 133 133 134 135 136 137 138 139 139 140 141 142 143 144 144 145 146 147 148 149 150 151 152 153 154 155 155 157 157 158 159 160 161 162 162 163 164 164 165 166 167 168 169 170 171 171 172 173 174 174 175 176 177 178 178 179 180 181 181 182 183 184 184 185 185 186 187 188 189 190 190 191 192 193 194 194 196 196 197 198 199 200 201 202 202 203 204 205 205 206 207 208 209 209 210 211 212 213 214 215 215 216 217 218 219 220 220 221 221 222 223 224 224 225 226 227 227 228 229 230 230 231 232 232 233 233 234 235 235 236 236 237 237 238 238 239 240 240 241 241 242 242 243 243 243 244 245 245 246 246 247 247 248 248 248 249 249 250 250 250 250 251 252 252 253 253 253 254 254 254 254 255 255 255 255 255 255 255 255 254 158 222 255 255 255 255 255 255 255 255 255 255
255 255 255 255 255 255 255 255 255 255 255 255 255 255 255 255 255 255 255 255 255 255 255 255 255 255 137 83 97 99 100 101 102 103 104 105 106 107 108 109 110 111 112 113 114 115 116 117 118 119 120 121 122 123 124 125 126 126 127 128 130 131 132 132 134 134 135 136 136 138 139 140 140 141 142 143 144 145 145 146 147 148 149 150 151 152 153 154 154 156 156 158 158 159 160 161 162 162 163 164 164 165 166 167 168 169 170 171 172 172 173 174 174 175 176 177 178 179 179 180 181 181 182 183 184 184 185 186 186 187 188 189 190 190 191 192 193 194 194 195 196 197 197 199 200 200 202 202 203 204 204 205 206 207 208 209 210 210 211 211 213 214 214 215 216 217 218 218 219 220 221 222 222 223 224 224 225 226 226 227 228 228 229 230 231 232 232 233 233 234 235 235 235 236 237 238 238 238 239 239 240 240 241 242 242 243 243 244 244 245 245 245 246 247 247 248 248 248 249 250 250 250 250 251 251 252 252 252 252 253 253 254 254 254 255 255 255 255 255 255 255 255 255 254 158 222 255 255 255 255 255 255 255 255 255 255
255 255 255 255 255 255 255 255 255 255 255 255 255 255 255 255 255 255 255 255 255 255 255 255 255 255 137 84 98 100 101 102 103 104 105 106 107 108 109 110 111 112 113 114 115 116 117 118 119 120 121 122 123 124 125 126 127 127 128 129 130 131 132 133 134 135 136 136 138 139 140 141 141 142 143 144 144 145 146 147 148 149 150 151 152 153 154 155 155 156 157 158 159 160 161 161 162 163 164 165 166 166 167 168 169 170 171 171 173 173 174 175 175 176 177 178 178 179 180 181 181 182 183 184 184 185 186 187 187 188 189 189 191 191 191 192 193 194 195 196 197 198 198 199 201 201 202 203 203 204 205 206 207 208 208 209 210 211 212 212 213 214 215 216 217 217 218 219 220 221 221 222 223 224 224 225 226 227 227 227 228 229 230 231 231 232 232 233 234 234 235 236 236 237 238 238 238 239 240 240 240 241 242 242 243 243 243 244 244 245 245 246 246 247 248 248 248 249 249 249 250 250 251 251 251 252 252 253 253 253 253 254 254 254 255 255 255 255 255 255 255 255 255 254 159 222 255 255 255 255 255 255 255 255 255 255
255 255 255 255 255 255 255 255 253 246 247 253 255 247 245 246 253 255 252 246 251 255 255 255 255 255 137 85 99 100 102 103 104 105 106 107 108 109 110 111 112 113 114 115 116 117 118 119 120 121 122 123 124 125 126 127 128 128 129 130 131 132 134 134 135 136 137 137 138 140 140 141 142 143 144 145 145 146 147 148 149 150 151 151 153 154 155 156 156 158 158 159 160 161 162 162 163 164 165 166 166 167 168 169 170 171 171 172 173 174 175 176 176 177 177 178 179 180 181 182 182 183 184 185 185 186 187 187 188 189 190 190 191 192 192 193 194 195 196 197 198 199 199 200 201 202 203 204 204 205 206 206 208 208 209 210 210 212 212 213 214 215 216 216 217 218 218 219 221 221 222 222 223 224 225 225 226 227 227 228 229 230 230 231 232 233 233 234 234 235 235 236 237 237 238 239 239 239 240 240 241 241 242 243 243 244 244 244 245 246 246 247 247 248 248 248 249 249 249 250 251 251 251 251 252 252 253 253 253 254 254 254 255 255 255 255 255 255 255 255 255 255 255 254 159 222 255 255 255 255 255 255 255 255 255 255
255 255 255 255 255 255 255 255 194 135 131 173 245 132 133 153 237 247 162 135 147 239 255 255 255 255 137 85 100 101 102 104 104 105 106 107 108 109 111 112 113 114 115 116 116 117 119 120 120 121 123 124 125 126 127 128 128 129 130 131 132 133 134 135 136 137 138 138 139 140 141 142 143 144 145 146 146 147 148 149 150 151 152 153 154 155 156 157 157 158 159 160 161 161 162 163 164 165 166 167 167 168 169 170 170 171 172 173 174 175 175 176 177 178 178 179 179 181 181 182 183 183 184 185 186 187 187 188 188 189 190 191 192 192 193 194 195 196 197 197 198 199 200 200 201 203 203 204 204 205 206 207 208 209 210 211 211 212 213 214 214 215 216 217 217 218 219 220 221 222 222 223 224 224 225 226 226 227 228 229 230 230 231 231 232 233 234 234 235 235 236 236 237 238 238 239 239 240 240 241 241 242 242 243 243 244 244 245 245 246 246 247 247 248 248 248 249 249 249 250 251 251 251 251 252 252 253 253 254 254 254 254 255 255 255 255 255 255 255 255 255 255 255 254 159 222 255 255 255 255 255 255 255 255 255 255
255 255 255 255 255 255 255 255 232 238 223 101 224 109 194 233 253 199 123 238 145 170 254 255 255 255 137 87 101 102 103 105 105 106 107 108 109 111 112 113 114 115 116 117 118 118 120 121 121 123 124 124 126 127 128 129 129 130 131 132 133 134 135 136 137 138 138 139 140 141 142 143 144 145 146 147 147 148 149 150 151 152 153 154 155 156 157 158 158 159 160 161 162 162 163 164 165 166 166 167 168 169 170 170 171 172 173 174 175 176 176 177 178 178 179 180 180 181 182 183 184 184 185 186 186 187 188 188 189 190 191 192 192 193 194 194 196 196 197 198 199 200 201 201 203 203 204 205 205 206 207 208 209 210 210 211 212 213 213 214 215 216 217 218 218 219 219 220 222 223 223 224 224 225 225 226 227 228 229 229 230 231 232 232 233 234 234 235 235 236 236 237 238 238 239 239 240 240 240 241 242 242 243 243 244 244 245 245 246 246 247 247 248 248 249 249 249 250 250 250 251 251 251 252 252 253 253 253 254 254 254 255 255 255 255 255 255 255 255 255 255 255 255 254 158 222 255 255 255 255 255 255 255 255 255 255
255 255 255 255 255 255 255 255 255 254 202 120 237 131 120 116 219 155 159 254 187 128 253 245 174 157 89 87 101 103 104 105 106 107 108 109 110 111 112 114 114 115 116 118 118 119 120 122 122 123 125 125 126 127 128 129 130 131 132 133 134 135 136 137 137 138 139 140 141 142 143 144 145 146 147 148 148 149 150 151 152 153 154 155 156 157 157 158 159 160 160 161 162 163 164 165 166 167 167 168 169 170 170 171 172 173 174 174 175 176 177 178 178 179 180 181 181 182 183 184 184 185 185 186 187 188 189 189 190 191 192 192 193 194 195 195 196 197 198 199 200 201 201 202 203 204 205 205 206 207 207 208 209 210 211 212 213 213 214 215 215 217 218 218 218 219 220 221 222 223 224 224 225 225 226 227 228 229 229 230 230 231 232 233 233 234 234 235 235 236 237 237 238 239 239 240 240 241 241 242 242 243 243 244 244 245 245 246 246 246 246 247 248 248 249 249 249 250 250 251 251 251 252 252 252 253 253 254 254 254 254 254 254 255 255 255 255 255 255 255 255 255 255 254 159 222 255 255 255 255 255 255 255 255 255 255
255 255 255 255 255 255 255 255 255 216 124 214 254 247 248 166 146 153 158 254 186 130 253 251 225 219 120 88 102 104 105 106 107 108 109 110 111 112 113 114 115 116 117 119 119 120 121 122 123 124 125 126 127 129 129 130 131 132 133 134 135 136 137 138 139 139 140 141 142 143 144 145 146 147 148 149 149 151 151 152 153 154 155 156 157 158 158 159 160 161 161 162 163 164 165 165 167 167 168 169 170 170 171 172 173 174 175 175 176 177 178 178 179 180 181 181 182 183 184 185 185 186 186 187 188 189 190 190 191 191 192 193 194 195 196 196 197 198 199 200 201 201 202 203 204 205 205 206 207 208 208 209 210 211 212 213 213 214 215 216 216 217 218 219 219 220 221 221 223 224 224 225 226 226 227 227 228 229 230 230 231 231 232 233 234 235 235 235 236 237 237 238 239 239 240 240 241 242 241 242 243 243 243 244 244 245 246 246 246 247 247 248 248 249 249 250 250 250 251 251 252 252 252 252 252 253 253 254 254 254 254 254 255 255 255 255 255 255 255 255 255 255 255 254 159 222 255 255 255 255 255 255 255 255 255 255
255 255 255 255 255 255 255 255 215 112 192 240 247 236 244 158 149 194 124 240 147 167 255 255 255 255 138 89 104 105 106 107 108 109 110 111 112 113 114 115 116 117 118 119 120 121 122 123 124 125 126 127 128 129 130 131 132 133 133 135 136 137 138 139 140 140 141 142 143 144 145 146 147 148 149 150 151 151 152 153 154 155 156 157 157 158 159 160 161 162 163 163 164 165 166 166 167 168 169 170 170 171 172 173 173 174 175 176 177 178 179 179 180 181 181 182 183 184 185 185 186 187 187 188 189 190 190 191 192 193 193 194 195 195 196 197 198 198 199 200 201 202 203 204 204 205 206 207 207 208 209 210 211 212 212 213 214 215 216 216 217 218 219 219 220 221 221 222 223 224 225 226 226 227 227 228 229 230 230 231 232 232 233 234 234 235 236 236 237 237 237 238 239 240 240 241 241 242 241 242 243 243 244 245 245 246 245 246 247 248 248 248 249 249 249 250 250 250 251 251 252 252 252 252 253 253 254 254 254 254 254 255 255 255 255 255 255 255 255 255 255 255 255 254 159 222 255 255 255 255 255 255 255 255 255 255
255 255 255 255 255 255 255 253 155 102 130 146 220 140 130 127 225 245 154 135 144 237 255 255 255 255 138 90 105 106 107 108 109 110 111 112 113 114 115 116 117 118 119 120 121 122 124 124 125 126 127 128 129 130 131 132 133 134 134 135 137 138 139 140 141 141 142 143 144 145 146 147 148 149 150 151 152 152 153 154 155 156 157 158 158 159 160 161 162 163 163 164 165 166 167 167 168 169 170 171 171 172 173 174 174 175 176 177 178 179 179 180 181 182 182 183 184 185 185 186 187 188 188 189 189 191 191 192 192 193 194 195 196 196 197 198 198 199 200 201 202 203 203 204 205 206 207 208 208 209 210 211 212 212 213 214 215 215 216 217 218 219 219 220 221 222 222 222 224 225 225 226 227 227 228 229 230 230 231 232 232 233 233 235 235 236 236 237 237 238 238 239 240 240 241 241 242 242 243 243 244 244 245 245 245 246 246 247 247 248 248 249 249 250 250 250 251 251 251 251 252 253 253 253 253 253 254 254 254 254 255 255 255 255 255 255 255 255 255 255 255 255 255 254 159 222 255 255 255 255 255 255 255 255 255 255
255 255 255 255 255 255 255 255 250 247 247 248 253 247 239 248 255 255 252 244 250 255 255 255 255 255 138 91 105 106 108 109 110 111 112 113 114 115 116 117 118 119 120 121 122 123 124 125 126 127 128 129 130 131 132 133 134 135 135 136 138 139 140 141 142 142 143 144 145 146 147 148 149 150 151 152 152 153 154 155 156 156 157 159 159 160 161 162 163 164 164 165 166 167 168 168 169 170 171 172 172 173 174 175 175 176 177 178 179 179 180 180 182 182 183 184 184 185 186 187 187 188 189 190 190 191 192 193 193 194 195 196 197 197 198 199 199 200 201 202 203 204 204 205 206 207 208 208 209 210 210 211 212 213 214 215 215 216 217 218 218 220 220 221 221 222 223 223 225 226 226 227 227 228 229 229 230 231 232 232 233 233 234 235 236 236 237 237 238 238 239 240 240 241 241 242 242 243 243 243 244 245 245 246 246 246 247 247 247 248 248 249 249 250 250 250 250 251 251 251 252 253 253 254 253 253 254 254 254 255 255 255 255 255 255 255 255 255 255 255 255 255 255 254 159 222 255 255 255 255 255 255 255 255 255 255
255 255 255 255 255 255 255 255 255 255 255 255 255 255 255 255 255 255 255 255 255 255 255 255 255 255 138 91 106 107 109 110 111 112 113 114 115 116 117 118 119 120 121 123 123 124 125 126 127 128 129 130 131 132 133 134 135 136 136 137 139 140 141 142 142 143 144 145 146 147 148 149 150 151 152 153 153 154 155 156 157 158 159 160 160 161 162 163 163 164 165 166 167 168 168 169 170 171 172 173 173 174 175 175 176 177 178 179 180 180 181 182 182 183 184 185 185 186 187 188 188 189 190 191 191 192 193 194 194 195 196 197 198 198 199 199 200 201 202 203 204 205 205 206 207 208 208 209 210 211 211 212 213 214 215 216 216 217 217 219 219 220 221 222 222 223 224 224 225 226 227 227 228 229 229 230 231 231 232 233 233 234 235 236 236 237 237 238 238 239 240 240 241 241 242 242 243 243 244 244 245 245 245 246 246 247 247 247 248 248 249 249 250 250 250 250 251 251 251 252 252 253 253 254 254 254 254 254 255 255 255 255 255 255 255 255 255 255 255 255 255 255 255 254 159 222 255 255 255 255 255 255 255 255 255 255
255 255 255 255 255 255 255 255 255 255 255 255 255 255 255 255 255 255 255 255 255 255 255 255 255 255 138 92 107 109 109 111 112 113 114 115 116 117 118 119 120 121 122 123 124 125 126 127 128 129 130 131 132 133 134 135 136 137 137 139 140 141 142 143 143 144 146 146 147 149 150 150 151 152 153 154 155 155 156 157 158 159 160 161 161 162 163 164 165 165 166 167 168 169 170 171 171 172 173 174 174 175 176 177 177 178 179 180 180 181 182 183 183 184 185 186 186 187 188 189 190 190 191 192 192 193 194 194 195 196 197 197 198 199 200 200 201 201 202 203 205 205 205 206 207 208 209 210 211 211 212 213 214 215 215 216 217 217 218 219 220 220 221 222 222 223 224 225 226 226 227 228 228 229 230 231 231 232 233 234 234 235 236 236 237 238 238 238 239 240 240 241 241 242 242 243 243 243 244 245 245 245 246 246 247 247 247 248 248 249 249 250 250 250 250 251 251 252 251 252 252 253 253 254 254 254 255 255 255 255 255 255 255 255 255 255 255 255 255 255 255 255 255 254 158 222 255 255 255 255 255 255 255 255 255 255
255 255 255 255 255 255 255 255 255 255 255 255 255 255 255 255 255 255 255 255 255 255 255 255 255 255 138 93 108 110 111 112 113 114 115 116 117 118 119 120 121 122 123 124 125 127 127 128 129 130 131 132 133 134 136 136 137 138 138 140 141 141 143 144 145 146 146 147 149 150 150 151 152 153 154 155 156 156 157 158 159 160 161 162 162 163 164 165 166 166 167 168 169 170 171 172 172 173 174 175 175 176 177 178 178 179 180 181 181 182 182 184 184 185 186 186 187 188 189 190 190 191 192 193 193 194 194 195 196 197 197 198 199 200 201 201 202 202 203 204 205 206 206 207 208 209 210 211 211 212 213 214 214 216 216 217 217 218 219 220 220 221 222 223 223 224 225 225 227 227 228 229 229 230 231 231 232 233 234 234 235 235 236 237 237 238 238 239 240 240 240 242 242 242 243 243 243 244 245 245 245 246 246 247 247 248 248 248 248 249 250 250 250 251 251 251 251 252 252 253 253 253 253 254 254 254 255 255 255 255 255 255 255 255 255 255 255 255 255 255 255 255 255 254 159 222 255 255 255 255 255 255 255 255 255 255
255 255 255 255 255 255 255 255 255 255 255 255 255 255 255 255 255 255 255 255 255 255 255 255 255 255 139 93 109 111 112 113 115 116 116 117 118 119 120 121 122 123 124 125 126 127 128 129 130 131 132 133 134 135 137 137 138 139 140 141 141 143 143 145 145 147 147 148 149 151 151 152 153 154 155 155 156 157 158 159 160 160 161 162 163 164 164 166 166 167 168 169 170 171 171 172 173 174 175 176 176 177 178 178 179 180 181 181 182 183 183 184 185 185 187 188 188 189 190 190 191 192 192 193 194 195 195 196 196 197 198 199 200 200 201 201 203 203 204 205 206 206 206 208 209 210 210 211 212 213 214 214 215 216 216 217 218 218 220 221 221 222 223 223 224 224 225 226 227 228 228 229 230 231 231 232 232 233 234 234 235 236 237 237 238 238 239 239 240 240 241 241 242 242 243 244 244 245 245 245 246 246 246 247 247 248 248 248 249 249 249 250 250 251 251 251 251 251 252 253 253 253 253 254 254 254 255 255 255 255 255 255 255 255 255 255 255 255 255 255 255 255 255 254 159 222 255 255 255 255 255 255 255 255 255 255
255 255 255 255 255 255 255 255 255 255 255 255 255 255 255 255 255 255 255 255 255 255 255 255 255 255 138 94 110 112 113 114 115 117 118 118 119 120 121 122 123 124 125 126 127 128 129 130 131 132 133 134 136 136 137 138 139 139 140 142 143 144 145 146 146 147 148 149 150 152 152 153 154 155 156 157 157 158 159 160 161 161 162 163 164 165 165 166 168 168 169 170 170 172 172 173 174 175 176 177 177 178 179 179 180 181 181 182 183 184 184 185 186 186 188 188 189 189 190 191 192 193 193 194 194 195 196 196 197 198 199 200 200 201 202 202 203 204 205 206 206 207 208 209 210 210 211 212 213 213 214 215 216 217 217 218 218 219 220 221 222 222 223 224 225 225 226 226 228 228 229 230 230 231 232 232 233 234 235 235 236 236 237 238 238 239 239 240 240 241 241 242 242 243 244 244 244 245 245 246 246 246 247 247 248 248 248 249 249 250 250 250 250 251 251 252 252 252 252 253 253 254 254 254 254 255 255 255 255 255 255 255 255 255 255 255 255 255 255 255 255 255 255 254 159 222 255 255 255 255 255 255 255 255 255 255
255 255 255 255 255 255 255 255 255 255 255 255 255 255 255 255 255 255 255 255 255 255 255 255 255 255 139 95 111 113 114 115 116 117 118 119 120 121 122 123 123 125 126 127 128 129 130 131 132 133 134 135 136 137 138 139 140 140 141 142 143 144 146 147 147 148 149 150 151 152 153 154 155 156 156 158 158 159 160 161 161 162 163 164 165 166 167 167 168 169 170 171 171 172 173 174 175 176 177 177 178 179 179 180 181 181 182 183 184 184 185 186 187 187 188 189 189 190 191 192 192 193 194 194 195 196 196 197 198 199 200 200 201 202 202 203 204 205 205 206 207 208 209 209 211 211 212 213 213 214 215 216 216 217 218 218 219 220 221 221 222 223 224 225 225 226 226 227 228 229 229 230 231 232 232 233 233 234 235 235 236 236 237 238 239 240 240 240 241 241 242 242 243 243 244 245 245 245 246 246 247 247 247 248 248 249 249 249 249 250 250 250 251 251 252 252 252 253 253 253 254 254 254 254 254 255 255 255 255 255 255 255 255 255 255 255 255 255 255 255 255 255 255 254 159 222 255 255 255 255 255 255 255 255 255 255
255 255 255 255 255 255 255 255 255 255 255 255 255 255 255 255 255 255 255 255 255 255 255 255 255 255 139 96 113 114 115 116 117 118 119 120 121 122 123 124 125 126 127 128 129 130 131 132 133 134 135 136 137 138 139 140 141 141 142 144 144 145 147 148 148 149 150 151 152 153 154 155 156 157 158 158 159 160 161 162 162 163 164 165 166 167 168 168 169 170 171 171 172 173 174 175 176 177 177 178 179 179 180 181 181 182 183 184 185 185 186 186 187 188 189 190 190 191 192 192 193 193 194 195 196 197 197 198 199 200 200 201 202 202 203 204 204 205 206 207 208 209 209 210 211 212 213 213 214 214 216 216 217 218 218 219 220 221 221 222 223 224 224 225 225 226 227 228 229 230 230 230 232 232 233 233 234 235 235 236 237 237 238 239 239 240 240 241 241 242 242 243 243 244 244 245 245 246 246 246 247 248 248 248 249 249 249 249 250 250 251 251 251 252 252 252 252 252 253 253 254 254 254 255 255 255 255 255 255 255 255 255 255 255 255 255 255 255 255 255 255 255 255 254 159 222 255 255 255 255 255 255 255 255 255 255
255 255 255 255 255 255 255 255 255 255 255 255 255 255 255 255 255 255 255 255 255 255 255 255 255 255 139 97 114 115 116 117 118 119 120 121 122 123 124 125 126 127 128 129 130 131 132 133 134 135 136 137 138 139 140 141 142 142 143 145 146 147 147 148 149 150 151 152 153 154 155 156 157 158 158 159 160 161 162 163 163 164 165 166 167 168 169 169 170 171 172 172 173 174 175 176 177 177 178 179 180 180 181 182 182 183 184 185 185 186 187 187 188 189 190 190 191 192 193 193 194 195 195 196 197 198 198 199 199 200 201 202 202 203 204 204 205 206 207 208 209 209 210 211 212 213 214 214 214 215 216 217 218 218 219 220 220 221 222 222 223 225 225 226 226 227 227 228 230 230 231 231 232 233 233 234 235 236 236 236 237 238 239 239 240 241 241 241 242 242 243 243 244 244 245 246 246 246 246 247 247 248 248 248 249 249 249 250 250 250 250 251 251 252 252 252 252 252 252 253 254 254 254 254 254 255 255 255 255 255 255 255 255 255 255 255 255 255 255 255 255 255 255 254 158 222 255 255 255 255 255 255 255 255 255 255
255 255 255 255 255 255 255 255 255 255 255 255 255 255 255 255 255 255 255 255 255 255 255 255 255 255 139 98 114 116 117 118 119 120 121 122 123 124 125 126 127 128 129 130 131 132 133 134 135 136 137 138 139 140 141 142 143 144 144 146 147 148 149 149 151 151 152 153 154 155 156 157 157 159 159 160 161 162 163 164 164 165 166 167 168 168 169 170 171 172 173 173 174 175 176 177 178 178 179 180 180 181 182 183 183 184 185 185 186 187 188 188 189 190 190 191 192 193 194 194 195 196 196 197 198 199 199 200 200 201 202 202 203 204 204 205 206 207 208 208 209 210 211 212 212 213 214 215 215 216 217 217 218 219 220 220 221 222 222 223 224 225 226 227 227 227 228 228 230 231 231 232 232 233 234 235 235 236 236 237 237 238 239 240 240 241 241 242 242 243 243 243 244 245 245 246 246 247 247 247 248 248 248 249 249 250 250 250 250 251 251 251 252 252 252 253 253 253 253 253 254 254 254 255 255 255 255 255 255 255 255 255 255 255 255 255 255 255 255 255 255 255 255 254 158 222 255 255 255 255 255 255 255 255 255 255
255 255 255 255 255 255 255 255 255 255 255 255 255 255 255 255 255 255 255 255 255 255 255 255 255 255 139 100 116 118 119 120 121 121 122 123 124 126 126 127 128 129 130 131 132 134 135 135 136 137 138 139 140 141 143 143 144 145 146 148 148 149 150 151 152 152 154 155 156 157 158 159 159 160 161 162 163 163 164 165 166 166 168 169 169 170 171 172 172 173 174 175 176 177 178 178 180 180 181 181 182 182 183 184 185 185 186 187 187 188 189 189 190 191 192 193 193 194 195 196 196 197 197 198 199 199 200 201 201 202 203 203 204 205 206 206 207 208 209 209 211 211 212 213 214 214 215 216 217 217 218 219 219 220 221 221 222 223 223 224 225 226 227 228 228 229 229 230 231 232 232 233 234 234 234 235 236 237 237 238 239 239 240 241 241 242 242 242 243 244 244 244 244 245 246 246 247 247 248 248 248 249 249 249 250 250 251 251 251 251 252 252 252 252 253 253 253 253 254 254 254 254 255 255 255 255 255 255 255 255 255 255 255 255 255 255 255 255 255 255 255 255 255 254 159 222 255 255 255 255 255 255 255 255 255 255
255 255 255 255 255 255 255 255 255 255 255 255 255 255 255 255 255 255 255 255 255 255 255 255 255 255 140 102 118 120 121 122 123 124 125 126 127 128 129 130 131 132 133 134 135 136 137 138 139 140 141 142 143 144 145 146 147 148 149 150 151 152 152 153 155 155 156 157 158 159 160 161 162 163 164 164 165 166 167 167 168 169 170 171 172 172 173 174 175 176 176 177 178 179 180 181 182 182 183 183 184 185 186 187 187 188 188 189 190 191 191 191 192 193 194 195 195 196 197 198 198 199 199 200 201 202 202 203 204 204 205 206 206 207 208 209 209 210 211 212 213 214 214 215 216 217 217 218 219 219 220 221 222 222 223 224 224 225 226 226 227 228 229 230 230 231 231 232 233 234 234 235 235 236 236 237 238 239 239 240 240 241 241 242 243 243 244 244 245 245 246 246 246 246 247 248 248 249 249 249 250 250 250 251 251 251 252 252 252 253 253 254 254 254 254 255 254 255 255 255 255 255 255 255 255 255 255 255 255 255 255 255 255 255 255 255 255 255 255 255 255 255 255 255 159 222 255 255 255 255 255 255 255 255 255 255
255 255 255 255 255 255 255 255 255 255 255 255 255 255 255 255 255 255 255 255 255 255 255 255 255 255 140 102 120 121 122 123 124 125 126 127 128 128 130 131 132 133 134 135 136 137 138 139 140 141 142 143 144 145 146 147 148 149 150 151 152 153 153 155 155 157 157 158 159 160 161 162 163 164 164 165 166 167 168 169 169 170 171 172 173 174 174 175 176 177 178 178 179 180 181 182 182 183 184 184 185 186 186 187 187 188 189 190 191 191 191 192 193 194 195 195 196 197 197 198 199 200 200 201 201 202 203 203 204 205 205 206 207 208 208 209 210 211 211 212 213 214 215 215 216 217 217 219 219 220 221 221 222 223 224 224 225 225 226 227 228 228 229 230 230 231 231 232 233 234 234 235 236 236 237 238 238 239 240 240 241 241 242 243 243 244 244 244 245 245 246 246 246 247 248 248 248 249 249 249 250 250 251 251 251 252 251 252 252 253 253 254 254 254 254 255 255 255 255 255 255 255 255 255 255 255 255 255 255 255 255 255 255 255 255 255 255 255 255 255 255 255 255 254 158 222 255 255 255 255 255 255 255 255 255 255
255 255 255 255 255 255 255 255 255 255 255 255 255 255 255 255 255 255 255 255 255 255 255 255 255 255 140 104 121 122 123 124 125 126 127 128 129 130 131 132 133 134 135 136 137 138 139 140 141 142 143 144 145 146 147 148 149 150 151 152 153 154 154 156 157 157 158 159 160 161 162 162 164 165 165 166 167 168 169 170 170 171 172 172 174 174 175 176 177 178 178 179 180 181 182 182 183 184 184 185 186 186 187 188 188 189 190 191 191 192 192 193 194 195 195 196 197 197 198 199 200 200 201 202 202 203 203 204 205 206 206 207 208 208 209 210 211 211 212 213 214 215 215 216 217 218 218 219 220 220 221 222 222 223 224 225 225 226 227 227 228 229 229 230 231 231 232 233 234 234 235 235 236 237 238 238 239 239 240 240 241 242 242 243 243 244 245 245 245 246 246 246 247 248 248 249 249 249 250 250 250 250 251 251 252 252 252 252 253 253 253 254 254 254 254 255 255 255 255 255 255 255 255 255 255 255 255 255 255 255 255 255 255 255 255 255 255 255 255 255 255 255 255 254 158 222 255 255 255 255 255 255 255 255 255 255
255 255 255 255 255 255 255 255 255 255 255 255 255 255 255 255 255 255 255 255 255 255 255 255 255 255 140 104 122 123 124 126 127 128 128 129 130 131 132 133 134 135 136 137 138 139 140 141 142 143 144 145 146 147 148 149 150 151 151 153 154 155 156 156 158 158 159 160 161 162 163 163 164 166 166 167 168 169 170 170 171 172 173 173 174 175 176 177 178 179 179 180 181 181 182 183 184 184 185 186 187 187 188 189 190 191 191 192 192 193 194 194 195 195 196 197 198 198 199 200 200 201 202 202 203 204 204 205 206 206 207 208 209 209 210 210 211 212 213 214 214 215 216 217 218 219 219 220 220 221 222 222 223 224 225 225 226 227 228 228 229 230 230 231 231 232 233 233 234 235 235 236 236 237 238 238 239 240 241 241 242 242 243 243 244 245 245 245 246 246 246 247 248 248 249 249 249 250 250 250 250 251 251 252 252 252 252 253 253 253 253 254 254 255 255 255 255 255 255 255 255 255 255 255 255 255 255 255 255 255 255 255 255 255 255 255 255 255 255 255 255 255 255 254 159 222 255 255 255 255 255 255 255 255 255 255
255 255 255 255 255 255 255 255 255 255 255 255 255 255 255 255 255 255 255 255 255 255 255 255 255 255 140 106 123 125 125 126 128 129 129 131 132 133 134 135 135 136 137 138 139 140 142 142 143 144 145 146 147 148 149 150 151 152 152 154 154 156 157 157 159 159 160 161 162 163 164 165 166 167 167 168 169 170 171 171 172 173 174 174 175 176 177 178 179 180 180 181 182 183 183 184 185 185 186 187 188 188 189 190 190 191 192 193 193 194 195 195 196 196 197 198 198 199 200 200 201 202 203 204 204 205 205 206 206 207 208 209 209 210 211 211 212 213 214 215 215 216 217 217 219 219 220 221 221 222 222 223 224 225 225 226 227 228 228 229 230 230 231 232 232 233 233 234 235 236 236 237 237 238 238 239 240 241 241 242 242 243 243 244 244 245 245 246 246 247 247 248 248 248 249 249 250 250 250 251 251 251 251 252 252 252 253 253 253 254 254 254 254 255 255 255 255 255 255 255 255 255 255 255 255 255 255 255 255 255 255 255 255 255 255 255 255 255 255 255 255 255 255 254 159 222 255 255 255 255 255 255 255 255 255 255
255 255 255 255 255 255 255 255 255 255 255 255 255 255 255 255 255 255 255 255 255 255 255 255 255 255 140 107 125 126 127 128 129 130 131 132 133 134 135 135 136 137 138 139 140 141 143 143 144 145 146 147 148 149 150 151 152 153 153 154 156 157 158 158 160 160 161 162 163 164 165 166 167 168 168 169 170 171 171 172 173 174 175 176 176 177 178 179 179 180 181 182 183 183 184 185 186 187 187 188 189 189 190 191 191 192 193 194 194 195 196 196 197 197 198 199 200 200 201 202 202 203 203 204 205 206 206 207 207 208 209 210 210 211 212 212 213 214 214 215 216 217 218 219 219 220 221 222 222 222 223 224 225 226 226 227 228 228 229 230 230 231 232 232 232 233 234 235 235 236 236 237 238 238 239 240 240 241 242 242 243 243 244 244 244 245 246 246 247 247 247 248 249 249 250 250 250 251 251 251 251 252 252 253 253 253 253 254 254 254 254 254 255 255 255 255 255 255 255 255 255 255 255 255 255 255 255 255 255 255 255 255 255 255 255 255 255 255 255 255 255 255 255 254 159 222 255 255 255 255 255 255 255 255 255 255
255 255 255 255 255 255 255 255 255 255 255 255 255 255 255 255 255 255 255 255 255 255 255 255 255 255 140 108 126 127 128 129 130 131 132 132 133 135 136 137 138 139 140 141 142 143 144 145 145 146 148 148 150 150 151 152 153 154 155 156 157 158 159 159 161 162 162 163 165 165 166 167 168 169 170 171 171 172 173 173 174 175 176 177 177 178 179 180 180 181 182 183 184 184 185 186 187 187 188 189 190 191 191 192 192 193 194 195 195 196 197 197 198 198 199 200 201 201 202 203 203 204 205 205 206 206 207 208 208 209 210 210 211 212 213 213 214 214 215 216 217 218 219 220 220 221 222 223 223 223 224 225 226 226 227 228 229 229 230 230 231 232 233 233 233 234 235 236 236 237 237 238 239 239 240 241 241 242 243 243 243 244 245 245 245 246 246 247 247 248 248 249 249 249 250 250 251 251 251 252 252 252 253 253 253 253 254 254 254 254 255 255 255 255 255 255 255 255 255 255 255 255 255 255 255 255 255 255 255 255 255 255 255 255 255 255 255 255 255 255 255 255 255 254 159 222 255 255 255 255 255 255 255 255 255 255
255 255 255 255 255 255 255 255 255 255 255 255 255 255 255 255 255 255 255 255 255 255 255 255 255 255 140 109 127 128 129 130 131 132 133 134 134 136 137 138 139 140 141 141 143 144 145 146 146 147 149 149 151 152 153 154 155 156 156 157 158 159 159 161 162 163 164 164 165 166 167 168 169 170 171 171 172 173 174 174 175 176 177 177 178 179 180 181 181 182 183 184 185 185 186 187 187 188 189 190 191 191 192 193 193 194 195 196 196 197 197 198 199 199 200 201 201 202 203 204 204 205 206 206 207 208 208 209 209 210 210 211 212 213 213 214 214 215 216 217 218 219 220 220 221 222 222 224 224 224 225 226 226 227 228 228 229 230 230 231 231 232 233 234 234 235 236 236 237 238 238 239 239 240 240 241 242 243 243 244 244 245 245 246 246 246 247 247 248 248 249 249 250 250 251 251 251 252 252 252 253 253 253 253 253 254 254 254 255 255 255 255 255 255 255 255 255 255 255 255 255 255 255 255 255 255 255 255 255 255 255 255 255 255 255 255 255 255 255 255 255 255 255 254 158 222 255 255 255 255 255 255 255 255 255 255
255 255 255 255 255 255 255 255 255 255 255 255 255 255 255 255 255 255 255 255 255 255 255 255 255 255 141 110 128 129 130 131 132 133 134 135 136 137 138 139 140 140 141 142 144 145 146 147 148 149 150 151 152 153 154 155 156 156 157 158 159 160 161 162 163 164 165 166 167 167 168 169 170 171 172 172 173 174 175 175 176 177 178 179 179 180 181 182 183 183 184 185 186 186 187 188 189 190 190 191 192 192 193 194 194 195 196 197 198 198 199 199 200 200 201 202 203 203 204 205 205 206 206 207 208 209 209 210 210 211 211 212 213 214 214 215 216 216 217 218 219 220 221 221 222 222 223 224 225 225 226 227 227 228 229 229 230 231 231 232 233 233 234 235 235 235 237 237 238 239 239 240 240 240 241 242 243 243 244 244 245 245 246 246 247 247 248 248 249 249 249 250 250 251 251 252 252 252 252 253 253 253 254 254 254 254 254 255 255 255 255 255 255 255 255 255 255 255 255 255 255 255 255 255 255 255 255 255 255 255 255 255 255 255 255 255 255 255 255 255 255 255 255 254 159 222 255 255 255 255 255 255 255 255 255 255
255 255 255 255 255 255 255 255 255 255 255 255 255 255 255 255 255 255 255 255 255 255 255 255 255 255 141 111 129 130 131 133 133 135 135 136 137 138 139 140 141 142 143 144 145 146 147 148 149 150 151 152 153 154 155 155 156 157 158 159 160 161 162 163 164 165 166 167 167 169 169 170 171 172 173 173 174 175 176 176 177 178 179 179 180 181 182 183 183 184 185 186 187 187 188 189 190 191 191 192 193 194 194 195 195 196 197 198 198 199 200 200 201 202 202 203 204 204 205 206 206 207 208 208 209 210 210 211 212 212 212 214 214 215 216 216 216 217 218 219 220 220 221 222 223 223 225 225 226 226 227 227 228 229 229 230 231 232 232 233 234 234 235 235 236 236 237 238 239 240 240 240 241 241 242 243 243 244 245 245 245 246 247 247 247 248 248 248 250 250 250 251 251 252 252 252 253 253 253 253 253 253 254 254 254 254 255 255 255 255 255 255 255 255 255 255 255 255 255 255 255 255 255 255 255 255 255 255 255 255 255 255 255 255 255 255 255 255 255 255 255 255 255 254 158 222 255 255 255 255 255 255 255 255 255 255
255 255 255 255 255 255 255 255 255 255 255 255 255 255 255 255 255 255 255 255 255 255 255 255 255 255 141 112 130 131 133 134 135 136 136 137 138 139 140 141 142 143 144 145 146 147 148 149 150 151 152 153 154 155 156 156 158 158 159 160 161 162 163 164 165 166 167 168 169 170 170 171 172 173 174 174 175 176 176 177 178 179 179 181 181 182 183 184 185 185 186 187 188 188 189 190 191 192 192 193 194 194 195 196 197 197 198 199 199 200 201 201 202 203 204 204 205 206 206 207 208 208 209 209 210 211 211 212 213 214 214 215 216 216 217 217 218 219 219 220 221 221 222 223 224 224 226 227 227 227 228 228 229 230 230 231 232 233 233 234 235 235 236 236 237 237 238 239 240 240 241 241 242 242 243 244 244 245 245 246 246 246 247 248 248 248 249 249 250 250 251 251 252 252 253 253 253 253 254 254 254 254 255 254 254 255 255 255 255 255 255 255 255 255 255 255 255 255 255 255 255 255 255 255 255 255 255 255 255 255 255 255 255 255 255 255 255 255 255 255 255 255 255 254 158 222 255 255 255 255 255 255 255 255 255 255
255 255 255 255 255 255 255 255 255 255 255 255 255 255 255 255 255 255 255 255 255 255 255 255 255 255 141 112 132 132 134 135 136 137 138 138 139 141 141 142 143 144 145 146 147 148 149 150 151 152 153 154 155 156 157 158 159 160 160 161 162 164 165 165 166 167 168 169 170 171 171 172 173 174 175 176 176 177 178 178 179 180 180 181 182 183 184 185 186 187 187 188 189 189 190 190 192 192 193 194 195 195 196 197 198 198 199 200 200 201 201 202 203 203 204 205 206 206 207 208 208 209 210 210 211 212 212 213 214 214 215 215 216 217 218 218 219 220 220 221 222 223 224 224 226 226 227 227 228 229 229 230 230 231 232 233 233 234 234 235 235 236 237 238 238 238 239 239 241 241 242 242 243 243 244 245 245 246 246 247 247 247 248 248 249 249 250 251 251 251 252 252 253 253 254 254 254 254 254 254 255 255 255 255 255 255 255 255 255 255 255 255 255 255 255 255 255 255 255 255 255 255 255 255 255 255 255 255 255 255 255 255 255 255 255 255 255 255 255 255 255 255 255 254 158 222 255 255 255 255 255 255 255 255 255 255
255 255 255 255 255 255 255 255 255 255 255 255 255 255 255 255 255 255 255 255 255 255 255 255 255 255 141 113 133 134 135 136 137 138 139 139 141 141 142 143 144 145 146 147 148 149 150 151 152 153 154 155 156 157 158 159 160 160 161 162 164 165 166 167 167 168 169 170 171 172 173 174 174 176 176 177 178 178 179 180 181 181 182 182 184 184 185 186 187 188 189 189 190 191 191 192 193 194 194 195 196 197 198 198 199 200 200 201 202 202 203 204 204 205 205 206 207 207 208 209 210 210 211 212 213 213 214 214 215 215 216 217 218 219 219 220 220 221 222 222 224 225 225 226 227 228 229 229 230 230 231 231 232 232 233 234 234 235 236 236 237 237 238 239 239 240 240 241 242 242 243 243 244 245 245 245 247 247 247 248 248 249 249 250 250 250 251 251 252 252 253 253 253 253 254 254 254 254 254 254 255 255 255 255 255 255 255 255 255 255 255 255 255 255 255 255 255 255 255 255 255 255 255 255 255 255 255 255 255 255 255 255 255 255 255 255 255 255 255 255 255 255 255 254 159 222 255 255 255 255 255 255 255 255 255 255
255 255 255 255 255 255 255 255 255 255 255 255 255 255 255 255 255 255 255 255 255 255 255 255 255 255 141 114 135 136 137 138 139 139 140 141 142 143 143 145 146 147 147 149 149 150 151 152 153 154 155 156 157 158 159 160 161 161 162 163 165 166 166 168 169 169 171 171 173 174 174 176 177 177 177 178 179 180 181 181 182 183 183 184 185 186 187 188 189 189 190 191 192 193 193 194 195 195 196 197 198 198 199 200 200 201 202 202 203 204 204 205 206 206 207 208 208 209 209 210 211 211 212 213 214 214 215 215 216 216 217 217 219 220 221 221 222 223 223 224 225 226 227 228 228 229 230 231 232 232 232 232 233 234 235 235 236 237 237 237 238 239 240 240 240 241 242 242 243 243 243 244 245 246 246 246 247 248 248 249 250 250 250 251 252 252 252 252 252 253 253 253 253 253 254 254 255 255 255 255 255 255 255 255 255 255 255 255 255 255 255 255 255 255 255 255 255 255 255 255 255 255 255 255 255 255 255 255 255 255 255 255 255 255 255 255 255 255 255 255 255 255 255 254 159 222 255 255 255 255 255 255 255 255 255 255
255 255 255 255 255 255 255 255 255 255 255 255 255 255 255 255 255 255 255 255 255 255 255 255 255 255 140 104 123 124 125 126 127 127 128 128 129 130 131 131 133 134 135 136 136 137 138 138 139 140 141 142 142 144 145 146 146 146 147 148 149 150 151 152 153 154 155 156 157 158 159 160 160 161 161 162 163 164 164 165 165 166 167 167 168 169 169 171 172 172 172 173 174 175 176 176 177 178 178 178 179 180 181 182 182 183 183 184 185 185 186 186 187 187 188 189 189 189 190 190 191 191 192 192 193 194 194 195 195 196 196 197 198 199 200 200 200 201 202 202 203 203 204 205 206 206 207 207 208 208 208 208 209 209 209 210 210 210 210 211 211 212 212 213 213 213 214 214 214 214 215 215 216 216 217 217 217 217 218 218 219 219 219 219 220 220 220 220 219 219 220 220 220 220 220 220 221 221 221 221 221 221 221 222 221 221 221 221 221 221 221 221 221 221 221 221 221 221 221 221 221 221 221 222 221 221 221 221 221 221 221 221 221 221 221 221 221 221 221 221 221 221 221 221 142 222 255 255 255 255 255 255 255 255 255 255
255 255 255 255 255 255 255 255 255 255 255 255 255 255 255 255 255 255 255 255 255 255 255 255 255 255 154 111 145 145 145 146 146 146 146 146 146 146 147 147 147 147 147 147 147 147 147 147 148 148 148 148 148 148 149 149 149 149 149 149 149 149 149 150 149 150 150 144 95 147 151 151 151 151 151 151 151 151 151 152 152 152 152 152 152 152 152 152 152 153 153 153 152 153 153 153 153 153 154 154 154 154 154 154 154 154 154 154 138 107 155 155 155 155 155 155 155 155 155 155 155 155 155 156 156 156 156 156 156 156 156 156 156 156 157 157 156 156 157 157 157 157 157 157 158 157 158 157 158 158 123 127 157 157 158 158 158 158 157 158 158 158 158 158 158 158 158 158 158 158 158 158 158 158 158 158 158 158 158 158 158 158 158 158 158 158 159 158 158 158 158 158 138 112 158 158 158 158 158 159 159 159 159 158 158 159 159 159 159 159 158 158 158 159 158 159 159 159 159 158 158 159 159 158 159 158 158 158 158 158 159 159 159 154 103 154 158 158 158 158 158 158 158 158 158 238 255 255 255 255 255 255 255 255 255 255
255 255 255 255 255 255 255 255 255 255 255 255 255 255 255 255 255 255 255 255 255 255 255 255 255 255 175 190 255 255 255 255 255 255 255 255 255 255 255 255 255 255 255 255 255 255 255 255 255 255 255 255 255 255 255 255 255 255 255 255 255 255 255 255 255 255 255 241 138 246 255 255 255 255 255 255 255 255 255 255 255 255 255 255 255 255 255 255 255 255 255 255 255 255 255 255 255 255 255 255 255 255 255 255 255 255 255 255 221 159 255 255 255 255 255 255 255 254 255 255 255 255 255 255 255 255 255 255 255 255 255 255 255 255 255 255 255 255 255 255 255 255 255 255 255 255 255 255 255 255 180 191 255 255 255 255 255 255 255 255 255 255 255 255 255 255 255 255 255 255 255 255 255 255 255 255 255 255 255 255 255 255 255 255 255 255 255 255 255 255 255 255 211 157 255 255 255 255 255 255 255 255 255 255 255 255 255 255 255 255 255 255 255 255 255 255 255 255 255 255 255 255 255 255 255 255 255 255 255 255 255 255 255 247 143 245 255 255 255 254 254 254 254 255 255 255 255 255 255 255 255 255 255 255 255 255
255 255 255 255 255 255 255 255 255 255 255 255 255 255 255 255 255 255 255 255 255 255 255 255 255 254 195 206 255 255 255 255 255 255 255 255 255 255 255 255 255 255 255 255 255 255 255 255 255 255 255 255 255 255 255 255 255 255 255 255 255 255 255 255 255 255 255 245 166 249 255 255 255 255 255 255 255 255 255 255 255 255 255 255 255 255 255 255 255 255 255 255 255 255 255 255 255 255 255 255 255 255 255 255 255 255 255 255 228 182 255 255 255 255 255 255 255 255 255 255 255 255 255 255 255 255 255 255 255 255 255 255 255 255 255 255 255 255 255 255 255 255 255 255 255 255 255 255 255 255 198 206 255 255 255 255 255 255 255 255 255 255 255 255 255 255 255 255 255 255 255 255 255 255 255 255 255 255 255 255 255 255 255 255 255 255 255 255 255 255 255 255 221 181 255 255 255 255 255 255 255 255 255 255 255 255 255 255 255 255 255 255 255 255 255 255 255 255 255 255 255 255 255 255 255 255 255 255 255 255 255 255 255 249 170 247 255 255 255 255 255 255 255 255 255 255 255 255 255 255 255 255 255 255 255 255
255 255 255 255 255 255 255 255 255 255 255 255 255 255 255 255 255 255 255 255 255 255 255 255 255 255 251 251 255 255 255 255 255 255 255 255 255 255 255 255 255 255 255 255 255 255 255 255 255 255 255 255 255 255 255 255 255 255 255 255 255 255 255 255 255 255 255 254 249 255 255 255 255 255 255 255 255 255 255 255 255 255 255 255 255 255 255 255 255 255 255 255 255 255 255 255 255 255 255 255 255 255 255 255 255 255 255 255 253 250 255 255 255 255 255 255 255 255 255 255 255 255 255 255 255 255 255 255 255 255 255 255 255 255 255 255 255 255 255 255 255 255 255 255 255 255 255 255 255 255 251 251 255 255 255 255 255 255 255 255 255 255 255 255 255 255 255 255 255 255 255 255 255 255 255 255 255 255 255 255 255 255 255 255 255 255 255 255 255 255 255 255 252 250 255 255 255 255 255 255 255 255 255 255 255 255 255 255 255 255 255 255 255 255 255 255 255 255 255 255 255 255 255 255 255 255 255 255 255 255 255 255 255 255 250 254 255 255 255 255 255 255 255 255 255 255 255 255 255 255 255 255 255 255 255 255
255 255 255 255 255 255 255 255 255 255 255 255 255 255 255 255 255 255 255 255 255 255 255 255 255 254 248 249 255 255 255 255 255 255 255 255 255 255 255 255 255 255 255 255 255 255 255 255 255 255 255 255 255 255 255 255 255 255 255 255 255 255 255 254 248 246 247 254 255 250 248 254 255 255 255 255 255 255 255 255 255 255 255 255 255 255 255 255 255 255 255 255 255 255 255 255 255 255 255 255 255 255 255 252 248 254 255 255 250 248 254 255 254 248 250 255 255 255 255 255 255 255 255 255 255 255 255 255 255 255 255 255 255 255 255 255 255 255 255 255 255 255 255 255 255 251 248 254 255 249 247 247 253 255 253 247 251 255 255 255 255 255 255 255 255 255 255 255 255 255 255 255 255 255 255 255 255 255 255 255 255 255 255 255 255 255 255 249 247 253 255 255 249 248 254 255 253 248 250 255 255 255 255 255 255 255 255 255 255 255 255 255 255 255 255 255 255 255 255 255 255 255 255 255 255 255 255 254 248 247 253 255 251 246 247 250 255 254 247 250 255 255 255 255 255 255 255 255 255 255 255 255 255 255 255 255
255 255 255 255 255 255 255 255 255 255 255 255 255 255 255 255 255 255 255 255 255 255 255 255 254 200 131 134 216 255 255 255 255 255 255 255 255 255 255 255 255 255 255 255 255 255 255 255 255 255 255 255 255 255 255 255 255 255 255 255 255 255 255 232 116 139 156 240 230 139 133 182 253 255 255 255 255 255 255 255 255 255 255 255 255 255 255 255 255 255 255 255 255 255 255 255 255 255 255 255 255 255 240 146 108 231 255 223 136 132 194 253 190 133 135 224 255 255 255 255 255 255 255 255 255 255 255 255 255 255 255 255 255 255 255 255 255 255 255 255 255 255 255 255 238 142 108 232 249 132 133 145 223 248 165 135 146 237 255 255 255 255 255 255 255 255 255 255 255 255 255 255 255 255 255 255 255 255 255 255 255 255 255 255 255 255 223 137 136 155 245 217 134 132 197 251 179 132 139 230 255 255 255 255 255 255 255 255 255 255 255 255 255 255 255 255 255 255 255 255 255 255 255 255 255 255 255 212 137 135 170 250 166 123 142 197 253 184 132 138 230 255 255 255 255 255 255 255 255 255 255 255 255 255 255 255
255 255 255 255 255 255 255 255 255 255 255 255 255 255 255 255 255 255 255 255 255 255 255 255 245 111 202 187 126 251 255 255 255 255 255 255 255 255 255 255 255 255 255 255 255 255 255 255 255 255 255 255 255 255 255 255 255 255 255 255 255 255 255 224 100 217 238 252 149 161 225 108 229 255 255 255 255 255 255 255 255 255 255 255 255 255 255 255 255 255 255 255 255 255 255 255 255 255 255 255 255 255 246 212 97 222 253 138 175 214 108 219 106 219 168 142 253 255 255 255 255 255 255 255 255 255 255 255 255 255 255 255 255 255 255 255 255 255 255 255 255 255 255 255 245 209 96 222 246 99 189 228 251 207 114 234 152 163 255 255 255 255 255 255 255 255 255 255 255 255 255 255 255 255 255 255 255 255 255 255 255 255 255 255 255 255 239 227 238 117 201 127 187 212 110 212 105 225 162 150 253 255 255 255 255 255 255 255 255 255 255 255 255 255 255 255 255 255 255 255 255 255 255 255 255 255 255 234 232 230 102 227 136 159 225 247 232 105 223 158 155 254 255 255 255 255 255 255 255 255 255 255 255 255 255 255
255 255 255 255 255 255 255 255 255 255 255 255 255 255 255 255 255 255 255 255 255 255 255 255 227 99 240 224 102 243 255 255 255 255 255 255 255 255 255 255 255 255 255 255 255 255 255 255 255 255 255 255 255 255 255 255 255 255 255 255 255 255 255 229 105 119 123 220 108 205 251 124 197 255 255 255 255 255 255 255 255 255 255 255 255 255 255 255 255 255 255 255 255 255 255 255 255 255 255 255 255 255 255 246 103 222 247 105 219 245 103 179 102 247 216 106 248 255 255 255 255 255 255 255 255 255 255 255 255 255 255 255 255 255 255 255 255 255 255 255 255 255 255 255 255 246 104 222 248 129 121 112 196 173 140 254 195 124 252 255 255 255 255 255 255 255 255 255 255 255 255 255 255 255 255 255 255 255 255 255 255 255 255 255 255 255 255 255 229 114 213 101 225 246 104 159 122 251 209 109 248 255 255 255 255 255 255 255 255 255 255 255 255 255 255 255 255 255 255 255 255 255 255 255 255 255 255 255 255 212 115 239 158 109 112 166 201 108 248 201 120 251 255 255 255 255 255 255 255 255 255 255 255 255 255 255
255 255 255 255 255 255 255 255 255 255 255 255 255 255 255 255 255 255 255 255 255 255 255 255 228 101 239 222 101 244 255 255 255 255 255 255 255 255 255 255 255 255 255 255 255 255 255 255 255 255 255 255 255 255 255 255 255 255 255 255 255 255 255 252 243 245 155 148 112 206 251 121 198 255 255 255 255 255 255 255 255 255 255 255 255 255 255 255 255 255 255 255 255 255 255 255 255 255 255 255 255 255 255 246 103 222 247 108 216 245 104 184 103 247 213 109 248 255 255 255 255 255 255 255 255 255 255 255 255 255 255 255 255 255 255 255 255 255 255 255 255 255 255 255 255 246 104 222 254 248 249 196 121 171 140 254 193 124 252 255 255 255 255 255 255 255 255 255 255 255 255 255 255 255 255 255 255 255 255 255 255 255 255 255 255 255 255 234 132 188 241 102 223 245 103 165 121 251 208 111 248 255 255 255 255 255 255 255 255 255 255 255 255 255 255 255 255 255 255 255 255 255 255 255 255 255 255 255 219 116 203 254 246 247 226 102 182 107 248 199 121 251 255 255 255 255 255 255 255 255 255 255 255 255 255 255
255 255 255 255 255 255 255 255 255 255 255 255 255 255 255 255 255 255 255 255 255 255 255 255 247 118 188 173 131 251 255 255 255 255 255 255 255 255 255 255 255 255 255 255 255 255 255 255 255 255 255 255 255 255 255 255 255 255 255 255 255 255 255 248 238 245 152 159 157 154 211 106 231 255 255 255 255 255 255 255 255 255 255 255 255 255 255 255 255 255 255 255 255 255 255 255 255 255 255 255 255 255 252 223 93 199 245 147 164 203 112 224 106 205 158 150 254 255 255 255 255 255 255 255 255 255 255 255 255 255 255 255 255 255 255 255 255 255 255 255 255 255 255 255 251 223 94 199 243 231 243 178 132 209 113 226 145 165 255 255 255 255 255 255 255 255 255 255 255 255 255 255 255 255 255 255 255 255 255 255 255 255 255 255 255 255 238 126 159 225 244 133 174 203 112 218 107 212 152 156 254 255 255 255 255 255 255 255 255 255 255 255 255 255 255 255 255 255 255 255 255 255 255 255 255 255 255 222 103 169 228 250 233 242 211 104 214 107 221 157 155 254 255 255 255 255 255 255 255 255 255 255 255 255 255 255
255 255 255 255 255 255 255 255 255 255 255 255 255 255 255 255 255 255 255 255 255 255 255 255 255 216 136 138 223 255 255 255 255 255 255 255 255 255 255 255 255 255 255 255 255 255 255 255 255 255 255 255 255 255 255 255 255 255 255 255 255 255 255 230 136 129 136 232 236 149 133 194 254 255 255 255 255 255 255 255 255 255 255 255 255 255 255 255 255 255 255 255 255 255 255 255 255 255 255 255 255 255 239 141 102 125 218 231 146 135 203 253 199 131 145 232 255 255 255 255 255 255 255 255 255 255 255 255 255 255 255 255 255 255 255 255 255 255 255 255 255 255 255 255 238 139 102 126 209 148 129 128 218 250 172 132 152 239 255 255 255 255 255 255 255 255 255 255 255 255 255 255 255 255 255 255 255 255 255 255 255 255 255 255 255 255 208 106 125 130 219 223 141 136 206 253 195 133 151 236 255 255 255 255 255 255 255 255 255 255 255 255 255 255 255 255 255 255 255 255 255 255 255 255 255 255 255 179 103 124 141 234 171 127 122 191 252 188 134 140 232 255 255 255 255 255 255 255 255 255 255 255 255 255 255 255
255 255 255 255 255 255 255 255 255 255 255 255 255 255 255 255 255 255 255 255 255 255 255 255 255 255 251 251 255 255 255 255 255 255 255 255 255 255 255 255 255 255 255 255 255 255 255 255 255 255 255 255 255 255 255 255 255 255 255 255 255 255 255 254 242 236 249 255 255 252 250 255 255 255 255 255 255 255 255 255 255 255 255 255 255 255 255 255 255 255 255 255 255 255 255 255 255 255 255 255 255 255 254 249 248 248 253 255 252 250 255 255 254 249 252 255 255 255 255 255 255 255 255 255 255 255 255 255 255 255 255 255 255 255 255 255 255 255 255 255 255 255 255 255 254 249 248 249 253 248 240 248 255 255 254 248 253 255 255 255 255 255 255 255 255 255 255 255 255 255 255 255 255 255 255 255 255 255 255 255 255 255 255 255 255 255 253 248 248 248 253 255 251 250 255 255 254 250 252 255 255 255 255 255 255 255 255 255 255 255 255 255 255 255 255 255 255 255 255 255 255 255 255 255 255 255 255 251 248 248 249 254 250 240 245 254 255 254 248 250 255 255 255 255 255 255 255 255 255 255 255 255 255 255 255 255
255 255 255 255 255 255 255 255 255 255 255 255 255 255 255 255 255 255 255 255 255 255 255 255 255 255 255 255 255 255 255 255 255 255 255 255 255 255 255 255 255 255 255 255 255 255 255 255 255 255 255 255 255 255 255 255 255 255 255 255 255 255 255 255 255 255 255 255 255 255 255 255 255 255 255 255 255 255 255 255 255 255 255 255 255 255 255 255 255 255 255 255 255 255 255 255 255 255 255 255 255 255 255 255 255 255 255 255 255 255 255 255 255 255 255 255 255 255 255 255 255 255 255 255 255 255 255 255 255 255 255 255 255 255 255 255 255 255 255 255 255 255 255 255 255 255 255 255 255 255 255 255 255 255 255 255 255 255 255 255 255 255 255 255 255 255 255 255 255 255 255 255 255 255 255 255 255 255 255 255 255 255 255 255 255 255 255 255 255 255 255 255 255 255 255 255 255 255 255 255 255 255 255 255 255 255 255 255 255 255 255 255 255 255 255 255 255 255 255 255 255 255 255 255 255 255 255 255 255 255 255 255 255 255 255 255 255 255 255 255 255 255 255 255 255 255 255 255 255 255 255 255 255 255 255 255
255 255 255 255 255 255 255 255 255 255 255 255 255 255 255 255 255 255 255 255 255 255 255 255 255 255 255 255 255 255 255 255 255 255 255 255 255 255 255 255 255 255 255 255 255 255 255 255 255 255 255 255 255 255 255 255 255 255 255 255 255 255 255 255 255 255 255 255 255 255 255 255 255 255 255 255 255 255 255 255 255 255 255 255 255 255 255 255 255 255 255 255 255 255 255 255 255 255 255 255 255 255 255 255 255 255 255 255 255 255 255 255 255 255 255 255 255 255 255 255 255 255 255 255 255 255 255 255 255 255 255 255 255 255 255 255 255 255 255 255 255 255 255 255 255 255 255 255 255 255 255 255 255 255 255 255 255 255 255 255 255 255 255 255 255 255 255 255 255 255 255 255 255 255 255 255 255 255 255 255 255 255 255 255 255 255 255 255 255 255 255 255 255 255 255 255 255 255 255 255 255 255 255 255 255 255 255 255 255 255 255 255 255 255 255 255 255 255 255 255 255 255 255 255 255 255 255 255 255 255 255 255 255 255 255 255 255 255 255 255 255 255 255 255 255 255 255 255 255 255 255 255 255 255 255 255
255 255 255 255 255 255 255 255 255 255 255 255 255 255 255 255 255 255 255 255 255 255 255 255 255 255 255 255 255 255 255 255 255 255 255 255 255 255 255 255 255 255 255 255 255 255 255 255 255 255 255 255 255 255 255 255 255 255 255 255 255 255 255 255 255 255 255 255 255 255 255 255 255 255 255 255 255 255 255 255 255 255 255 255 255 255 255 255 255 255 255 255 255 255 255 255 255 255 255 255 255 255 255 255 255 255 255 255 255 255 255 255 255 255 255 255 255 255 255 255 255 255 255 255 255 255 255 255 255 255 255 255 255 255 255 255 255 255 255 255 255 255 255 255 255 255 255 255 255 255 255 255 255 255 255 255 255 255 255 255 255 255 255 255 255 255 255 255 255 255 255 255 255 255 255 255 255 255 255 255 255 255 255 255 255 255 255 255 255 255 255 255 255 255 255 255 255 255 255 255 255 255 255 255 255 255 255 255 255 255 255 255 255 255 255 255 255 255 255 255 255 255 255 255 255 255 255 255 255 255 255 255 255 255 255 255 255 255 255 255 255 255 255 255 255 255 255 255 255 255 255 255 255 255 255 255
255 255 255 255 255 255 255 255 255 255 255 255 255 255 255 255 255 255 255 255 255 255 255 255 255 255 255 255 255 255 255 255 255 255 255 255 255 255 255 255 255 255 255 255 255 255 255 255 255 255 255 255 255 255 255 255 255 255 255 255 255 255 255 255 255 255 255 255 255 255 255 255 255 255 255 255 255 255 255 255 255 255 255 255 255 255 255 255 255 255 255 255 255 255 255 255 255 255 255 255 255 255 255 255 255 255 255 255 255 255 255 255 255 255 255 255 255 255 255 255 255 255 255 255 255 255 255 255 255 255 255 255 255 255 255 255 255 255 255 255 255 255 255 255 255 255 255 255 255 255 255 255 255 255 255 255 255 255 255 255 255 255 255 255 255 255 255 255 255 255 255 255 255 255 255 255 255 255 255 255 255 255 255 255 255 255 255 255 255 255 255 255 255 255 255 255 255 255 255 255 255 255 255 255 255 255 255 255 255 255 255 255 255 255 255 255 255 255 255 255 255 255 255 255 255 255 255 255 255 255 255 255 255 255 255 255 255 255 255 255 255 255 255 255 255 255 255 255 255 255 255 255 255 255 255 255
255 255 255 255 255 255 255 255 255 255 255 255 255 255 255 255 255 255 255 255 255 255 255 255 255 255 255 255 255 255 255 255 255 255 255 255 255 255 255 255 255 255 255 255 255 255 255 255 255 255 255 255 255 255 255 255 255 255 255 255 255 255 255 255 255 255 255 255 255 255 255 255 255 255 255 255 255 255 255 255 255 255 255 255 255 255 255 255 255 255 255 255 255 255 255 255 255 255 255 255 255 255 255 255 255 255 255 255 255 255 255 255 255 255 255 255 255 255 255 255 255 255 255 255 255 255 255 255 255 255 255 255 255 255 255 255 255 255 255 255 255 255 255 255 255 255 255 255 255 255 255 255 255 255 255 255 255 255 255 255 255 255 255 255 255 255 255 255 255 255 255 255 255 255 255 255 255 255 255 255 255 255 255 255 255 255 255 255 255 255 255 255 255 255 255 255 255 255 255 255 255 255 255 255 255 255 255 255 255 255 255 255 255 255 255 255 255 255 255 255 255 255 255 255 255 255 255 255 255 255 255 255 255 255 255 255 255 255 255 255 255 255 255 255 255 255 255 255 255 255 255 255 255 255 255 255
255 255 255 255 255 255 255 255 255 255 255 255 255 255 255 255 255 255 255 255 255 255 255 255 255 255 255 255 255 255 255 255 255 255 255 255 255 255 255 255 255 255 255 255 255 255 255 255 255 255 255 255 255 255 255 255 255 255 255 255 255 255 255 255 255 255 255 255 255 255 255 255 255 255 255 255 255 255 255 255 255 255 255 255 255 255 255 255 255 255 255 255 255 255 255 255 255 255 255 255 255 255 255 255 255 255 255 255 255 255 255 255 255 255 255 255 255 255 255 255 255 255 255 255 255 255 255 255 255 255 255 255 255 255 255 255 255 255 255 255 255 255 255 255 255 255 255 255 255 255 255 255 255 255 255 255 255 255 255 255 255 255 255 255 255 255 255 255 255 255 255 255 255 255 255 255 255 255 255 255 255 255 255 255 255 255 255 255 255 255 255 255 255 255 255 255 255 255 255 255 255 255 255 255 255 255 255 255 255 255 255 255 255 255 255 255 255 255 255 255 255 255 255 255 255 255 255 255 255 255 255 255 255 255 255 255 255 255 255 255 255 255 255 255 255 255 255 255 255 255 255 255 255 255 255 255
255 255 255 255 255 255 255 255 255 255 255 255 255 255 255 255 255 255 255 255 255 255 255 255 255 255 255 255 255 255 255 255 255 255 255 255 255 255 255 255 255 255 255 255 255 255 255 255 255 255 255 255 255 255 255 255 255 255 255 255 255 255 255 255 255 255 255 255 255 255 255 255 255 255 255 255 255 255 255 255 255 255 255 255 255 255 255 255 255 255 255 255 255 255 255 255 255 255 255 255 255 255 255 255 255 255 255 255 255 255 255 255 255 255 255 255 255 255 255 255 255 255 255 255 255 255 255 255 255 255 255 255 255 255 255 255 255 255 255 255 255 255 255 255 255 255 255 255 255 255 255 255 255 255 255 255 255 255 255 255 255 255 255 255 255 255 255 255 255 255 255 255 255 255 255 255 255 255 255 255 255 255 255 255 255 255 255 255 255 255 255 255 255 255 255 255 255 255 255 255 255 255 255 255 255 255 255 255 255 255 255 255 255 255 255 255 255 255 255 255 255 255 255 255 255 255 255 255 255 255 255 255 255 255 255 255 255 255 255 255 255 255 255 255 255 255 255 255 255 255 255 255 255 255 255 255
255 255 255 255 255 255 255 255 255 255 255 255 255 255 255 255 255 255 255 255 255 255 255 255 255 255 255 255 255 255 255 255 255 255 255 255 255 255 255 255 255 255 255 255 255 255 255 255 255 255 255 255 255 255 255 255 255 255 255 255 255 255 255 255 255 255 255 255 255 255 255 255 255 255 255 255 255 255 255 255 255 255 255 255 255 255 255 255 255 255 255 255 255 255 255 255 255 255 255 255 255 255 255 255 255 255 255 255 255 255 255 255 255 255 255 255 255 255 255 255 255 255 255 255 255 255 255 255 255 255 255 255 255 255 255 255 255 255 255 255 255 255 255 255 255 255 255 255 255 255 255 255 255 255 255 255 255 255 255 255 255 255 255 255 255 255 255 255 255 255 255 255 255 255 255 255 255 255 255 255 255 255 255 255 255 255 255 255 255 255 255 255 255 255 255 255 255 255 255 255 255 255 255 255 255 255 255 255 255 255 255 255 255 255 255 255 255 255 255 255 255 255 255 255 255 255 255 255 255 255 255 255 255 255 255 255 255 255 255 255 255 255 255 255 255 255 255 255 255 255 255 255 255 255 255 255
255 255 255 255 255 255 255 255 255 255 255 255 255 255 255 255 255 255 255 255 255 255 255 255 255 255 255 255 255 255 255 255 255 255 255 255 255 255 255 255 255 255 255 255 255 255 255 255 255 255 255 255 255 255 255 255 255 255 255 255 255 255 255 255 255 255 255 255 255 255 255 255 255 255 255 255 255 255 255 255 255 255 255 255 255 255 255 255 255 255 255 255 255 255 255 255 255 255 255 255 255 255 255 255 255 255 255 255 255 255 255 255 255 255 255 255 255 255 255 255 255 255 255 255 255 255 255 255 255 255 255 255 255 255 255 255 255 255 255 255 255 255 255 255 255 255 255 255 255 255 255 255 255 255 255 255 255 255 255 255 255 255 255 255 255 255 255 255 255 255 255 255 255 255 255 255 255 255 255 255 255 255 255 255 255 255 255 255 255 255 255 255 255 255 255 255 255 255 255 255 255 255 255 255 255 255 255 255 255 255 255 255 255 255 255 255 255 255 255 255 255 255 255 255 255 255 255 255 255 255 255 255 255 255 255 255 255 255 255 255 255 255 255 255 255 255 255 255 255 255 255 255 255 255 255 255
255 255 255 255 255 255 255 255 255 255 255 255 255 255 255 255 255 255 255 255 255 255 255 255 255 255 255 255 255 255 255 255 255 255 255 255 255 255 255 255 255 255 255 255 255 255 255 255 255 255 255 255 255 255 255 255 255 255 255 255 255 255 255 255 255 255 255 255 255 255 255 255 255 255 255 255 255 255 255 255 255 255 255 255 255 255 255 255 255 255 255 255 255 255 255 255 255 255 255 255 255 255 255 255 255 255 255 255 255 255 255 255 255 255 255 255 255 255 255 255 255 255 255 255 255 255 255 255 255 255 255 255 255 255 255 255 255 255 255 255 255 255 255 255 255 255 255 255 255 255 255 255 255 255 255 255 255 255 255 255 255 255 255 255 255 255 255 255 255 255 255 255 255 255 255 255 255 255 255 255 255 255 255 255 255 255 255 255 255 255 255 255 255 255 255 255 255 255 255 255 255 255 255 255 255 255 255 255 255 255 255 255 255 255 255 255 255 255 255 255 255 255 255 255 255 255 255 255 255 255 255 255 255 255 255 255 255 255 255 255 255 255 255 255 255 255 255 255 255 255 255 255 255 255 255 255
255 255 255 255 255 255 255 255 255 255 255 255 255 255 255 255 255 255 255 255 255 255 255 255 255 255 255 255 255 255 255 255 255 255 255 255 255 255 255 255 255 255 255 255 255 255 255 255 255 255 255 255 255 255 255 255 255 255 255 255 255 255 255 255 255 255 255 255 255 255 255 255 255 255 255 255 255 255 255 255 255 255 255 255 255 255 255 255 255 255 255 255 255 255 255 255 255 255 255 255 255 255 255 255 255 255 255 255 255 255 255 255 255 255 255 255 255 255 255 255 255 255 255 255 255 255 255 255 255 255 255 255 255 255 255 255 255 255 255 255 255 255 255 255 255 255 255 255 255 255 255 255 255 255 255 255 255 255 255 255 255 255 255 255 255 255 255 255 255 255 255 255 255 255 255 255 255 255 255 255 255 255 255 255 255 255 255 255 255 255 255 255 255 255 255 255 255 255 255 255 255 255 255 255 255 255 255 255 255 255 255 255 255 255 255 255 255 255 255 255 255 255 255 255 255 255 255 255 255 255 255 255 255 255 255 255 255 255 255 255 255 255 255 255 255 255 255 255 255 255 255 255 255 255 255 255
255 255 255 255 255 255 255 255 255 255 255 255 255 255 255 255 255 255 255 255 255 255 255 255 255 255 255 255 255 255 255 255 255 255 255 255 255 255 255 255 255 255 255 255 255 255 255 255 255 255 255 255 255 255 255 255 255 255 255 255 255 255 255 255 255 255 255 255 255 255 255 255 255 255 255 255 255 255 255 255 255 255 255 255 255 255 255 255 255 255 255 255 255 255 255 255 255 255 255 255 255 255 255 255 255 255 255 255 255 255 255 255 255 255 255 255 255 255 255 255 255 255 255 255 255 255 255 255 255 255 255 255 255 255 255 255 255 255 255 255 255 255 255 255 255 255 255 255 255 255 255 255 255 255 255 255 255 255 255 255 255 255 255 255 255 255 255 255 255 255 255 255 255 255 255 255 255 255 255 255 255 255 255 255 255 255 255 255 255 255 255 255 255 255 255 255 255 255 255 255 255 255 255 255 255 255 255 255 255 255 255 255 255 255 255 255 255 255 255 255 255 255 255 255 255 255 255 255 255 255 255 255 255 255 255 255 255 255 255 255 255 255 255 255 255 255 255 255 255 255 255 255 255 255 255 255
255 255 255 255 255 255 255 255 255 255 255 255 255 255 255 255 255 255 255 255 255 255 255 255 255 255 255 255 255 255 255 255 255 255 255 255 255 255 255 255 255 255 255 255 255 255 255 255 255 255 255 255 255 255 255 255 255 255 255 255 255 255 255 255 255 255 255 255 255 255 255 255 255 255 255 255 255 255 255 255 255 255 255 255 255 255 255 255 255 255 255 255 255 255 255 255 255 255 255 255 255 255 255 255 255 255 255 255 255 255 255 255 255 255 255 255 255 255 255 255 255 255 255 255 255 255 255 255 255 255 255 255 255 255 255 255 255 255 255 255 255 255 255 255 255 255 255 255 255 255 255 255 255 255 255 255 255 255 255 255 255 255 255 255 255 255 255 255 255 255 255 255 255 255 255 255 255 255 255 255 255 255 255 255 255 255 255 255 255 255 255 255 255 255 255 255 255 255 255 255 255 255 255 255 255 255 255 255 255 255 255 255 255 255 255 255 255 255 255 255 255 255 255 255 255 255 255 255 255 255 255 255 255 255 255 255 255 255 255 255 255 255 255 255 255 255 255 255 255 255 255 255 255 255 255 255
255 255 255 255 255 255 255 255 255 255 255 255 255 255 255 255 255 255 255 255 255 255 255 255 255 255 255 255 255 255 255 255 255 255 255 255 255 255 255 255 255 255 255 255 255 255 255 255 255 255 255 255 255 255 255 255 255 255 255 255 255 255 255 255 255 255 255 255 255 255 255 255 255 255 255 255 255 255 255 255 255 255 255 255 255 255 255 255 255 255 255 255 255 255 255 255 255 255 255 255 255 255 255 255 255 255 255 255 255 255 255 255 255 255 255 255 255 255 255 255 255 255 255 255 255 255 255 255 255 255 255 255 255 255 255 255 255 255 255 255 255 255 255 255 255 255 255 255 255 255 255 255 255 255 255 255 255 255 255 255 255 255 255 255 255 255 255 255 255 255 255 255 255 255 255 255 255 255 255 255 255 255 255 255 255 255 255 255 255 255 255 255 255 255 255 255 255 255 255 255 255 255 255 255 255 255 255 255 255 255 255 255 255 255 255 255 255 255 255 255 255 255 255 255 255 255 255 255 255 255 255 255 255 255 255 255 255 255 255 255 255 255 255 255 255 255 255 255 255 255 255 255 255 255 255 255
