P2
256 256
255
255 255 255 255 255 253 239 238 238 238 237 238 250 254 254 254 254 253 239 232 232 233 234 236 248 255 255 255 255 255 249 239 237 236 237 238 246 255 255 255 253 249 244 234 236 238 240 242 246 255 255 253 251 250 246 237 236 238 239 238 240 251 250 249 248 247 246 240 238 239 239 241 242 249 251 250 250 250 250 244 242 241 240 242 245 251 251 250 251 250 249 246 243 241 239 236 236 240 243 245 247 250 252 248 242 243 242 246 246 246 247 248 251 253 253 252 248 246 244 242 240 239 240 238 237 239 243 245 241 238 237 237 237 239 244 246 246 244 244 245 243 244 245 246 248 249 252 254 254 254 255 255 250 247 245 243 242 241 243 245 245 246 246 244 240 236 237 238 238 238 241 245 244 245 247 248 247 242 242 242 243 244 246 250 251 251 250 250 248 242 240 240 241 242 244 252 253 252 253 252 251 244 241 241 241 241 242 250 252 252 252 251 250 241 235 235 236 238 238 245 250 250 251 252 252 245 237 238 240 239 239 244 253 252 252 252 251 247 236 236 236 236 236 241 253 254 255 255 255 251 236 235 235 235 235 235
255 255 255 255 255 253 239 238 238 238 237 238 250 254 254 254 254 253 239 232 232 233 234 236 248 255 255 255 255 255 249 239 237 236 237 238 246 255 255 255 253 249 244 234 236 238 240 242 246 255 255 253 251 250 246 237 236 238 239 238 240 251 250 249 248 247 246 240 238 239 239 241 242 249 251 250 250 250 250 244 242 241 240 242 245 251 251 250 251 250 249 246 243 241 239 236 236 240 243 245 247 250 252 248 242 243 242 246 246 246 247 248 251 253 253 252 248 246 244 242 240 239 240 238 237 239 243 245 241 238 237 237 237 239 244 246 246 244 244 245 243 244 245 246 248 249 252 254 254 254 255 255 250 247 245 243 242 241 243 245 245 246 246 244 240 236 237 238 238 238 241 245 244 245 247 248 247 242 242 242 243 244 246 250 251 251 250 250 248 242 240 240 241 242 244 252 253 252 253 252 251 244 241 241 241 241 242 250 252 252 252 251 250 241 235 235 236 238 238 245 250 250 251 252 252 245 237 238 240 239 239 244 253 252 252 252 251 247 236 236 236 236 236 241 253 254 255 255 255 251 236 235 235 235 235 235
255 255 255 255 255 253 239 238 238 238 237 238 250 254 254 254 254 253 239 232 232 233 234 236 248 255 255 255 255 255 249 239 237 236 237 238 246 255 255 255 253 249 244 234 236 238 240 242 246 255 255 253 251 250 246 237 236 238 239 238 240 251 250 249 248 247 246 240 238 239 239 241 242 249 251 250 250 250 250 244 242 241 240 242 245 251 251 250 251 250 249 246 243 241 239 236 236 240 243 245 247 250 252 248 242 243 242 246 246 246 247 248 251 253 253 252 248 246 244 242 240 239 240 238 237 239 243 245 241 238 237 237 237 239 244 246 246 244 244 245 243 244 245 246 248 249 252 254 254 254 255 255 250 247 245 243 242 241 243 245 245 246 246 244 240 236 237 238 238 238 241 245 244 245 247 248 247 242 242 242 243 244 246 250 251 251 250 250 248 242 240 240 241 242 244 252 253 252 253 252 251 244 241 241 241 241 242 250 252 252 252 251 250 241 235 235 236 238 238 245 250 250 251 252 252 245 237 238 240 239 239 244 253 252 252 252 251 247 236 236 236 236 236 241 253 254 255 255 255 251 236 235 235 235 235 235
255 255 255 255 255 253 239 238 238 238 237 238 250 254 254 254 254 253 239 232 232 233 234 236 248 255 255 255 255 255 249 239 237 236 237 238 246 255 255 255 253 249 244 234 236 238 240 242 246 255 255 253 251 250 246 237 236 238 239 238 240 251 250 249 248 247 246 240 238 239 239 241 242 249 251 250 250 250 250 244 242 241 240 242 245 251 251 250 251 250 249 246 243 241 239 236 236 240 243 245 247 250 252 248 242 243 242 246 246 246 247 248 251 253 253 252 248 246 244 242 240 239 240 238 237 239 243 245 241 238 237 237 237 239 244 246 246 244 244 245 243 244 245 246 248 249 252 254 254 254 255 255 250 247 245 243 242 241 243 245 245 246 246 244 240 236 237 238 238 238 241 245 244 245 247 248 247 242 242 242 243 244 246 250 251 251 250 250 248 242 240 240 241 242 244 252 253 252 253 252 251 244 241 241 241 241 242 250 252 252 252 251 250 241 235 235 236 238 238 245 250 250 251 252 252 245 237 238 240 239 239 244 253 252 252 252 251 247 236 236 236 236 236 241 253 254 255 255 255 251 236 235 235 235 235 235
255 255 255 255 255 253 239 238 238 238 237 238 250 254 254 254 254 253 239 232 232 233 234 236 248 255 255 255 255 255 249 239 237 236 237 238 246 255 255 255 253 249 244 234 236 238 240 242 246 255 255 253 251 250 246 237 236 238 239 238 240 251 250 249 248 247 246 240 238 239 239 241 242 249 251 250 250 250 250 244 242 241 240 242 245 251 251 250 251 250 249 246 243 241 239 236 236 240 243 245 247 250 252 248 242 243 242 246 246 246 247 248 251 253 253 252 248 246 244 242 240 239 240 238 237 239 243 245 241 238 237 237 237 239 244 246 246 244 244 245 243 244 245 246 248 249 252 254 254 254 255 255 250 247 245 243 242 241 243 245 245 246 246 244 240 236 237 238 238 238 241 245 244 245 247 248 247 242 242 242 243 244 246 250 251 251 250 250 248 242 240 240 241 242 244 252 253 252 253 252 251 244 241 241 241 241 242 250 252 252 252 251 250 241 235 235 236 238 238 245 250 250 251 252 252 245 237 238 240 239 239 244 253 252 252 252 251 247 236 236 236 236 236 241 253 254 255 255 255 251 236 235 235 235 235 235
251 251 251 251 251 250 242 241 241 242 241 242 248 251 251 251 251 249 241 238 238 238 239 241 247 253 254 252 251 252 248 243 241 241 241 242 246 251 251 251 250 247 244 239 241 242 243 244 246 251 251 249 249 248 246 241 240 241 242 241 242 248 248 247 246 246 246 242 241 241 242 243 244 248 249 248 248 247 248 245 244 244 243 245 247 250 249 249 249 248 248 246 244 243 242 240 240 242 244 244 246 248 249 247 245 246 246 247 247 247 247 248 249 250 250 250 248 247 245 244 242 241 242 240 240 241 244 244 243 240 239 239 240 241 244 245 246 245 245 246 245 245 246 246 247 248 250 251 251 251 252 252 249 247 246 245 245 244 245 245 245 246 246 245 242 240 240 240 241 241 243 245 245 245 246 247 246 244 243 244 244 245 246 248 249 249 248 248 248 244 243 243 244 244 246 250 250 250 250 250 249 245 243 243 243 243 244 249 250 249 250 249 248 243 239 239 240 241 241 245 248 248 249 249 249 246 241 242 244 243 242 245 250 249 249 249 249 246 240 241 241 241 241 243 250 250 251 251 251 249 241 240 240 240 240 240
236 236 236 236 236 237 250 251 251 252 253 251 241 239 240 239 237 236 248 254 254 254 254 254 243 237 236 235 236 235 245 253 254 254 254 252 244 235 235 236 236 238 245 254 254 254 252 250 246 236 235 236 238 240 244 252 253 252 250 250 248 240 239 239 240 241 243 250 250 250 250 250 250 243 240 239 238 238 239 246 249 251 251 251 249 244 242 241 240 240 241 242 244 246 249 251 251 247 243 242 240 238 238 243 251 252 253 249 247 246 244 244 241 239 240 243 246 247 247 247 247 248 246 246 247 246 243 242 245 247 247 247 247 246 243 243 243 247 247 246 247 247 246 245 244 244 240 238 239 241 241 240 244 247 248 249 250 251 249 245 244 244 243 245 248 250 248 247 247 249 248 244 245 243 242 241 243 248 247 246 246 246 246 240 240 241 241 241 244 250 251 251 251 250 250 243 241 241 241 240 241 248 248 248 249 250 251 244 241 240 239 239 240 248 253 252 251 250 250 245 240 240 239 239 238 245 252 252 252 253 252 247 238 238 238 238 238 242 253 253 254 255 254 249 238 236 236 236 235 239 253 254 254 254 254 254
234 234 234 234 234 236 251 251 252 253 254 252 240 238 239 238 236 235 248 255 255 255 255 255 243 236 234 234 234 234 244 253 255 255 255 253 244 234 233 234 235 238 245 255 255 255 253 251 246 235 234 235 237 239 244 253 254 252 251 251 249 239 238 239 240 241 243 250 251 251 250 250 250 243 239 239 238 237 238 246 249 252 252 251 249 244 241 241 239 239 240 242 244 246 249 252 252 248 243 242 239 237 237 243 252 252 254 249 247 246 244 244 240 238 239 242 246 247 247 247 248 248 246 247 247 247 243 242 245 247 247 248 248 247 243 242 243 247 247 246 247 247 246 245 244 244 239 237 238 240 240 239 244 247 248 249 250 251 249 245 244 243 243 245 248 251 249 247 248 249 248 244 245 243 242 241 243 248 247 247 246 246 246 240 240 240 240 241 243 250 252 252 252 251 250 242 240 240 240 240 240 248 249 248 249 251 252 243 240 239 238 238 239 249 254 254 252 251 251 245 240 239 239 238 237 245 253 253 253 254 253 247 237 237 237 237 237 242 254 254 255 255 255 250 236 235 235 234 234 238 254 255 255 255 255 255
234 234 234 234 234 236 251 251 252 253 254 252 240 238 239 238 236 235 248 255 255 255 255 255 243 236 234 234 234 234 244 253 255 255 255 253 244 234 233 234 235 238 245 255 255 255 253 251 246 235 234 235 237 239 244 253 254 252 251 251 249 239 238 239 240 241 243 250 251 251 250 250 250 243 239 239 238 237 238 246 249 252 252 251 249 244 241 241 239 239 240 242 244 246 249 252 252 248 243 242 239 237 237 243 252 252 254 249 247 246 244 244 240 238 239 242 246 247 247 247 248 248 246 247 247 247 243 242 245 247 247 248 248 247 243 242 243 247 247 246 247 247 246 245 244 244 239 237 238 240 240 239 244 247 248 249 250 251 249 245 244 243 243 245 248 251 249 247 248 249 248 244 245 243 242 241 243 248 247 247 246 246 246 240 240 240 240 241 243 250 252 252 252 251 250 242 240 240 240 240 240 248 249 248 249 251 252 243 240 239 238 238 239 249 254 254 252 251 251 245 240 239 239 238 237 245 253 253 253 254 253 247 237 237 237 237 237 242 254 254 255 255 255 250 236 235 235 234 234 238 254 255 255 255 255 255
234 234 234 234 234 236 251 251 252 253 254 252 240 238 239 238 236 235 248 255 255 255 255 255 243 236 234 234 234 234 244 253 255 255 255 253 244 234 233 234 235 238 245 255 255 255 253 251 246 235 234 235 237 239 244 253 254 252 251 251 249 239 238 239 240 241 243 250 251 251 250 250 250 243 239 239 238 237 238 246 249 252 252 251 249 244 241 241 239 239 240 242 244 246 249 252 252 248 243 242 239 237 237 243 252 252 254 249 247 246 244 244 240 238 239 242 246 247 247 247 248 248 246 247 247 247 243 242 245 247 247 248 248 247 243 242 243 247 247 246 247 247 246 245 244 244 239 237 238 240 240 239 244 247 248 249 250 251 249 245 244 243 243 245 248 251 249 247 248 249 248 244 245 243 242 241 243 248 247 247 246 246 246 240 240 240 240 241 243 250 252 252 252 251 250 242 240 240 240 240 240 248 249 248 249 251 252 243 240 239 238 238 239 249 254 254 252 251 251 245 240 239 239 238 237 245 253 253 253 254 253 247 237 237 237 237 237 242 254 254 255 255 255 250 236 235 235 234 234 238 254 255 255 255 255 255
234 234 234 234 234 236 251 251 252 253 254 252 240 238 239 238 236 235 248 255 255 255 255 255 243 236 234 234 234 234 244 253 255 255 255 253 244 234 233 234 235 238 245 255 255 255 253 251 246 235 234 235 237 239 244 253 254 252 251 251 249 239 238 239 240 241 243 250 251 251 250 250 250 243 239 239 238 237 238 246 249 252 252 251 249 244 241 241 239 239 240 242 244 246 249 252 252 248 243 242 239 237 237 243 252 252 254 249 247 246 244 244 240 238 239 242 246 247 247 247 248 248 246 247 247 247 243 242 245 247 247 248 248 247 243 242 243 247 247 246 247 247 246 245 244 244 239 237 238 240 240 239 244 247 248 249 250 251 249 245 244 243 243 245 248 251 249 247 248 249 248 244 245 243 242 241 243 248 247 247 246 246 246 240 240 240 240 241 243 250 252 252 252 251 250 242 240 240 240 240 240 248 249 248 249 251 252 243 240 239 238 238 239 249 254 254 252 251 251 245 240 239 239 238 237 245 253 253 253 254 253 247 237 237 237 237 237 242 254 254 255 255 255 250 236 235 235 234 234 238 254 255 255 255 255 255
243 243 243 243 243 244 245 246 247 247 247 246 242 240 240 241 242 243 247 249 249 249 248 247 244 241 241 244 244 243 246 248 249 249 248 248 245 243 242 243 243 244 247 248 248 248 247 246 246 244 244 245 246 246 246 247 247 247 246 246 247 247 247 248 247 247 247 247 246 246 246 245 244 243 244 246 246 246 247 249 249 249 248 246 245 245 245 245 245 245 245 246 246 247 248 248 247 247 245 245 244 245 246 247 249 248 246 244 242 240 238 235 232 230 230 230 231 231 230 230 229 230 229 228 228 229 228 227 228 228 228 229 230 231 230 231 233 235 236 236 237 238 238 239 239 240 240 240 241 242 242 243 245 247 247 248 249 249 249 248 248 247 247 247 247 247 246 245 245 246 246 244 244 244 244 244 245 246 246 246 246 246 246 244 244 244 244 244 245 246 246 246 246 246 246 244 244 243 243 242 241 243 242 242 242 242 243 241 241 242 243 244 244 247 248 248 248 247 247 245 245 245 245 245 245 246 248 247 247 247 247 246 244 244 244 245 245 246 248 247 247 246 246 246 244 243 243 243 243 244 248 248 248 248 248 248
255 255 255 255 255 255 234 241 239 232 228 229 240 237 234 239 250 255 248 240 240 238 235 232 243 244 247 255 255 255 242 232 233 234 235 237 250 255 255 255 255 255 251 234 231 229 228 231 242 255 255 255 255 255 255 239 234 237 239 238 245 255 255 255 255 255 254 240 233 233 236 229 225 236 248 255 255 255 255 255 249 240 233 223 220 234 243 251 255 255 255 255 255 255 255 250 248 255 255 255 255 255 255 249 232 220 203 203 199 194 185 169 161 152 144 139 133 133 131 129 128 131 136 131 129 131 133 133 128 128 131 133 138 145 152 156 159 160 163 167 169 175 181 186 193 199 210 219 222 225 231 240 240 240 244 245 246 246 254 255 255 255 255 255 249 243 245 244 241 237 237 238 236 239 244 247 246 239 238 239 240 239 240 247 245 243 243 244 244 233 230 229 230 231 233 246 248 246 246 244 241 232 229 227 223 219 217 227 233 241 247 253 255 244 238 239 240 239 236 245 253 255 255 255 255 246 233 232 230 230 233 242 255 255 255 255 255 255 237 234 228 224 224 234 255 255 255 255 255 254 236 235 235 235 235 235
255 255 255 255 255 255 237 240 236 233 234 237 247 248 245 246 250 255 244 239 239 239 239 238 248 251 251 255 254 252 242 232 231 232 234 238 249 255 255 255 255 255 250 238 237 235 234 236 244 255 255 255 255 251 244 234 231 235 239 239 243 255 255 255 254 250 245 236 234 237 240 239 238 245 250 254 255 255 255 255 252 242 234 225 220 230 238 246 251 250 252 255 255 255 255 255 252 253 254 247 236 233 226 211 192 174 150 145 140 133 124 110 103 95 90 92 92 97 99 100 102 108 114 108 104 102 90 85 81 81 83 85 90 96 103 106 108 107 111 114 116 121 128 135 142 148 161 173 183 194 203 213 214 216 220 223 227 230 240 249 254 255 255 253 245 243 246 246 246 243 241 239 237 241 248 250 250 246 244 244 245 244 244 247 245 243 243 244 245 239 237 237 240 242 245 255 255 255 255 253 249 245 244 243 240 236 234 241 243 246 248 250 249 240 235 235 236 237 236 242 248 249 251 252 251 244 235 234 233 233 238 244 254 254 255 255 255 250 237 236 234 232 234 240 254 255 253 255 255 252 237 236 236 236 236 236
253 253 253 253 253 251 244 247 240 240 239 238 250 255 255 255 255 255 242 234 233 232 233 235 247 255 255 250 253 255 255 246 241 239 237 236 242 251 253 254 251 245 240 234 237 240 242 243 250 255 255 255 252 247 242 232 231 235 239 239 242 253 251 245 244 245 244 239 236 237 237 238 239 245 246 244 248 254 255 255 251 246 243 241 241 247 249 251 253 249 246 245 247 243 239 228 219 215 212 202 190 182 172 158 143 131 115 114 111 108 104 99 97 96 101 111 117 124 128 131 134 140 143 137 130 121 100 92 89 86 86 87 91 95 100 102 101 95 96 98 98 101 106 112 118 123 133 145 156 171 183 190 189 189 191 194 199 203 212 221 228 234 237 236 234 236 241 244 246 245 246 246 244 247 252 252 252 249 246 246 246 245 245 247 246 246 246 247 247 243 243 245 248 251 254 255 255 255 255 255 255 255 255 255 255 255 255 255 255 254 251 246 242 232 226 226 227 230 230 236 241 244 248 250 250 245 238 239 239 236 237 242 249 249 249 249 249 246 236 237 237 237 238 240 249 253 255 253 255 252 234 233 233 233 233 233
255 255 255 255 255 254 242 241 237 237 234 233 245 253 255 255 255 255 245 234 229 226 224 225 238 254 255 249 255 255 255 254 248 243 239 234 240 250 252 254 253 247 240 232 236 239 240 242 249 255 255 255 255 255 248 233 230 232 235 236 241 255 255 255 255 255 253 244 237 235 234 231 229 235 237 236 239 242 245 243 245 248 251 255 255 255 255 255 255 251 242 230 217 204 191 175 164 159 155 147 142 142 138 129 120 119 114 118 116 116 114 111 111 115 127 143 151 159 162 165 167 168 170 164 154 141 119 112 107 104 104 105 109 113 117 119 119 114 113 114 112 113 116 121 126 131 139 146 153 162 173 180 177 176 175 177 181 185 192 200 208 216 223 228 230 233 239 244 247 249 252 255 253 254 254 254 253 248 247 246 245 245 245 248 248 249 249 250 251 245 244 244 246 247 248 254 255 254 254 255 255 250 249 251 251 249 249 253 253 251 250 246 242 231 225 224 226 228 227 234 241 245 250 253 255 252 245 246 246 239 235 239 248 247 248 249 251 248 238 239 238 237 236 238 249 253 255 255 255 253 235 233 233 233 233 233
255 255 255 255 255 255 237 229 230 232 231 230 245 251 254 255 255 255 245 233 228 224 222 222 237 250 254 252 255 255 255 246 243 240 236 235 245 255 255 255 255 255 248 235 235 235 234 234 242 255 255 255 255 255 251 233 230 233 235 238 244 255 255 255 255 255 255 243 235 234 233 229 226 233 237 239 242 243 245 242 245 252 255 255 255 255 255 255 254 241 227 208 186 167 149 129 118 116 113 108 111 120 124 119 112 118 118 122 120 120 118 115 117 126 143 163 172 180 181 183 183 182 183 177 166 151 130 122 115 107 106 107 110 115 119 121 123 120 120 120 117 118 119 123 128 132 139 142 142 145 153 163 160 158 157 157 161 164 170 177 186 194 204 211 215 218 226 233 237 240 246 253 252 252 251 253 251 246 246 246 245 245 246 250 251 251 252 253 254 245 243 242 242 242 242 249 248 245 245 247 248 237 234 234 234 232 233 242 246 250 254 253 251 239 231 230 231 232 229 237 245 248 251 255 255 252 243 245 245 239 234 240 251 250 252 253 255 251 237 238 236 234 233 237 254 255 255 255 255 253 235 234 234 234 234 234
249 249 249 249 249 249 245 237 241 246 245 241 241 242 243 246 249 252 250 248 247 245 242 240 241 245 244 234 236 242 245 246 248 249 248 247 249 253 254 255 254 251 248 245 244 243 241 240 242 247 251 253 255 255 254 248 248 248 247 248 248 249 247 247 249 251 249 243 238 240 242 239 235 235 236 239 241 242 244 247 251 254 255 254 251 246 239 230 218 204 190 177 161 149 140 130 123 117 110 104 102 106 109 110 112 116 118 116 110 107 105 103 107 119 137 157 168 177 180 183 184 185 184 180 172 159 137 128 122 111 106 107 110 115 118 119 121 121 121 120 119 119 119 121 124 127 129 130 131 134 140 149 153 155 156 158 162 165 169 173 179 184 192 199 206 212 217 223 229 234 241 246 248 249 250 252 254 255 255 255 255 255 254 253 252 251 250 250 250 246 243 242 241 241 242 243 243 243 244 245 246 243 242 242 241 241 241 242 243 245 247 247 247 245 242 241 238 236 233 235 238 240 242 244 246 248 248 249 248 244 241 243 246 247 248 249 249 249 246 245 244 243 242 242 245 248 252 249 247 247 244 243 243 243 243 243
238 238 238 238 238 239 249 244 250 255 255 255 242 234 231 229 229 232 247 255 255 255 255 255 247 240 235 223 217 219 232 245 252 255 255 255 253 244 243 241 240 240 246 253 254 254 252 250 245 237 235 236 238 242 248 255 255 255 255 255 250 236 230 230 235 239 240 242 245 250 253 252 248 241 240 242 243 243 244 251 251 248 243 235 224 209 198 187 175 163 153 150 148 147 151 152 149 140 133 126 117 115 116 121 129 127 126 115 106 101 99 101 108 122 139 156 167 175 180 183 186 189 187 184 181 172 153 141 136 119 111 111 111 114 115 115 119 123 123 122 123 123 122 122 123 123 121 121 124 128 130 136 147 153 156 160 163 167 168 170 172 175 177 182 189 197 200 203 211 218 223 226 231 235 239 243 250 255 255 255 255 255 255 253 251 250 248 247 247 248 247 245 245 245 246 242 243 244 244 243 242 248 249 249 250 251 252 245 242 241 241 241 242 250 253 252 248 244 242 238 236 237 236 235 235 241 248 248 247 247 249 247 241 243 243 242 241 244 251 249 248 248 250 248 239 242 245 239 235 240 251 251 251 251 251 251
236 236 236 236 236 237 249 245 251 255 255 255 241 232 228 226 227 230 247 255 255 255 255 255 246 235 230 224 219 218 231 246 254 255 255 255 252 242 240 239 239 241 249 255 255 255 255 252 246 235 232 232 233 237 245 255 255 255 255 255 250 234 230 231 235 238 239 244 248 254 255 255 253 245 245 248 247 245 244 248 244 237 228 216 203 186 176 167 156 146 140 139 143 146 153 158 156 148 141 135 126 124 126 134 143 139 135 121 110 105 103 106 114 128 142 157 167 174 178 181 183 186 185 183 181 175 158 147 142 124 114 113 112 113 113 113 117 124 125 124 125 125 124 123 123 123 120 118 121 124 125 129 141 149 153 157 161 163 165 166 166 167 168 170 177 184 186 187 195 202 206 209 216 221 227 233 241 250 253 255 255 255 255 251 250 249 247 246 246 249 247 246 245 245 246 241 241 242 241 239 238 246 247 247 247 249 251 244 242 242 242 244 246 255 255 255 255 251 248 243 239 238 237 235 234 241 248 247 245 247 251 248 240 242 242 241 240 243 253 251 250 250 252 249 238 240 242 237 233 238 253 254 254 254 254 254
237 237 237 237 237 238 247 244 250 254 255 253 239 233 232 231 231 233 248 255 255 255 255 254 242 232 229 234 233 228 238 249 253 254 254 253 245 237 237 239 242 246 254 255 255 255 252 249 243 233 232 234 236 238 243 253 255 254 252 251 249 238 238 240 242 242 243 249 251 254 255 254 254 248 247 249 246 242 238 238 233 225 216 205 194 181 176 171 162 155 152 152 155 157 162 163 161 153 147 142 135 135 139 145 155 150 144 129 119 115 113 115 121 132 144 158 168 175 178 180 182 185 183 181 178 172 156 146 142 127 119 118 115 113 110 111 115 123 124 123 123 123 122 122 122 123 120 118 120 122 123 127 136 143 148 153 157 160 161 161 162 163 164 167 173 179 180 180 186 193 195 196 203 207 213 219 227 236 239 242 245 247 248 244 244 244 244 244 247 251 251 250 249 248 247 241 239 239 238 236 235 242 243 241 241 243 244 239 238 241 242 246 248 255 255 255 255 255 254 247 241 240 239 237 237 243 251 249 247 250 253 248 239 239 240 240 239 244 255 254 254 254 254 250 239 238 238 236 233 238 255 255 255 255 255 255
236 236 236 236 236 237 249 247 252 252 252 249 236 233 235 235 234 233 248 255 255 255 254 253 241 232 231 235 237 232 241 251 253 252 251 251 244 235 236 239 242 246 253 255 255 255 251 249 244 235 237 240 242 244 248 255 255 252 248 247 244 235 237 241 244 245 247 252 252 253 255 255 255 246 241 241 236 229 223 221 214 206 197 187 178 166 162 157 149 143 140 140 143 146 151 153 151 144 137 132 126 126 129 137 149 146 141 127 117 113 112 115 121 131 142 155 165 172 174 176 178 180 178 176 174 169 155 146 143 130 124 122 118 115 111 111 116 124 125 123 123 122 121 121 121 121 117 115 117 118 118 121 130 136 141 146 150 154 156 156 157 157 157 160 166 173 173 172 176 183 185 185 193 197 203 208 216 227 231 235 238 242 244 240 241 242 242 243 245 250 249 247 246 243 242 235 233 234 234 233 234 242 243 242 242 242 243 234 233 236 238 242 244 255 255 255 255 255 255 247 240 238 236 235 235 244 253 252 251 254 254 248 237 237 237 237 238 243 255 255 255 255 255 250 236 234 234 235 232 237 255 255 255 255 255 255
235 235 235 235 235 236 252 251 251 246 247 248 238 240 243 240 235 231 244 252 253 254 255 255 246 239 236 237 238 234 242 250 250 250 250 252 246 237 238 239 240 242 248 255 255 254 253 252 248 237 237 239 239 241 247 255 255 251 247 246 243 232 234 238 241 244 247 253 253 254 255 255 255 244 231 226 220 211 205 203 194 185 176 168 160 150 146 142 135 131 129 130 137 142 150 153 153 147 140 135 128 125 127 135 149 145 140 126 117 114 116 120 127 136 145 155 164 169 172 174 176 178 176 176 175 172 161 155 154 144 138 137 131 126 122 123 128 135 135 133 131 130 129 128 128 127 123 121 123 125 124 125 132 138 142 147 151 155 158 159 159 159 158 159 164 170 169 167 171 177 178 177 184 189 195 200 207 218 223 228 232 236 239 237 238 239 240 241 242 247 246 244 242 240 238 231 230 231 232 232 233 243 246 246 247 247 248 238 234 235 235 238 240 251 255 255 255 255 254 246 240 237 234 232 233 242 253 253 253 255 255 249 238 238 236 236 236 241 254 255 255 255 255 252 236 232 231 233 233 238 255 255 255 255 255 255
246 246 246 246 246 246 246 245 239 231 231 237 244 252 255 254 247 240 236 234 234 235 240 246 251 254 254 255 255 255 250 244 238 234 235 239 244 248 251 253 252 251 249 247 246 245 245 246 248 249 250 251 249 246 243 240 238 236 236 236 239 245 250 252 251 249 249 248 245 242 243 245 245 235 221 213 207 199 193 185 177 171 167 165 166 168 170 171 168 165 164 162 163 162 162 156 153 151 148 145 142 144 146 147 151 147 139 133 129 130 133 136 141 145 150 159 165 169 170 171 172 173 173 170 167 163 154 151 149 145 144 142 136 129 127 128 130 133 133 131 128 127 128 129 130 131 132 133 135 137 139 140 139 139 141 145 148 152 157 164 167 169 169 170 170 173 173 172 173 176 177 176 179 183 187 190 194 198 202 207 212 217 222 227 230 233 236 239 242 243 242 241 240 239 237 236 235 235 235 235 236 239 241 241 242 241 241 239 239 240 242 244 244 244 244 245 247 249 250 249 247 244 242 241 242 245 246 248 250 252 252 249 247 244 242 241 242 242 244 247 251 254 253 249 245 240 237 242 245 246 249 250 250 250 250 250
253 253 253 253 253 252 244 243 235 226 225 231 243 249 252 252 250 248 239 234 233 234 237 241 251 254 255 255 255 255 248 238 233 231 231 235 244 254 255 255 255 255 251 243 242 241 240 241 246 254 255 255 255 251 244 234 232 233 235 237 244 255 255 255 255 254 249 242 236 230 228 224 220 213 204 201 198 193 188 180 174 172 171 172 174 182 187 188 185 181 178 172 166 160 153 140 134 135 134 133 135 142 146 143 142 141 132 132 133 137 141 142 144 146 150 159 164 168 169 168 168 168 169 165 158 154 144 141 139 137 137 136 131 124 120 120 120 121 122 120 117 117 118 120 123 125 129 131 131 131 135 139 136 135 136 138 141 143 149 157 162 165 168 169 168 169 172 172 172 173 174 175 175 177 180 183 184 184 187 192 196 201 207 215 220 224 228 234 238 237 238 238 239 238 237 239 238 235 235 235 236 233 234 234 234 234 234 237 239 243 246 248 248 243 240 241 242 245 245 247 249 248 247 247 248 246 242 243 244 246 247 248 252 250 249 249 249 246 241 242 244 245 243 244 250 246 242 248 252 250 245 245 245 245 245 245
255 255 255 255 255 255 240 238 230 228 229 233 244 247 247 249 252 255 245 239 238 237 237 238 247 248 249 255 255 255 244 235 233 232 232 235 245 255 255 255 255 255 255 245 242 240 237 236 240 250 251 252 251 246 240 231 232 236 240 244 251 255 255 255 255 250 242 232 225 218 214 206 197 194 190 190 190 190 187 179 177 176 176 175 175 184 188 189 187 182 178 171 162 154 144 129 122 123 124 124 129 139 144 140 134 132 122 125 130 135 139 139 141 143 148 157 162 167 167 167 167 166 167 161 154 149 139 135 131 128 128 128 124 116 112 112 109 109 111 111 109 110 112 115 118 121 126 128 127 127 131 136 134 133 134 135 137 138 143 149 154 159 163 164 163 163 167 169 169 169 171 173 172 174 176 180 180 179 181 184 187 191 197 206 211 215 220 227 233 233 235 238 240 241 241 245 244 241 239 238 236 230 228 227 227 226 228 235 240 245 250 252 252 245 241 240 241 242 241 246 250 251 252 253 253 249 241 241 240 240 241 245 253 252 253 254 254 250 240 240 238 237 237 242 254 252 248 251 254 251 242 241 241 241 241 241
255 255 255 255 255 254 236 232 228 232 235 239 250 250 248 250 254 255 247 241 240 240 239 239 248 248 248 255 255 252 241 232 230 229 230 232 242 255 255 255 255 255 255 245 241 238 234 231 235 245 244 245 244 240 236 230 232 237 242 245 250 255 255 255 248 237 228 218 213 208 204 195 188 188 187 187 188 189 188 180 177 175 173 170 168 176 181 184 183 180 177 174 169 162 154 141 135 136 139 139 143 152 156 149 139 135 122 126 133 138 142 141 144 146 149 157 161 165 166 165 165 166 167 161 154 150 140 137 132 127 127 126 123 115 110 110 106 104 106 107 106 108 110 113 117 120 126 129 129 129 134 138 136 135 136 137 138 139 143 148 152 157 160 160 157 156 160 162 163 162 164 166 164 166 171 174 175 174 175 178 181 184 189 198 202 206 211 219 225 226 230 234 238 241 243 249 249 247 245 242 238 231 228 226 224 224 225 235 241 247 251 253 253 246 241 241 241 242 242 247 251 253 254 255 255 249 240 239 238 237 240 245 253 253 254 255 255 251 240 239 237 236 236 242 255 255 252 251 253 250 239 239 239 239 239 239
255 255 255 255 255 254 232 222 222 231 238 243 254 253 250 250 254 255 249 244 244 244 243 241 248 244 242 254 249 241 231 225 227 229 232 236 246 255 255 255 255 255 255 244 240 235 232 230 234 244 244 246 246 243 241 236 238 242 246 247 248 252 247 241 232 220 210 199 198 197 194 186 179 180 180 180 181 183 183 176 173 171 169 163 159 163 167 168 166 161 158 154 150 145 140 130 125 127 130 131 134 144 149 143 134 130 121 127 134 139 141 140 143 146 150 157 160 164 165 164 164 165 167 160 155 151 144 140 135 129 128 127 125 119 116 116 110 104 105 106 106 108 110 113 116 119 124 126 125 124 127 133 133 132 133 134 135 135 139 143 146 149 152 152 148 148 151 154 155 155 158 160 159 161 166 170 171 170 172 174 176 179 182 190 193 196 200 206 211 212 216 221 226 230 233 242 244 244 243 241 238 231 227 225 223 222 224 233 240 247 252 255 255 250 245 245 244 244 243 248 252 253 254 254 254 248 240 239 238 236 239 245 254 254 255 255 255 252 241 239 237 236 238 244 255 255 253 250 249 247 239 239 239 239 239 239
255 255 255 255 255 254 231 212 214 229 240 248 255 255 251 250 252 255 248 245 247 249 249 246 249 242 236 242 234 228 223 222 227 234 240 244 253 255 255 255 255 255 250 241 238 235 234 233 235 242 241 242 242 243 244 244 248 251 254 252 248 238 225 217 208 197 187 177 180 184 183 176 168 167 165 163 165 170 172 169 168 165 162 155 147 147 147 145 141 135 130 128 126 124 123 118 116 118 121 121 121 128 133 129 120 117 112 121 129 132 134 133 136 142 146 152 154 158 160 161 161 163 165 158 155 153 147 144 140 133 130 130 130 128 126 126 119 108 108 109 109 111 113 115 118 120 124 125 125 124 126 132 134 135 135 136 137 136 139 143 145 147 149 148 145 144 148 151 154 155 158 161 161 163 168 171 173 172 173 174 176 177 179 183 184 185 188 191 195 196 200 204 210 217 223 234 239 242 243 242 240 234 231 229 228 228 229 238 244 249 253 255 255 252 248 247 245 244 242 248 252 252 253 253 252 247 240 241 239 236 238 245 254 255 255 255 255 251 240 239 237 237 240 247 255 255 255 246 244 246 239 239 239 239 239 239
242 242 242 242 242 242 243 229 235 248 254 254 248 243 239 239 241 245 254 255 255 255 255 255 244 235 230 224 220 223 231 239 245 250 252 251 246 240 238 236 237 240 245 250 248 246 244 242 238 230 225 226 228 234 246 255 255 255 255 252 239 208 190 182 179 177 173 172 175 180 180 176 169 165 164 163 166 171 173 177 174 166 159 146 132 121 118 116 112 109 106 111 120 126 136 143 144 140 139 134 124 121 120 121 122 116 116 121 125 125 123 123 126 131 135 139 143 148 152 154 156 161 161 157 157 157 150 146 145 137 133 133 135 135 133 132 125 112 109 110 113 115 115 116 117 117 117 118 121 125 126 130 138 143 147 150 152 153 154 153 151 151 149 147 148 150 150 151 156 158 159 160 163 165 171 175 181 186 186 186 186 186 185 181 179 178 178 179 181 186 190 194 200 207 216 221 229 236 240 240 240 244 245 244 243 244 246 245 245 245 246 247 249 254 255 255 253 249 247 244 243 244 244 244 244 248 251 251 248 244 245 245 243 245 246 246 245 247 251 249 247 247 249 249 243 245 246 238 235 240 248 248 248 248 248 248
236 236 236 236 236 237 248 241 251 255 255 251 241 239 240 241 241 242 254 255 255 255 255 255 244 242 238 222 223 231 241 248 250 251 251 249 240 231 229 229 231 235 242 250 247 245 244 243 238 227 223 224 227 235 250 255 255 255 247 236 217 180 160 154 157 164 167 170 170 178 183 185 186 184 181 178 178 179 178 181 172 156 142 127 111 96 93 91 89 88 89 98 116 129 148 164 168 163 161 152 135 123 118 121 127 119 122 123 122 117 113 114 117 124 126 127 130 133 138 141 144 150 151 148 152 154 150 146 145 136 131 131 132 136 137 137 133 116 110 111 114 115 117 117 117 116 115 117 123 130 130 132 141 148 153 157 161 163 165 164 158 155 150 146 147 149 147 145 150 154 154 155 161 166 174 179 187 195 196 197 198 197 195 188 184 181 178 175 174 177 179 181 186 193 202 208 220 231 238 241 243 253 255 254 253 253 253 247 244 243 241 242 243 252 255 255 254 251 249 242 238 238 237 237 238 246 254 255 253 250 248 245 238 240 241 240 240 244 254 253 253 253 253 248 235 238 242 238 233 238 250 250 250 250 250 250
237 237 237 237 237 238 247 247 255 255 253 246 236 236 239 241 241 241 252 255 255 255 254 252 243 246 246 227 230 240 248 252 250 249 248 248 241 233 233 234 236 238 243 248 246 244 244 244 242 234 234 234 235 238 246 251 245 234 223 210 192 164 150 148 154 165 170 172 169 177 184 189 193 192 189 185 183 180 176 174 160 141 126 111 99 85 83 83 82 83 86 97 118 133 155 172 177 174 171 162 142 128 123 126 134 127 130 128 123 116 112 112 117 122 122 121 122 124 128 131 133 140 141 139 144 148 146 143 142 133 129 129 129 135 138 139 138 121 114 114 116 117 119 119 119 119 118 122 128 136 136 136 143 150 155 160 164 167 170 171 165 161 154 149 148 150 147 143 146 150 150 151 159 165 174 178 187 194 197 199 200 200 198 192 188 185 181 177 174 174 174 174 177 182 191 197 208 220 229 234 238 250 254 254 253 252 251 244 240 238 236 237 239 246 250 251 251 250 248 242 238 237 236 236 238 246 255 255 255 253 249 245 238 239 240 239 240 244 254 254 254 253 252 246 233 236 242 241 237 239 250 251 251 251 251 251
238 238 238 238 238 239 245 253 255 255 249 241 229 230 236 241 242 242 252 255 255 252 249 247 239 244 246 229 235 246 253 255 254 251 250 250 245 239 240 241 243 243 244 247 247 247 248 250 251 247 249 248 244 237 234 228 215 202 188 176 165 154 151 154 163 174 180 182 176 181 188 192 197 196 191 188 183 175 169 162 146 127 112 102 96 86 84 85 86 87 93 103 124 139 159 173 178 176 171 162 143 130 126 130 142 137 138 134 126 119 117 117 121 124 123 121 122 123 126 128 130 135 137 136 140 144 143 140 139 134 131 131 130 133 136 138 140 127 120 119 119 119 120 120 121 121 121 126 132 139 140 139 143 149 154 159 163 166 171 173 168 165 157 152 151 153 149 144 145 148 147 147 155 162 170 174 181 188 191 194 197 198 197 193 191 189 186 183 180 179 177 175 176 178 183 187 195 205 213 220 227 241 248 251 251 251 248 240 235 232 229 230 232 238 243 245 247 247 247 242 238 238 237 238 239 247 255 255 255 255 249 245 238 238 239 239 241 245 255 255 255 254 251 244 232 234 241 244 240 240 252 253 253 253 253 253
240 240 240 240 240 241 244 255 255 254 245 239 227 229 235 239 241 241 250 254 252 248 245 243 235 239 243 230 238 248 255 255 255 254 253 254 249 244 245 247 247 244 244 248 249 252 254 255 255 255 255 253 243 228 215 202 186 173 160 150 145 149 155 161 171 182 188 191 184 186 191 194 197 195 189 185 179 169 162 153 136 119 105 100 99 92 90 92 95 98 105 116 137 151 167 178 182 179 174 165 147 135 131 137 152 149 146 137 128 122 121 122 125 125 123 121 122 123 125 127 129 134 136 136 139 142 140 138 137 135 134 134 131 133 135 137 141 132 127 124 123 122 122 123 124 124 125 130 137 144 145 142 145 149 154 159 163 167 172 175 173 170 164 159 158 159 156 151 150 152 150 147 154 161 168 171 177 183 186 189 192 194 195 193 192 191 190 187 186 186 183 179 178 178 180 180 185 191 198 205 214 230 240 245 249 249 247 238 232 228 225 226 226 233 237 240 243 246 247 243 240 240 240 241 242 248 255 255 255 255 250 245 237 238 238 239 241 246 255 255 255 255 251 244 233 234 239 244 242 240 254 255 255 255 255 255
245 245 245 245 245 245 240 249 255 245 241 240 233 235 239 241 242 242 247 249 248 246 244 241 237 238 241 235 241 247 254 255 255 253 253 255 254 251 251 252 250 244 243 246 251 255 255 255 255 255 255 245 230 207 190 174 159 150 142 136 137 153 163 169 176 184 189 191 189 189 192 194 195 193 187 183 177 169 163 150 133 116 103 100 101 99 97 100 105 109 117 130 153 165 178 185 187 186 182 175 159 149 147 152 166 161 150 139 129 124 124 127 130 128 125 123 123 124 125 126 128 133 135 135 138 141 138 137 135 134 133 133 129 130 132 134 139 136 132 129 126 125 125 126 127 128 130 135 141 149 150 147 147 150 154 158 161 164 170 176 175 174 168 162 159 160 159 153 152 153 150 147 152 160 167 170 174 177 179 183 187 189 191 192 192 192 192 190 190 189 186 183 182 180 180 180 181 184 187 191 199 215 226 234 241 244 245 240 235 231 229 228 228 231 234 237 241 244 247 246 246 247 247 247 247 249 254 255 253 252 248 245 242 242 242 243 245 247 252 252 252 252 250 245 240 240 241 246 245 243 253 254 254 254 254 254
255 255 255 255 255 255 231 232 229 226 231 239 250 254 252 250 248 246 236 232 233 235 236 236 243 247 248 250 252 253 250 244 242 242 245 249 255 255 255 255 255 250 244 240 248 255 255 255 255 255 250 232 211 184 165 147 138 137 137 135 142 167 177 180 183 185 186 184 187 188 189 190 189 189 183 176 173 169 164 147 129 111 100 99 101 105 105 109 117 120 128 140 162 172 180 182 183 185 187 182 171 166 166 169 175 166 146 135 127 124 125 129 134 134 129 125 122 122 123 123 124 128 132 131 133 136 137 138 133 130 129 129 126 127 132 136 141 141 140 138 134 132 132 134 136 137 142 147 152 157 159 156 151 151 153 155 157 158 166 177 179 180 175 166 159 157 158 155 154 154 152 150 152 161 171 174 175 173 173 177 182 185 188 194 195 195 195 193 192 186 182 180 179 179 179 184 184 183 183 182 186 194 205 215 226 233 238 245 245 242 241 239 238 231 228 230 235 240 243 251 255 255 255 255 255 250 244 244 244 241 241 245 252 251 251 252 252 247 238 240 240 242 243 245 254 254 250 251 254 249 243 243 243 243 243 243
255 255 255 255 255 255 233 231 219 220 230 241 255 255 255 252 249 246 233 229 232 235 237 237 245 247 247 250 250 251 247 240 239 240 243 246 254 255 255 255 252 248 245 243 253 255 255 255 255 246 224 199 175 150 139 130 129 135 142 144 153 175 182 182 182 183 184 183 190 190 188 188 183 182 176 169 169 171 168 152 136 116 104 103 100 106 105 109 118 121 129 141 165 174 181 182 182 184 187 184 174 171 172 177 182 169 143 130 122 118 120 125 132 134 129 127 124 124 125 125 126 130 134 133 135 138 139 140 135 130 129 128 126 126 132 135 140 146 147 146 142 140 138 139 141 142 145 148 151 156 159 155 151 150 152 154 154 154 162 173 176 178 174 164 156 154 157 155 156 156 154 152 152 162 174 177 178 174 173 176 181 184 187 193 194 194 194 193 191 185 182 181 181 181 181 185 183 181 176 171 170 176 188 200 214 227 237 249 251 249 248 244 242 234 229 231 234 238 241 250 255 255 255 255 255 250 240 240 238 234 238 244 254 254 253 253 252 246 234 235 237 239 241 246 255 255 250 249 255 251 239 239 239 239 239 239
255 255 255 255 255 254 243 243 220 221 232 243 255 255 255 255 251 248 235 231 235 239 241 241 248 250 247 250 250 252 247 241 240 241 242 243 247 252 249 246 243 245 247 247 255 255 255 253 238 217 185 158 136 121 125 130 138 151 164 169 176 186 185 182 180 180 181 183 192 191 187 186 179 177 175 170 174 182 181 169 155 133 120 114 104 107 108 112 121 124 130 143 166 174 182 184 183 185 189 186 177 174 177 184 188 171 142 129 122 117 117 122 129 132 129 127 125 126 127 128 129 132 136 135 136 140 141 142 138 130 127 127 126 128 134 136 140 148 152 151 148 146 144 144 145 145 146 145 147 151 154 152 150 151 153 154 155 154 160 169 172 175 171 162 153 152 155 155 159 159 158 156 155 164 178 183 184 180 177 179 184 186 187 192 191 190 190 189 185 180 178 178 179 181 182 186 184 182 175 165 159 163 174 185 202 219 235 251 255 255 255 251 249 242 236 236 238 239 239 247 254 255 255 255 255 247 236 234 232 229 236 243 253 254 254 253 251 245 232 233 235 238 241 247 255 255 249 248 255 254 236 235 235 235 235 235
252 252 252 252 252 251 252 255 226 223 232 241 255 255 255 255 255 251 238 233 236 239 242 242 249 253 250 252 254 255 250 242 239 238 238 237 241 245 243 241 240 247 251 250 255 254 246 233 211 185 149 124 107 102 117 133 148 164 180 187 192 193 189 183 179 180 181 185 191 188 185 184 178 176 173 169 175 186 186 177 164 142 128 118 103 107 110 117 126 130 135 148 169 177 184 185 184 185 190 189 182 181 186 194 196 176 147 133 128 123 120 123 129 132 130 128 127 128 130 131 132 136 139 137 138 141 142 143 140 132 130 130 129 130 134 136 139 149 153 154 152 150 148 147 148 147 146 143 143 145 147 147 146 148 150 152 153 152 156 163 165 168 166 156 148 147 150 151 156 156 154 153 151 159 174 179 180 178 175 176 180 182 183 186 185 184 184 184 181 178 177 179 181 182 184 187 185 183 175 162 153 155 163 172 187 206 224 243 252 255 255 255 254 247 243 242 242 242 241 245 250 252 253 253 252 245 234 231 230 228 237 243 251 252 251 250 249 243 233 235 237 239 243 246 253 253 245 246 255 255 236 235 235 235 235 235
248 248 248 248 248 248 255 255 236 231 234 239 254 255 255 255 255 254 243 238 238 239 240 240 247 253 252 254 255 255 252 244 238 235 233 232 235 241 242 243 246 255 255 250 245 234 218 199 176 150 119 103 96 101 123 145 163 178 193 199 203 196 189 182 178 179 181 183 184 181 180 181 178 177 177 175 182 193 194 187 178 159 146 132 114 116 124 134 141 144 147 157 172 178 183 183 181 182 188 187 185 188 196 204 203 184 158 146 140 134 128 126 129 131 131 131 132 134 136 137 138 141 143 141 141 143 141 141 139 132 130 130 131 133 135 137 139 148 153 155 155 154 153 152 153 153 151 146 142 140 142 144 145 147 150 152 154 153 156 159 160 164 162 155 149 149 151 153 158 158 156 155 154 160 173 178 181 180 177 178 181 181 181 182 181 179 179 180 179 177 177 179 181 183 185 188 187 186 178 165 154 152 155 158 168 184 201 221 236 246 252 254 255 253 250 249 248 247 244 244 246 247 247 248 248 244 236 233 232 231 238 242 248 248 248 248 247 244 237 238 240 241 243 245 248 249 244 246 255 255 237 236 236 236 236 236
243 243 243 243 243 243 255 255 248 243 241 241 247 252 253 254 255 254 249 245 242 241 240 240 244 250 250 254 255 255 252 245 238 233 231 230 234 240 244 248 254 255 255 245 228 206 182 160 139 121 102 100 104 116 139 162 177 188 199 204 204 194 188 183 179 180 180 181 175 173 177 178 179 180 179 180 186 194 195 193 189 177 167 151 132 133 145 157 161 163 164 169 176 178 181 178 177 177 181 182 184 193 203 211 207 192 171 161 155 147 138 129 127 127 129 133 137 141 142 143 144 147 148 145 143 143 138 135 135 130 129 130 132 134 135 136 137 146 151 154 156 157 157 157 158 159 157 150 143 137 138 141 144 147 150 153 155 156 157 157 157 160 161 158 155 156 158 159 164 163 162 161 161 163 172 178 181 183 181 181 182 182 180 178 177 174 174 178 178 179 180 182 183 184 185 186 186 186 180 168 157 153 149 146 148 157 171 188 208 225 236 246 251 253 254 254 254 251 248 244 242 241 241 242 244 245 241 239 238 238 242 242 243 243 243 244 244 244 243 244 244 244 244 244 243 244 242 245 251 250 241 240 240 240 240 240
234 234 234 234 234 236 255 255 255 255 255 246 236 235 239 244 248 250 255 255 253 247 242 241 236 237 240 244 254 255 253 253 247 241 237 236 235 235 242 248 255 255 253 237 209 178 149 126 111 101 100 113 128 144 164 184 193 196 198 199 196 182 178 178 177 178 179 179 165 166 173 174 178 178 178 180 183 185 185 187 185 180 171 153 136 132 147 162 163 165 167 172 175 176 180 179 179 178 179 179 183 194 206 212 209 198 185 175 169 160 149 134 125 122 125 130 137 141 143 144 146 149 149 146 144 143 134 130 132 131 131 132 135 136 133 133 134 142 147 150 154 157 159 160 162 163 160 153 146 136 134 137 143 148 153 157 160 162 161 156 155 156 157 157 158 161 160 160 163 162 160 158 159 159 164 169 174 181 181 180 180 179 176 170 169 166 167 172 176 182 184 185 186 185 185 182 183 184 181 173 165 163 154 144 137 138 144 153 174 195 210 227 237 249 255 255 255 255 254 244 237 235 234 236 239 247 252 251 248 249 248 242 234 234 235 237 239 245 255 254 253 251 249 244 234 236 238 241 240 241 250 250 250 250 250 250
234 234 234 234 234 236 251 255 255 255 255 245 231 229 234 240 245 247 255 255 253 246 241 240 235 236 241 243 253 253 252 253 248 243 239 241 242 242 249 253 255 251 237 215 180 145 117 98 93 97 111 136 158 175 188 199 200 197 192 190 185 173 173 175 176 177 177 174 156 160 172 175 183 184 182 185 184 180 178 180 180 179 172 154 141 137 154 168 168 169 171 173 173 174 177 177 178 178 179 180 184 197 209 212 206 199 193 185 179 170 158 139 128 124 126 132 138 142 144 144 146 149 149 146 144 143 134 129 131 132 133 134 135 137 135 135 136 140 144 147 152 157 161 163 166 168 167 162 154 142 138 139 144 149 154 158 162 165 163 158 156 156 157 159 161 163 162 160 161 161 159 158 161 159 161 166 171 179 181 181 181 179 176 171 169 167 167 172 177 183 185 184 184 182 182 181 183 186 186 183 177 173 162 147 133 125 124 128 149 173 192 213 226 241 251 255 255 255 255 246 237 234 233 234 238 247 255 255 253 255 251 243 233 233 234 236 239 245 255 255 255 252 249 244 233 234 239 243 238 238 253 254 254 254 254 254
236 236 236 236 236 238 249 252 255 255 253 244 231 229 234 239 242 244 255 255 253 247 244 244 239 239 242 243 248 247 248 251 249 246 245 248 249 247 250 249 244 230 211 186 152 120 97 86 89 104 128 157 181 197 203 205 201 193 185 181 176 169 171 175 176 177 177 172 156 162 176 181 190 191 187 188 185 178 174 176 176 178 173 155 147 144 160 173 171 171 173 173 172 173 177 178 180 180 180 181 184 197 209 207 200 195 193 187 180 173 162 142 131 126 127 133 139 143 144 144 145 148 149 146 144 143 134 130 131 132 134 134 135 137 136 137 138 140 143 145 150 155 161 164 166 169 170 168 161 149 143 142 146 149 153 157 161 164 164 160 158 158 158 161 163 164 162 161 160 160 159 158 162 160 160 165 170 177 181 182 182 181 179 175 174 171 171 175 180 184 185 182 181 179 179 179 182 185 188 188 184 180 169 153 136 123 118 117 134 157 176 199 214 230 241 248 252 254 254 247 239 235 233 234 236 244 253 254 254 255 252 245 237 236 236 238 240 246 255 255 255 253 250 245 234 234 239 244 238 238 254 254 254 254 254 254
239 239 239 239 239 240 251 253 255 253 244 240 233 234 238 241 242 243 251 254 251 248 247 247 244 242 242 244 245 242 247 252 252 252 253 255 254 248 244 236 222 201 179 156 128 104 88 87 98 119 147 175 196 210 210 205 196 187 177 172 169 169 174 178 179 179 178 173 161 168 182 188 195 194 190 190 185 175 170 170 169 172 167 152 147 147 162 172 170 170 173 173 173 175 179 180 183 184 184 184 185 196 205 200 193 190 190 185 180 175 166 147 137 132 130 134 138 141 141 141 142 145 146 144 142 142 136 132 133 135 137 138 137 138 138 139 142 142 143 145 148 153 158 162 164 167 170 171 167 155 148 145 146 149 152 155 158 161 163 162 161 159 159 161 163 163 161 159 157 157 156 155 159 158 157 160 165 171 175 177 178 179 179 177 177 175 174 177 181 183 182 179 177 174 174 176 179 181 185 188 187 184 175 162 146 131 122 118 128 148 166 188 202 217 229 237 243 247 250 246 241 238 235 234 235 241 248 250 251 255 252 247 241 239 239 240 242 246 254 254 254 253 251 246 237 234 238 244 241 241 253 253 253 253 253 253
243 243 243 243 243 244 255 255 254 239 232 234 235 239 243 244 242 241 247 250 250 249 250 251 248 244 241 242 239 236 246 253 255 255 255 255 255 246 235 220 198 170 150 132 113 98 91 97 111 134 159 181 197 210 207 199 189 181 173 170 169 172 178 181 180 179 177 174 169 176 187 193 197 194 191 190 185 177 172 172 171 174 170 157 155 158 169 175 174 174 176 176 176 178 182 183 185 186 185 184 183 191 197 192 186 184 183 181 177 174 167 151 142 136 133 136 139 141 142 142 143 145 146 145 143 143 137 135 136 139 141 141 140 141 141 143 145 144 144 145 147 150 155 158 160 163 167 170 168 159 151 146 147 148 151 154 156 159 162 164 163 162 162 164 165 165 163 161 159 159 158 158 161 160 159 161 164 168 172 174 176 178 180 179 179 177 177 179 181 181 179 176 173 171 172 174 176 177 181 185 186 184 180 171 159 146 136 129 134 149 165 183 196 210 220 229 235 241 245 246 244 241 238 236 235 238 242 244 246 252 251 249 245 244 244 244 244 246 251 251 252 253 252 248 240 234 235 243 245 247 252 252 252 252 252 252
249 249 249 249 249 249 255 252 237 223 223 235 247 253 254 250 245 242 241 243 246 250 253 255 255 249 242 247 237 231 243 250 255 255 255 255 255 242 223 201 170 138 120 107 99 96 99 113 129 153 171 185 194 204 197 186 177 173 169 168 170 178 184 185 180 176 173 171 175 182 189 195 196 191 189 187 184 180 175 174 173 176 173 163 164 171 178 181 180 180 180 180 181 182 183 183 184 185 185 183 179 186 190 184 178 176 174 173 170 170 165 152 146 141 137 139 140 142 143 143 143 145 147 145 144 143 139 137 137 139 141 141 140 141 144 146 148 147 147 147 146 148 152 155 157 160 165 170 170 163 155 148 147 147 147 149 151 153 158 163 165 165 165 166 165 165 165 164 162 162 162 162 164 164 163 164 165 166 168 171 174 177 180 181 182 180 179 179 180 175 172 168 166 165 165 169 171 170 173 177 178 176 177 174 167 157 149 143 141 152 165 179 190 199 208 217 224 231 237 244 247 247 244 241 238 235 234 235 238 245 248 250 252 251 251 249 248 246 244 245 247 250 251 251 249 240 236 243 250 252 248 247 247 247 247 247
255 255 255 255 255 255 255 249 222 208 213 232 255 255 255 255 251 246 234 233 238 245 251 253 255 255 245 252 240 236 245 247 255 255 255 255 246 232 205 177 142 110 95 86 91 101 112 132 150 172 181 184 185 195 187 175 170 171 172 173 178 189 192 190 182 176 171 168 179 185 187 191 187 183 185 184 183 184 180 177 175 175 173 167 169 180 185 184 185 184 183 181 182 182 181 179 179 181 182 179 173 178 180 172 165 162 158 161 161 163 161 152 150 147 143 142 141 142 143 143 143 143 146 144 143 142 141 141 139 139 139 140 140 142 148 151 153 150 149 149 147 147 150 153 155 158 164 170 173 168 162 153 148 146 145 145 146 146 153 163 166 167 168 167 164 162 164 164 164 164 166 168 167 168 169 170 169 165 166 168 172 176 180 184 185 183 181 180 177 166 162 159 157 157 159 167 169 167 169 171 171 167 172 175 174 169 164 161 156 161 170 179 187 189 193 202 210 218 225 240 249 251 250 247 243 234 224 225 229 234 241 249 255 255 255 255 252 245 233 235 238 243 246 251 255 247 239 246 255 255 239 237 237 237 237 237
255 255 255 255 255 255 255 254 222 208 214 234 255 255 255 255 253 249 237 235 239 245 249 250 255 248 240 248 238 239 250 254 255 255 255 245 229 209 178 148 114 87 78 78 92 110 126 150 167 184 189 187 186 196 189 178 174 176 179 181 187 196 198 195 187 181 176 174 185 187 185 183 175 170 176 178 180 182 179 176 175 175 175 170 174 186 187 183 184 183 181 178 176 174 172 169 168 169 168 163 155 158 159 153 149 149 147 152 155 159 158 152 152 151 148 147 146 147 148 148 148 147 149 148 146 145 144 145 143 142 142 142 144 146 151 153 155 153 152 151 148 148 149 151 153 155 161 167 170 168 163 152 146 144 143 142 143 143 149 158 162 164 165 165 163 162 164 166 166 166 169 172 171 171 172 172 170 166 166 168 171 175 179 184 184 183 181 179 175 162 158 155 153 154 156 163 164 161 163 166 167 164 171 177 181 179 175 170 160 161 167 172 178 179 184 192 200 208 216 232 245 249 250 249 246 236 226 226 228 231 237 246 255 255 255 255 253 245 233 234 237 241 244 250 255 248 239 246 255 255 237 235 235 235 235 235
255 255 255 255 255 254 255 255 225 213 218 238 255 255 255 255 252 251 241 238 241 246 248 246 249 240 234 250 243 243 252 254 255 255 247 227 206 183 151 124 97 79 79 86 106 127 146 169 184 196 196 190 187 195 191 181 179 181 185 188 193 200 201 198 190 182 177 176 187 187 180 174 163 159 171 180 183 187 184 180 178 176 175 171 175 186 186 182 183 184 183 180 177 175 172 169 167 167 166 159 151 153 154 151 151 151 150 157 159 164 163 158 158 157 154 152 151 152 152 151 151 150 151 150 149 147 148 149 146 144 144 145 147 150 154 156 159 157 156 155 152 151 151 152 154 156 160 165 169 168 163 152 146 144 144 143 143 143 148 156 159 161 162 163 161 160 162 164 164 165 167 170 169 170 171 171 170 166 166 168 170 174 178 182 182 180 178 176 171 157 152 151 149 149 151 156 157 154 155 158 159 158 166 175 181 182 180 176 164 163 168 170 175 176 181 189 198 205 211 226 240 247 250 250 248 239 229 227 227 229 236 243 254 255 255 254 253 246 234 235 236 238 241 249 255 248 239 245 255 255 237 235 235 235 235 235
252 252 252 252 252 251 255 255 233 222 225 240 255 255 253 250 250 252 246 243 245 248 247 244 244 234 233 250 246 249 255 255 255 248 231 205 179 153 123 100 81 74 81 95 118 141 160 183 194 200 197 190 186 194 193 188 186 188 192 193 196 198 197 194 187 180 176 175 184 180 171 160 149 147 164 178 183 188 187 183 180 176 174 170 173 183 183 181 183 186 186 184 181 180 178 176 174 173 171 162 152 151 150 149 151 151 151 159 162 167 165 161 161 160 157 154 153 153 153 153 152 151 152 151 150 149 150 151 149 146 146 147 150 154 156 158 160 157 156 155 153 153 152 153 155 156 159 164 168 170 166 154 148 147 148 148 148 147 151 157 159 161 161 162 161 160 162 163 163 164 166 169 168 169 170 171 170 167 167 168 170 172 175 178 178 176 174 171 166 152 148 147 146 147 149 153 155 152 154 156 158 158 167 176 183 186 186 180 167 164 166 167 170 172 177 185 194 201 206 219 233 242 247 250 249 243 234 231 230 230 236 242 250 252 253 253 252 247 237 237 237 237 239 246 255 247 239 245 255 255 238 236 236 236 236 236
251 251 251 251 251 250 255 255 243 236 235 242 246 240 236 239 247 254 253 252 252 251 246 240 236 227 231 248 249 255 255 254 249 234 210 177 147 121 95 78 72 78 92 111 135 158 175 193 200 201 195 188 183 191 193 190 190 192 195 196 197 195 192 190 185 179 176 174 176 169 156 139 125 126 150 171 179 186 187 184 182 176 175 171 174 182 182 180 184 188 189 186 181 179 177 175 173 171 167 156 145 143 143 144 149 149 151 158 163 166 163 161 160 160 159 155 154 155 155 155 154 153 153 152 151 150 150 150 148 144 143 145 150 155 156 157 159 158 157 156 156 156 155 155 157 159 161 164 168 171 169 157 150 151 152 152 152 151 153 156 157 158 160 160 160 160 162 164 164 166 168 170 170 171 172 174 174 172 171 171 171 172 174 175 174 172 169 167 161 148 144 144 143 145 147 149 151 149 150 152 154 155 162 171 178 183 184 179 167 163 164 162 164 167 172 180 189 195 198 209 224 236 245 251 254 251 244 240 235 233 236 240 246 249 252 253 253 250 243 240 236 233 234 242 251 247 242 247 254 254 240 239 239 239 239 239
245 245 245 245 245 244 253 255 255 255 252 248 238 226 224 231 243 255 255 255 255 255 246 237 228 221 229 241 248 255 255 250 238 216 186 150 118 93 76 69 77 94 114 137 158 175 187 197 197 190 183 178 175 181 188 191 193 194 194 195 194 185 180 181 180 179 178 176 170 161 148 127 112 116 140 164 174 180 184 184 182 177 177 173 175 177 178 179 182 186 187 185 179 178 176 175 173 168 162 149 138 134 134 138 146 145 148 152 154 156 151 150 149 151 153 152 154 155 156 156 156 156 155 154 153 151 148 146 144 139 138 140 146 151 151 152 154 156 157 156 158 159 157 158 159 161 161 161 165 170 170 157 151 154 155 156 156 156 155 154 155 156 157 160 162 164 166 167 169 171 173 174 175 176 178 180 181 182 182 181 179 179 178 176 174 171 169 167 162 151 148 149 148 149 149 148 149 147 148 148 149 152 158 164 170 176 178 172 162 158 157 156 157 162 169 177 186 191 193 198 211 225 237 247 253 255 255 253 246 239 238 238 239 242 246 248 250 251 250 246 240 234 234 239 244 245 244 246 247 248 244 244 244 244 244 244
241 241 241 241 241 241 246 255 255 255 255 251 232 219 218 229 244 255 255 255 255 254 244 235 225 221 232 238 249 255 245 235 215 189 157 124 96 78 72 76 96 123 144 164 178 187 191 194 190 179 175 173 174 178 188 195 197 196 195 193 189 175 168 170 173 175 175 172 159 150 140 119 109 114 135 159 169 174 180 182 181 176 176 174 174 173 176 180 184 188 189 186 181 179 179 178 175 171 163 150 139 135 134 140 147 145 148 150 151 149 144 142 140 143 147 148 151 153 155 156 156 157 156 155 153 150 145 142 141 135 135 137 143 149 148 149 151 153 154 154 158 160 159 159 161 162 161 161 164 169 171 160 154 157 158 159 160 161 159 155 155 155 157 160 164 166 167 169 170 173 174 175 177 177 179 182 185 188 188 186 184 182 180 175 173 170 167 166 162 154 152 152 152 153 153 150 152 152 153 153 153 156 158 160 163 168 170 164 159 157 156 155 155 161 168 175 183 188 189 189 199 213 226 239 249 255 255 255 254 246 241 238 234 238 241 245 248 251 255 251 244 237 235 237 239 243 247 247 242 241 247 248 248 248 248 248
239 239 239 239 239 239 241 252 255 255 255 250 232 224 227 237 249 255 255 255 255 249 241 235 228 227 237 242 252 252 230 212 187 159 129 103 83 74 76 87 113 144 163 180 188 192 193 191 187 176 173 174 176 179 188 196 198 195 192 190 185 172 167 171 176 179 180 176 160 152 146 130 126 130 144 164 173 174 179 180 177 172 172 171 172 173 179 185 189 193 193 190 185 183 183 182 179 175 168 156 146 142 142 147 154 151 153 152 149 146 140 138 137 139 144 145 149 151 152 153 154 154 153 153 151 148 143 140 140 136 136 138 142 148 147 148 152 155 156 156 159 161 161 161 163 164 163 162 164 169 172 163 156 157 158 159 161 162 161 157 157 157 158 160 164 167 167 167 168 170 171 172 174 175 177 181 184 188 189 189 187 186 184 180 178 175 173 171 168 160 157 156 155 154 154 151 153 154 155 155 155 158 158 158 159 162 164 159 156 155 154 154 153 158 163 169 178 183 183 181 189 201 213 226 238 252 255 255 255 250 243 239 234 236 238 242 245 250 255 253 248 242 238 237 237 241 245 246 239 238 247 248 248 248 248 248
235 235 235 235 235 236 241 255 255 255 255 247 234 234 242 250 255 255 255 255 251 244 240 239 236 238 245 245 252 242 211 185 156 129 105 88 79 79 88 103 132 162 177 189 193 193 191 188 184 174 173 176 178 180 189 195 196 191 187 185 181 173 173 180 186 192 194 191 173 166 165 157 159 158 159 173 178 174 177 177 172 167 167 169 172 175 184 191 194 197 196 192 188 187 188 185 183 181 173 162 154 150 149 154 162 158 158 153 146 141 137 136 136 136 141 144 148 150 151 151 152 153 152 152 150 148 143 142 142 142 142 143 144 147 147 149 155 161 162 161 162 163 163 164 165 165 164 163 165 169 173 165 156 156 156 158 160 162 162 160 160 160 160 162 165 168 167 165 165 167 167 167 170 172 174 177 181 186 190 192 192 192 192 190 189 187 185 184 181 174 169 165 163 159 156 152 153 155 156 156 157 161 161 160 159 160 161 154 151 151 150 150 149 152 156 160 168 175 176 172 176 184 194 205 220 236 249 253 254 253 246 241 234 234 235 237 240 245 254 254 253 249 244 239 234 235 239 244 238 236 247 248 248 248 248 248
236 236 236 236 236 237 239 255 255 255 255 248 234 233 238 244 249 252 255 255 252 248 246 246 244 247 251 240 240 226 187 156 127 103 85 76 76 84 99 118 148 178 190 197 197 194 190 186 181 173 171 174 176 176 184 190 191 188 185 184 181 174 174 180 186 192 192 184 162 155 155 147 146 142 137 148 156 154 161 164 162 161 164 170 175 180 189 197 199 200 197 192 187 185 184 180 178 178 171 162 156 152 150 153 157 153 151 148 143 140 138 138 136 136 140 143 146 148 149 150 151 151 151 150 149 147 142 141 143 145 147 147 148 150 149 150 155 159 161 161 162 164 165 166 167 168 168 168 169 174 179 174 164 162 160 160 161 163 164 163 163 164 164 166 168 169 168 167 167 168 167 166 168 169 170 173 175 179 182 184 184 184 185 183 183 183 183 183 180 174 171 167 165 163 160 158 159 160 162 161 162 163 162 160 158 158 158 152 150 149 147 146 144 144 144 147 154 161 163 161 166 174 183 195 210 228 241 249 251 251 246 243 239 239 238 240 241 244 250 250 248 245 240 237 235 238 243 247 241 237 246 246 246 246 246 246
239 239 239 239 239 239 240 255 255 255 255 246 236 237 242 246 247 248 250 250 249 248 248 251 251 254 253 233 227 207 163 129 101 82 72 73 82 97 116 136 165 192 200 201 198 193 188 183 179 174 172 176 178 177 183 188 188 185 182 180 177 172 172 177 183 190 188 178 154 149 152 147 146 139 126 133 142 140 149 155 155 158 164 174 180 186 195 202 202 200 194 187 181 178 176 170 168 170 164 156 153 149 147 148 150 147 146 145 141 139 138 138 136 134 138 142 146 148 149 150 151 151 151 151 149 146 142 142 144 149 152 153 153 154 154 155 158 160 161 161 161 163 164 165 166 167 168 168 169 174 179 177 168 164 160 159 160 161 163 164 165 166 166 168 170 171 170 169 168 168 168 167 168 168 167 169 170 173 176 179 179 179 180 180 180 181 181 181 179 174 171 166 165 162 161 160 161 164 166 166 167 168 166 164 161 159 158 152 150 150 148 146 143 140 138 139 145 152 153 153 158 164 172 182 198 216 231 242 248 250 247 246 243 243 241 241 242 243 247 248 247 246 242 238 236 240 245 249 243 239 246 247 247 247 247 247
245 245 245 245 245 244 240 253 255 253 246 241 245 252 255 255 252 248 240 237 238 241 246 252 255 255 255 233 218 191 141 102 77 65 64 74 94 118 137 155 178 199 200 195 191 188 184 182 181 180 177 178 180 178 183 184 185 182 181 180 177 176 175 178 183 189 185 172 151 150 157 158 159 150 131 134 143 142 150 155 155 158 165 177 184 193 201 205 203 197 187 177 170 167 164 157 156 160 157 152 150 148 146 145 143 141 141 142 138 135 136 136 137 136 140 144 145 146 147 147 148 148 149 148 146 145 143 145 146 150 153 154 154 156 159 161 164 163 163 163 161 162 163 164 166 167 169 170 170 173 179 180 170 163 157 155 155 156 161 165 167 168 168 169 168 167 167 167 166 166 167 168 169 169 169 170 170 170 173 177 178 179 182 184 185 186 185 184 179 171 165 159 158 156 156 160 163 166 169 170 171 168 167 166 164 162 161 158 157 156 154 152 148 139 132 131 135 142 144 148 155 158 163 171 186 201 212 227 238 243 243 247 251 249 246 245 244 241 238 240 242 244 241 239 242 244 247 253 250 244 240 240 240 240 240 240
248 248 248 248 248 247 239 249 254 245 239 239 248 255 255 255 251 246 236 233 237 242 248 253 255 255 246 222 199 168 117 82 65 60 67 84 111 138 155 169 188 204 201 191 187 183 180 179 180 183 181 182 183 182 185 183 184 183 183 182 180 180 181 184 187 191 185 169 153 155 164 167 167 157 137 141 150 149 158 162 162 166 173 182 187 196 203 203 198 188 174 163 155 151 148 141 141 148 147 144 145 146 147 146 144 143 144 144 139 136 136 136 137 137 141 145 145 146 146 146 146 145 146 145 144 143 145 147 147 150 152 152 152 155 160 162 167 166 166 166 163 163 165 166 167 168 170 171 169 169 173 178 171 164 157 155 154 154 158 164 166 166 167 167 166 164 164 164 164 165 166 169 170 170 170 171 171 170 173 178 180 182 185 188 189 189 188 186 181 170 164 156 154 152 152 158 161 164 167 169 170 165 164 163 162 159 158 157 156 157 158 157 154 143 135 131 133 138 139 146 153 154 157 162 176 188 198 214 227 235 239 246 254 253 250 248 246 241 234 236 239 241 240 240 246 246 247 253 252 246 238 238 238 238 238 238
248 248 248 248 248 248 240 247 250 241 237 239 249 255 255 254 246 241 233 233 239 246 252 254 255 250 231 204 175 140 95 67 58 62 77 101 130 157 173 183 195 204 198 186 181 177 176 178 181 186 187 189 190 188 188 184 184 181 180 178 177 179 180 184 186 190 182 167 153 159 171 175 174 161 138 140 149 148 156 161 163 167 175 183 187 194 198 194 186 174 158 147 140 137 135 131 132 140 139 138 140 142 144 143 142 143 144 144 138 135 136 136 137 138 141 145 145 145 145 145 144 144 145 144 144 144 148 150 150 153 155 155 154 156 162 164 169 168 168 167 165 164 166 166 167 168 170 171 169 167 170 177 173 166 159 156 155 154 158 165 166 166 165 165 164 163 162 162 162 163 164 167 168 169 169 169 169 168 172 177 179 182 185 189 190 190 189 187 182 172 166 157 154 152 152 158 161 163 167 170 172 168 169 168 166 162 159 156 153 154 156 156 154 144 136 132 131 134 136 144 150 150 150 153 165 177 189 206 221 231 237 246 255 254 252 249 247 241 234 236 240 243 242 243 247 245 246 251 250 246 241 240 240 240 240 240
247 247 247 247 247 247 242 245 246 237 236 241 252 255 255 254 245 238 232 235 241 248 254 254 251 239 214 182 147 113 77 57 57 69 92 121 151 176 189 195 199 200 191 180 173 171 171 175 181 188 190 192 193 192 190 185 183 180 178 176 175 175 177 181 182 186 177 163 154 164 177 185 183 168 143 143 151 149 157 165 167 173 180 187 190 194 195 187 177 162 144 134 129 127 127 125 128 135 135 135 136 138 140 139 138 140 143 142 136 134 135 135 137 138 141 146 146 146 146 147 147 146 147 147 147 148 152 154 154 157 158 158 157 159 164 166 170 169 167 167 164 164 165 165 166 166 168 170 168 166 167 177 176 170 162 159 157 156 160 166 166 165 164 164 164 162 162 161 161 163 165 168 169 170 169 168 168 168 172 177 180 183 186 189 190 191 190 187 183 175 168 159 156 154 155 161 164 167 171 174 177 176 177 177 175 169 165 158 153 154 155 156 154 146 138 133 130 131 133 142 147 146 144 145 154 165 179 198 214 225 233 244 253 253 252 249 246 241 235 237 241 245 246 245 247 244 244 249 249 246 242 242 242 242 242 242
246 246 246 246 246 246 247 249 246 238 238 243 254 255 255 252 244 239 236 239 246 252 254 250 240 223 193 157 119 88 62 54 63 83 111 141 170 190 198 199 197 193 184 173 168 167 169 175 180 187 187 188 189 190 189 186 185 182 180 179 176 175 175 176 177 180 170 159 155 168 181 188 186 173 152 154 163 165 173 182 185 190 195 198 197 197 194 182 170 154 135 126 123 123 126 127 130 137 137 138 138 139 140 139 138 139 142 142 136 135 136 135 137 140 143 147 147 147 148 148 148 149 150 149 150 152 155 157 157 156 156 156 156 159 164 166 169 166 164 164 162 161 163 163 163 163 165 167 167 165 166 177 181 177 170 166 164 161 163 167 167 166 164 164 163 162 162 162 163 165 167 170 172 173 172 172 172 172 175 179 182 185 187 189 189 189 188 185 180 173 167 159 157 156 158 165 168 171 175 179 182 181 183 184 182 177 172 165 158 158 159 159 158 151 143 136 130 128 129 139 144 143 140 138 145 154 167 186 202 215 227 239 250 252 252 250 247 241 236 237 241 244 246 246 247 244 243 247 249 247 241 240 240 240 240 240
245 245 245 245 245 245 250 251 244 240 242 248 255 255 255 247 239 235 235 241 248 254 254 245 229 205 172 134 94 69 54 55 71 98 129 159 184 200 204 201 193 186 177 170 167 168 172 178 183 187 185 183 183 184 183 183 184 183 183 183 181 178 177 175 175 176 166 155 155 168 179 183 176 161 142 143 153 158 169 180 187 192 198 200 197 196 189 176 164 147 129 122 121 122 125 127 131 136 137 138 137 137 137 136 134 135 136 137 135 135 137 138 139 140 142 146 146 147 148 149 149 151 152 151 153 154 157 158 159 160 160 160 160 162 165 166 167 164 163 163 162 161 162 163 163 163 165 167 168 167 168 180 187 184 177 172 169 166 167 169 169 168 167 166 165 165 165 165 166 168 170 171 172 172 171 169 169 169 170 174 176 178 181 181 181 182 182 180 178 174 170 163 162 163 166 171 174 176 179 182 184 184 188 189 189 184 180 171 162 160 159 158 157 152 145 138 129 126 127 138 143 143 140 137 141 150 163 182 197 208 222 235 246 250 251 249 245 241 236 237 240 244 247 248 247 245 243 245 248 248 242 241 241 241 241 241
239 239 239 239 239 240 255 255 252 250 253 255 251 246 239 233 230 232 243 252 255 255 255 239 210 177 144 109 73 54 51 66 89 119 149 175 191 196 197 192 184 178 174 174 174 175 179 184 187 186 183 181 181 181 181 185 185 185 185 185 185 182 181 180 179 178 167 160 160 171 178 176 163 148 135 142 153 161 172 185 194 201 206 205 199 194 185 170 157 141 125 121 121 123 127 130 134 137 136 136 135 135 135 136 139 139 140 139 139 141 143 142 141 140 142 145 147 148 149 150 151 153 153 153 154 156 157 157 159 160 161 161 162 162 161 161 161 161 161 161 161 162 162 162 162 162 162 163 165 165 165 178 190 189 184 180 177 173 171 170 169 167 166 166 167 168 168 168 169 171 171 171 171 169 168 166 166 168 168 171 172 174 175 173 173 175 176 175 176 177 175 170 169 169 172 172 172 173 174 177 179 184 188 190 191 188 184 171 160 157 155 154 154 155 152 145 134 128 129 137 140 142 140 137 139 149 165 181 193 203 218 230 237 243 246 246 243 242 243 241 241 243 247 249 244 242 240 241 243 245 246 247 247 247 247 247
236 236 236 236 236 236 255 255 255 255 255 255 250 242 236 233 234 237 249 255 255 254 242 221 186 149 119 92 63 52 59 83 109 138 165 186 195 195 192 186 178 172 172 176 176 179 183 188 190 188 185 184 184 184 182 186 185 184 184 184 185 185 187 187 186 185 174 169 170 178 182 177 164 152 147 157 167 174 182 192 199 203 206 200 193 186 176 161 149 135 121 119 120 122 127 131 135 136 135 135 133 134 135 138 143 144 145 142 143 145 146 144 143 142 143 146 148 148 149 150 151 152 152 152 154 156 157 158 159 159 159 160 161 161 158 157 159 161 161 161 163 163 163 162 162 163 162 162 164 164 163 176 190 192 189 186 182 178 173 169 167 165 164 164 166 167 166 166 167 168 169 168 168 168 166 165 166 168 169 171 172 174 175 173 173 174 176 176 177 180 178 174 172 172 174 172 171 171 171 173 176 182 187 189 191 188 184 171 159 156 155 155 155 159 158 151 140 132 131 137 140 142 141 139 140 149 165 180 188 196 210 220 226 234 239 241 241 242 247 244 243 243 246 247 242 239 237 239 241 242 246 247 247 247 247 247
234 234 234 234 234 235 252 255 252 252 255 255 253 246 241 238 238 240 251 255 252 243 227 204 166 127 100 81 60 56 72 101 129 157 181 198 202 196 192 185 175 168 169 176 177 180 184 189 191 188 188 187 187 186 183 187 186 184 182 182 184 183 186 187 186 184 175 173 177 186 190 185 174 165 162 169 177 181 185 192 197 197 197 189 181 172 161 147 136 124 114 114 117 121 128 134 138 138 136 136 134 134 136 140 147 148 147 142 141 143 143 142 142 142 143 145 147 148 149 150 151 152 152 153 155 158 159 159 161 160 160 160 161 160 156 156 158 163 164 164 165 166 165 165 165 165 163 163 165 165 163 174 188 191 190 188 185 181 175 168 165 163 162 162 164 166 165 164 165 167 166 165 167 167 166 165 167 171 172 174 175 177 178 175 175 176 177 177 180 184 183 179 177 176 177 173 172 171 171 173 175 183 188 190 191 188 185 170 159 157 156 157 159 165 166 161 150 142 141 144 146 148 147 145 145 154 171 184 190 196 206 214 217 225 232 236 237 242 250 249 248 248 251 251 242 238 235 235 236 239 249 249 249 249 249 249
236 236 236 236 236 237 249 249 248 252 255 255 252 243 239 239 242 245 254 254 246 232 210 183 145 107 85 73 62 68 90 123 150 173 191 202 201 193 187 180 172 166 169 177 180 183 187 191 192 188 188 187 186 184 181 185 184 183 181 181 183 182 185 186 186 184 176 175 179 186 187 178 168 164 166 174 180 184 186 188 191 188 186 177 167 157 147 135 126 117 110 112 117 122 129 135 139 138 136 136 133 134 136 141 148 147 145 139 139 141 142 142 142 143 144 145 147 148 149 150 151 152 152 153 155 158 160 160 162 159 158 159 160 158 154 154 156 163 164 165 167 168 168 167 167 168 166 166 168 168 166 175 189 193 193 191 188 184 176 167 164 162 160 160 161 163 162 162 163 165 164 164 165 166 166 166 169 173 174 175 175 177 178 174 174 175 176 178 181 186 185 183 181 181 182 178 176 175 174 174 176 183 187 189 190 188 186 174 164 162 161 161 163 170 172 168 158 150 148 151 152 157 158 157 157 165 180 190 193 194 200 207 210 219 228 233 237 244 253 252 249 248 250 251 243 240 237 235 236 239 250 251 251 251 251 251
238 238 238 238 238 239 247 245 245 250 255 255 248 240 238 241 247 250 255 251 236 216 190 161 124 90 74 66 66 82 108 141 166 184 196 202 198 189 184 179 173 170 174 182 185 188 190 191 191 187 187 186 184 181 179 183 182 182 181 181 183 184 186 187 187 186 179 178 180 184 183 172 162 164 172 179 184 188 188 186 188 182 178 168 158 148 138 129 122 116 112 114 119 123 129 134 138 136 135 135 132 133 136 141 147 145 142 137 138 140 141 142 143 145 146 147 149 149 150 151 152 153 152 153 156 158 160 160 161 158 157 158 159 158 153 153 155 162 164 165 168 170 169 169 169 170 169 168 170 170 170 177 189 194 195 193 191 187 177 165 162 161 160 159 160 162 162 161 162 164 164 163 165 166 167 168 171 174 175 175 175 176 177 174 174 175 176 179 183 188 188 187 187 187 188 184 182 180 178 177 178 184 187 188 189 188 187 178 171 170 168 169 170 176 178 174 166 157 154 155 157 163 166 167 168 174 187 195 196 192 195 200 203 213 223 231 237 245 255 254 251 248 249 249 243 242 239 237 237 240 250 251 251 251 251 251
241 241 241 241 241 241 246 244 243 247 251 254 246 241 241 246 251 253 252 241 221 197 168 138 104 76 64 60 70 92 120 151 173 188 197 199 195 188 184 181 177 175 179 185 187 189 190 190 189 185 185 184 183 180 179 182 181 181 181 181 183 185 187 187 188 186 181 179 180 182 180 169 162 168 178 185 189 192 191 185 185 177 173 161 151 143 135 127 122 117 115 117 121 124 128 132 134 134 133 133 131 133 136 140 146 144 141 137 139 141 142 142 144 145 147 147 149 149 150 150 151 152 152 152 154 157 158 160 161 158 157 158 160 159 155 154 156 162 165 166 169 170 170 170 171 171 170 170 171 171 172 179 190 194 196 195 193 189 179 166 163 162 161 161 161 163 162 162 163 164 164 164 166 166 168 169 172 174 174 175 175 175 175 173 173 174 175 179 184 188 188 188 188 188 189 186 184 183 181 180 180 184 186 187 187 188 188 182 177 176 175 175 176 181 182 178 170 161 156 157 159 165 169 170 172 177 188 195 195 189 188 193 197 207 218 227 235 244 253 254 251 248 248 248 244 242 241 239 239 241 249 250 250 250 250 250
246 246 246 246 246 246 243 238 235 238 242 248 250 250 252 255 255 255 244 223 199 171 141 112 87 68 61 62 81 111 136 161 178 189 193 193 191 188 185 183 180 178 179 181 184 187 187 187 187 187 187 185 184 181 179 177 177 178 178 179 182 187 188 188 188 186 182 178 178 178 176 167 163 175 186 188 191 194 189 178 175 165 160 149 141 136 131 126 123 121 120 121 123 124 127 128 129 130 131 131 131 133 136 139 141 139 135 135 138 141 142 143 146 148 149 148 148 148 149 149 149 150 150 150 151 154 157 160 161 158 158 159 160 160 158 158 159 164 166 167 169 171 171 172 173 174 174 175 175 176 177 183 190 193 194 193 192 188 179 166 164 163 163 162 161 161 161 162 162 162 163 164 165 166 168 170 171 171 171 171 172 172 173 174 174 174 176 179 184 185 185 186 186 187 188 189 188 187 185 184 183 183 184 184 185 186 187 187 185 184 183 183 182 182 180 177 170 163 157 159 163 169 174 177 179 181 187 193 194 184 180 186 193 203 213 224 233 242 247 250 249 246 245 247 248 246 244 243 243 245 245 245 245 245 245 245
247 247 247 247 247 247 242 237 236 237 240 245 250 253 255 255 255 253 234 208 180 150 120 93 75 64 63 68 98 134 158 178 189 194 193 190 187 185 184 184 183 181 182 183 185 186 186 184 184 185 186 186 185 183 181 178 177 177 177 177 180 185 187 187 188 188 185 182 179 177 174 167 167 181 191 190 191 190 183 169 164 152 147 137 131 128 126 124 123 123 124 125 126 127 128 128 129 129 130 130 130 132 135 138 139 138 135 135 139 141 142 144 146 147 148 148 148 148 148 149 149 149 150 149 151 152 155 159 160 159 160 161 162 162 160 160 162 165 167 168 169 171 171 172 173 174 175 175 175 176 178 182 187 188 190 190 190 187 179 166 164 164 164 163 162 162 162 162 162 162 163 164 164 166 168 170 170 170 171 171 171 171 172 173 174 174 175 179 184 185 185 186 186 187 188 189 188 187 186 185 185 184 184 184 184 185 186 187 187 188 187 187 186 185 183 181 176 170 165 165 167 173 178 182 185 187 191 197 197 186 178 182 188 196 206 217 228 237 244 249 249 247 246 246 247 246 245 244 244 245 244 244 244 244 244 244
247 247 247 247 247 247 241 236 236 236 239 245 251 255 255 255 255 247 223 194 163 132 103 80 66 61 65 74 110 150 172 188 196 196 192 187 184 184 183 184 184 184 184 184 186 186 184 182 182 184 186 187 186 185 183 179 177 177 176 177 179 185 186 187 188 188 187 183 179 175 172 167 170 185 194 191 190 188 179 162 157 144 139 130 126 125 125 125 125 127 129 129 130 130 130 129 128 129 130 130 130 132 135 137 138 137 135 136 139 142 143 144 146 147 148 148 148 149 149 149 150 150 150 150 151 152 155 158 160 160 161 162 163 163 161 162 163 166 167 168 169 170 171 172 173 174 175 176 175 176 178 181 184 185 187 188 188 186 178 166 165 165 166 165 164 163 164 164 164 163 164 165 165 166 168 170 171 170 170 170 171 171 172 174 174 174 176 180 184 184 185 186 186 187 187 189 189 188 187 186 186 184 183 183 183 184 185 187 189 190 190 189 189 186 185 183 180 175 170 169 171 176 181 185 188 190 193 198 199 186 177 179 184 190 200 211 223 233 240 246 248 247 246 246 247 246 245 245 245 245 243 243 243 243 243 243
247 247 247 247 247 246 240 236 236 236 238 245 253 255 255 255 255 239 211 179 147 116 89 69 59 58 66 78 119 161 181 194 198 195 189 183 181 181 182 184 185 186 186 185 186 185 183 181 180 182 185 186 187 186 185 180 178 177 176 177 179 184 186 187 188 188 188 185 179 175 172 169 175 190 197 192 190 186 175 158 151 138 133 126 123 123 124 126 127 130 133 133 132 131 131 129 128 129 130 129 129 132 134 136 137 137 135 137 140 142 143 144 146 147 148 148 149 150 150 150 150 150 151 151 151 152 154 158 160 161 162 163 163 163 163 164 165 167 168 169 169 170 171 172 173 174 175 175 175 176 178 180 181 182 184 185 186 185 178 167 166 167 167 167 166 165 166 166 165 165 165 166 166 167 169 170 171 170 171 171 171 171 172 174 174 175 176 180 185 184 184 186 186 186 187 188 189 188 187 187 186 184 183 182 182 183 184 187 190 191 191 191 190 187 185 184 182 178 172 171 172 176 180 185 189 190 192 197 198 186 175 176 180 185 194 205 217 227 234 243 246 247 246 246 247 246 245 245 245 245 242 242 242 242 242 242
247 247 247 247 247 246 240 236 236 236 238 246 255 255 255 255 248 229 197 164 132 102 78 60 55 58 68 82 127 170 187 196 197 193 186 180 179 181 182 185 186 187 186 185 185 184 182 180 179 182 185 186 187 187 186 181 178 178 177 177 179 184 185 186 188 188 189 186 180 175 172 172 180 194 199 191 187 182 171 152 145 132 128 122 120 121 124 127 129 132 135 135 134 133 132 129 128 129 130 129 130 132 134 136 136 136 135 137 140 142 143 144 146 147 148 148 149 150 150 150 151 150 151 151 152 152 154 158 160 162 164 164 164 164 164 166 167 168 169 169 169 169 170 171 172 173 175 175 174 175 177 179 178 178 181 182 183 183 178 168 167 168 169 169 168 167 167 167 166 166 166 167 167 168 169 171 171 170 170 171 171 172 172 175 175 176 177 181 185 184 184 185 185 186 186 188 188 188 188 187 187 184 183 182 182 182 184 187 190 192 192 192 190 187 185 184 183 180 174 172 173 176 180 184 188 189 191 195 197 186 174 174 178 182 190 200 211 222 229 239 244 246 246 246 248 246 245 245 245 245 242 241 241 241 241 241
246 246 246 246 246 246 241 237 238 238 241 248 255 255 255 252 236 213 181 149 118 91 69 56 53 59 71 86 133 175 191 197 196 190 184 179 178 180 182 185 186 187 187 186 185 184 182 179 179 180 184 186 188 189 187 183 180 178 177 176 178 182 184 185 188 189 190 187 180 175 173 175 185 196 196 187 181 174 162 145 138 126 122 118 118 119 123 127 129 132 136 136 136 134 133 131 130 130 130 129 130 131 133 135 137 137 136 138 140 142 144 145 146 146 147 148 149 150 150 151 152 151 152 153 153 153 154 158 160 164 167 166 166 165 166 167 168 169 169 170 169 169 170 170 171 172 173 173 173 174 176 176 175 175 177 179 181 182 177 169 169 170 171 171 170 170 170 169 168 168 167 167 167 167 168 169 169 169 170 170 171 172 173 175 175 176 177 181 185 185 185 186 186 186 186 186 187 186 187 187 186 185 184 183 182 183 183 186 188 190 190 190 189 187 185 185 185 182 178 174 173 175 178 181 185 187 190 194 197 188 176 175 176 178 185 194 205 215 224 235 242 247 247 247 247 245 245 245 244 244 243 243 243 243 243 243
243 243 243 243 243 244 245 244 247 245 247 252 254 255 252 240 220 195 167 137 108 83 65 55 51 57 71 87 134 176 192 198 196 190 184 179 177 177 179 183 185 187 188 189 187 185 182 179 178 177 181 184 187 189 189 186 183 180 177 177 177 179 181 184 187 189 191 190 182 176 175 179 190 198 196 186 180 171 159 143 136 126 122 118 118 119 122 126 128 131 135 136 136 136 135 134 133 133 132 131 131 131 133 136 140 141 141 141 143 144 145 146 146 145 145 147 149 151 151 152 153 153 153 155 155 155 155 158 161 165 168 167 166 165 165 167 168 169 169 169 168 168 168 169 169 170 169 169 169 170 171 171 171 172 175 177 180 182 178 171 171 171 172 172 173 174 173 172 171 170 169 168 168 168 168 169 170 171 172 173 174 174 175 175 176 176 177 181 185 187 187 187 187 186 185 184 184 184 185 185 186 186 186 185 184 184 184 184 185 187 188 188 187 188 188 188 188 185 181 175 172 173 173 176 179 183 188 192 195 189 179 176 173 175 180 187 198 209 221 233 241 247 249 248 245 243 243 244 243 244 247 247 247 247 247 247
244 244 244 244 244 244 245 244 246 245 248 254 255 255 249 232 208 180 151 122 96 74 60 53 52 59 74 91 138 179 192 196 194 188 183 179 178 178 180 183 184 186 187 187 186 184 181 180 178 177 181 183 186 189 189 187 184 181 179 178 179 179 181 183 186 188 190 190 181 177 176 182 194 199 194 183 176 167 155 140 133 123 120 117 118 119 122 126 128 131 135 136 136 136 136 135 134 134 132 132 131 132 133 137 140 141 141 142 142 143 145 146 146 145 145 147 149 151 151 152 154 154 154 156 156 156 156 158 161 166 168 168 166 166 166 168 170 170 170 170 168 167 168 169 169 169 169 168 168 169 170 170 169 169 172 174 177 180 178 173 173 174 174 174 175 176 175 174 173 172 171 170 170 170 170 171 171 172 173 174 175 176 177 177 178 178 179 182 185 187 187 186 186 185 184 183 183 184 184 185 185 186 185 185 184 184 185 184 186 187 188 188 188 188 188 188 188 187 183 177 174 173 173 174 177 180 185 189 193 189 180 176 173 174 178 184 193 203 214 227 237 245 249 249 247 245 244 245 244 244 247 247 247 247 247 247
244 244 244 244 244 244 245 243 245 245 250 255 255 255 245 223 195 164 135 108 85 67 57 53 55 62 77 96 141 180 191 194 191 186 182 181 180 180 181 183 183 184 185 186 184 183 182 181 179 178 181 183 185 189 189 187 185 182 180 180 180 179 180 182 185 187 189 189 181 177 177 185 197 199 191 179 172 162 151 137 130 121 119 117 118 119 123 126 128 131 134 135 136 136 136 135 135 135 133 133 132 132 134 137 140 141 142 142 142 143 144 146 146 144 145 147 149 151 152 153 154 154 155 157 157 157 156 159 162 167 169 168 166 166 167 169 171 171 171 171 168 167 168 168 169 169 168 168 168 168 168 168 167 167 169 172 175 178 177 175 176 176 176 177 178 178 178 176 175 175 174 172 173 172 172 172 172 174 175 176 177 178 179 179 179 179 180 183 186 187 186 186 185 184 184 182 182 183 184 184 184 185 185 185 185 185 185 185 185 187 188 188 188 188 189 189 189 188 185 179 175 174 173 173 175 177 182 186 190 188 182 177 174 173 176 181 188 197 208 221 233 242 248 250 248 246 245 244 243 244 247 247 247 247 247 247
244 244 244 244 244 244 245 242 245 246 252 255 255 253 239 212 181 148 120 95 76 62 56 55 58 65 81 100 143 180 190 192 189 185 182 182 182 182 182 183 182 182 183 184 183 183 182 182 180 178 181 182 185 189 189 187 185 183 181 181 181 179 180 182 185 187 188 188 181 178 177 186 198 197 186 173 166 155 144 132 126 118 117 116 118 119 123 126 127 130 133 134 136 136 137 136 136 136 135 134 134 133 135 138 141 142 142 142 142 143 145 146 146 144 145 146 149 151 152 153 155 155 155 158 158 158 157 159 162 167 169 168 167 166 168 170 171 172 172 171 169 167 168 168 168 168 167 167 167 167 167 166 165 165 167 170 173 176 177 177 178 178 178 179 180 181 180 178 177 177 176 174 174 173 173 172 173 174 175 176 177 179 180 180 180 180 181 183 186 187 187 186 185 184 183 182 182 182 183 183 183 185 186 185 185 186 186 184 184 185 186 187 187 188 189 189 189 189 187 182 177 175 172 172 172 175 179 183 188 188 183 179 174 173 174 177 184 192 202 216 229 240 247 250 248 247 245 244 243 244 247 247 247 247 247 247
243 243 243 243 243 243 245 241 244 247 255 255 255 250 232 201 166 133 106 84 68 58 55 58 61 68 84 104 145 180 188 189 187 184 183 184 184 183 184 184 182 181 182 183 182 182 182 182 181 179 181 182 185 188 188 188 186 184 182 182 182 179 180 182 184 186 188 188 181 177 177 187 198 193 179 166 158 148 137 127 122 115 115 115 118 119 122 125 126 129 132 134 136 136 137 137 137 137 135 135 134 134 135 139 142 143 142 142 142 143 145 147 146 144 144 146 149 151 152 153 155 156 156 159 159 159 158 159 163 168 170 169 167 166 168 170 171 172 172 172 169 167 168 168 168 167 166 166 166 166 166 164 163 163 165 168 171 174 176 178 180 180 180 180 182 183 182 180 179 179 178 175 175 174 173 172 172 174 175 176 177 179 180 180 180 181 181 183 186 188 188 187 186 185 184 182 181 182 182 182 182 185 186 186 186 186 186 183 183 184 185 185 185 188 189 189 190 190 189 184 179 176 173 171 171 173 177 181 186 188 185 181 175 173 173 175 180 187 197 210 224 237 246 250 248 247 245 243 241 243 248 248 248 248 248 248
245 245 245 245 245 245 243 236 238 244 255 255 255 250 227 192 154 120 91 72 60 55 56 61 68 75 91 110 148 181 186 185 183 181 182 185 186 187 187 185 181 179 179 180 180 181 182 184 183 182 182 182 183 186 186 185 185 184 185 185 186 183 182 183 184 185 185 184 178 175 174 184 193 185 169 155 147 138 129 120 116 111 112 114 118 120 123 125 127 129 131 133 135 136 136 135 135 137 135 135 135 136 137 139 140 141 139 139 141 142 145 147 147 145 145 146 149 151 151 153 155 155 156 159 159 159 159 160 163 168 170 169 167 165 169 170 171 172 173 172 169 167 168 168 168 168 167 168 168 168 167 165 163 162 163 165 168 171 175 180 182 183 183 183 183 184 183 182 182 181 180 177 176 175 174 173 172 173 173 174 176 178 179 179 180 181 182 183 186 188 187 186 186 185 185 183 183 183 183 182 181 183 184 185 185 186 186 185 184 184 185 186 186 187 187 187 189 190 189 187 183 180 176 173 172 173 175 178 184 187 186 183 179 176 175 175 178 183 189 203 217 232 243 250 251 250 247 243 242 244 246 246 246 246 246 246
247 247 247 247 247 247 239 229 230 240 253 255 255 246 218 179 141 107 78 61 53 53 58 65 74 81 97 117 150 181 184 181 179 179 182 185 189 191 189 186 180 177 176 176 178 181 184 186 186 185 183 181 181 183 182 182 183 185 187 189 190 188 185 184 185 184 183 180 174 172 170 179 184 174 157 143 136 129 122 114 111 107 110 114 118 122 124 126 127 129 130 132 135 134 134 133 133 135 135 135 136 137 139 140 139 138 135 137 140 142 146 149 148 146 146 147 149 150 151 152 154 154 156 158 158 158 159 161 163 168 169 168 166 165 169 170 171 172 173 173 170 168 169 169 169 169 169 170 170 170 168 166 163 162 162 164 166 169 174 181 184 185 186 185 184 184 185 184 184 183 182 180 177 176 176 174 173 172 172 173 174 176 178 179 180 180 182 183 185 186 186 185 185 186 186 186 185 185 184 182 180 180 182 183 185 186 187 187 185 186 187 186 186 185 185 185 187 189 189 189 187 184 180 177 175 173 172 175 180 183 185 184 182 179 177 176 177 179 181 194 209 224 237 247 253 253 249 243 242 244 243 243 243 243 243 243
247 247 247 247 247 247 238 229 231 243 255 255 255 235 202 161 123 93 68 55 52 55 63 71 80 85 102 121 151 181 182 179 178 180 183 186 189 190 188 184 179 176 176 176 179 183 186 188 188 186 184 181 180 182 181 181 183 186 189 191 193 190 187 186 187 186 183 178 172 169 166 171 173 160 145 133 128 122 117 111 109 107 110 115 119 122 124 125 126 127 129 131 133 133 133 132 133 135 135 136 137 138 141 142 140 139 136 137 141 144 148 151 150 148 147 147 149 150 151 152 154 154 155 158 158 158 160 161 162 166 167 167 165 164 167 169 169 171 172 172 169 168 169 169 169 169 169 170 170 169 168 165 163 162 162 163 165 167 173 182 185 186 187 186 185 185 185 185 185 184 183 181 178 177 176 175 173 172 171 172 174 175 177 178 179 180 182 183 185 186 185 185 186 186 186 186 186 185 183 181 179 178 180 181 183 185 186 186 184 184 186 185 186 185 185 185 187 189 190 190 190 187 183 179 177 174 172 174 178 182 186 186 185 181 179 176 176 176 177 188 201 216 231 244 252 254 250 244 242 243 243 243 243 243 243 243
247 247 247 247 247 247 237 230 233 247 255 255 248 221 183 143 109 82 62 52 52 59 67 75 83 88 107 125 153 183 182 179 180 181 184 186 187 188 185 180 177 176 177 177 180 185 188 190 190 188 185 181 180 181 181 181 183 186 190 192 194 193 189 187 189 187 183 177 168 164 159 161 159 146 133 127 123 119 115 110 109 108 111 116 120 123 124 125 126 127 128 131 132 132 132 131 132 135 135 136 137 139 142 143 141 140 136 139 144 147 151 153 152 151 149 149 150 151 151 152 153 154 155 157 158 158 160 160 161 164 164 164 163 162 165 166 166 169 171 171 169 168 169 170 170 170 170 171 171 170 168 165 164 163 163 164 165 167 173 183 186 187 188 186 185 185 185 186 185 184 184 182 179 178 177 176 174 173 172 173 174 175 176 178 178 179 181 183 184 185 185 185 186 187 187 187 186 185 183 180 178 177 178 180 182 184 185 185 184 184 185 185 186 185 185 186 187 189 189 191 192 190 187 183 180 176 173 174 176 181 187 187 186 183 181 178 177 175 174 182 194 207 223 239 251 255 252 245 243 243 243 242 242 242 242 242
248 248 248 248 248 248 236 230 236 251 255 255 238 204 164 126 96 76 60 53 56 63 71 77 82 86 105 121 147 179 179 178 180 183 185 186 186 186 182 178 175 176 177 177 181 186 189 191 191 189 185 181 181 181 179 179 181 185 189 191 194 194 189 187 189 188 183 175 163 158 152 149 143 131 123 122 120 117 116 112 112 111 114 118 121 123 123 123 124 125 126 129 130 130 130 129 131 134 135 136 137 140 144 145 142 141 137 140 146 150 154 156 155 153 152 150 151 151 151 152 153 153 155 157 157 158 161 161 160 161 161 161 161 160 163 164 163 166 168 169 168 169 169 170 170 171 171 172 172 171 169 167 166 166 166 167 167 168 174 184 186 187 187 186 185 184 185 186 185 184 184 183 180 179 178 177 175 173 172 173 173 174 175 176 177 178 180 182 184 184 184 185 186 188 189 189 188 186 184 181 178 176 177 179 181 183 184 185 184 183 185 185 185 185 184 185 186 187 187 190 192 192 190 186 183 178 174 173 174 178 185 187 187 185 183 180 179 176 173 179 188 199 216 234 249 255 254 247 243 243 243 243 243 243 243 243
249 249 249 249 249 248 235 229 238 254 255 250 226 186 144 109 85 70 59 55 59 67 73 76 78 81 101 113 137 171 172 174 178 182 185 184 184 184 180 176 175 177 178 178 181 186 189 190 190 188 185 181 181 180 178 177 179 183 187 188 191 192 186 184 187 186 180 171 156 150 143 137 127 117 114 117 118 117 117 114 115 115 118 121 123 124 122 121 122 122 124 126 127 127 128 127 129 133 135 135 137 140 144 145 141 141 137 141 148 152 156 158 157 156 155 152 152 152 152 153 153 154 155 157 157 159 162 161 159 158 158 158 159 158 161 161 160 163 166 167 167 168 169 170 170 171 172 173 173 172 170 169 170 170 171 171 171 170 175 184 186 187 187 186 184 183 184 185 185 184 184 183 180 180 179 178 177 174 173 173 173 173 173 174 175 176 179 181 183 184 184 185 187 189 191 192 191 189 186 183 180 178 178 179 181 183 184 185 184 183 184 184 185 184 184 184 184 184 184 188 190 191 190 187 183 178 174 173 171 175 183 186 187 186 185 183 181 178 173 177 183 192 209 229 246 255 255 248 244 243 243 243 243 243 243 243
246 246 246 246 246 246 237 236 248 255 255 246 212 168 126 93 74 64 59 58 63 70 75 76 75 79 101 109 133 171 173 177 181 185 186 184 182 179 177 175 176 181 182 182 184 187 188 187 186 184 183 181 182 181 179 178 180 182 184 184 187 187 182 180 185 187 182 172 152 145 137 129 117 108 108 116 116 116 117 116 117 118 120 122 124 123 121 120 120 120 122 125 125 126 127 128 131 134 135 135 136 139 143 144 142 142 140 144 151 155 158 159 157 156 155 153 153 153 153 154 154 155 156 157 158 160 162 160 158 157 157 157 158 158 159 159 158 160 163 164 166 168 169 169 170 171 172 172 172 171 169 169 171 172 174 174 174 173 178 185 186 186 187 186 185 184 185 186 186 185 184 184 181 180 180 179 178 177 176 175 174 173 173 173 173 175 177 179 182 184 185 186 188 190 191 191 191 189 187 184 182 181 181 181 182 182 183 182 181 181 181 182 183 184 185 186 185 184 183 185 187 189 188 186 182 179 177 175 172 176 184 185 185 184 184 182 180 178 175 177 181 188 204 223 240 251 255 249 243 242 245 246 246 246 246 246
244 244 244 244 244 244 238 241 255 255 255 239 199 152 111 82 66 60 60 62 66 72 76 76 73 78 103 106 132 172 176 180 184 187 186 183 179 176 175 174 178 184 186 186 186 187 186 184 183 180 180 180 183 183 181 180 180 181 181 180 182 182 177 177 183 187 183 173 148 140 132 122 109 101 104 115 116 115 117 117 118 119 121 123 124 122 119 119 119 119 122 124 124 125 127 129 132 135 134 134 135 138 141 144 142 143 142 146 154 158 160 160 158 157 156 153 154 154 154 154 155 155 156 157 158 160 162 160 158 156 156 156 158 158 158 158 156 158 161 162 165 167 168 169 170 170 171 171 171 170 169 169 172 174 176 176 176 176 179 186 186 186 186 186 185 185 185 186 185 184 184 183 182 180 179 179 178 178 177 176 174 173 173 172 172 174 176 179 182 184 185 187 189 190 192 191 191 189 188 186 185 184 183 183 182 182 182 180 179 179 180 181 182 185 186 187 186 184 183 184 185 187 187 185 182 180 180 177 174 177 184 184 182 182 182 181 179 178 177 177 179 185 199 218 234 247 254 249 242 240 246 247 247 247 247 247
243 243 243 243 243 243 237 242 255 255 255 230 187 140 100 74 62 59 61 63 68 73 76 76 73 80 106 106 132 174 178 182 185 187 185 181 177 174 173 174 180 187 188 187 186 186 185 181 180 178 180 181 185 184 182 180 179 179 179 177 179 180 175 175 182 187 184 173 145 135 128 116 103 97 101 115 117 115 118 118 119 120 121 122 124 121 119 119 119 119 122 124 123 124 126 128 131 134 134 134 135 137 141 143 142 143 144 149 156 160 162 162 159 158 158 154 155 154 154 154 154 155 156 157 158 159 162 160 157 155 155 156 157 158 158 158 156 157 160 161 164 167 168 169 170 171 171 171 171 170 169 170 173 175 177 178 177 177 180 186 186 185 185 185 185 184 184 185 184 183 183 183 182 180 179 179 179 178 178 176 175 173 172 172 172 174 176 179 182 183 185 186 188 190 191 191 191 190 189 188 187 186 185 184 182 182 182 180 179 180 180 181 183 185 187 187 187 185 183 183 185 186 187 186 184 182 181 178 174 177 184 184 182 182 182 181 180 179 177 176 177 181 194 213 229 244 253 249 242 240 246 246 246 246 246 246
242 242 242 242 242 242 237 243 255 255 250 220 175 128 91 68 59 58 62 65 70 75 77 77 74 84 112 108 135 178 181 184 185 185 183 178 174 172 173 174 182 189 190 188 185 185 183 179 178 176 179 181 185 185 183 180 178 177 176 174 175 176 172 173 181 188 185 173 143 132 125 112 99 94 100 115 117 116 119 118 119 119 121 121 123 121 119 119 119 120 122 124 122 123 126 127 131 134 134 134 135 137 141 143 142 144 145 151 158 161 163 163 160 159 159 155 155 154 154 154 154 154 155 156 157 159 162 159 157 155 154 155 157 158 158 158 156 157 158 160 163 167 168 168 169 170 171 171 171 170 169 170 173 175 177 178 178 177 181 186 186 185 185 185 184 183 183 183 183 182 182 182 182 180 179 179 179 179 178 177 175 174 173 172 172 174 177 179 182 183 184 186 187 189 190 190 191 191 190 190 189 188 186 185 183 182 182 180 180 180 181 182 184 186 187 188 187 185 183 183 184 186 187 187 185 184 183 180 176 179 184 184 182 182 182 181 180 179 177 176 175 178 190 207 224 239 250 248 242 239 245 246 246 246 246 246
243 243 243 243 243 243 235 246 255 255 239 205 158 114 80 62 58 60 64 67 72 75 76 76 75 90 120 109 137 182 185 187 187 186 182 178 175 175 178 181 188 194 191 187 185 185 183 178 178 178 181 180 181 174 165 155 150 148 145 144 149 161 163 166 178 188 188 176 142 129 122 110 97 94 101 117 118 115 118 115 114 114 116 119 124 123 120 121 122 123 126 128 127 127 129 129 132 135 135 134 135 137 140 143 145 147 148 151 156 159 162 163 161 161 161 158 158 157 156 156 156 155 157 157 158 159 162 159 155 153 153 154 155 155 155 155 155 158 160 160 162 165 166 167 168 169 171 171 171 171 171 171 172 173 175 175 175 175 179 184 185 184 184 184 183 183 183 183 181 181 181 181 181 180 180 180 179 178 178 177 175 174 174 174 175 178 181 183 186 186 186 187 187 187 187 186 185 183 183 183 184 184 184 184 184 184 184 183 182 181 180 181 181 182 182 183 183 183 181 182 184 187 189 189 188 186 185 182 178 180 184 184 183 183 183 183 182 181 178 176 174 175 184 200 219 235 248 249 244 239 245 245 245 245 245 245
243 243 243 243 243 243 236 250 255 254 226 185 137 97 71 59 58 62 67 70 72 73 73 72 73 97 128 106 136 185 191 191 189 185 181 177 177 180 185 191 198 199 192 184 180 179 175 168 168 169 174 174 173 160 145 128 118 114 109 107 115 137 144 150 167 183 187 175 136 122 116 107 97 98 105 120 120 114 116 112 109 110 110 117 124 124 121 122 124 125 129 131 131 131 132 132 135 138 136 135 135 135 138 142 146 150 151 151 153 155 158 161 160 161 162 160 160 159 158 158 158 158 159 160 160 161 161 158 154 152 152 152 153 154 154 155 156 159 160 160 162 164 164 165 167 168 170 171 171 172 173 172 171 172 173 173 173 174 177 182 183 183 182 183 182 182 182 182 180 180 180 180 181 182 181 181 180 179 179 178 177 175 175 176 178 181 184 185 188 188 187 186 185 183 181 180 178 176 176 178 181 183 183 184 184 184 183 182 182 180 178 178 177 177 177 178 180 181 180 180 182 185 188 189 189 188 189 186 183 184 185 184 182 182 183 183 183 183 182 179 175 175 181 193 210 228 245 251 246 240 246 247 247 247 247 247
243 243 243 243 243 244 244 255 255 244 207 161 115 84 66 60 61 65 68 70 70 69 68 68 72 108 139 100 132 188 197 193 187 181 176 174 175 181 190 198 204 202 190 176 165 155 145 132 129 128 134 137 142 138 132 121 114 110 106 103 107 119 122 126 146 169 177 167 123 109 108 103 99 103 108 119 119 114 117 116 114 114 114 117 121 119 119 122 124 125 128 129 128 129 132 134 136 139 139 138 137 137 139 142 143 145 148 149 150 150 152 153 153 156 159 159 159 159 159 160 160 161 162 162 162 162 162 158 156 153 152 153 155 157 158 159 159 159 160 161 164 166 167 168 169 170 171 171 171 171 172 172 171 172 173 173 174 175 177 179 179 179 178 179 179 179 179 179 179 179 180 181 183 183 183 184 184 183 184 183 180 178 176 176 177 179 181 183 184 184 184 183 183 182 181 181 182 183 184 185 186 186 183 180 178 176 176 178 181 182 181 181 181 181 180 181 182 183 181 178 178 180 182 185 186 188 191 190 188 188 186 184 181 181 181 182 183 184 184 182 179 177 180 187 199 219 241 250 248 244 247 247 247 247 247 247
244 244 244 244 244 244 252 255 255 231 189 142 101 77 64 61 63 66 69 69 69 68 67 68 75 117 146 96 128 187 198 194 186 180 176 174 176 183 193 202 205 201 187 169 156 144 130 114 106 101 102 104 110 110 111 106 103 102 101 99 103 112 112 114 135 162 173 165 119 104 104 103 99 103 106 114 116 114 118 118 118 116 116 118 118 116 118 122 124 126 127 129 129 131 134 137 138 140 141 140 140 139 140 143 143 142 144 144 145 144 145 148 148 152 156 158 158 159 159 161 161 162 163 163 163 163 162 159 157 154 153 154 156 158 159 160 160 161 162 164 166 169 169 170 171 171 172 171 169 170 172 172 171 171 172 172 173 174 175 177 177 177 177 177 177 177 177 178 179 179 180 181 183 183 184 185 185 185 184 183 181 179 176 175 176 179 181 182 183 183 183 184 184 183 183 183 184 185 185 184 183 182 178 176 174 175 177 181 186 186 185 185 184 183 182 181 182 182 180 177 176 177 180 182 185 187 189 189 188 188 186 184 182 181 182 182 183 184 184 183 180 178 179 183 192 212 235 247 251 248 246 246 246 246 246 246
245 245 245 245 245 245 255 255 250 217 172 124 89 71 63 61 64 67 69 70 71 71 71 73 82 128 154 95 124 184 197 192 184 180 177 178 181 188 197 204 202 193 175 155 140 128 113 97 90 86 87 89 96 99 102 99 97 96 96 95 99 107 107 107 128 158 171 164 117 103 104 105 102 105 105 111 114 113 117 119 119 118 118 119 119 118 120 124 126 127 127 128 129 131 135 138 140 142 143 143 142 140 140 142 141 139 141 141 142 142 143 145 147 151 155 157 157 157 159 160 161 162 163 163 163 162 162 159 158 155 155 156 157 159 161 161 161 161 162 164 167 169 170 170 171 172 172 171 170 171 172 172 171 171 171 170 171 172 174 176 176 176 175 175 175 175 176 176 178 178 179 180 182 183 184 184 184 184 183 182 181 179 177 176 177 181 182 183 184 183 183 183 183 182 183 184 185 187 187 185 184 182 179 176 174 174 176 180 185 185 184 184 183 182 180 179 180 181 179 176 176 177 178 180 183 185 187 187 188 188 188 186 185 184 184 184 184 184 184 183 180 178 178 180 187 206 230 245 253 252 245 245 245 245 245 245
246 246 246 246 246 246 255 255 245 206 158 111 80 66 61 62 65 68 68 69 70 70 71 74 85 134 159 97 124 184 199 193 185 181 179 180 183 190 198 203 197 184 163 141 126 114 101 86 82 81 84 88 96 101 104 99 96 94 94 93 98 106 106 107 128 159 172 165 118 103 106 108 106 108 107 113 115 113 116 118 118 117 117 118 119 119 122 126 128 129 129 129 129 130 133 137 138 141 143 143 142 140 140 141 138 137 140 141 142 143 144 146 147 151 155 156 156 156 157 158 159 159 160 161 161 160 161 159 158 156 156 157 158 160 161 162 162 161 162 164 166 168 169 170 171 172 173 173 172 172 173 173 170 170 169 169 170 171 173 175 175 175 175 175 175 174 174 175 176 176 177 180 181 182 183 183 183 182 182 181 180 179 178 178 179 183 184 185 185 183 183 182 182 181 181 184 185 187 188 188 187 184 181 178 175 174 175 178 182 183 182 182 182 180 178 178 179 180 179 177 177 177 178 180 182 185 186 187 188 189 188 187 187 186 185 185 185 185 183 182 180 178 177 177 183 202 226 244 254 253 245 244 244 244 244 244
247 247 247 247 247 247 255 255 237 194 145 100 72 62 59 62 66 69 69 69 69 68 68 70 81 129 153 91 119 180 197 194 187 183 181 181 184 190 196 199 190 175 153 131 118 107 95 82 79 80 85 88 96 102 104 98 94 93 93 93 98 107 109 110 130 160 174 167 121 105 108 110 107 109 109 114 116 114 117 118 118 117 117 118 118 120 123 127 128 129 129 129 128 130 132 135 136 139 141 141 140 139 138 139 136 136 139 141 142 143 145 147 148 151 154 155 155 155 156 157 157 157 158 158 159 158 159 158 158 157 157 158 159 160 161 162 162 161 162 164 166 168 169 170 171 172 173 173 173 172 173 173 171 170 170 170 170 171 173 175 175 175 175 175 175 174 174 175 175 175 176 179 180 181 181 181 181 180 180 179 179 178 177 178 180 184 185 187 187 185 184 183 182 181 182 184 185 187 188 188 187 185 182 179 177 176 175 178 181 182 181 181 181 179 177 177 179 179 178 177 177 177 178 179 182 184 184 185 187 188 186 186 186 185 185 186 186 185 184 183 181 178 176 175 181 198 221 241 254 254 245 244 244 244 244 244
247 247 247 247 247 248 255 255 229 182 133 90 66 58 58 61 66 69 69 69 68 67 66 68 77 124 147 86 112 173 195 194 189 186 184 184 186 189 193 195 182 164 142 121 109 100 90 80 78 79 85 88 96 101 103 97 92 91 91 92 98 108 110 111 130 160 173 168 124 108 110 113 109 110 111 116 117 116 117 118 118 117 117 118 118 121 124 127 128 129 129 129 128 130 132 134 135 138 140 140 139 138 137 137 135 135 139 140 142 144 146 147 148 151 153 154 154 153 154 155 155 156 156 157 157 157 158 158 158 158 159 159 160 161 162 162 163 162 163 164 166 168 169 170 171 171 173 173 173 173 173 173 171 171 170 170 170 172 174 175 175 175 175 175 175 174 174 175 175 175 176 178 179 180 180 180 179 178 178 178 177 177 177 178 180 184 186 187 187 185 185 184 183 182 182 183 184 186 187 187 187 185 183 181 180 178 178 179 181 181 181 180 180 179 177 177 178 179 178 177 177 177 178 179 181 182 183 184 185 186 185 185 185 185 185 186 186 186 185 184 182 179 176 175 179 194 216 238 253 255 246 245 245 245 245 245
245 245 245 245 245 245 255 255 227 176 125 83 59 53 55 60 65 68 70 71 70 68 68 69 76 122 144 82 109 169 194 195 190 188 187 186 186 188 191 192 178 159 138 119 107 98 88 79 77 77 83 87 95 101 103 98 93 91 91 92 98 107 111 112 131 161 175 172 128 111 114 116 113 112 111 116 117 115 116 117 118 117 118 118 118 121 124 126 128 129 129 129 128 130 132 135 136 138 139 139 138 135 134 136 136 136 140 141 143 145 147 148 148 149 151 152 152 152 153 154 155 155 155 156 156 156 157 157 158 160 161 162 162 163 162 162 163 163 163 164 166 168 168 169 170 170 171 171 170 171 171 171 170 170 170 170 171 173 174 175 175 175 175 175 176 176 175 175 175 175 175 176 178 178 177 176 176 176 176 176 176 176 176 177 179 184 186 187 188 187 186 185 184 182 182 181 182 183 185 186 187 187 185 184 183 181 180 179 179 179 179 179 179 179 179 179 179 180 178 176 175 175 174 175 177 181 183 184 186 188 186 185 183 183 183 184 184 185 187 186 184 181 178 174 175 187 209 234 250 254 248 247 247 247 247 247
244 244 244 244 244 245 255 255 219 165 115 76 55 53 58 63 67 68 70 70 68 66 66 69 77 123 144 85 111 170 195 196 191 188 186 186 185 186 189 190 175 155 133 115 104 95 86 78 76 76 82 87 94 101 102 98 93 91 91 92 98 105 109 110 128 158 173 171 129 113 116 120 117 116 114 117 118 115 115 116 116 116 116 116 117 120 124 127 128 130 130 130 129 131 133 136 137 138 139 139 138 135 134 135 136 137 141 142 143 145 146 147 147 148 150 151 151 151 152 153 154 154 154 155 155 155 156 157 158 161 163 163 163 164 163 163 164 164 164 165 166 167 168 168 169 169 169 169 169 169 170 169 168 168 168 169 170 172 174 175 175 175 174 175 176 176 175 174 174 174 174 175 177 176 176 175 175 175 175 175 175 176 176 176 179 183 185 186 187 186 185 184 182 181 180 180 180 182 184 185 186 187 186 185 184 183 182 180 181 180 180 180 180 181 181 181 182 182 181 178 177 176 175 175 177 181 184 185 187 189 187 185 183 182 182 182 183 184 186 187 186 183 179 174 172 184 204 230 248 253 247 247 247 247 247 247
244 244 244 244 244 245 255 251 208 154 105 69 52 53 60 66 69 69 70 70 68 66 66 69 77 122 142 84 109 166 192 194 189 187 186 186 186 187 189 189 173 151 129 111 101 93 85 77 76 76 82 86 93 99 101 97 92 90 91 92 98 104 107 109 126 155 170 169 129 113 117 122 121 119 116 117 118 115 115 116 116 115 116 116 116 120 124 126 128 130 130 129 129 131 133 136 137 138 139 139 138 135 134 135 137 137 141 142 142 144 146 146 147 147 148 150 150 150 151 152 153 153 153 154 154 154 155 156 159 162 164 164 164 164 163 164 165 164 164 165 166 167 167 168 168 168 169 169 168 169 169 168 167 167 167 168 169 171 173 174 174 174 174 174 175 175 174 174 173 173 173 174 175 175 175 174 174 173 174 174 175 175 175 176 178 183 184 186 186 186 185 184 182 180 179 179 180 182 183 185 186 187 187 186 185 184 184 182 182 182 182 182 182 182 182 182 183 184 183 180 178 177 175 175 177 181 183 184 187 189 187 185 183 182 182 182 183 184 187 187 187 184 180 173 171 181 200 226 245 252 247 247 247 247 247 247
245 245 245 245 245 245 255 244 199 145 98 64 49 52 60 66 69 70 71 71 69 68 68 71 79 123 141 82 105 160 187 189 186 184 185 186 187 188 190 189 171 148 126 108 98 91 84 77 75 76 82 85 91 97 99 95 91 89 91 92 98 102 104 105 121 149 164 164 126 111 115 121 119 117 114 115 116 114 115 117 117 116 118 117 117 120 124 126 128 129 128 128 129 131 133 135 136 138 139 139 138 135 133 134 135 136 139 141 142 144 145 146 146 147 148 149 149 150 151 152 152 153 153 154 154 154 155 156 159 162 164 165 165 165 164 165 165 164 164 165 166 166 167 167 168 168 168 168 168 169 169 169 168 168 168 168 169 171 173 174 174 174 174 174 175 174 174 173 173 173 173 174 175 175 174 174 173 173 173 173 173 174 174 175 177 181 183 184 184 184 183 182 181 179 179 179 180 182 184 186 187 188 188 187 187 186 186 185 185 184 184 183 183 183 183 183 183 184 182 180 179 177 176 176 177 181 183 184 186 188 187 186 185 183 183 183 184 185 186 187 186 184 179 173 170 180 197 223 243 251 246 246 246 246 246 246
246 246 246 246 246 246 255 234 187 135 91 61 49 53 60 65 68 69 69 70 70 69 70 72 79 120 135 78 99 151 181 186 185 185 187 188 188 187 187 184 163 138 116 99 92 87 82 77 76 78 83 86 90 96 97 93 90 89 91 93 99 101 102 102 116 143 157 158 124 111 115 121 118 116 113 113 114 114 114 117 118 118 119 119 118 121 124 125 127 128 127 127 128 131 133 136 137 138 139 140 138 135 133 134 134 134 138 139 140 143 144 145 146 146 147 148 149 149 150 151 152 152 153 154 154 154 155 156 159 162 164 165 165 165 165 165 165 164 164 164 165 166 166 167 167 167 168 168 169 169 169 169 168 168 168 168 168 170 172 173 174 174 173 174 174 174 174 173 173 174 174 174 175 175 174 173 172 172 172 172 172 173 173 173 175 179 181 182 182 182 181 181 180 179 179 179 180 182 184 185 186 187 188 188 189 188 188 186 185 184 183 183 183 183 183 183 183 184 183 182 181 180 178 177 178 181 182 183 185 187 187 186 186 185 184 185 184 185 186 186 186 184 180 174 171 179 195 220 241 251 247 246 246 246 246 246
248 248 248 248 248 248 253 221 172 124 85 59 51 55 62 66 68 69 68 69 69 68 69 71 78 115 128 75 93 143 176 182 184 186 188 189 188 187 185 180 156 128 107 91 86 83 80 77 77 80 85 87 90 95 95 91 89 89 92 95 100 99 99 98 111 135 148 150 122 111 114 120 118 116 113 112 113 114 115 117 119 119 121 120 118 122 124 125 126 126 126 126 128 131 133 136 137 138 140 140 138 135 133 134 134 133 136 138 139 142 143 144 145 146 147 148 148 148 150 151 152 153 153 154 154 154 155 157 159 162 163 164 164 165 165 165 165 164 164 164 165 166 166 167 167 167 168 168 169 170 170 168 168 168 167 167 168 169 171 173 173 173 173 173 173 173 173 173 173 174 174 174 175 175 175 173 172 171 171 171 171 172 172 172 174 178 179 179 180 180 179 179 178 178 179 179 181 182 184 185 185 187 188 189 189 189 189 188 186 185 184 183 183 184 184 184 184 185 184 184 184 183 181 180 180 182 181 182 184 186 186 186 187 186 186 186 185 185 186 186 186 185 181 176 173 180 194 217 238 250 247 246 246 246 246 246
250 250 250 250 250 250 246 204 154 111 78 57 55 61 67 70 70 69 65 65 65 66 68 71 80 116 127 78 93 140 172 178 181 184 187 188 189 188 185 179 152 122 100 84 80 79 78 77 79 83 88 89 91 94 93 89 88 90 94 97 101 98 96 93 105 127 139 141 118 109 113 121 119 118 115 112 113 115 116 118 120 120 122 121 119 123 125 125 126 126 125 126 128 131 133 136 137 138 141 142 140 137 135 134 132 132 134 136 137 139 141 143 144 146 147 148 147 148 149 151 152 152 153 154 154 154 155 157 159 160 161 162 163 164 166 166 166 164 164 165 165 165 166 166 167 167 168 169 170 171 170 168 167 166 166 165 166 167 169 172 172 173 173 172 172 172 172 173 173 174 174 175 176 176 176 175 174 172 171 171 171 171 172 172 174 177 177 177 177 176 176 175 175 176 177 180 182 183 185 185 185 185 186 188 189 189 189 190 189 188 187 186 186 185 184 184 185 186 186 188 188 187 185 184 184 183 180 180 183 184 185 187 189 188 187 187 186 185 183 183 184 184 181 177 176 182 194 214 235 248 244 244 244 244 244 244
250 250 250 250 250 250 242 196 144 103 73 55 56 63 68 70 70 68 64 64 65 66 68 71 79 112 122 77 91 136 170 178 181 185 188 189 188 186 181 174 146 114 93 78 76 78 78 78 80 85 89 89 90 93 92 89 88 90 96 99 103 99 96 93 103 123 135 138 119 111 114 122 120 118 116 112 113 115 116 118 120 120 123 122 119 123 125 124 126 126 125 126 129 131 134 137 137 138 141 142 140 137 135 134 132 131 132 134 136 138 140 142 144 146 146 147 147 148 149 151 151 152 153 154 154 154 155 157 159 160 161 162 162 164 165 166 166 164 164 165 165 165 166 166 167 167 168 169 170 171 170 168 166 165 165 164 165 166 168 171 172 172 172 172 171 171 172 172 173 174 174 175 175 176 176 175 174 171 170 170 171 171 172 172 174 176 177 176 177 176 175 175 175 176 177 180 181 183 184 184 184 184 186 188 189 190 190 191 189 188 187 186 186 185 185 185 186 187 188 190 191 189 188 186 185 184 180 180 182 183 185 186 189 188 187 187 186 184 182 183 184 184 182 178 177 182 191 210 232 247 244 243 243 243 243 243
250 250 250 250 250 250 238 186 135 97 70 55 56 62 67 70 70 69 65 65 65 66 67 68 75 104 113 72 85 129 165 175 180 185 188 189 187 185 179 171 142 110 89 76 75 78 78 79 82 86 91 91 91 92 90 88 87 91 96 100 105 100 96 93 101 120 131 134 117 110 113 120 117 116 114 110 111 115 115 118 121 121 124 123 119 123 124 123 125 125 124 126 129 131 133 136 136 137 140 141 139 137 135 134 132 131 132 133 135 138 140 141 143 145 145 146 147 147 149 150 151 152 153 154 154 154 155 156 158 159 160 161 162 163 164 165 165 164 164 165 165 165 166 166 167 167 168 169 170 171 170 168 166 166 166 165 165 166 168 170 171 172 172 171 171 171 172 173 174 174 175 175 175 175 176 174 173 171 169 169 169 169 170 170 171 174 175 175 176 176 175 176 176 177 178 180 182 183 183 183 182 183 184 187 189 190 190 191 189 188 187 186 186 186 186 186 187 187 188 190 191 191 189 188 187 185 181 180 181 181 183 185 188 187 187 187 186 185 182 183 184 184 182 179 178 182 190 207 228 245 244 243 243 243 243 243
250 250 250 250 250 250 233 174 123 90 68 56 57 63 67 69 70 69 66 66 65 64 63 62 65 90 97 61 74 117 157 171 179 186 190 190 188 183 177 168 139 105 86 75 75 78 80 81 83 88 93 93 92 91 88 86 86 90 97 102 106 100 97 93 100 116 125 130 117 111 113 118 115 114 114 110 111 115 116 118 122 123 126 124 120 123 123 122 123 123 123 125 128 131 132 135 135 135 138 140 138 137 136 135 134 132 131 132 135 138 140 141 142 144 144 146 146 147 149 150 151 152 153 154 154 154 154 156 158 159 160 161 162 162 163 163 163 163 164 165 166 166 166 167 167 168 168 170 171 171 170 167 167 168 167 167 167 167 168 169 170 171 171 171 171 171 172 174 175 175 175 175 175 174 175 173 172 170 168 167 167 168 168 168 169 171 172 173 175 177 177 178 179 180 181 182 182 183 182 181 181 181 183 185 188 189 189 190 188 187 187 185 186 187 188 188 188 188 189 191 191 191 190 188 186 184 181 180 180 179 181 182 185 185 186 186 186 185 184 184 185 185 183 181 179 182 189 203 224 242 245 245 245 245 245 245
250 250 250 250 250 250 229 165 115 85 66 56 57 62 65 68 69 69 67 67 66 65 63 61 63 84 90 58 69 110 151 168 178 185 189 190 187 182 175 166 137 103 84 74 74 78 81 82 85 90 95 95 93 91 87 85 86 91 98 103 108 101 98 94 100 114 122 127 117 111 113 117 113 112 113 109 110 115 115 118 122 124 128 126 120 123 122 121 122 122 122 124 128 130 131 134 134 134 137 139 138 138 137 136 134 132 131 131 134 137 139 141 142 143 144 145 146 147 149 150 151 152 153 154 154 154 154 155 157 158 159 160 161 161 161 162 161 163 164 165 166 166 167 167 168 168 169 170 171 171 170 167 168 168 168 167 167 167 167 168 169 170 171 171 171 171 172 174 175 175 175 175 174 174 174 173 171 169 167 167 167 167 167 167 168 170 171 172 175 178 178 179 180 181 182 183 183 183 182 181 179 180 182 184 186 188 189 190 188 187 186 185 186 187 188 189 188 188 189 191 192 192 191 189 187 185 181 180 179 177 180 182 184 185 186 187 186 186 184 184 184 184 183 181 180 182 188 200 220 240 245 245 245 245 245 245
250 250 250 250 250 249 230 170 115 82 62 54 55 59 62 65 68 70 69 69 69 68 65 62 62 79 85 58 69 109 149 167 178 186 190 191 188 182 174 165 135 102 84 75 77 81 84 87 90 95 100 99 97 93 89 87 88 94 103 111 120 120 121 118 123 134 141 145 133 124 124 124 115 111 111 109 110 115 115 116 120 122 126 124 120 125 126 124 125 125 125 126 128 129 128 127 127 128 131 134 136 138 139 139 137 135 131 130 134 139 142 143 144 144 144 145 146 146 147 148 148 148 149 150 150 150 151 154 156 158 160 161 160 158 156 156 157 163 166 167 168 169 169 169 170 171 171 172 172 171 169 167 168 168 168 167 167 166 166 167 169 170 172 172 171 172 173 174 174 174 173 173 171 171 171 169 168 165 164 164 165 166 168 170 173 176 179 182 185 188 189 189 189 189 188 187 184 181 179 176 175 175 177 180 183 185 186 186 184 183 184 183 184 185 187 187 186 186 186 189 191 192 191 189 186 183 179 178 176 175 178 180 184 185 186 187 187 186 184 184 183 182 181 179 179 180 184 199 221 240 245 245 245 245 245 245
246 246 246 246 246 246 232 173 113 78 60 53 54 58 61 64 67 69 70 72 72 71 68 64 62 75 81 57 68 107 148 168 179 188 192 192 187 179 171 160 130 99 83 77 79 85 88 91 93 95 99 97 95 93 90 91 94 102 112 122 132 133 135 132 136 146 152 157 146 135 133 130 119 111 109 108 109 114 114 115 120 122 127 125 120 126 127 125 126 126 126 128 129 129 127 126 125 125 128 132 134 137 139 140 139 137 130 128 132 138 142 144 144 143 142 143 145 146 146 147 148 147 147 149 148 149 150 153 156 159 162 162 162 157 153 153 154 164 168 169 170 171 170 170 171 171 171 171 171 169 167 166 167 168 168 168 167 166 166 167 169 171 172 172 172 173 174 175 175 174 173 172 170 169 168 167 165 164 163 163 165 167 169 171 175 179 183 186 191 195 196 197 197 196 194 190 185 181 177 174 172 173 176 179 182 185 186 185 182 181 182 182 183 186 188 188 187 186 187 189 190 191 190 187 184 182 179 177 175 174 178 180 182 183 184 186 186 185 184 184 183 182 181 179 178 176 178 195 219 238 245 245 245 245 245 245
243 243 243 243 243 243 227 161 103 72 58 54 57 62 66 67 67 66 69 71 72 72 70 67 64 75 78 56 66 101 145 167 179 187 193 193 187 177 168 157 126 93 79 75 78 84 89 92 94 95 98 96 94 91 89 92 96 103 113 122 131 127 128 125 128 138 145 153 146 138 137 137 127 118 114 109 109 113 112 115 120 122 127 125 120 123 123 121 121 122 122 125 128 130 130 130 129 128 130 133 134 136 137 138 140 137 130 126 128 134 137 140 141 140 140 142 144 146 147 148 149 149 149 151 151 151 151 154 158 161 163 163 162 158 154 154 155 166 170 170 171 171 170 170 170 170 169 169 169 168 166 163 165 166 166 166 166 166 166 167 168 170 171 171 172 174 174 175 175 175 174 172 171 170 170 168 167 167 166 166 168 170 172 173 176 180 183 185 190 196 196 197 196 196 194 188 184 180 176 173 171 174 177 181 184 187 189 186 182 180 181 180 182 187 190 191 190 189 190 191 191 191 189 186 183 183 181 179 177 176 180 180 180 181 182 183 182 182 184 185 186 186 185 182 176 174 174 188 212 234 245 246 246 246 246 246
241 241 241 241 241 242 219 144 90 65 56 57 61 68 72 71 67 64 66 69 70 71 71 70 66 74 76 57 64 95 141 164 176 186 192 194 188 178 169 158 124 89 74 71 74 81 86 91 94 96 101 100 97 93 89 92 94 100 109 117 123 113 113 110 113 123 130 140 139 135 137 141 136 126 119 111 109 112 111 114 119 123 127 125 120 121 120 118 118 118 119 122 128 131 132 135 134 133 134 136 136 136 136 138 140 137 132 127 127 131 134 136 137 137 138 141 144 146 148 149 151 152 152 154 154 154 153 155 158 161 162 163 161 158 156 156 158 167 169 170 170 169 169 169 169 168 167 167 168 167 164 160 162 163 164 164 165 165 165 166 167 169 169 170 172 174 174 174 175 176 175 173 172 171 171 169 169 169 168 168 170 172 173 172 174 177 179 180 185 192 192 192 192 191 190 184 181 179 176 173 172 176 180 183 186 189 189 185 180 179 179 179 181 188 192 193 193 193 195 195 193 192 190 186 183 183 183 181 180 179 182 181 179 180 180 180 179 180 184 186 188 190 190 185 176 173 172 183 204 229 246 246 246 246 246 246
240 240 240 240 240 240 207 126 88 67 60 61 64 70 75 74 69 64 66 68 67 67 67 68 66 74 77 63 70 97 139 161 172 181 188 192 189 181 175 165 133 94 76 69 68 72 78 87 96 110 127 135 136 129 119 114 109 108 109 112 114 102 101 101 105 113 120 127 127 127 133 142 143 137 130 120 115 113 110 112 116 121 126 125 121 122 122 120 118 117 118 120 124 126 129 132 134 132 133 135 135 135 135 134 136 137 138 136 135 137 139 138 138 137 138 141 144 145 147 148 150 151 151 153 154 153 152 153 156 159 161 161 160 159 159 159 161 163 163 163 164 164 165 166 166 166 167 168 169 168 164 160 161 162 163 164 165 167 167 168 169 169 169 170 173 175 174 174 173 174 174 172 173 172 170 169 169 170 171 171 172 173 174 172 173 175 175 176 180 186 186 184 184 184 183 181 181 182 183 185 187 191 192 192 190 186 182 175 172 172 174 177 181 188 194 196 197 198 200 199 195 193 189 186 183 184 186 185 185 185 184 182 178 177 177 177 178 180 185 187 190 192 191 186 177 173 174 183 197 222 246 247 247 247 247 247
239 239 239 239 239 239 194 111 87 69 62 63 65 73 79 79 74 68 68 68 65 62 61 63 63 72 77 68 78 102 142 162 172 178 184 190 189 183 178 170 140 100 79 68 66 69 77 88 105 127 155 168 170 161 142 127 116 109 104 103 102 93 93 95 101 108 115 121 121 125 134 146 153 153 148 137 129 122 115 114 116 121 124 123 123 123 123 121 118 117 118 119 121 124 128 132 134 133 134 135 134 134 135 132 134 138 145 144 141 141 142 139 139 139 140 143 145 146 147 148 150 151 151 152 153 153 151 152 154 156 157 157 156 157 159 161 164 161 159 158 158 159 161 162 163 164 166 169 170 168 164 160 160 161 162 164 165 168 169 170 170 169 168 170 173 175 173 172 170 172 172 172 175 175 172 171 171 173 175 176 176 177 178 176 177 177 176 175 179 183 182 179 178 178 178 178 180 182 187 193 198 202 202 200 194 186 178 170 167 169 172 177 181 188 194 198 200 202 204 202 198 194 190 187 186 187 188 188 188 188 184 180 176 175 175 175 177 180 186 189 191 193 191 185 177 174 175 183 192 215 244 245 245 245 245 245
241 241 241 241 241 241 188 105 85 69 61 61 65 73 79 81 79 75 71 67 62 57 55 55 58 71 78 71 83 109 148 165 174 179 183 186 187 185 180 173 145 104 82 69 66 71 79 90 108 134 163 175 177 164 142 122 109 102 96 94 94 90 91 94 100 107 114 117 117 121 130 141 149 154 153 144 135 127 120 115 115 119 121 121 122 123 123 121 119 118 121 121 122 125 127 130 132 133 134 135 134 136 137 133 133 139 145 145 142 141 142 140 141 142 143 146 147 148 148 149 149 150 151 152 153 152 151 152 152 153 153 153 152 154 158 160 163 159 157 157 156 157 159 161 162 164 167 171 172 169 166 161 160 160 161 163 164 166 168 168 168 167 167 169 170 171 170 169 168 169 170 171 175 175 173 172 173 173 175 176 176 177 177 177 177 177 176 176 179 181 179 176 176 175 175 178 180 183 187 194 200 201 200 199 193 184 176 172 170 172 175 180 184 188 192 196 199 202 204 203 200 198 195 193 191 190 189 188 188 186 180 177 176 175 175 177 179 182 185 187 188 189 186 182 179 177 179 186 193 215 240 241 241 241 241 241
244 244 244 244 244 243 183 100 82 68 60 59 64 70 76 81 83 81 75 70 64 57 52 49 53 66 74 68 80 107 145 162 173 178 182 185 186 186 182 175 147 108 85 70 69 74 82 92 110 139 166 177 176 161 136 113 100 94 89 88 88 89 90 93 99 105 111 113 113 117 126 134 143 153 158 151 144 137 130 123 121 123 124 123 123 124 123 121 119 118 121 121 122 124 126 129 130 132 134 136 136 139 140 137 135 140 146 146 142 142 143 141 143 146 147 149 148 149 149 149 149 149 151 151 152 152 152 152 150 148 148 148 147 151 155 157 160 157 155 155 155 156 158 160 162 163 168 172 173 170 167 163 161 161 162 163 164 165 166 166 166 165 165 166 167 167 167 166 165 166 168 171 174 176 174 175 175 174 175 176 176 176 176 178 178 177 176 175 179 178 176 174 174 174 174 179 181 183 187 193 198 197 197 195 190 183 176 175 175 176 180 184 187 189 191 195 198 199 200 202 201 199 198 197 195 190 186 184 183 181 175 174 176 176 178 181 184 185 184 185 185 184 181 179 180 180 183 189 195 215 237 238 238 238 238 238
243 243 243 243 243 243 181 94 75 66 62 62 65 69 72 75 76 76 73 72 69 65 61 58 59 66 70 64 70 92 131 151 166 175 182 188 191 191 186 179 150 109 86 73 72 78 86 96 113 140 165 174 172 154 128 107 96 91 88 88 90 90 92 93 98 102 106 108 111 116 124 131 136 143 146 140 133 129 125 121 123 129 132 132 132 133 130 126 124 121 122 122 123 124 125 126 127 128 131 133 134 138 139 136 135 140 143 143 140 140 142 140 141 143 145 148 149 150 151 151 151 152 154 154 154 153 151 150 149 148 148 148 148 150 154 155 158 156 155 154 154 155 157 159 161 162 166 170 171 168 165 163 163 162 163 163 164 164 165 166 167 167 167 169 170 170 171 171 170 171 173 175 177 177 175 175 174 173 174 174 173 173 173 174 174 174 173 173 178 180 178 177 177 177 177 180 181 182 185 190 194 195 195 194 190 184 177 176 175 177 179 183 186 188 191 194 195 196 198 201 200 198 197 195 192 188 184 183 182 179 176 177 179 179 181 182 184 185 183 184 183 183 181 180 182 181 182 186 193 214 238 239 239 239 239 239
244 244 244 244 244 243 178 87 70 68 68 67 65 62 60 62 66 71 74 77 79 78 75 70 67 67 67 60 57 75 113 137 156 170 181 189 193 193 189 180 151 111 88 76 76 83 91 101 118 144 168 176 173 153 125 105 95 93 92 94 96 96 96 95 97 98 98 98 102 108 113 116 114 119 123 121 118 119 120 122 130 142 149 152 151 152 147 141 137 131 129 127 125 123 121 120 120 120 123 126 129 134 137 133 130 137 140 142 143 145 146 143 142 143 145 150 152 154 154 155 156 156 157 157 156 153 149 147 146 146 146 147 149 151 153 154 154 152 151 151 152 153 155 157 159 161 165 169 169 167 164 165 166 166 166 165 164 164 165 166 168 169 171 174 176 177 179 180 180 180 182 183 182 181 177 175 174 171 171 169 168 167 166 166 166 167 167 168 173 177 177 177 178 179 180 182 182 182 184 188 193 192 193 193 189 183 177 175 174 176 178 181 185 187 189 191 191 190 193 197 198 198 197 195 191 186 183 181 179 177 177 180 183 184 186 187 188 186 183 180 178 177 177 179 184 185 185 185 190 212 238 239 239 239 239 239
245 245 245 245 245 244 173 80 65 65 67 69 68 64 61 61 65 70 73 77 80 80 78 74 71 67 66 60 54 66 101 124 144 160 174 185 192 195 192 184 156 115 93 80 80 87 97 107 125 152 177 185 180 156 126 103 93 91 90 92 96 98 99 98 99 97 96 95 100 107 113 115 113 117 119 117 115 116 118 121 130 144 153 157 158 160 154 148 143 136 133 130 127 124 120 117 116 117 120 124 128 134 137 133 130 138 141 143 144 146 148 144 142 142 145 150 152 154 155 156 156 157 158 157 155 152 148 145 144 145 146 147 149 150 152 153 153 151 150 149 150 151 153 155 157 160 164 168 168 166 164 165 167 166 165 164 163 162 164 166 168 170 173 176 177 179 181 183 181 181 183 184 183 181 177 174 172 169 168 167 165 164 164 165 165 166 166 167 174 178 178 177 178 180 180 182 181 181 183 188 193 192 193 193 190 184 178 176 175 176 179 182 185 186 187 188 187 187 190 195 196 196 195 192 188 183 180 179 177 176 178 181 186 187 188 189 189 187 182 179 177 176 177 180 186 186 186 184 189 211 238 239 239 239 239 239
246 246 246 246 246 245 169 76 63 65 68 70 70 66 62 63 66 71 73 76 80 81 80 76 74 69 67 63 55 61 90 109 128 144 160 174 186 194 196 192 169 132 111 97 97 104 112 119 135 161 182 187 180 153 121 98 88 87 88 91 95 100 102 102 102 99 96 94 100 106 112 114 112 115 116 114 113 115 118 121 130 145 155 162 163 165 160 154 149 141 137 134 130 126 121 115 114 115 118 122 128 135 139 136 134 141 142 144 144 145 147 145 142 142 145 150 153 155 155 156 156 157 158 157 155 151 146 144 142 144 146 147 148 149 151 152 152 150 150 149 149 150 151 153 155 158 162 165 165 162 162 166 167 166 164 163 162 161 163 166 169 172 175 178 179 180 182 185 183 183 184 184 182 181 176 173 171 167 166 165 163 162 162 163 164 165 166 168 174 179 180 178 180 181 180 182 180 179 180 185 190 190 191 192 190 186 181 181 181 183 185 187 189 188 187 187 185 184 186 192 193 192 191 188 185 180 177 177 176 176 179 182 187 188 189 190 190 187 181 179 176 176 177 180 188 188 187 184 189 210 237 239 239 239 239 239
242 242 242 242 242 241 164 76 66 72 78 79 73 65 60 60 65 72 77 82 86 87 84 79 74 65 62 62 54 54 76 94 111 126 141 157 171 182 190 194 182 159 146 139 141 147 153 154 161 174 185 183 170 137 109 92 86 88 90 94 98 100 101 102 103 100 98 98 105 110 114 115 113 115 117 118 119 122 126 128 134 143 151 157 154 153 147 141 137 130 127 126 127 126 123 119 118 119 121 126 130 136 140 143 146 151 147 143 139 139 140 140 140 140 144 149 151 153 154 154 155 155 156 156 155 153 148 146 143 143 143 144 145 146 148 149 151 153 153 152 152 152 151 152 154 155 157 157 157 156 158 164 167 168 167 166 165 164 165 166 169 171 173 174 174 176 179 180 180 180 180 179 178 178 177 176 174 172 171 169 168 166 166 166 166 166 167 168 174 181 181 180 181 182 180 180 177 176 175 177 181 184 187 191 193 194 195 198 199 200 199 199 198 196 194 191 187 184 184 186 185 185 184 183 180 178 176 176 174 175 179 182 185 187 188 189 189 187 183 180 177 176 177 181 187 189 186 182 185 205 238 240 240 240 240 240
240 240 240 240 240 239 158 70 66 75 82 82 73 66 61 61 64 68 73 78 81 82 80 77 72 65 65 65 59 58 73 85 96 107 121 139 157 173 188 198 195 179 169 164 165 168 172 169 171 178 186 182 168 130 105 92 87 88 90 93 96 95 96 99 101 100 100 101 104 108 114 115 115 115 110 107 107 108 112 112 114 120 127 134 131 129 125 122 119 114 113 115 121 122 122 120 120 121 123 128 132 135 139 144 150 152 145 138 132 130 132 135 136 137 140 144 146 148 148 149 150 151 152 152 152 152 149 148 146 147 147 147 147 147 148 149 152 157 158 156 156 156 155 155 156 157 158 157 156 156 158 164 166 166 166 166 165 164 165 167 169 170 170 170 170 172 173 173 173 173 172 170 169 171 171 170 170 169 169 168 168 166 166 165 166 167 168 169 175 183 184 182 183 184 181 179 176 176 174 175 178 184 187 190 193 196 198 201 204 204 202 201 199 197 194 191 188 185 184 184 181 180 180 179 179 180 181 182 180 180 182 182 183 183 184 185 185 184 184 182 179 179 180 182 185 188 186 181 180 201 240 243 243 243 243 243
241 241 241 241 241 240 155 66 65 73 80 80 72 66 63 62 64 67 70 73 75 76 75 74 71 68 69 70 66 63 73 79 86 93 106 125 145 165 183 196 197 185 175 168 168 171 173 169 171 178 186 183 168 129 104 91 86 87 89 91 93 92 93 96 99 98 99 98 100 103 109 111 112 112 105 101 100 100 103 102 103 109 115 124 122 122 119 118 117 112 112 114 120 121 121 119 119 121 124 128 132 135 139 143 149 150 143 136 130 128 130 134 136 136 138 142 144 145 145 146 146 148 149 150 150 150 148 147 146 148 148 149 148 148 149 150 153 157 158 157 156 156 156 156 157 158 159 158 157 158 160 165 165 165 164 164 164 163 164 166 168 169 169 168 167 169 170 170 169 168 167 165 165 167 167 167 166 165 165 165 165 164 163 164 164 165 166 168 174 182 182 180 182 182 179 178 175 176 175 175 179 183 186 188 191 193 196 200 204 204 202 200 197 194 191 187 185 183 183 181 179 178 178 178 180 182 183 184 183 182 182 183 183 183 183 184 184 184 183 182 180 180 180 181 185 188 187 182 181 201 240 243 243 243 243 243
242 242 242 242 242 241 153 63 64 72 78 77 70 65 63 63 66 69 70 72 73 73 72 71 70 69 72 73 70 67 72 75 78 83 94 111 133 155 175 191 196 187 178 171 171 173 175 170 171 177 185 182 167 128 104 91 87 88 90 92 93 91 91 94 98 98 98 97 97 100 106 107 110 111 104 100 100 99 103 100 101 105 111 121 119 119 117 117 117 113 113 115 120 121 121 118 118 121 124 128 132 135 138 143 148 149 142 135 129 126 129 133 135 136 138 142 143 144 144 144 145 146 148 148 148 149 148 147 146 147 148 148 147 147 148 150 153 157 158 157 156 156 156 156 158 158 159 158 157 158 161 166 165 164 163 163 162 162 163 164 166 167 167 166 165 166 167 167 166 166 165 163 163 165 166 166 166 165 165 165 165 163 163 164 164 165 166 168 174 180 180 178 180 180 178 177 175 176 175 175 178 182 184 186 189 191 194 199 204 204 202 200 197 192 188 185 182 181 180 178 176 175 176 178 180 183 185 186 185 183 183 183 183 183 183 184 185 184 183 182 180 179 179 180 185 189 187 182 181 201 240 243 243 243 243 243
242 242 242 242 242 242 151 61 63 72 77 75 67 63 62 64 67 70 71 72 72 70 69 68 68 67 72 74 74 69 72 72 72 74 82 98 119 142 164 183 192 187 180 174 174 176 178 172 172 177 184 181 166 127 104 92 89 89 91 93 94 90 90 93 97 97 98 97 96 98 103 104 108 110 103 100 101 99 103 100 100 103 110 119 117 118 117 118 118 115 115 117 122 123 123 119 119 121 124 127 131 134 137 142 148 148 141 134 128 125 127 132 134 135 138 142 143 144 144 145 146 146 148 148 148 148 147 146 145 146 147 147 146 146 147 148 152 157 158 157 156 156 156 156 157 158 158 157 156 157 161 165 163 162 161 162 162 161 162 163 164 166 165 164 164 165 166 165 164 164 163 161 162 164 165 166 166 165 166 166 165 164 163 164 164 165 166 168 174 180 180 179 181 181 178 177 175 176 175 174 178 181 183 185 187 191 194 199 205 204 201 199 195 190 186 182 181 180 178 176 173 173 175 177 181 185 187 188 187 185 183 182 182 182 182 183 185 185 184 183 181 180 179 180 185 188 187 182 180 200 241 244 244 244 244 244
243 243 243 243 243 242 151 60 61 71 76 74 65 61 60 63 67 70 72 72 71 69 67 65 65 65 70 75 76 71 73 72 70 68 73 86 105 127 150 171 182 180 176 173 174 178 179 173 172 175 181 177 162 123 102 92 90 91 93 96 96 90 89 93 97 97 99 98 97 97 102 102 105 108 103 101 101 100 103 100 100 102 108 118 116 116 116 118 118 116 117 119 124 125 125 122 121 123 125 127 131 133 135 141 147 147 139 132 125 122 125 130 133 135 138 142 144 145 145 145 146 147 148 149 148 149 147 147 145 146 146 146 145 145 146 147 151 156 158 157 156 156 156 156 157 158 158 156 155 157 162 164 162 161 160 161 161 160 161 161 162 163 163 162 162 163 164 164 163 163 162 160 160 163 165 165 166 166 166 166 166 165 164 165 165 166 167 169 174 181 181 179 181 181 178 176 174 175 174 173 176 180 181 183 186 190 194 199 204 203 199 196 191 187 183 180 179 178 177 173 171 171 174 178 183 187 190 191 189 186 184 182 181 181 181 183 184 185 186 185 183 181 180 180 184 188 186 181 179 200 242 245 245 245 245 245
246 246 246 246 246 245 155 60 53 61 69 69 65 61 60 62 66 69 70 69 69 68 66 64 64 63 68 74 74 72 77 76 74 71 72 80 93 109 126 142 150 147 146 148 156 166 172 170 170 172 175 168 152 116 98 91 91 94 99 103 103 93 90 92 94 93 95 97 99 99 100 99 100 103 101 101 102 104 107 104 103 104 109 119 116 117 116 116 118 117 118 120 127 128 129 126 125 126 128 130 131 131 132 137 142 140 132 126 121 119 122 130 134 137 140 142 143 144 145 145 146 146 148 148 148 149 149 148 147 145 145 145 144 145 146 147 150 156 158 157 157 156 156 156 156 157 157 156 157 160 164 164 160 159 158 158 158 157 158 158 159 161 160 159 158 159 160 160 161 161 160 159 159 162 165 166 166 165 166 166 165 164 164 165 166 166 167 168 172 176 176 176 178 179 177 175 173 174 172 170 172 176 178 182 187 192 196 201 203 200 194 189 184 179 175 174 174 174 173 171 172 174 178 182 187 189 189 189 186 183 183 182 183 183 184 185 186 186 185 183 181 180 179 181 186 189 185 181 182 204 242 245 245 245 245 245
247 247 247 247 247 246 160 57 45 54 66 72 71 66 61 60 62 64 65 66 68 69 68 67 66 58 62 79 77 73 80 82 81 77 74 73 77 83 90 99 103 101 106 116 130 146 160 168 172 175 181 177 164 139 127 126 128 131 135 138 133 109 98 97 95 91 91 93 102 102 102 98 97 98 101 104 106 110 112 110 109 109 115 120 115 116 115 114 115 115 116 118 123 126 128 129 129 130 131 130 129 127 126 129 133 131 128 127 126 125 127 133 137 140 141 140 140 141 141 142 142 143 143 144 145 147 150 151 149 147 146 147 147 148 149 150 152 154 155 155 155 156 155 155 155 156 156 157 158 162 164 161 158 158 158 159 158 157 158 158 159 158 158 156 156 156 157 157 157 158 158 158 159 161 163 164 165 165 166 166 165 165 165 165 164 164 163 162 165 167 167 167 170 173 174 174 175 178 177 177 179 182 184 188 191 195 197 197 194 189 184 180 176 174 173 173 173 173 173 172 174 177 181 184 188 191 189 187 184 182 184 184 184 184 184 185 185 184 183 182 180 180 181 185 189 189 182 177 180 205 243 246 246 246 246 246
246 246 246 246 246 245 160 53 44 55 67 77 77 70 64 60 59 60 62 64 67 69 70 71 69 57 61 85 82 75 80 83 82 77 73 71 71 73 77 83 86 85 92 103 116 132 149 162 170 179 191 195 189 172 165 166 168 168 170 169 159 122 106 104 99 91 89 90 100 103 103 100 99 98 102 107 109 112 113 113 113 114 119 121 114 115 116 114 113 113 113 113 115 118 122 125 126 127 129 128 126 124 123 123 125 125 128 133 134 134 134 137 139 140 140 137 137 137 137 137 137 138 139 139 141 144 149 150 150 148 147 148 149 152 153 154 154 151 150 151 152 154 155 155 155 155 156 158 159 161 161 159 158 158 159 160 160 160 161 161 160 158 157 156 156 156 155 155 155 156 157 158 159 159 160 161 163 165 166 166 166 165 165 164 162 160 158 158 159 160 161 161 165 170 173 175 180 185 188 190 192 193 194 195 194 194 192 188 184 181 178 176 175 175 176 177 178 177 176 175 176 177 180 182 187 191 190 187 184 184 186 185 184 183 183 183 183 182 182 181 181 181 183 188 191 188 180 175 176 204 244 246 246 246 246 246
247 247 247 247 247 246 162 54 42 52 65 77 78 72 65 61 59 60 61 63 66 69 70 71 70 58 61 86 82 75 80 82 82 78 74 72 72 73 76 80 82 80 86 97 110 126 142 156 166 176 188 193 189 175 171 173 176 177 179 179 168 129 111 108 102 93 90 91 100 104 104 100 99 97 100 105 108 112 112 113 113 115 121 121 114 116 118 116 114 114 113 112 114 116 120 122 124 125 127 126 125 125 124 123 123 122 126 132 135 135 135 137 138 139 139 136 135 135 136 136 136 136 137 137 139 142 147 149 149 147 147 148 149 151 153 154 153 150 149 150 152 154 155 155 155 156 157 158 160 161 161 158 157 158 159 160 160 159 160 161 159 157 156 156 156 155 154 154 154 155 156 157 158 159 159 160 162 163 165 165 164 164 164 163 162 160 158 157 159 160 160 161 165 170 174 177 183 188 191 192 194 194 194 194 192 191 189 186 182 179 177 176 175 175 177 178 178 178 176 175 177 178 180 183 187 190 189 186 182 183 186 185 185 185 184 184 183 182 181 180 180 181 183 189 192 188 180 175 177 205 244 246 246 246 246 246
248 248 248 248 248 247 164 55 42 50 63 75 78 72 66 61 60 60 60 62 64 68 70 71 71 59 62 86 82 75 80 82 82 79 75 73 74 75 77 80 81 77 82 91 103 119 135 150 160 172 186 191 188 177 173 175 178 179 181 181 170 130 111 108 101 92 89 89 99 102 103 100 99 97 101 105 108 112 112 113 114 116 122 121 114 116 118 116 115 114 113 112 112 115 118 120 122 124 126 126 125 125 124 123 121 121 125 132 135 135 136 136 138 138 138 135 134 134 134 134 134 135 136 135 137 141 146 148 148 147 146 147 149 151 153 154 153 149 148 149 151 153 154 155 155 156 157 159 160 161 160 158 157 157 158 159 159 158 159 160 159 157 156 156 155 154 154 153 153 154 155 157 158 158 158 160 161 163 164 164 164 163 163 163 162 159 157 157 158 158 159 160 164 169 173 177 183 188 192 194 195 194 194 193 191 189 187 183 180 177 176 176 175 175 177 177 178 178 176 176 177 178 180 182 186 189 187 184 182 183 186 186 186 186 185 184 184 182 180 180 180 181 183 189 192 188 180 176 179 207 244 246 246 246 246 246
248 248 248 248 248 248 167 58 44 50 61 73 76 71 66 62 60 60 60 61 64 67 69 71 71 60 63 86 82 75 80 83 83 79 76 74 75 77 78 81 81 76 79 86 97 111 126 141 152 165 180 188 187 178 175 177 180 180 182 182 170 129 110 107 101 92 89 89 97 101 102 100 100 98 101 105 108 111 112 113 114 116 122 121 113 116 119 117 115 114 113 111 111 113 117 119 121 123 126 125 125 125 124 123 120 120 125 133 136 136 136 136 137 137 137 134 133 133 133 133 133 134 135 134 136 140 145 147 147 146 146 147 148 151 153 153 152 148 147 148 150 152 154 155 155 156 157 159 160 160 159 157 156 156 157 158 158 158 159 160 158 156 155 155 155 154 153 152 152 153 154 157 157 157 157 159 160 162 163 164 163 163 163 162 161 158 157 156 158 158 158 159 163 168 173 177 184 189 193 195 197 195 193 192 189 186 182 179 176 175 174 175 175 175 177 178 179 178 177 176 177 178 179 181 185 188 187 184 182 184 186 186 186 186 185 185 184 182 181 181 181 181 184 189 192 188 180 177 180 208 245 246 246 246 246 246
247 247 247 247 247 246 172 63 49 52 59 68 70 67 64 62 60 59 61 62 64 65 68 70 69 62 65 83 81 76 82 85 84 80 77 76 76 78 81 84 83 77 78 82 88 97 109 122 133 146 165 177 180 175 175 180 182 181 182 181 168 124 105 102 96 90 88 89 93 97 101 101 103 100 101 104 107 109 109 112 114 117 124 121 113 114 120 119 117 115 113 111 110 112 116 118 121 122 124 124 124 125 125 123 120 119 127 134 137 136 135 133 133 133 133 131 132 132 133 133 133 134 135 134 136 139 143 145 146 146 146 147 149 151 152 153 152 146 146 147 150 153 155 155 156 156 157 158 159 157 156 155 154 155 156 157 158 158 158 158 155 153 153 154 154 154 152 152 152 153 154 156 157 156 155 157 159 162 164 164 163 163 162 161 159 157 155 155 157 158 159 160 164 168 173 177 184 190 194 197 198 196 193 189 183 178 174 169 168 168 170 172 173 176 179 180 181 180 179 176 175 174 175 177 182 188 189 187 185 187 189 187 184 184 183 182 182 182 184 184 184 185 186 189 188 184 178 177 180 209 247 249 249 249 249 249
246 246 246 246 246 246 179 73 55 54 57 63 65 64 64 63 60 58 61 62 62 63 66 69 68 65 68 80 80 78 85 87 84 80 76 75 76 77 81 86 85 79 78 81 82 87 95 104 113 124 142 157 164 164 169 179 184 182 184 182 168 119 98 94 90 87 86 88 90 93 99 101 104 102 101 103 106 108 108 113 116 120 126 121 111 112 119 119 117 116 113 111 109 111 115 119 121 122 124 124 125 125 125 124 120 118 127 134 136 135 133 129 128 129 130 129 130 131 133 134 134 135 135 134 136 139 142 144 146 146 147 148 149 152 153 153 152 146 146 148 151 154 156 157 157 157 157 157 157 155 153 152 152 153 155 156 157 158 157 156 153 151 150 152 153 153 151 151 152 153 154 155 157 156 155 156 159 163 165 165 164 163 162 159 157 155 153 153 155 157 159 159 163 168 172 176 184 191 195 197 197 195 190 184 177 172 168 163 164 166 168 172 173 178 181 182 183 182 180 174 172 171 171 173 179 187 189 188 187 189 190 187 183 182 181 181 181 182 186 186 188 188 188 189 184 180 176 177 181 211 250 251 251 251 251 251
246 246 246 246 246 246 190 85 57 52 55 60 64 66 66 64 61 57 59 61 61 63 66 69 70 69 71 77 77 78 88 89 85 80 77 75 74 75 79 84 82 78 79 83 84 87 92 96 98 100 111 121 128 133 147 166 177 180 186 188 174 119 95 89 85 84 85 89 91 93 97 100 102 98 95 96 101 107 109 117 121 123 128 122 108 108 116 117 115 114 111 110 110 112 117 121 123 123 126 126 126 126 126 126 122 117 122 127 130 128 126 124 124 125 127 127 129 131 133 134 135 136 136 136 138 140 142 144 148 147 147 148 150 153 153 153 151 148 149 151 155 157 159 158 158 158 156 154 153 152 151 150 151 152 153 155 156 156 155 153 150 149 149 149 151 151 150 151 153 154 155 156 157 155 156 158 161 164 165 165 164 163 161 157 155 153 151 152 153 156 158 160 164 169 174 177 184 190 193 191 188 186 181 176 171 170 169 168 169 172 173 176 176 180 183 183 183 181 178 172 169 168 168 170 176 185 187 185 185 187 190 187 183 182 181 180 179 181 185 186 188 189 190 189 182 179 175 177 185 216 249 251 251 251 251 251
246 246 246 246 246 246 196 93 58 51 53 58 63 67 67 65 61 57 58 60 61 63 67 70 70 71 72 75 75 78 88 90 85 81 77 75 74 74 77 82 80 77 79 84 86 89 92 95 93 90 95 102 108 116 134 158 172 178 187 190 177 120 95 87 83 83 85 91 92 93 96 99 100 95 92 92 98 107 110 118 123 124 129 122 106 106 114 115 114 113 110 110 111 114 119 123 124 124 127 127 127 126 126 127 123 116 119 123 126 125 122 121 122 124 125 126 128 130 133 134 135 137 136 136 138 140 143 145 149 148 147 148 151 153 153 152 150 149 150 153 157 158 159 159 158 157 155 152 151 150 149 149 150 151 152 154 155 155 153 151 149 148 148 148 149 150 149 150 153 154 155 156 156 154 156 158 161 164 164 164 163 162 160 156 154 152 151 151 152 156 158 160 165 170 175 177 183 189 190 187 182 180 176 172 169 170 172 172 174 175 177 178 178 182 184 183 182 180 177 171 168 167 167 169 175 183 185 183 183 186 190 187 184 183 181 180 179 180 184 186 188 190 191 189 181 179 174 177 188 219 249 251 251 251 251 251
246 246 246 246 246 246 199 98 61 52 53 57 62 67 68 66 61 57 58 60 61 63 67 70 70 71 71 72 72 76 86 88 83 79 76 75 74 74 78 82 80 77 79 84 86 89 92 94 91 87 90 97 102 110 129 154 168 174 183 186 174 118 93 85 81 82 85 91 92 93 96 100 101 94 91 91 98 107 110 119 124 124 130 123 107 107 115 116 115 114 110 110 111 114 119 123 124 123 126 126 126 125 124 126 123 116 118 122 125 123 121 120 121 122 124 125 128 130 132 134 135 137 137 136 138 140 142 144 148 148 148 149 151 153 152 152 150 149 150 153 156 157 158 157 157 156 153 150 149 148 148 147 149 151 151 153 154 154 152 150 148 147 147 147 149 150 149 150 153 155 155 155 155 154 155 157 160 163 163 163 162 161 159 155 153 151 150 150 151 155 157 160 164 169 174 175 181 187 188 185 180 179 175 172 170 171 173 173 174 176 176 177 177 181 183 182 180 178 175 168 165 164 164 166 172 181 183 182 182 185 190 188 184 183 181 180 179 180 185 187 189 191 192 190 181 178 173 177 189 221 250 251 251 251 251 251
246 246 246 246 246 246 204 107 66 53 52 55 61 66 69 67 62 57 59 61 62 64 68 71 71 73 71 68 66 69 79 81 77 75 74 74 74 75 79 84 81 77 79 84 86 89 92 93 90 83 85 90 95 102 120 144 159 165 175 179 168 115 92 84 80 82 85 92 92 92 96 100 101 94 91 91 99 109 114 124 131 132 139 134 119 119 126 126 124 122 116 115 114 116 119 121 121 120 123 123 123 122 121 123 121 116 118 122 125 123 121 120 120 121 124 126 130 132 135 137 138 139 139 138 140 140 141 142 147 147 148 149 151 153 152 152 150 148 150 152 155 155 155 155 154 153 150 147 146 146 146 147 149 150 151 151 152 153 151 149 148 148 148 149 151 153 153 154 157 158 158 159 158 156 157 158 160 163 163 162 161 160 158 154 152 151 150 150 151 155 157 158 162 167 171 172 177 183 183 180 176 175 173 170 170 172 175 174 175 176 176 176 175 178 179 177 174 171 168 162 160 158 158 159 165 174 177 177 178 183 189 188 184 183 182 180 179 180 185 187 190 191 192 189 180 177 173 178 192 223 250 251 251 251 251 251
248 248 248 248 248 248 207 114 69 53 49 51 59 65 69 68 64 60 60 61 61 63 66 69 69 73 71 64 61 65 76 77 75 74 74 75 77 79 83 88 83 78 78 82 85 89 93 94 90 84 84 86 88 93 108 128 141 149 159 164 156 110 90 83 80 82 86 92 92 90 94 98 99 94 91 93 101 112 116 126 132 133 140 137 123 125 130 130 128 125 119 117 116 117 119 120 119 119 121 122 123 121 120 123 121 116 117 121 123 122 120 120 121 122 125 128 130 133 135 137 138 139 138 138 139 139 139 141 145 145 146 147 149 151 151 151 149 148 150 151 153 153 153 152 152 151 148 146 145 145 147 148 150 150 150 150 151 151 149 148 147 148 149 149 151 152 152 154 157 158 158 159 158 157 158 158 159 161 160 160 159 158 157 154 153 151 151 151 151 154 155 157 160 164 167 168 172 177 177 174 171 170 169 168 169 173 176 177 177 177 177 175 173 174 174 171 168 165 162 158 157 156 156 157 163 170 172 172 175 180 187 187 186 185 184 183 182 182 184 186 188 190 190 187 180 178 174 182 197 226 249 249 249 249 249 249
250 250 250 250 250 250 212 125 76 54 46 46 55 63 68 69 67 64 62 61 62 63 65 66 68 74 71 62 59 64 74 75 73 72 73 74 77 81 85 89 84 78 77 79 83 88 91 92 89 84 83 83 84 87 99 115 127 134 145 151 145 107 91 84 81 84 88 94 92 89 92 96 98 94 94 98 107 118 123 131 137 140 147 145 133 137 142 141 139 136 129 126 124 123 122 121 119 119 121 122 123 122 121 123 123 119 120 124 126 125 123 123 123 123 126 129 131 134 136 137 138 139 138 138 138 137 136 138 141 143 144 145 147 149 149 149 148 147 148 149 150 150 149 149 148 148 146 143 143 144 146 149 150 150 149 149 150 150 148 147 148 149 150 151 153 154 155 156 159 160 160 160 159 157 158 158 158 158 158 157 156 156 155 152 151 151 150 151 151 153 153 155 157 161 163 164 167 171 171 169 166 165 165 166 169 173 177 178 178 178 177 174 171 170 169 166 163 160 157 154 153 152 153 154 159 166 166 167 171 177 185 186 186 186 185 185 184 183 185 186 188 189 188 185 180 177 175 185 203 230 248 248 248 248 248 248
251 251 251 251 251 250 218 138 82 56 45 46 58 66 70 71 69 68 63 61 62 64 66 67 70 75 70 61 55 58 67 67 68 70 72 73 77 81 83 85 79 73 72 74 81 87 91 92 89 83 79 77 77 82 95 111 124 133 146 153 150 115 98 90 85 86 89 94 94 90 91 96 97 95 101 110 122 136 142 151 158 161 169 165 152 158 163 160 157 153 144 138 133 130 127 123 121 121 124 125 127 127 126 128 127 123 124 130 133 132 128 127 126 126 129 132 134 136 138 139 139 139 139 137 137 135 134 135 137 138 139 140 144 147 148 148 146 144 144 145 146 145 144 144 144 144 142 139 139 140 143 149 151 151 150 150 150 149 148 148 149 150 153 154 155 156 158 160 163 164 165 166 163 161 162 161 160 159 157 156 155 154 153 152 151 150 149 149 149 148 149 150 153 157 160 162 165 168 168 166 163 160 161 163 167 173 178 182 182 181 180 177 174 170 167 162 157 152 148 147 148 147 147 148 152 156 153 154 159 169 181 185 189 189 188 187 186 184 181 182 184 184 183 183 182 179 175 188 209 234 243 243 243 243 243 243
251 251 251 251 251 250 223 150 88 59 49 50 65 72 73 72 70 68 60 58 60 64 66 67 72 76 69 62 54 55 62 62 64 68 71 72 75 79 78 78 71 67 67 70 79 87 92 94 90 83 74 69 68 76 92 109 125 137 153 161 158 125 108 98 89 89 90 96 98 93 93 98 99 99 108 119 134 151 158 166 173 174 180 175 161 168 173 170 168 165 156 151 148 145 141 137 134 134 138 140 141 141 139 139 135 129 127 134 138 138 134 131 130 129 130 131 132 134 136 137 137 137 137 135 134 133 133 133 135 135 136 137 141 143 145 145 142 139 140 141 142 141 140 140 140 140 139 138 138 141 144 152 154 154 153 152 152 151 150 151 152 154 156 156 156 155 158 160 164 163 164 165 162 160 161 161 160 157 154 153 152 152 151 150 150 149 148 148 147 146 147 149 153 157 161 165 168 170 169 166 161 158 159 163 168 175 181 187 186 185 183 178 174 168 163 158 152 147 142 143 145 144 143 143 146 147 141 140 147 160 177 183 189 190 189 188 186 182 176 177 179 180 181 183 185 181 176 191 214 237 238 238 238 238 238 238
248 248 248 248 248 247 225 160 95 66 55 56 71 77 77 75 72 69 61 58 60 64 67 68 74 78 71 66 58 59 65 64 64 66 67 66 68 71 69 68 61 58 61 66 76 85 91 94 90 83 71 64 62 69 85 102 118 132 149 157 157 128 112 101 92 91 93 100 103 97 94 99 101 102 112 123 138 156 162 169 174 174 179 174 161 171 177 177 178 177 171 169 169 168 165 161 157 157 161 161 161 158 153 151 145 136 129 135 140 140 137 135 133 131 129 128 129 130 132 133 134 135 135 133 132 131 130 130 132 134 135 136 138 139 140 140 136 134 136 138 138 137 137 138 138 138 139 139 141 147 151 156 158 157 157 156 156 155 154 155 156 159 160 159 157 156 158 160 163 162 161 161 156 155 158 157 155 152 149 148 148 148 148 148 148 148 148 149 148 148 149 153 157 161 165 168 170 172 169 164 159 157 159 162 168 176 182 186 184 181 178 172 167 160 156 151 146 142 139 140 142 142 142 142 144 144 137 136 143 158 177 182 189 189 188 187 184 181 175 176 178 180 181 183 186 182 177 191 216 238 236 236 236 236 236 236
245 245 245 245 245 245 225 168 104 74 62 62 72 76 74 71 68 67 61 61 64 68 71 72 75 76 70 67 59 58 64 63 63 65 67 66 67 68 65 64 57 54 57 62 73 82 89 92 89 81 70 63 60 65 78 95 109 122 139 148 150 127 116 107 98 97 99 106 109 101 99 103 104 104 115 127 140 157 162 168 171 169 173 168 156 166 173 174 177 178 174 176 179 180 178 175 172 172 176 176 176 172 167 164 158 147 137 139 143 144 141 139 137 133 128 126 125 127 128 128 129 130 130 129 128 129 129 130 131 133 134 135 136 135 135 135 132 134 137 139 139 139 139 139 140 140 141 142 145 151 155 158 159 159 159 158 158 157 157 157 158 160 161 158 155 154 155 156 158 156 155 153 149 148 151 151 150 148 145 144 145 146 147 147 148 149 150 151 151 151 153 156 159 162 165 166 167 167 163 158 152 151 154 158 163 170 175 178 175 171 168 163 158 153 150 146 142 139 137 138 140 140 140 140 141 141 135 133 140 157 177 182 187 188 187 186 183 180 175 176 177 179 181 183 186 182 176 192 216 236 236 236 236 236 236 236
242 242 242 242 242 242 228 178 115 80 65 63 69 71 70 67 66 65 63 64 67 70 72 73 74 73 67 65 57 55 63 64 66 68 70 70 70 70 67 66 58 55 57 63 72 81 87 91 88 81 71 65 60 63 72 85 97 109 124 134 139 125 120 114 107 106 108 116 116 107 104 107 108 107 117 131 143 157 161 166 168 166 170 166 156 167 174 175 178 179 177 179 183 183 181 177 174 174 177 177 177 175 171 169 167 156 145 143 146 147 144 142 138 132 127 125 125 126 126 126 127 128 128 127 126 127 127 127 129 132 134 135 135 132 130 130 129 135 139 139 139 139 139 139 140 140 140 141 144 149 152 156 157 157 157 157 157 156 156 156 158 159 160 158 155 155 155 155 156 154 151 148 145 144 147 146 145 143 142 142 143 145 146 147 149 151 152 154 155 156 157 159 161 162 162 160 158 157 153 148 144 145 148 153 159 165 170 170 166 163 160 156 152 149 147 144 140 137 135 136 137 137 136 136 137 137 133 132 139 157 178 182 185 185 185 184 182 179 177 177 178 180 181 182 184 178 172 192 217 235 238 238 238 238 238 238
239 239 239 239 239 239 231 189 126 83 65 64 69 72 73 71 68 67 66 67 69 71 73 74 74 71 65 65 58 54 62 66 68 71 74 76 76 75 72 69 60 54 54 60 69 77 83 88 87 82 76 70 65 65 69 77 85 95 109 119 128 124 127 126 119 120 123 132 131 121 120 124 127 124 133 147 157 166 168 170 170 168 171 167 160 172 179 179 181 182 180 181 184 184 182 176 173 173 175 176 177 176 173 173 174 166 153 148 146 147 144 141 138 132 127 125 126 126 126 126 126 126 126 126 125 125 125 125 126 131 133 133 131 127 125 125 128 138 142 141 140 139 138 139 139 140 139 140 142 146 148 151 153 153 153 154 154 154 154 155 157 158 159 157 155 155 156 154 154 152 150 146 144 144 145 145 144 143 143 144 147 150 153 155 158 160 162 164 164 165 164 164 163 161 158 154 149 146 142 138 136 138 144 149 155 160 164 161 156 154 152 149 146 145 144 141 138 135 134 134 134 133 131 129 130 131 129 129 137 158 179 181 184 183 183 182 181 179 179 180 182 183 183 183 182 175 168 192 218 234 239 240 240 240 240 240
237 237 237 237 237 237 238 209 145 92 67 62 64 68 73 72 70 68 68 69 69 70 71 72 72 71 68 68 63 58 65 68 69 70 73 76 77 76 74 72 64 59 58 62 68 74 78 84 84 81 77 75 72 72 73 78 81 88 99 109 121 125 135 138 133 136 140 149 143 131 131 137 143 139 148 165 173 178 177 176 174 172 175 171 166 179 187 188 188 189 186 185 186 185 181 174 172 172 172 173 176 176 174 177 182 176 165 157 152 152 149 144 141 133 128 127 128 129 128 127 126 126 125 125 124 124 124 124 125 130 133 132 130 125 122 123 129 141 145 143 141 139 138 138 139 139 139 139 140 142 144 147 149 150 151 152 153 153 154 154 156 157 158 157 157 157 156 154 152 151 148 145 144 144 144 145 144 145 146 148 151 155 159 162 165 168 170 172 172 172 170 167 163 159 154 147 142 137 134 132 132 135 141 146 151 155 157 152 147 146 146 145 143 143 142 140 137 134 133 130 129 126 123 121 122 125 126 126 136 161 181 181 182 181 180 180 180 179 181 183 185 186 184 181 179 170 165 195 222 236 242 242 242 242 242 242
237 237 237 237 237 238 245 227 166 104 69 59 57 61 69 71 71 69 70 70 68 66 66 67 68 72 72 71 70 67 71 71 70 69 70 73 75 75 75 75 71 68 65 67 70 72 74 78 79 78 78 78 78 80 80 81 81 85 93 102 113 123 136 141 138 143 148 156 144 130 131 138 147 145 157 178 185 187 184 181 177 173 175 169 166 179 189 191 191 192 190 188 187 186 182 175 172 173 173 175 178 179 179 182 189 185 177 169 163 162 157 151 146 137 132 130 130 130 128 127 126 124 123 124 123 123 124 124 125 131 134 134 130 126 123 125 131 143 145 143 141 139 139 139 139 140 139 139 139 139 141 147 149 149 151 153 154 155 155 155 156 157 157 156 156 156 154 151 148 147 144 141 141 142 141 142 142 143 145 148 151 155 159 163 166 169 171 173 173 171 168 164 159 154 148 142 137 133 131 131 132 136 141 145 148 151 152 146 142 143 144 145 144 144 144 141 138 135 132 128 125 121 117 116 118 122 124 124 135 163 182 181 180 179 179 179 180 180 184 186 187 187 183 179 177 168 166 202 228 239 244 245 245 245 245 245
238 238 238 238 238 238 246 229 175 114 76 61 55 60 68 71 71 69 70 69 66 63 63 65 67 74 76 70 71 70 73 72 69 67 67 70 72 73 75 77 75 72 68 68 68 68 68 71 72 72 75 78 80 83 83 82 80 81 85 91 98 103 114 119 119 126 134 142 128 116 120 130 144 147 160 182 189 190 186 185 180 176 176 170 166 177 187 189 189 190 188 186 186 186 184 180 178 179 178 179 180 179 178 181 188 185 181 175 168 165 159 151 145 138 133 131 132 131 130 129 128 127 126 127 126 126 126 125 126 131 133 133 131 129 128 130 135 141 142 140 138 136 136 136 137 138 137 137 137 138 141 146 148 149 151 154 155 157 157 155 156 155 155 154 155 155 153 149 146 146 143 141 142 143 142 143 143 145 147 150 152 155 158 159 161 163 163 164 163 161 158 154 149 145 140 136 133 132 133 135 138 142 145 148 150 151 151 145 142 143 144 145 144 145 145 142 139 136 133 127 123 118 115 114 116 122 125 126 138 166 183 181 179 178 177 178 179 180 186 188 190 189 185 179 176 169 170 205 229 240 246 246 246 246 246 246
239 239 239 239 239 240 246 228 176 117 79 64 59 64 71 74 72 69 68 67 63 60 60 63 66 76 77 69 70 70 72 71 67 65 65 69 72 73 75 77 75 71 67 65 65 64 64 67 69 70 73 77 78 82 82 81 79 78 82 85 91 93 101 106 106 115 123 131 118 109 114 128 145 150 165 185 192 193 190 188 183 179 178 171 166 176 186 188 188 189 187 185 185 187 186 183 182 182 182 182 182 180 178 180 187 184 182 177 169 165 158 150 145 138 134 132 132 132 131 130 129 129 128 128 128 128 128 126 126 130 132 131 130 129 131 132 137 140 140 138 136 134 134 135 135 136 135 136 136 138 140 145 148 148 150 153 154 156 156 155 155 154 153 153 153 153 151 147 145 145 143 141 143 144 144 145 145 147 149 151 153 155 157 158 159 160 159 159 157 154 151 147 143 139 135 133 132 132 134 137 140 144 147 150 151 151 151 146 144 145 146 147 145 145 145 142 139 137 133 127 123 118 114 113 116 121 123 124 137 166 184 182 180 179 178 179 179 180 186 189 191 191 186 181 178 172 174 208 230 241 246 246 246 246 246 246
243 243 243 243 243 243 245 228 180 124 87 70 65 66 71 73 72 70 68 66 63 60 60 61 66 75 76 69 70 70 71 69 67 65 65 68 71 73 75 76 75 71 67 64 64 64 64 67 69 71 74 77 79 83 82 80 77 77 81 84 88 91 98 101 101 109 116 122 110 101 106 119 135 144 162 184 192 194 192 190 184 180 179 172 167 177 185 188 188 188 186 184 185 186 185 183 182 183 184 184 184 182 180 181 186 183 182 178 171 167 160 151 147 141 136 134 133 133 132 131 130 130 129 129 128 129 129 126 125 128 129 129 128 129 131 132 137 138 137 136 134 132 133 133 134 135 135 136 137 138 141 146 148 149 150 152 154 155 155 153 153 153 152 151 150 150 148 145 144 143 142 141 142 143 144 145 145 146 147 149 151 152 154 155 156 156 155 154 152 148 145 142 139 135 133 132 132 133 135 138 140 143 145 148 149 149 149 146 144 145 146 147 146 145 143 141 138 135 131 127 124 120 117 116 118 122 122 123 136 164 183 182 182 181 181 182 182 183 186 188 189 188 185 182 183 179 181 213 234 243 246 246 246 246 246 246
246 246 246 246 246 246 245 229 186 135 98 77 67 64 65 67 69 70 69 67 65 62 60 61 64 73 76 68 68 70 70 68 66 65 64 66 69 72 73 75 75 73 68 64 63 63 63 65 68 72 75 79 81 84 83 79 77 76 80 81 85 87 92 94 94 101 107 111 97 88 93 103 119 131 153 179 188 192 191 190 186 182 181 173 168 177 185 187 187 188 186 184 184 185 185 182 181 183 185 185 185 184 182 182 185 183 182 181 176 172 165 156 150 145 140 137 135 135 134 133 131 131 131 130 130 130 131 128 125 127 127 127 128 129 132 133 136 135 134 133 131 131 132 133 134 135 136 137 138 139 142 148 150 150 152 153 154 155 154 152 152 151 150 149 148 147 145 143 142 141 140 140 141 142 143 144 144 144 145 146 146 147 147 149 149 148 148 147 145 141 138 136 134 132 130 132 133 134 136 139 142 143 144 146 146 146 146 145 144 145 146 147 146 144 142 140 137 133 129 126 125 122 120 119 121 123 123 123 135 163 182 183 184 184 184 185 186 185 186 187 186 185 182 182 186 185 189 218 237 245 246 246 246 246 246 246
248 248 248 248 248 248 246 234 195 147 108 84 69 61 59 62 65 69 69 69 67 65 63 62 65 73 78 68 68 72 71 69 67 66 65 65 67 70 70 73 74 74 69 65 64 64 64 65 68 73 76 79 82 85 84 79 76 76 79 80 84 87 91 93 93 99 104 107 91 82 84 93 107 120 146 175 186 190 191 190 187 184 183 175 170 179 186 188 188 189 187 184 183 184 183 180 180 182 184 184 184 184 182 182 184 182 183 183 180 177 170 161 156 151 147 143 141 140 139 138 136 136 136 135 134 134 135 131 128 128 128 128 129 131 133 134 136 134 133 132 131 131 132 133 134 135 137 138 139 140 143 148 150 150 152 153 153 153 152 150 149 148 148 147 146 144 143 142 140 139 139 139 140 141 142 143 143 142 143 143 143 144 144 145 145 145 144 144 142 138 136 134 132 131 130 132 134 135 137 140 142 142 143 145 145 144 144 144 143 144 145 146 145 142 140 138 135 131 127 125 124 122 121 122 124 125 123 123 134 162 182 183 186 186 187 188 188 187 186 185 184 181 180 181 189 190 196 223 241 247 246 246 246 246 246 246
247 247 247 247 247 247 245 237 205 162 123 93 73 60 55 57 62 68 69 70 68 66 63 61 64 73 79 68 68 74 73 71 70 68 65 63 65 67 68 71 74 75 71 67 66 66 65 65 68 72 76 80 82 85 82 76 74 73 75 77 80 86 89 91 92 99 104 105 88 78 79 86 99 116 145 175 185 190 191 191 188 187 187 181 177 184 189 190 189 190 188 185 182 182 180 177 177 179 180 181 183 183 182 182 183 183 185 187 185 183 178 171 168 166 163 161 159 158 157 155 153 153 152 150 149 149 149 143 138 135 134 134 134 135 136 137 138 135 134 134 133 133 133 134 135 136 138 138 139 140 142 146 147 147 148 148 148 147 145 142 141 140 140 140 139 138 138 137 136 135 136 137 139 140 140 142 142 141 142 142 142 142 142 143 144 144 144 144 143 139 138 137 136 135 134 136 137 138 140 142 145 143 143 144 144 143 143 143 143 143 143 143 142 139 137 135 132 129 125 124 124 123 123 124 125 125 123 122 133 161 181 183 185 186 187 188 189 187 186 184 182 178 178 181 191 195 203 228 242 246 246 246 246 246 246 246
247 247 247 247 247 247 245 239 213 174 135 103 79 62 54 56 61 66 69 70 69 66 63 61 63 72 80 68 68 75 74 73 71 69 65 63 63 65 67 71 75 77 74 69 68 67 66 65 67 71 76 79 82 84 81 75 72 72 73 74 78 83 87 89 91 98 103 103 86 76 76 83 97 114 145 176 185 189 191 191 190 190 190 185 181 187 191 192 191 191 190 187 183 183 181 178 177 178 180 180 182 183 181 181 183 183 186 188 186 184 180 174 172 171 170 168 167 166 165 164 162 161 161 159 157 156 155 148 142 138 135 135 135 136 137 137 137 135 134 133 132 132 133 134 135 136 137 138 138 139 141 144 145 145 146 146 145 144 142 138 137 137 137 138 137 136 136 136 135 135 136 138 139 140 140 142 142 141 142 142 142 141 141 143 143 144 144 144 144 141 140 140 139 138 137 138 139 139 141 143 145 144 143 144 143 142 141 141 141 141 141 141 139 137 135 133 131 128 125 123 123 122 123 124 126 126 124 123 133 162 182 183 185 185 186 187 188 187 187 185 182 178 178 182 193 198 207 230 243 246 246 246 246 246 246 246
243 243 243 243 243 244 248 248 227 191 152 116 84 63 53 52 56 62 68 71 71 69 65 63 62 70 79 66 67 75 75 75 74 71 67 65 63 62 65 69 75 79 77 75 72 70 67 65 66 68 73 77 82 84 81 76 73 72 72 72 75 81 85 87 90 98 103 104 86 76 76 82 96 112 143 174 183 187 189 191 191 192 192 187 184 188 191 191 190 190 189 187 184 183 182 180 180 180 180 180 181 181 180 180 183 184 187 188 186 184 180 175 172 171 171 170 170 170 169 168 167 166 165 164 162 160 157 149 143 138 136 135 135 135 135 135 135 133 132 131 131 131 132 132 133 134 134 135 135 137 138 141 143 144 145 145 144 144 141 136 135 135 135 136 137 137 137 136 136 136 137 138 139 140 140 141 142 143 144 143 142 142 141 141 141 142 143 143 143 142 142 142 141 139 138 138 137 138 139 142 144 144 144 143 141 140 139 137 136 136 135 135 134 134 134 132 130 127 124 121 120 119 120 121 122 124 125 124 134 163 183 183 182 182 184 185 185 186 188 185 182 180 180 184 193 200 211 232 242 244 248 248 248 248 248 248
241 241 241 241 241 242 248 252 237 205 166 128 91 65 52 49 53 59 68 72 72 71 67 65 62 69 78 64 66 74 75 76 75 73 69 66 62 61 64 68 76 80 80 78 75 72 69 66 66 67 72 76 81 84 81 77 74 72 72 71 74 79 82 85 89 97 102 103 84 74 74 79 93 109 140 172 181 184 187 191 191 193 193 189 186 188 190 190 189 189 188 186 184 183 183 182 181 181 180 180 181 181 179 180 183 184 187 187 186 184 180 176 172 172 173 173 173 173 173 172 171 171 170 168 166 164 160 150 145 139 135 135 135 135 134 134 134 132 131 130 131 131 131 132 132 133 133 133 134 136 137 139 142 143 143 144 143 143 139 134 133 132 133 134 136 137 136 136 135 136 137 137 139 140 139 141 142 143 144 143 142 141 140 139 139 140 141 141 142 142 142 142 142 140 139 138 137 137 139 141 143 144 143 142 140 138 137 134 133 132 131 131 130 132 132 131 128 125 123 119 118 118 119 120 121 123 125 124 133 163 183 183 181 181 182 183 183 185 188 185 182 179 181 186 195 203 215 234 241 243 248 249 249 249 249 249
241 241 241 241 241 242 248 253 243 216 180 141 100 70 53 48 50 56 66 71 73 72 70 67 62 68 77 64 65 73 74 75 75 73 70 66 63 60 63 67 75 80 80 79 77 74 71 67 67 68 72 76 81 83 80 76 74 72 72 72 74 79 81 84 88 96 100 100 82 73 72 77 90 106 138 170 179 182 186 190 191 194 194 191 188 188 188 188 187 187 186 185 183 183 183 182 182 181 181 180 181 181 179 180 182 183 186 186 185 183 180 176 173 174 175 175 176 176 176 175 174 174 173 171 170 168 163 152 146 139 134 134 134 134 133 133 132 131 130 130 130 131 131 132 132 133 133 133 134 136 137 138 141 142 142 142 141 141 137 132 131 131 131 133 134 135 135 135 135 136 136 137 139 140 140 141 142 144 145 144 142 141 140 138 138 139 140 140 140 141 142 142 142 141 140 138 138 138 138 140 142 142 141 140 137 136 134 132 131 130 128 128 128 129 130 129 126 124 122 119 118 118 119 121 121 123 124 123 132 162 184 183 181 182 183 183 183 184 187 184 181 179 182 189 199 209 221 237 242 243 249 249 249 249 249 249
241 241 241 241 241 242 248 255 249 226 193 153 110 76 54 46 48 53 64 70 73 73 71 68 62 66 75 63 63 72 72 74 75 74 71 68 63 61 63 66 74 80 81 81 78 76 73 69 69 69 72 76 80 82 79 76 74 73 73 72 75 80 82 84 88 95 98 98 80 72 69 74 86 102 134 167 176 180 184 189 191 194 195 191 189 188 188 187 186 185 185 184 182 182 182 182 182 181 181 181 181 181 180 180 182 183 185 185 185 184 181 177 175 176 177 177 178 178 178 177 176 177 176 174 172 170 165 154 146 139 134 134 133 133 133 132 131 130 129 129 130 130 131 131 131 132 132 133 134 135 136 137 140 141 141 141 140 139 135 130 130 129 130 131 133 134 134 134 134 135 136 137 138 139 139 140 141 142 143 142 140 139 138 136 136 137 137 138 139 140 141 142 141 141 140 138 137 137 137 138 140 140 139 137 135 134 132 130 129 127 126 126 125 127 128 127 124 122 120 118 117 118 119 120 120 121 123 121 130 160 183 183 181 182 183 183 183 183 186 183 180 178 183 191 202 213 225 239 243 243 248 249 249 249 249 249
241 241 241 241 241 242 247 255 254 236 205 166 121 83 57 46 46 51 61 68 72 74 72 69 63 64 73 63 62 70 69 73 74 75 73 70 65 61 62 65 73 79 81 81 79 77 75 71 71 71 73 76 80 82 78 75 74 73 73 73 76 81 83 84 88 94 96 95 79 71 69 72 84 100 132 165 173 178 183 188 191 194 195 192 190 188 187 186 184 184 183 184 182 183 183 183 183 182 182 182 183 182 181 182 183 183 185 185 185 183 181 178 175 177 178 178 179 179 179 179 178 178 177 176 174 171 166 154 147 138 133 133 132 132 132 131 129 129 129 129 129 130 130 131 131 132 132 132 134 135 135 136 139 140 140 139 139 137 134 129 129 128 129 130 132 133 133 133 134 135 136 136 138 138 138 139 140 142 142 141 139 137 136 134 134 135 136 136 137 139 140 141 141 141 140 138 137 136 136 136 137 138 136 135 133 132 130 127 126 125 123 123 123 125 126 125 123 120 119 117 117 118 120 120 119 120 121 119 128 159 183 183 181 182 184 183 182 183 185 181 179 178 185 195 207 219 230 241 244 243 248 249 249 249 249 249
242 242 242 242 242 242 246 255 255 244 217 178 132 91 61 47 44 49 59 66 71 74 73 70 63 62 71 63 61 68 67 70 73 75 74 71 66 62 63 65 72 78 81 81 80 79 77 73 73 72 74 76 80 81 77 75 74 74 75 75 78 83 84 85 88 92 93 92 77 71 67 71 82 97 129 162 170 175 181 187 190 194 195 192 190 188 186 185 183 182 182 183 183 183 183 183 184 183 183 183 184 184 183 183 183 183 184 183 184 183 181 178 176 177 178 178 179 179 180 179 178 179 178 177 175 173 167 155 147 138 132 132 131 131 131 130 128 128 128 128 129 130 130 131 131 132 132 133 134 135 135 136 138 140 139 138 137 135 132 129 128 128 129 130 131 132 132 133 134 135 135 136 137 137 138 139 140 141 141 139 137 136 134 133 132 133 134 134 135 137 139 140 141 140 140 138 137 136 135 134 135 135 133 132 130 129 128 125 124 122 121 121 121 123 124 123 121 119 118 117 118 119 121 121 119 119 119 117 126 157 183 183 182 183 184 184 182 182 183 179 177 177 186 198 212 224 235 243 244 243 248 248 248 248 248 248
246 246 246 246 246 246 243 250 251 243 220 185 143 101 69 52 48 51 56 62 67 71 70 67 63 61 69 65 62 67 64 66 71 73 73 71 68 66 65 65 71 76 77 77 77 77 77 75 75 77 78 78 80 80 76 71 72 73 76 76 79 86 86 86 88 90 89 86 75 70 66 70 81 98 131 164 172 178 184 188 190 194 194 192 189 189 186 184 183 182 182 183 182 182 182 181 182 182 183 184 186 187 187 185 183 182 181 182 183 182 181 179 177 180 181 180 180 180 180 179 178 179 179 177 175 173 168 156 147 136 130 129 129 129 131 130 128 128 129 129 129 129 130 131 131 132 134 135 136 137 137 137 138 139 138 136 135 132 130 127 127 127 128 128 128 128 129 131 132 133 134 136 136 137 138 139 140 139 139 138 136 135 133 133 133 133 134 134 134 135 136 137 138 139 139 139 138 136 135 134 133 131 130 129 127 127 126 126 126 124 123 122 122 122 121 121 119 117 117 119 121 122 124 124 122 118 115 113 123 153 180 183 185 186 187 186 184 183 180 177 175 176 186 201 219 231 241 246 247 245 246 246 246 246 246 246
247 247 247 247 247 247 242 248 250 247 228 195 156 113 77 58 51 52 55 59 65 69 70 67 63 60 66 66 62 66 62 64 70 73 74 71 69 67 65 64 69 74 75 75 76 77 78 77 78 80 79 78 80 80 75 70 71 74 77 78 81 88 87 86 87 87 86 83 75 71 67 71 83 101 134 166 174 181 186 189 191 195 195 193 190 189 186 183 182 181 181 182 182 182 182 182 182 183 185 185 187 189 189 187 183 182 180 181 182 181 180 179 178 182 183 182 182 182 182 181 180 180 181 178 177 175 171 158 148 136 129 128 128 128 131 131 129 129 129 129 129 129 131 131 132 132 134 135 137 137 137 136 137 137 136 134 133 130 127 125 125 126 126 127 126 126 127 129 131 132 133 136 136 137 139 140 140 139 139 137 136 134 133 133 133 133 133 133 133 132 133 135 136 137 138 139 138 136 134 133 131 128 127 126 126 125 125 126 126 124 123 122 122 121 120 119 117 116 116 119 122 123 125 125 122 117 112 110 120 151 179 183 186 187 188 187 185 182 178 175 174 176 188 205 225 237 245 248 248 246 244 244 244 244 244 244
248 248 248 248 248 247 241 248 251 251 236 206 169 126 89 66 56 54 54 57 62 67 68 65 63 58 64 66 62 65 61 63 69 73 75 73 71 69 66 64 67 72 73 73 75 77 78 77 79 81 80 78 79 80 75 70 72 75 78 79 81 88 87 85 86 85 83 81 76 74 70 76 90 108 140 169 177 183 187 190 192 195 194 192 190 189 185 182 181 180 180 181 182 182 183 183 184 184 186 187 189 190 190 188 184 182 180 181 182 181 180 179 179 184 185 184 184 184 184 183 182 183 183 181 180 178 173 161 150 138 130 129 128 129 132 132 130 130 130 130 130 129 131 131 131 132 133 135 137 137 136 135 136 135 134 132 130 128 125 124 124 124 125 124 124 124 125 127 129 130 132 135 135 136 138 139 140 139 138 137 136 134 133 134 133 132 132 132 132 131 132 134 135 136 137 138 137 136 133 132 130 127 125 125 124 124 123 126 125 123 122 121 121 119 118 118 116 115 115 119 122 123 124 123 120 114 109 108 118 150 178 183 186 187 188 186 184 181 177 175 176 179 192 209 230 241 248 249 248 245 243 243 243 243 243 243
248 248 248 248 248 248 240 246 251 254 242 215 181 140 102 76 63 57 54 55 59 64 65 64 62 57 61 68 64 65 60 61 67 72 74 74 73 71 68 65 68 71 72 72 74 76 77 77 79 82 81 80 80 81 76 71 73 75 79 79 81 88 87 86 85 83 81 79 77 77 74 83 99 117 148 175 181 186 190 191 192 195 194 192 190 189 185 182 181 179 179 181 182 183 183 183 184 185 187 188 190 191 191 189 185 183 181 181 181 179 179 178 179 184 185 185 185 185 185 184 183 184 184 182 181 179 174 162 151 138 130 129 128 128 132 133 131 130 130 130 129 128 130 130 130 131 132 134 135 136 134 133 133 132 131 129 128 125 123 121 122 122 123 122 122 122 123 125 127 128 131 133 134 135 137 139 139 138 137 136 136 134 134 134 133 132 132 131 131 130 131 132 133 134 135 137 136 134 132 130 129 125 124 123 123 122 121 124 124 122 121 121 121 119 117 117 116 115 116 120 122 123 123 122 118 111 106 105 117 149 178 182 186 186 187 185 183 181 176 176 178 183 197 214 234 245 250 250 249 246 243 243 243 243 243 243
248 248 248 248 248 248 240 245 251 255 247 224 194 154 115 87 69 59 53 52 56 61 64 64 63 57 60 69 66 64 59 60 66 71 74 75 74 73 70 66 67 69 71 71 73 75 77 78 80 83 82 79 80 81 75 71 73 76 79 80 81 87 86 85 83 80 78 77 78 79 77 89 108 125 154 178 183 188 190 191 192 194 194 192 190 189 185 182 181 180 179 181 183 184 185 185 185 186 188 189 191 192 192 189 184 183 180 179 178 177 176 176 177 182 183 183 183 184 184 184 183 184 184 183 181 179 174 161 150 138 130 128 127 127 132 133 131 130 130 130 128 127 128 129 129 129 131 133 134 134 133 131 131 130 128 126 125 123 121 121 121 122 122 122 121 121 123 125 127 128 130 133 133 135 137 138 139 137 137 136 136 135 134 134 133 132 132 130 130 129 129 130 131 132 133 135 135 133 131 129 127 123 122 122 122 121 120 123 123 121 120 120 120 118 116 116 115 115 116 120 122 122 122 120 116 109 103 103 116 149 178 182 186 186 186 184 182 179 176 177 181 187 202 219 238 248 252 251 249 246 242 242 242 242 242 242
248 248 248 248 248 248 242 247 252 255 253 233 205 167 128 97 76 63 54 52 55 60 63 64 64 56 58 70 67 64 59 59 65 70 74 75 75 74 70 66 67 69 71 71 73 75 77 78 80 82 81 79 79 81 75 72 74 77 80 80 82 87 85 84 82 78 76 76 80 81 80 93 114 130 156 177 182 186 188 189 191 193 193 192 190 190 186 184 183 181 181 183 185 186 186 186 186 186 187 188 190 191 190 187 184 182 179 178 177 175 175 174 175 179 180 181 182 183 184 184 183 184 185 183 181 178 172 160 150 139 131 130 128 128 133 133 132 130 130 130 127 126 127 127 127 127 129 131 132 133 131 129 128 127 125 124 123 121 120 119 120 121 122 122 121 122 124 126 127 129 130 132 132 133 135 136 136 135 135 134 134 133 132 132 131 130 129 128 128 128 128 129 130 131 131 133 132 130 128 126 125 122 121 121 121 120 120 122 121 120 119 118 118 117 116 116 115 115 117 120 121 120 120 117 113 107 103 103 117 151 180 183 186 185 185 183 181 179 177 180 185 193 208 225 242 250 253 251 248 246 243 243 243 243 243 243
243 243 243 243 243 243 247 254 255 255 255 241 214 181 145 111 83 63 55 54 55 59 64 67 65 57 57 69 68 62 58 60 64 69 74 78 77 74 71 68 68 68 71 74 74 74 76 77 78 77 77 77 79 82 78 77 78 79 80 80 80 81 82 82 80 77 77 81 86 89 90 109 134 146 165 181 182 183 183 186 188 191 191 191 190 189 186 184 183 181 181 184 187 189 190 191 191 190 189 189 190 189 187 186 186 185 183 180 177 175 174 173 173 175 176 179 182 184 184 185 186 187 187 186 185 181 173 160 153 145 139 136 133 132 136 137 135 134 133 132 128 126 127 126 126 125 125 126 128 129 127 124 124 124 122 121 122 122 120 119 120 121 121 122 123 125 126 127 128 129 130 129 130 131 131 131 132 134 134 134 134 134 133 131 130 129 129 127 127 130 131 131 131 130 130 128 127 126 125 124 123 125 125 125 124 122 121 118 116 115 114 114 114 117 118 117 117 117 120 119 117 114 111 108 104 102 102 105 121 157 185 185 182 181 179 177 175 176 181 186 195 206 220 232 241 246 248 247 245 244 247 248 248 248 248 248
241 241 241 241 241 241 251 255 255 255 255 244 224 198 165 128 94 68 56 52 52 56 62 68 68 60 58 70 70 62 58 58 61 66 73 79 80 76 74 70 68 66 69 73 72 73 74 76 77 75 75 75 77 83 80 80 81 80 81 81 81 79 80 80 78 75 76 83 91 95 98 122 152 160 172 182 182 180 179 182 184 187 188 189 190 188 187 185 184 183 182 185 189 191 192 193 193 191 190 190 190 188 186 185 186 186 186 182 179 176 176 175 174 175 177 180 184 186 187 188 189 190 190 190 188 185 176 164 159 155 149 146 142 140 144 145 143 141 139 137 132 128 129 128 127 126 125 126 128 129 126 123 123 122 119 119 121 122 120 120 120 121 121 122 124 127 127 127 128 129 129 127 128 128 128 127 128 130 131 131 132 133 133 130 129 128 128 126 126 130 130 130 129 128 127 125 123 123 123 123 123 127 128 128 127 126 124 119 116 114 113 113 113 116 118 117 117 118 121 119 114 110 105 100 97 97 100 104 123 160 187 186 181 178 176 173 171 174 182 190 203 216 230 238 241 243 243 244 244 244 248 249 249 249 249 249
242 242 242 242 242 242 254 255 255 255 254 246 231 210 181 143 106 76 60 53 51 53 60 67 69 62 59 72 73 64 59 57 59 63 71 78 79 77 75 71 67 65 68 72 71 71 73 77 77 76 76 76 78 86 83 83 83 82 82 82 80 76 77 77 74 72 73 81 90 95 98 126 158 166 175 182 181 179 176 180 181 184 186 187 189 189 188 187 185 184 182 184 188 189 190 191 191 189 188 188 188 186 183 182 185 186 188 186 182 180 179 179 178 178 179 182 185 187 189 190 191 192 191 191 190 186 179 168 164 162 157 154 150 148 153 154 153 148 145 143 137 132 133 132 130 129 127 128 130 131 129 125 124 123 120 120 121 123 121 121 121 122 122 123 125 128 127 127 128 129 129 127 128 127 126 125 125 128 128 129 130 131 130 128 127 126 125 123 122 125 125 124 123 122 122 120 119 120 121 122 123 127 128 129 129 128 125 121 117 115 114 113 113 116 117 116 115 117 120 118 112 107 102 97 95 96 99 104 125 162 188 186 182 178 175 172 172 175 183 193 208 222 236 242 243 243 242 244 245 246 248 249 249 249 249 249
242 242 242 242 242 242 255 255 255 252 251 248 238 223 197 159 119 84 65 56 51 52 59 67 69 64 59 73 75 65 60 57 57 61 68 77 79 77 75 71 67 64 66 70 69 70 72 77 78 77 78 79 82 90 88 88 87 84 84 83 80 74 75 76 73 71 73 81 92 97 103 133 168 175 181 185 183 179 175 177 178 181 183 185 187 188 188 186 184 183 181 182 185 186 187 189 189 187 185 186 186 183 180 181 185 187 192 190 186 182 182 181 180 180 181 184 187 189 190 191 192 193 192 193 192 188 182 173 170 169 165 162 158 157 162 163 163 157 153 150 143 138 138 137 135 134 132 132 134 134 131 127 126 123 120 120 122 124 123 122 122 122 123 124 127 129 128 127 128 129 128 127 128 127 125 124 124 127 127 128 130 131 131 128 127 126 124 122 120 123 122 120 118 117 116 114 114 116 118 120 122 126 128 129 129 127 125 119 115 114 113 113 113 115 116 115 115 117 120 117 111 105 99 94 92 95 99 106 128 165 189 187 181 178 175 172 172 175 186 198 214 229 242 246 244 243 240 243 245 246 249 249 249 249 249 249
242 242 242 242 242 242 255 255 255 250 250 249 244 233 210 172 131 95 73 61 53 53 58 66 70 64 59 74 78 67 61 57 56 59 66 74 77 75 74 70 66 64 66 70 69 69 71 75 76 75 76 77 81 91 90 91 90 88 86 85 82 74 75 76 72 71 73 81 92 98 105 136 173 180 185 187 185 180 175 177 177 179 182 183 185 186 187 187 185 184 181 182 184 185 185 187 187 185 184 184 184 181 179 180 184 187 192 191 186 183 182 181 180 179 180 184 187 188 190 191 192 192 191 192 191 188 182 174 172 172 169 166 162 160 166 168 167 160 156 153 146 141 141 140 138 136 134 134 135 135 132 128 126 124 120 121 123 125 123 121 122 122 122 123 126 128 127 126 127 128 127 126 127 126 124 122 123 125 126 128 129 130 130 128 126 125 123 120 118 120 119 117 115 114 113 112 112 114 117 120 122 126 127 128 128 126 123 118 115 114 113 113 113 115 116 115 115 116 119 116 109 103 97 93 91 95 100 108 130 167 189 187 181 178 175 172 173 177 188 202 219 234 246 249 245 242 240 243 245 247 249 249 249 249 249 249
244 244 244 244 244 244 255 255 249 242 245 248 250 245 226 191 149 110 83 67 57 54 58 65 69 66 59 73 78 69 63 57 55 57 63 71 76 76 75 72 67 64 66 69 68 68 70 74 73 70 69 68 70 80 80 83 83 82 83 83 81 74 74 75 71 70 73 82 95 101 107 140 177 186 188 186 184 180 174 175 175 176 178 180 183 185 186 186 185 185 182 182 185 186 186 187 186 185 184 185 185 182 180 181 185 187 191 189 184 180 180 180 181 181 182 185 188 190 191 192 193 194 193 194 193 190 185 178 177 178 174 171 167 166 172 174 174 169 165 162 155 149 149 147 145 143 141 140 141 141 138 134 130 127 123 123 124 126 124 121 122 122 123 123 126 128 127 126 127 129 128 126 127 127 125 124 124 125 126 127 129 131 131 129 128 126 124 121 119 121 119 117 115 114 113 111 111 113 114 116 117 120 122 123 124 124 123 119 117 116 115 114 113 114 113 112 112 114 117 115 109 103 98 94 94 98 102 111 134 168 188 186 183 179 177 175 176 181 192 206 224 240 251 252 248 244 240 243 247 249 248 248 248 248 248 248
250 250 250 250 250 249 250 245 235 232 237 245 255 255 244 213 174 136 100 77 62 55 54 58 66 66 59 71 79 73 66 56 52 52 57 64 72 78 77 74 69 65 63 61 62 63 65 68 69 70 68 66 66 75 75 75 78 79 82 83 81 78 77 76 73 71 73 79 93 99 105 136 172 185 188 184 182 180 174 170 169 168 171 173 176 181 184 184 185 185 183 183 184 184 183 183 183 184 185 187 190 189 187 186 185 186 188 188 184 181 182 184 186 188 188 190 190 191 191 192 192 192 192 193 193 191 190 186 185 185 182 179 175 176 184 186 186 182 180 178 171 165 166 165 163 162 161 161 161 159 157 152 144 139 133 132 132 132 129 125 126 126 127 127 127 127 127 127 128 128 129 129 129 129 129 128 127 126 126 127 129 130 131 131 130 128 126 123 121 118 116 114 113 112 111 114 114 115 116 116 115 113 113 114 115 115 115 118 117 116 116 114 112 108 105 104 105 108 111 113 111 107 104 103 104 105 106 116 138 165 181 183 185 183 182 182 185 189 194 208 225 240 249 252 253 249 244 246 250 251 242 242 242 242 242 242
250 250 250 250 250 249 248 243 234 230 234 242 255 255 253 227 191 154 115 88 70 59 54 55 63 65 57 67 77 75 68 58 53 52 55 61 69 76 77 75 71 67 64 61 61 62 63 66 67 69 67 66 66 75 75 73 76 77 80 81 79 77 77 76 73 71 74 78 90 96 102 131 167 184 189 184 183 181 175 170 169 167 169 172 175 181 184 185 187 188 186 185 185 185 183 182 182 183 186 187 190 189 187 185 182 184 186 187 184 182 183 185 187 189 190 191 190 191 191 191 191 191 191 192 192 190 190 187 186 186 184 181 178 179 188 190 190 185 182 181 175 170 170 170 168 167 167 167 167 166 165 159 151 145 139 137 137 137 132 126 126 127 128 127 127 126 126 127 127 128 128 130 129 129 129 128 127 125 125 126 127 128 129 130 129 127 125 122 120 116 114 112 111 111 111 115 116 117 118 117 116 112 112 113 113 113 113 117 118 117 116 113 111 105 100 100 101 104 106 109 108 106 104 105 108 108 109 119 141 165 178 180 185 183 184 185 190 194 198 212 228 241 249 250 253 249 246 247 251 251 240 239 239 239 239 239
251 251 251 251 251 250 248 244 235 231 233 240 255 255 255 237 207 172 132 103 81 66 57 54 61 62 55 62 74 75 69 59 55 52 54 58 67 75 76 75 72 69 66 62 62 62 63 64 65 69 67 66 67 74 75 72 74 76 78 79 78 77 77 75 73 71 74 77 88 93 98 125 160 181 189 185 185 184 178 171 170 167 169 171 173 179 183 185 187 188 187 185 185 184 182 181 180 182 185 187 190 189 187 184 180 182 184 186 184 183 184 186 188 190 190 191 189 190 190 190 190 189 189 190 190 188 189 187 186 186 184 182 180 181 189 191 190 185 183 182 176 172 172 172 171 170 171 171 171 170 170 165 156 149 144 141 141 140 134 126 126 126 127 127 125 124 125 125 126 126 127 128 127 128 128 127 126 123 123 123 124 125 125 127 126 124 122 120 118 114 112 111 111 110 111 116 117 118 119 119 118 113 111 112 112 112 112 117 118 117 116 113 111 103 98 97 98 101 102 105 106 105 105 107 111 112 112 123 144 164 175 179 185 184 186 189 195 200 204 218 232 242 248 249 252 250 247 248 252 252 238 237 237 237 237 237
252 252 252 252 252 251 247 245 238 234 235 238 254 255 255 240 218 190 152 121 97 77 63 54 58 58 51 56 69 75 71 63 59 56 54 55 62 70 71 72 72 71 69 64 65 65 65 64 65 69 67 66 67 73 73 70 72 75 77 78 78 79 78 76 73 72 73 74 82 85 88 108 139 164 179 179 182 183 179 172 172 169 171 172 173 180 183 186 189 190 189 187 186 184 181 179 178 180 183 185 188 188 186 183 178 179 181 186 186 186 186 188 190 192 192 191 189 189 189 189 188 187 188 188 187 186 187 186 185 185 183 182 181 182 189 190 189 183 181 181 177 174 175 175 174 174 175 176 175 175 175 171 162 156 151 148 147 144 136 125 125 126 127 126 124 123 124 125 125 124 126 128 126 126 127 126 124 120 119 119 119 119 119 121 120 118 117 116 115 111 110 110 110 111 111 117 118 119 120 119 118 111 109 109 109 109 110 116 118 117 116 112 109 101 95 94 95 97 97 101 104 106 109 113 118 118 118 128 147 163 172 177 185 187 191 196 203 209 211 222 233 240 244 246 252 251 250 251 254 253 238 236 236 236 236 236
251 251 251 251 251 251 247 247 241 238 235 235 248 254 252 244 230 207 172 141 114 89 69 55 53 53 46 47 62 73 71 66 63 59 56 55 59 66 68 70 72 73 72 68 68 67 66 64 64 68 67 66 67 73 74 71 73 75 77 77 77 79 77 75 73 73 74 73 78 80 81 97 125 154 173 176 181 184 182 175 175 172 173 173 173 178 182 185 189 191 190 188 187 185 182 180 179 181 184 185 188 188 186 183 177 178 181 186 189 188 188 189 190 191 191 189 186 186 186 186 185 184 185 184 184 183 185 185 184 184 184 183 183 185 190 191 189 183 182 183 180 178 179 179 179 179 180 181 181 182 183 179 171 166 161 157 156 153 142 128 127 128 129 128 126 124 125 127 127 125 126 128 127 127 127 126 124 120 119 118 117 116 115 117 116 114 113 113 112 109 108 109 110 111 112 118 119 120 121 120 118 112 109 108 108 108 108 115 117 116 114 111 108 100 94 93 93 94 93 97 101 105 110 116 122 123 124 135 151 163 170 175 184 188 194 201 210 217 219 229 236 240 242 243 249 250 250 252 254 252 238 237 237 237 237 237
248 248 248 248 248 248 249 252 249 243 237 235 242 249 252 249 239 219 190 159 129 101 77 60 52 50 42 40 57 69 72 70 67 62 58 55 57 61 65 69 73 76 76 73 72 69 66 63 62 64 66 68 70 76 76 74 74 74 74 74 73 74 74 73 73 74 76 77 80 81 83 98 125 155 175 180 184 187 184 177 178 174 175 173 173 176 180 183 186 189 189 188 187 186 184 184 183 184 186 186 188 187 185 183 180 181 185 189 190 190 189 188 188 189 188 187 185 185 185 185 185 184 184 184 184 183 184 184 184 185 185 184 185 186 190 190 189 184 182 183 181 179 180 181 181 181 181 182 181 182 183 180 174 170 165 162 161 158 146 128 126 127 127 127 127 126 126 126 126 125 125 126 126 125 125 125 123 122 121 120 118 117 116 116 114 113 112 112 113 111 111 112 112 112 113 116 117 119 119 120 119 115 112 110 108 107 107 111 112 112 109 107 104 99 96 95 95 95 93 95 97 102 107 114 122 126 131 142 158 169 173 176 181 186 193 202 212 222 229 238 244 246 246 243 245 245 247 250 251 250 242 241 241 241 241 241
243 243 243 243 243 244 251 255 255 249 240 235 236 243 250 251 244 227 205 177 146 115 88 68 55 49 41 37 54 65 71 74 71 65 60 57 55 56 62 68 74 77 79 79 75 70 65 61 60 60 65 69 73 78 79 78 76 73 71 70 68 68 70 71 72 75 78 82 82 83 86 100 128 157 177 183 186 187 184 179 180 177 177 174 173 174 178 181 184 187 188 188 187 187 186 187 187 186 186 186 187 185 183 183 183 185 190 191 191 190 188 187 186 185 186 185 185 185 185 185 186 186 185 185 185 184 184 183 184 186 186 186 186 187 188 188 188 184 182 183 182 180 181 181 181 181 180 180 180 181 182 178 174 171 167 165 164 161 148 127 125 124 125 126 127 127 126 125 125 124 124 123 124 123 122 122 122 123 123 122 120 119 117 115 114 112 111 112 114 115 115 115 114 114 113 113 114 115 117 118 118 117 114 111 108 107 105 105 106 105 103 102 100 99 98 98 97 97 95 93 94 99 105 112 120 129 139 150 165 175 177 178 179 185 193 202 213 226 239 247 252 253 250 244 240 239 243 247 247 247 247 247 247 247 247 247
242 242 242 242 242 242 250 255 255 249 240 234 234 242 252 255 253 238 220 193 161 128 99 77 60 52 43 37 53 63 70 75 73 67 61 57 55 55 61 67 74 77 79 80 76 70 65 61 59 60 65 70 75 79 79 78 76 73 69 68 66 66 69 71 73 76 79 83 83 84 88 100 127 156 177 183 187 187 185 180 181 178 179 175 174 173 177 181 183 186 187 187 186 187 187 188 188 187 186 186 186 184 182 183 184 186 191 192 191 189 187 186 185 184 184 184 184 184 185 185 185 185 184 184 185 184 183 182 184 186 186 186 186 187 187 187 187 184 183 183 183 182 183 183 182 182 181 181 181 182 182 179 175 172 169 167 165 163 148 126 123 122 123 124 126 126 125 124 123 123 122 122 123 122 121 121 122 123 123 122 121 119 117 115 113 112 111 112 114 116 116 116 115 114 113 112 112 114 115 117 118 118 115 111 108 105 103 102 103 102 100 99 98 98 99 98 98 97 96 93 93 99 105 114 122 133 145 156 171 179 180 180 181 187 195 205 217 231 246 253 255 255 252 245 238 237 241 245 245 245 248 248 248 248 248 248
241 241 241 241 241 242 249 253 255 251 241 234 231 238 249 255 255 249 234 209 178 144 112 87 67 55 45 37 51 61 70 77 76 70 64 59 54 53 58 65 72 77 79 81 77 72 67 62 60 60 66 71 75 78 78 78 75 72 68 67 65 65 68 70 72 75 78 81 82 82 85 94 118 148 171 180 185 187 185 182 184 181 181 177 175 173 176 180 182 185 186 186 186 187 187 188 189 187 186 185 186 184 182 183 185 186 191 191 191 189 187 186 184 184 184 184 184 184 185 185 185 185 184 184 184 184 183 182 183 185 185 185 186 187 186 186 185 184 183 183 184 183 184 184 184 184 183 182 182 183 184 180 177 175 172 169 167 164 149 125 122 121 121 122 124 125 124 123 122 122 121 121 122 121 120 121 122 123 123 122 120 118 116 113 112 111 109 111 113 115 116 116 115 114 114 112 112 113 114 115 116 116 113 110 106 104 102 100 100 100 98 97 96 98 98 98 98 97 95 93 94 101 109 118 128 139 152 163 175 182 182 182 183 190 200 211 223 237 252 255 255 255 251 244 237 237 241 244 243 244 249 249 249 249 249 249
242 242 242 242 242 242 247 251 255 253 243 235 228 233 244 255 255 255 249 226 195 161 127 99 74 59 48 39 49 59 69 79 79 74 67 60 54 51 55 62 70 75 78 81 78 73 68 63 62 62 67 72 76 77 76 76 74 71 68 66 65 67 69 71 73 75 77 79 79 80 81 85 106 137 164 177 184 187 187 184 187 184 184 179 175 173 175 178 180 183 185 185 185 186 186 188 189 187 187 186 186 185 183 184 186 187 191 191 191 191 188 187 186 186 186 185 185 184 185 184 184 184 183 183 184 184 183 182 183 183 182 183 184 185 183 183 183 182 181 182 184 184 185 185 185 185 184 184 184 185 185 181 179 177 174 171 168 164 148 123 119 118 118 120 121 121 121 120 120 119 119 119 120 120 119 120 121 122 122 120 118 116 114 111 110 108 108 109 112 114 115 115 115 114 114 112 112 112 113 113 114 114 111 107 104 102 100 98 99 98 96 96 95 97 98 98 97 96 95 93 96 105 115 124 134 144 157 167 178 183 184 185 187 196 206 218 229 243 255 255 255 254 248 242 237 238 242 245 243 243 249 249 249 249 249 249
242 242 242 242 242 243 246 250 255 255 246 236 226 227 237 252 255 255 255 240 212 178 144 113 86 67 53 43 48 56 66 78 81 78 71 63 55 51 53 59 66 72 76 80 78 75 71 66 64 64 68 72 75 74 73 74 72 71 68 67 67 69 71 73 74 75 75 76 77 77 77 77 93 124 154 170 178 184 186 185 188 187 187 181 177 174 175 177 179 181 183 183 183 184 185 187 188 187 187 186 186 185 184 186 187 187 190 190 192 192 189 188 187 187 187 185 185 184 184 184 184 184 183 182 183 183 183 182 182 181 180 181 183 184 181 181 180 181 181 182 184 185 186 186 186 187 186 185 185 186 186 182 180 179 176 172 169 163 146 122 118 117 117 118 119 119 119 119 118 118 118 118 119 118 118 119 120 121 121 119 116 114 112 109 107 107 106 108 111 113 114 115 115 114 114 112 111 111 111 111 111 111 108 105 102 101 99 97 97 96 94 93 93 95 97 97 96 95 94 94 99 109 120 130 139 149 162 171 180 184 186 189 192 202 213 225 236 248 255 255 255 251 246 241 237 240 244 245 243 243 249 249 249 249 249 249
247 247 247 247 247 247 243 243 247 249 244 236 232 232 240 255 255 255 255 246 221 190 156 125 99 78 62 52 51 55 63 74 79 78 72 64 58 56 56 59 64 68 71 73 74 73 72 68 68 70 72 73 73 71 70 69 69 70 70 70 70 74 75 75 75 73 71 70 74 75 75 72 85 116 147 165 175 184 187 185 189 188 188 183 178 177 177 177 180 181 181 182 182 183 183 184 185 185 187 186 187 188 187 187 186 185 186 187 190 190 189 188 188 190 190 187 185 184 184 183 182 182 182 181 182 182 184 183 182 179 177 178 181 182 181 181 180 181 181 183 185 186 187 187 188 188 189 189 189 189 189 185 181 180 175 170 166 159 143 120 117 116 116 116 116 115 116 117 117 116 117 118 119 119 119 121 121 120 119 117 115 113 111 110 108 107 106 108 110 109 110 111 112 112 113 113 113 112 111 110 109 106 104 102 100 99 99 99 100 99 97 95 95 94 94 94 94 93 93 97 105 117 128 139 147 154 162 172 180 183 187 193 201 211 223 234 244 253 255 255 254 247 243 241 243 246 248 248 246 246 246 246 246 246 246 246
251 251 251 251 251 250 241 237 238 245 243 238 235 233 237 251 255 255 255 251 230 204 174 143 117 93 74 63 54 53 59 69 75 77 74 67 62 60 58 59 62 64 67 68 72 74 74 72 72 74 72 71 69 66 64 64 67 70 73 75 76 80 79 77 75 71 67 64 69 72 69 64 71 99 130 148 161 173 180 180 186 187 188 185 180 180 178 178 180 180 180 180 180 180 180 181 182 183 186 186 187 188 189 187 183 182 180 183 188 190 189 189 189 191 190 187 184 182 182 182 181 181 181 179 180 181 184 184 182 178 177 178 181 182 181 181 179 180 182 184 186 188 188 189 189 190 191 192 191 191 191 186 183 180 175 169 163 155 140 120 117 117 117 116 115 113 115 117 117 116 117 119 118 118 119 120 119 117 115 113 111 109 107 107 105 105 104 105 107 106 107 108 110 111 112 114 114 112 110 107 105 101 100 99 98 99 99 101 101 99 97 95 95 93 92 92 91 91 92 100 111 123 136 146 153 158 164 173 181 184 190 199 211 221 232 242 250 255 255 255 249 242 240 241 247 250 252 249 248 248 245 244 244 244 244 244
251 251 251 251 251 251 241 235 234 243 245 241 239 234 235 247 255 255 255 255 240 219 193 164 137 110 88 74 57 51 55 64 72 76 76 71 66 64 61 60 60 61 64 66 70 73 75 74 73 74 71 68 65 61 60 62 66 71 76 78 80 83 80 77 74 69 63 60 67 70 67 61 63 87 114 132 145 159 169 173 181 184 188 186 181 182 180 178 181 180 178 179 180 180 180 180 181 183 186 186 187 188 189 187 182 180 177 180 185 188 189 189 189 190 189 186 183 182 182 182 181 181 182 180 181 182 185 184 183 179 178 179 182 183 181 180 178 180 182 184 187 188 188 189 189 190 191 191 191 191 190 185 181 178 172 165 159 151 137 118 116 116 117 116 114 113 115 117 117 116 117 118 116 116 117 117 116 113 111 109 107 105 104 104 103 102 102 104 105 105 106 108 110 112 113 114 113 111 108 105 102 98 98 97 98 99 99 100 99 97 95 93 93 91 90 90 90 91 93 104 115 128 140 149 156 161 167 177 184 187 197 207 218 229 238 246 252 255 255 253 247 241 240 243 249 252 252 247 247 248 245 245 245 245 245 245
252 252 252 252 252 251 241 232 229 241 246 244 243 238 236 244 255 255 255 255 247 232 210 184 159 130 105 88 65 52 52 60 68 74 76 74 71 69 65 62 60 59 61 63 68 72 75 75 75 75 70 66 62 57 57 60 66 72 77 81 83 84 81 77 73 67 60 56 65 70 67 61 60 78 100 116 130 145 157 164 175 180 186 186 183 184 181 179 181 180 177 178 179 180 179 180 181 183 186 186 187 189 189 187 181 178 174 177 183 187 188 189 189 190 189 185 183 182 183 183 182 183 183 182 182 183 186 185 184 181 180 181 184 184 182 180 178 180 182 184 187 188 188 188 189 189 190 191 191 190 189 182 178 174 167 159 153 145 132 117 115 116 116 115 113 112 114 117 117 116 117 117 115 114 115 114 113 110 108 106 104 103 102 102 101 101 102 103 104 105 106 107 109 111 113 114 112 110 106 102 99 96 96 97 98 99 99 100 97 94 92 90 90 89 89 89 90 91 95 108 120 132 144 152 159 163 169 180 188 192 204 215 226 236 244 250 254 255 254 251 245 241 241 245 251 253 252 246 246 247 245 245 245 245 245 245
252 252 252 252 252 251 241 231 226 238 245 245 245 241 237 242 251 255 255 255 252 242 226 204 181 152 125 105 75 56 52 57 64 71 76 76 75 74 70 66 62 58 58 60 65 70 73 74 75 75 69 64 60 55 54 58 64 71 77 81 84 84 81 76 72 66 58 54 64 69 67 62 60 73 89 102 116 131 144 155 166 175 182 185 183 185 183 181 183 180 176 177 179 180 179 180 181 183 186 186 187 188 188 185 179 176 172 174 180 185 187 189 189 189 188 185 184 183 183 183 183 184 184 183 184 185 186 186 185 183 183 183 185 184 183 181 178 181 183 184 186 187 187 187 188 188 189 190 190 189 187 180 174 169 160 153 147 139 128 116 114 115 116 114 112 112 113 116 116 115 116 116 113 112 112 111 109 106 104 103 102 101 101 101 101 101 102 103 104 104 105 106 108 110 112 113 111 109 105 101 98 95 96 97 99 99 99 99 95 92 90 88 88 87 86 87 88 92 98 112 124 136 147 154 161 165 171 183 192 198 211 223 234 242 249 253 255 255 251 248 243 241 242 246 251 254 252 245 246 248 245 244 244 244 244 244
251 251 251 251 251 251 242 233 227 238 244 244 246 243 239 241 246 252 253 254 254 249 239 222 203 178 150 125 90 66 57 56 60 67 73 76 78 78 76 71 65 60 58 57 62 66 70 72 73 74 68 63 59 55 54 57 64 70 76 80 82 82 79 74 70 66 58 54 62 68 67 65 62 70 80 90 104 117 132 144 157 167 177 182 182 186 184 182 184 181 177 177 179 179 179 179 181 184 186 186 186 187 187 183 177 173 169 172 178 183 186 189 189 189 188 186 184 183 184 184 184 185 185 185 185 186 187 187 186 186 185 186 187 186 184 183 180 181 183 184 186 186 186 186 186 186 187 189 189 188 186 177 169 163 153 146 140 132 124 115 114 115 115 114 112 111 113 115 116 115 115 115 112 111 110 109 107 104 102 101 101 101 101 102 102 103 104 104 104 104 104 105 106 108 110 111 110 108 104 101 98 96 97 98 100 100 99 97 93 90 88 85 86 84 84 85 88 93 101 116 128 139 149 156 162 167 174 186 197 204 219 230 241 248 252 254 254 253 248 245 242 241 243 246 251 253 251 245 247 248 244 244 244 244 244 244
246 246 246 246 246 246 246 241 237 245 249 246 241 237 234 233 237 242 251 255 255 255 255 243 223 199 171 141 104 75 64 60 61 66 73 77 78 77 76 73 67 63 61 62 63 66 68 70 71 69 65 62 60 56 56 61 65 69 73 76 78 76 74 71 69 67 61 58 63 68 69 68 66 68 70 80 92 103 118 134 148 161 171 179 182 184 184 182 184 181 176 177 179 180 181 183 184 186 186 185 185 184 183 180 177 175 173 173 178 182 186 188 187 186 185 185 185 185 186 187 187 188 188 188 188 188 188 187 188 189 189 189 190 187 184 183 180 181 183 183 184 184 184 184 184 183 183 184 185 184 180 170 162 156 146 139 134 128 120 113 112 112 113 112 112 113 113 114 115 114 113 112 109 108 106 104 103 102 101 101 101 102 102 101 101 103 104 104 104 107 107 106 107 108 108 106 105 103 101 98 97 98 100 100 101 100 98 91 85 82 80 79 80 82 84 86 90 98 107 119 129 139 148 154 161 171 182 195 206 216 230 238 244 249 252 252 251 250 250 246 245 244 246 246 245 248 247 242 243 245 248 248 248 248 248 248
245 245 245 245 245 245 245 241 240 246 249 246 240 236 233 231 232 236 246 255 255 255 255 255 239 217 191 161 122 89 73 64 61 64 70 75 76 76 76 74 70 65 63 63 64 65 67 69 70 68 66 64 62 59 58 63 66 69 72 74 75 72 71 69 68 68 62 59 62 68 70 71 70 67 65 72 83 92 107 124 138 152 164 174 178 181 182 182 184 181 177 178 180 181 182 184 185 187 186 185 184 183 182 180 178 176 175 174 178 182 185 188 187 185 184 184 185 185 186 187 188 189 189 189 189 189 188 186 188 191 191 191 190 187 184 183 181 182 183 183 184 183 183 183 182 182 181 182 182 181 177 165 155 149 139 132 127 122 116 111 111 111 111 111 111 112 112 113 113 112 111 109 107 105 103 101 100 101 100 101 101 102 103 101 102 104 105 104 105 107 107 105 106 106 105 102 101 100 98 96 96 98 99 100 100 98 95 87 81 78 77 77 78 82 85 88 94 103 114 125 134 143 151 157 165 176 189 202 213 225 238 245 248 252 253 251 249 248 249 246 245 246 247 247 244 246 245 242 242 244 249 250 250 250 250 250
245 245 245 245 245 245 242 236 237 244 248 246 242 240 237 234 232 233 242 251 255 255 255 255 251 233 209 182 144 107 85 71 63 62 65 70 72 73 75 74 71 68 65 64 64 65 67 69 70 70 69 68 66 62 60 64 66 68 70 72 73 71 70 69 69 68 63 60 62 67 70 73 73 69 62 67 76 83 97 114 126 142 154 167 174 179 182 184 186 184 180 180 182 183 183 183 184 186 185 183 183 183 182 180 178 177 176 175 178 181 185 188 187 185 184 185 186 186 187 188 189 189 189 190 189 189 187 186 187 191 192 192 190 187 184 183 182 183 184 183 183 182 182 182 181 181 180 181 181 178 174 160 147 141 130 124 119 115 111 108 108 108 109 109 110 111 111 111 110 110 108 106 104 103 100 98 97 98 98 99 100 101 102 102 103 105 106 105 105 107 106 103 104 103 102 99 97 97 95 94 93 96 97 97 97 94 92 84 79 77 76 77 79 82 86 90 98 109 121 132 141 149 157 163 172 183 196 209 220 232 244 250 252 254 253 251 248 246 247 245 246 247 249 248 245 246 245 241 241 243 250 250 250 250 250 250
245 245 245 245 245 246 240 234 237 243 247 246 243 243 242 237 234 233 239 247 254 255 255 255 255 244 224 201 167 128 102 81 67 61 61 64 66 69 72 73 73 71 68 67 65 65 67 69 70 71 71 71 70 65 63 65 66 67 69 70 71 70 70 71 70 70 65 62 62 66 69 73 76 71 62 65 72 76 88 104 115 130 143 157 166 173 179 184 188 187 185 185 185 186 185 184 185 187 185 183 183 183 183 181 180 179 177 177 178 182 186 189 187 185 184 184 186 186 187 188 188 189 188 189 188 187 186 185 187 192 193 193 191 186 184 184 183 184 184 184 183 182 182 182 181 181 180 180 180 177 173 156 141 133 123 117 114 110 108 105 106 107 107 107 108 109 109 108 107 107 105 102 101 99 97 95 94 95 96 97 98 100 101 102 103 105 106 106 105 106 105 103 102 101 99 96 94 94 93 92 92 93 94 94 93 91 88 81 77 76 76 78 80 83 87 92 102 116 129 139 147 155 162 170 180 192 204 216 228 239 249 253 254 254 252 249 247 245 246 245 247 249 250 248 245 246 245 242 240 242 250 250 250 250 250 250
245 245 245 245 245 245 238 234 240 244 246 245 243 245 245 241 236 234 237 242 248 253 255 255 255 253 238 219 191 155 124 97 77 64 58 58 60 63 68 72 74 75 72 70 68 67 67 68 70 71 72 74 73 68 65 66 66 66 66 68 68 67 69 71 72 72 70 66 63 65 68 72 77 72 62 64 69 70 81 94 103 117 130 145 157 165 174 181 187 189 188 188 188 188 186 184 185 187 185 182 181 182 182 180 179 179 178 178 178 182 186 188 187 184 183 184 185 186 186 187 188 187 187 188 187 186 184 184 186 192 194 193 190 186 185 184 184 185 185 185 183 182 182 182 182 181 181 181 180 177 173 154 135 127 116 111 109 107 105 103 105 105 106 106 107 108 107 106 105 104 102 100 99 97 95 93 92 93 95 97 98 100 102 102 104 106 107 106 106 106 104 101 100 98 96 93 91 91 91 90 90 92 92 91 90 87 85 78 76 76 77 79 81 84 88 95 108 123 136 145 153 161 169 178 189 202 214 225 236 246 252 254 253 252 249 247 245 244 245 246 248 250 250 248 244 245 245 243 241 241 250 250 250 250 250 250
246 246 246 246 246 246 238 237 244 246 246 244 243 247 249 246 241 236 236 238 241 245 251 255 255 255 252 236 216 184 151 118 91 71 59 55 54 58 64 69 74 77 74 71 69 67 66 67 68 69 72 74 73 69 67 67 66 65 64 65 65 65 68 70 73 75 74 70 64 63 65 70 77 75 64 64 68 66 75 85 92 104 116 132 145 155 167 177 185 189 191 190 189 189 187 184 184 186 184 180 179 180 180 178 178 177 177 177 178 181 184 187 187 184 184 184 185 186 186 186 187 186 186 187 186 185 183 183 185 191 194 193 190 186 185 184 185 185 185 184 182 181 182 182 181 181 180 180 179 176 172 150 128 120 110 106 104 103 102 101 102 102 103 104 104 105 104 103 101 100 99 96 96 95 93 92 91 92 94 96 98 99 101 103 105 106 107 107 105 104 102 99 98 96 93 90 89 89 90 89 89 90 90 88 87 85 82 78 76 77 78 81 83 85 90 98 114 132 145 152 160 169 177 187 200 213 223 233 244 252 254 254 252 250 247 245 243 243 245 246 249 251 250 247 244 245 246 245 242 242 249 250 250 250 250 250
250 250 250 250 250 250 237 236 241 241 239 239 247 255 255 255 251 244 232 227 227 229 236 245 255 255 255 255 243 219 182 141 108 81 63 53 53 59 63 68 73 76 71 65 64 64 64 65 67 71 72 72 71 68 67 63 63 63 64 65 65 69 70 71 73 76 77 71 63 60 61 66 75 77 70 68 71 68 75 79 82 90 100 116 131 146 160 173 184 191 195 193 192 191 188 183 183 186 186 182 181 181 181 178 174 173 171 175 176 179 184 188 189 188 187 185 184 184 183 183 183 182 183 184 182 181 182 183 184 189 191 190 188 185 187 187 187 186 186 185 182 181 182 182 182 182 184 184 183 180 176 152 125 115 105 101 99 98 98 99 101 102 103 102 101 99 99 99 97 96 95 95 94 94 94 94 92 90 92 94 96 98 100 105 107 108 108 107 104 98 95 93 93 91 89 91 92 92 92 91 90 86 85 84 84 83 82 83 84 85 87 89 90 88 90 100 118 138 151 161 172 181 191 202 215 224 228 236 246 250 250 251 253 250 247 245 244 242 238 241 244 247 245 243 247 249 251 251 249 246 242 242 242 242 242 242
250 250 250 250 250 249 236 236 241 241 239 237 246 255 255 255 255 249 235 227 224 224 229 237 253 255 255 255 255 240 206 165 130 99 75 59 54 57 60 64 69 73 69 63 63 63 63 63 65 69 70 70 69 67 67 63 63 63 64 64 65 68 69 70 73 77 79 73 64 59 58 62 71 76 72 70 72 69 73 74 75 81 89 103 119 134 148 164 177 187 193 193 192 191 189 185 184 187 187 182 180 181 181 178 173 171 170 174 176 179 183 188 190 189 187 185 183 183 182 182 182 181 182 182 181 180 181 183 184 188 190 189 187 184 186 187 187 185 185 185 183 182 183 183 183 183 185 185 184 181 177 150 122 112 103 99 98 97 97 97 99 100 100 100 98 96 96 96 94 92 92 92 91 92 92 93 92 90 91 93 95 97 99 104 105 106 106 106 103 95 93 92 92 90 88 91 92 92 92 90 89 84 83 82 82 81 81 84 87 88 90 92 93 91 94 106 126 146 159 169 180 190 202 214 228 235 236 243 250 251 248 247 250 247 244 243 244 242 238 241 244 245 243 242 246 249 251 251 249 246 240 239 239 239 239 239
248 248 248 248 248 247 236 237 243 244 242 239 246 253 255 255 255 252 240 231 226 224 226 232 246 255 255 255 255 255 227 190 154 121 93 72 61 59 58 60 65 68 65 61 63 63 63 63 64 67 68 68 67 66 67 64 63 63 63 64 64 67 67 69 72 76 80 75 66 59 57 58 66 74 74 72 73 70 73 72 72 76 81 94 108 122 137 153 168 180 188 190 191 191 189 187 186 189 189 182 180 180 180 178 174 172 170 174 176 180 183 188 190 189 187 184 182 182 181 181 181 180 181 182 181 180 182 184 184 187 189 188 186 184 185 185 186 185 185 185 183 183 184 184 184 184 186 186 184 182 177 148 120 111 103 100 99 98 97 96 97 98 98 97 95 94 94 93 92 90 90 90 90 90 92 93 92 91 92 93 95 96 98 102 103 104 104 103 101 94 92 92 92 91 89 90 91 91 91 89 87 83 82 81 80 81 81 84 87 89 91 93 96 96 101 114 135 156 168 177 189 200 212 226 238 244 245 249 254 252 246 245 246 243 242 242 243 243 240 243 245 245 243 241 245 248 251 250 248 245 240 239 239 239 239 239
246 246 246 246 246 246 237 238 244 247 246 243 247 252 255 255 255 253 243 235 230 226 226 230 241 255 255 255 255 255 244 212 180 147 116 90 73 64 59 58 59 61 59 58 61 63 63 64 65 67 68 67 65 65 66 63 63 63 63 63 64 67 67 68 71 75 79 75 68 61 57 55 61 70 74 74 74 71 73 71 70 72 76 87 99 111 125 141 157 171 182 185 188 189 189 188 188 190 189 183 179 179 180 178 176 173 170 174 177 181 184 188 190 191 188 184 182 181 181 181 181 180 181 182 181 181 183 184 184 186 187 187 185 183 183 184 184 184 185 185 184 184 184 184 184 184 185 185 184 181 175 144 117 110 103 100 99 98 97 94 95 95 95 94 93 91 92 91 90 88 88 88 88 89 91 92 92 91 92 93 94 95 96 100 101 101 101 101 98 92 91 92 92 91 89 90 90 90 89 86 84 81 80 80 80 81 82 85 88 89 92 95 99 101 108 123 144 164 177 186 198 210 223 236 247 252 252 253 255 251 244 242 243 241 240 241 243 244 241 243 244 244 242 241 245 248 251 249 246 244 239 239 239 239 239 239
245 245 245 245 245 245 238 238 243 249 250 248 250 251 252 254 255 253 245 239 234 230 229 231 239 250 255 255 255 255 255 231 203 172 141 112 89 75 64 59 55 53 52 52 57 61 63 66 67 68 68 66 64 64 64 62 62 62 63 63 65 68 67 68 71 73 77 75 71 64 58 54 57 66 74 74 74 72 73 71 71 72 74 82 93 103 115 131 147 161 174 179 184 187 188 189 189 190 190 183 178 179 180 179 177 174 171 174 178 182 185 189 191 192 189 183 181 181 180 180 180 180 181 182 182 182 184 186 185 185 186 185 184 182 182 182 182 184 184 185 184 184 184 184 184 184 185 185 184 181 173 141 115 109 104 101 99 98 96 93 94 94 94 93 91 90 90 90 89 88 87 87 87 88 90 92 92 91 91 92 93 94 95 98 99 99 98 98 96 90 90 91 91 91 89 89 90 88 87 84 81 79 80 80 81 83 84 87 88 90 93 97 102 107 116 131 152 172 185 195 207 220 233 245 254 255 255 255 254 249 243 241 241 241 241 241 243 244 242 243 243 242 241 242 246 249 251 247 245 243 239 239 239 239 239 239
242 242 242 242 242 242 241 241 245 252 255 255 252 250 248 248 248 248 246 244 241 238 236 236 238 243 250 253 255 255 255 247 225 199 170 139 111 89 74 63 53 47 46 49 55 60 63 66 68 67 68 65 63 64 64 63 62 62 62 63 65 66 66 67 69 71 74 75 74 69 62 57 57 64 73 73 72 71 72 72 72 73 74 80 90 97 106 120 136 150 164 172 179 184 187 190 191 191 190 184 177 177 180 180 181 178 174 175 179 184 187 190 191 191 187 181 180 179 179 180 180 180 181 182 183 184 185 186 186 186 186 186 185 183 181 181 181 183 184 184 184 184 184 184 183 183 183 183 182 178 169 136 114 109 105 102 101 99 97 94 94 94 93 92 91 91 91 90 89 89 87 86 86 87 89 90 91 91 91 91 92 93 94 95 95 95 95 95 94 90 90 92 92 91 90 88 87 85 83 80 78 79 81 82 84 86 87 87 86 88 93 98 104 114 126 142 162 181 194 203 215 228 240 250 255 255 255 255 253 248 244 241 239 239 240 240 241 243 243 244 243 243 244 244 246 248 248 244 242 242 241 241 241 241 241 241
233 233 233 233 233 234 248 250 254 255 255 255 250 241 237 235 236 237 250 255 255 253 250 248 236 231 236 238 241 248 255 255 250 231 206 176 140 107 87 71 55 43 44 53 56 60 62 66 66 62 64 64 63 65 65 68 65 63 61 61 62 60 62 63 66 69 72 79 80 77 70 64 61 62 70 71 68 66 67 71 73 76 76 78 85 86 92 104 117 132 147 159 170 178 185 193 196 193 189 183 175 174 177 181 187 185 182 179 183 187 189 190 188 186 182 176 178 178 178 179 180 182 181 184 186 187 186 186 188 189 189 189 187 184 180 179 179 183 184 183 185 185 184 183 182 181 178 177 176 171 159 126 111 110 107 106 105 104 100 95 94 93 91 90 92 94 93 91 90 90 87 83 84 84 85 86 88 91 91 91 92 93 93 90 90 90 90 90 91 94 94 96 95 94 92 84 82 80 78 76 75 82 86 87 89 90 90 82 79 82 87 95 104 123 141 157 176 193 207 212 219 231 241 248 251 255 255 255 255 251 248 242 234 235 236 236 236 241 250 249 248 248 250 248 240 241 241 236 235 237 248 249 249 249 249 249
233 233 233 233 233 234 250 250 252 255 255 255 254 243 236 231 230 231 246 255 255 255 255 255 240 231 232 234 233 240 255 255 255 250 230 204 168 132 109 88 65 47 45 52 54 57 60 65 65 61 64 64 64 66 65 69 65 63 61 60 61 59 61 61 64 66 68 76 81 80 75 71 66 64 70 70 66 65 65 70 73 76 75 74 79 78 82 92 103 116 131 144 158 167 176 187 191 189 186 181 172 173 178 183 190 188 185 181 184 188 190 190 188 186 181 175 176 176 177 178 179 181 180 183 186 188 188 188 190 190 189 189 188 184 180 179 179 184 184 184 185 185 183 182 181 180 176 175 174 166 152 120 108 108 106 105 103 102 98 95 93 91 89 88 90 92 90 88 88 88 85 81 82 83 83 84 86 91 90 90 91 93 93 89 89 89 88 88 89 93 93 94 93 92 91 83 81 78 77 75 74 83 87 89 91 92 91 83 80 84 91 100 112 134 152 169 186 201 216 221 228 238 246 250 250 254 255 255 252 249 249 244 235 237 237 237 236 240 249 248 248 249 252 251 241 241 240 235 234 237 249 250 250 250 250 250
234 234 234 234 234 235 252 249 250 255 255 255 255 245 237 230 226 227 243 254 255 255 255 255 245 233 231 231 226 232 255 255 255 255 250 229 196 161 135 111 82 57 51 54 54 55 57 62 63 61 64 65 65 69 67 70 66 64 61 60 60 57 58 59 62 63 65 72 78 82 79 77 72 67 71 69 65 63 63 69 72 75 73 70 73 70 72 80 89 99 112 125 139 149 160 172 178 176 175 172 164 167 175 181 188 187 186 181 183 187 188 187 185 184 179 174 175 174 175 176 177 179 179 182 185 188 190 190 191 190 189 189 187 185 183 182 182 186 186 185 186 186 184 183 181 180 175 173 171 161 145 115 105 106 103 102 100 99 96 94 91 90 87 86 87 89 88 86 86 87 84 81 83 83 84 85 87 91 91 91 93 94 94 90 90 89 88 87 88 91 91 91 89 89 88 81 80 78 77 75 75 83 88 90 91 92 92 84 82 88 97 109 123 145 163 179 194 208 222 229 234 243 248 250 248 251 255 253 249 248 249 246 238 240 240 239 237 240 247 246 246 248 253 253 243 242 241 235 234 239 249 250 250 250 250 250
236 236 236 236 236 237 252 247 248 255 255 255 255 246 237 228 224 224 239 251 255 255 255 255 250 238 234 230 221 226 249 255 255 255 255 249 222 190 164 139 106 76 64 61 55 53 52 56 57 58 63 66 68 73 71 72 68 65 61 60 59 55 56 57 59 61 62 67 74 80 82 82 77 71 72 69 64 62 62 68 71 74 72 66 67 62 65 71 77 85 96 108 122 133 145 158 166 166 166 165 160 166 176 183 190 190 189 185 186 188 188 185 184 184 179 174 174 173 174 174 175 177 177 180 184 188 191 191 192 190 188 188 187 186 185 184 185 187 187 186 187 186 185 184 182 180 176 173 168 155 137 111 103 104 102 100 98 96 94 93 90 88 85 83 84 86 84 82 83 84 82 80 82 83 84 85 87 91 92 92 94 95 95 91 91 89 88 86 87 89 89 87 86 85 85 81 81 80 79 79 78 85 89 90 90 90 89 84 84 94 106 120 136 157 175 190 203 216 229 236 241 246 249 249 246 247 251 249 247 247 249 247 242 243 243 241 238 240 245 244 245 247 252 253 244 243 242 237 236 240 249 250 250 250 250 250
239 239 239 239 239 240 250 242 245 252 255 255 254 246 237 229 225 225 237 248 255 255 255 255 252 241 236 232 221 223 243 255 255 255 255 255 243 218 195 170 137 105 87 75 62 53 47 48 49 53 61 67 71 77 74 73 68 65 61 60 59 57 58 59 61 61 61 63 68 76 81 83 80 75 74 70 65 62 61 66 70 74 72 65 63 59 63 68 73 78 86 96 107 116 127 139 147 149 152 154 153 164 179 186 192 193 194 190 190 191 191 185 183 183 180 176 176 175 174 174 175 176 176 178 182 186 191 191 191 189 187 187 186 186 186 185 186 187 187 186 187 187 186 184 182 181 177 172 164 146 128 106 100 100 98 96 94 91 90 89 87 84 82 80 81 82 80 79 80 80 80 79 81 82 83 84 86 89 90 91 93 94 94 91 90 88 87 86 87 89 88 86 85 84 84 82 82 82 82 81 81 84 86 85 84 82 83 81 87 102 117 135 152 172 188 202 213 224 236 243 246 249 250 248 245 245 247 247 245 247 249 248 245 246 246 244 241 241 244 242 243 246 250 252 246 245 244 239 238 242 249 249 249 249 249 249
246 246 246 246 246 246 245 235 240 245 250 253 253 248 241 236 232 232 236 243 249 253 255 255 252 246 242 238 228 228 240 248 255 255 255 255 255 242 225 204 174 141 117 94 75 59 47 43 44 52 60 68 74 79 75 70 66 64 61 60 60 62 64 65 66 65 63 59 60 69 77 80 78 76 74 70 65 62 61 63 68 73 71 65 62 61 67 73 76 78 83 88 93 98 104 112 119 125 130 135 141 158 178 186 189 193 195 193 193 193 192 184 182 183 181 179 178 177 176 175 175 175 175 176 179 182 188 190 189 186 185 185 185 185 187 188 188 188 187 187 187 187 186 184 183 183 179 172 160 138 121 103 97 95 92 90 88 85 84 84 82 81 80 79 79 78 78 78 79 79 79 81 83 83 83 85 86 87 88 89 90 91 91 91 90 88 87 87 88 87 86 84 82 81 82 84 85 84 85 85 83 81 80 78 75 74 76 82 95 115 135 155 172 186 198 210 220 229 238 247 250 252 251 250 247 245 243 244 244 245 246 248 249 250 250 248 246 243 241 240 240 242 246 249 249 249 249 245 243 245 246 245 245 245 245 245
254 254 254 254 254 253 238 227 232 236 239 243 254 254 250 247 245 244 235 233 237 240 243 244 251 255 253 249 242 240 239 237 241 245 250 254 255 255 252 237 214 184 153 118 93 72 54 43 42 54 61 68 75 78 73 64 62 62 61 61 63 70 72 71 71 69 65 55 51 59 69 74 74 76 74 69 66 64 63 61 65 70 69 64 61 64 74 81 83 82 83 83 81 81 82 83 89 98 108 116 129 152 176 185 183 190 191 194 194 193 191 183 181 185 185 184 182 180 179 177 175 173 175 174 175 178 185 188 185 183 182 182 182 185 189 191 191 188 188 188 187 186 185 184 184 184 182 173 156 130 115 103 95 90 86 83 80 77 77 78 78 78 79 78 76 73 74 77 78 77 79 84 84 84 86 89 88 85 86 87 88 88 89 92 91 89 88 89 89 84 82 80 79 78 79 87 89 88 89 88 85 76 72 68 66 66 71 89 110 135 157 178 195 200 205 215 223 231 238 248 253 253 253 252 252 246 239 241 242 241 240 246 254 254 254 253 251 246 235 235 235 236 239 244 254 255 255 253 251 249 239 238 238 238 238 238
253 253 253 253 253 252 237 228 236 239 239 240 248 251 249 250 250 249 240 236 236 237 237 238 247 253 253 249 247 246 241 235 237 239 244 249 255 255 255 255 239 217 187 150 121 93 69 52 46 53 57 66 72 76 73 65 65 65 64 64 65 71 73 73 73 72 68 57 48 55 65 69 70 74 71 67 65 63 63 61 66 71 71 66 62 64 75 83 84 82 81 78 73 70 68 67 72 81 90 100 115 141 169 181 182 191 194 196 195 193 190 180 177 181 183 185 184 184 182 180 178 176 177 175 175 177 183 185 184 182 181 182 183 186 190 191 191 188 188 188 187 186 184 182 182 182 178 166 147 120 106 98 91 86 83 80 78 75 74 74 74 75 77 78 76 74 76 79 80 79 82 86 87 86 87 90 89 87 87 88 88 87 87 89 88 86 85 87 88 84 83 80 79 78 78 85 87 87 87 87 84 74 69 65 62 65 73 94 120 148 172 193 209 213 218 225 232 237 241 248 251 250 250 250 251 248 242 245 246 244 240 244 251 251 251 251 251 247 238 238 238 238 238 242 251 253 255 254 250 248 240 239 239 239 239 239
251 251 251 251 251 251 238 230 239 242 240 239 246 248 249 251 252 252 243 238 236 235 234 235 243 251 253 251 252 251 242 235 234 235 238 244 255 255 255 255 255 242 215 180 150 119 91 68 56 56 55 61 67 69 69 65 66 67 67 68 69 72 72 73 73 72 70 59 48 52 63 65 67 71 68 66 65 65 65 64 68 72 72 66 60 61 73 82 82 80 79 76 69 66 63 61 65 73 82 92 108 134 163 179 184 193 195 197 195 192 187 178 175 178 181 184 184 184 182 181 179 177 177 176 175 176 181 184 182 181 181 182 184 188 191 192 192 189 188 188 186 185 181 180 179 179 173 158 138 111 99 94 89 85 82 80 78 76 74 73 73 74 77 78 77 76 78 80 82 82 83 87 87 86 88 91 91 88 88 88 88 86 85 87 85 82 82 84 85 83 82 80 79 78 78 84 85 85 86 85 82 73 68 65 64 70 82 106 134 163 186 207 221 226 229 234 239 243 244 248 249 248 248 249 251 249 245 247 248 245 240 243 249 248 249 249 250 247 240 240 240 239 239 241 249 251 254 253 249 247 241 240 240 240 240 240
250 250 250 250 250 250 239 234 240 242 241 239 245 248 250 252 254 254 245 239 236 234 233 233 241 249 252 252 255 255 244 235 233 232 233 239 250 255 255 255 255 255 238 207 179 149 120 93 75 65 57 57 59 59 62 62 66 68 70 72 72 73 73 73 72 72 70 62 50 52 61 62 64 68 66 65 66 68 69 67 70 72 72 66 58 59 70 79 80 78 76 74 68 64 61 58 61 68 76 86 102 126 156 176 185 194 195 196 194 190 185 176 174 177 181 185 186 186 184 183 181 179 178 177 177 177 181 184 183 182 182 183 186 189 192 192 192 189 188 187 185 182 178 175 174 173 166 149 128 103 93 90 86 83 81 79 78 75 73 71 72 74 76 77 76 76 78 81 84 83 85 88 87 86 89 92 92 90 89 88 87 85 83 84 82 80 79 82 83 81 80 79 79 78 77 82 83 83 82 81 78 71 68 68 71 82 98 123 153 181 202 221 233 236 238 241 244 246 246 247 248 247 247 248 251 250 246 247 247 244 240 242 247 247 247 248 249 247 241 241 241 240 239 241 248 250 253 252 249 247 241 240 240 240 240 240
250 250 250 250 250 249 242 239 239 240 239 238 246 250 251 254 255 254 245 238 236 234 234 234 241 249 252 253 255 255 245 237 233 232 232 235 245 255 255 255 255 255 253 230 208 183 156 127 103 83 64 56 52 48 53 56 63 68 72 75 76 75 74 72 71 70 70 65 56 55 60 60 61 63 63 63 67 71 73 71 73 72 71 67 57 58 66 74 76 74 72 71 68 64 61 58 59 65 73 81 95 117 145 169 183 192 192 192 190 186 181 175 174 178 182 186 187 187 186 185 183 181 180 179 179 179 183 185 185 184 184 185 188 191 193 194 193 190 188 186 183 178 171 168 166 165 156 137 117 95 88 86 83 81 79 78 76 74 72 71 72 75 77 77 76 77 79 83 86 86 86 88 87 87 91 94 93 90 88 87 86 84 82 82 80 78 78 79 79 78 77 77 78 77 76 79 79 80 78 76 74 71 72 76 85 102 123 149 177 201 220 233 242 244 244 246 247 247 245 246 247 246 247 248 251 250 245 245 245 242 240 242 247 247 247 248 248 246 241 241 241 240 239 241 247 250 250 250 250 248 240 240 240 240 240 240
244 244 244 244 244 244 248 250 243 243 244 244 244 245 247 248 248 248 247 246 245 243 242 241 240 240 242 246 251 251 246 244 242 241 239 239 240 243 246 249 255 255 255 251 238 220 197 169 139 106 77 61 50 42 47 56 63 68 73 77 78 73 72 71 70 70 70 72 68 64 65 62 59 57 57 60 64 71 74 75 76 73 71 68 59 56 59 65 67 66 66 67 69 67 66 64 66 67 71 77 86 102 128 158 183 192 191 189 187 182 178 175 174 176 181 184 187 188 187 187 186 184 182 183 183 183 185 187 188 189 189 190 193 195 194 194 194 191 188 184 180 174 164 159 156 154 142 122 105 88 81 80 80 80 80 80 79 77 75 73 74 77 79 78 79 82 85 87 91 91 90 88 87 87 91 92 92 92 89 87 86 84 82 78 77 75 74 75 76 78 78 78 78 78 76 73 71 71 70 67 68 74 81 91 107 130 154 174 196 215 228 237 244 249 251 252 251 249 247 245 244 244 245 246 247 250 249 247 246 244 243 243 242 243 243 244 244 244 246 246 246 246 245 244 243 244 243 243 245 246 245 245 245 245 245 245
238 238 238 238 238 239 254 255 248 246 248 249 242 241 242 241 241 241 248 252 253 253 251 249 240 233 234 240 244 243 245 250 251 251 249 246 239 232 231 233 239 251 255 255 255 251 234 210 177 134 100 76 58 45 48 57 62 66 70 74 76 70 71 70 69 69 70 79 79 73 70 65 60 52 53 58 63 70 73 77 78 73 71 70 62 56 55 57 59 60 60 65 71 72 72 72 73 71 71 74 78 88 110 144 179 190 190 185 183 180 176 176 175 175 178 181 186 187 187 188 188 187 183 185 186 185 185 186 189 192 192 193 196 197 194 192 192 189 184 178 173 164 153 146 143 140 125 106 92 80 74 72 76 78 79 80 79 79 76 75 76 79 80 79 82 87 89 90 94 94 91 87 85 85 89 89 89 90 87 85 84 83 80 74 73 72 72 72 72 77 77 78 78 77 75 66 63 63 62 61 66 81 95 111 132 159 184 198 212 224 232 237 241 251 255 254 252 250 248 243 241 242 242 242 242 247 250 248 245 245 247 244 239 240 240 240 240 243 250 250 250 251 250 247 240 239 235 237 241 244 250 251 251 251 251 251
239 239 239 239 239 240 255 255 248 242 244 247 243 243 243 241 238 237 244 249 252 254 254 253 244 235 234 241 242 239 243 250 253 255 254 251 242 232 229 227 231 241 251 255 255 255 255 243 214 171 134 104 80 60 55 57 58 59 63 65 68 67 70 69 67 66 67 78 84 77 71 67 62 53 55 61 65 72 75 77 76 70 69 71 66 63 57 56 59 59 60 65 74 76 76 76 76 73 71 72 71 76 94 128 168 180 182 179 178 177 175 178 177 176 178 180 184 185 186 186 187 186 182 184 185 183 182 182 185 189 190 191 193 192 189 188 187 178 170 162 155 145 132 126 123 119 105 89 79 71 68 66 70 72 73 74 74 74 73 74 77 79 80 79 81 87 89 88 91 92 89 83 81 82 85 84 83 84 80 79 78 78 76 72 71 70 70 70 69 74 74 75 75 75 73 65 61 62 63 66 74 94 114 135 161 189 214 223 231 237 240 240 242 249 252 251 249 247 246 243 242 243 243 241 240 243 245 242 241 244 249 246 242 242 242 241 240 242 248 248 250 251 251 248 242 238 233 237 244 246 250 251 251 251 251 251
241 241 241 241 241 242 252 255 247 240 241 246 241 241 242 240 237 236 244 249 252 254 255 254 246 236 234 241 240 235 241 250 254 255 255 255 246 236 230 227 228 234 244 255 255 255 255 255 242 207 174 143 115 89 73 65 58 55 54 54 56 63 68 69 66 64 66 76 84 78 71 69 65 57 60 65 67 71 73 73 71 66 65 71 71 68 60 57 59 59 60 66 75 77 78 78 78 74 71 70 66 68 82 114 156 172 177 177 177 178 177 182 181 179 180 181 184 186 186 187 187 186 183 185 185 183 181 181 183 189 190 191 191 190 187 186 184 170 159 149 140 130 117 112 109 106 94 80 74 70 67 65 67 69 70 71 71 72 73 76 79 81 80 79 82 87 89 88 89 90 86 80 79 81 82 80 79 79 76 75 75 75 75 71 71 71 71 70 69 74 74 74 74 74 73 66 64 65 69 76 89 113 135 159 185 212 232 238 239 241 241 239 239 246 248 247 246 245 245 244 243 244 244 242 239 241 243 241 241 246 250 248 243 243 243 243 241 243 249 249 251 252 252 248 243 238 233 238 244 245 251 252 252 252 252 252
241 241 241 241 241 242 247 255 251 242 241 244 236 236 239 238 236 236 245 251 253 254 254 254 245 236 234 240 239 233 240 249 255 255 255 255 251 240 235 232 232 232 240 254 255 255 255 255 255 236 215 189 161 130 103 83 67 57 49 44 45 56 64 66 65 62 64 73 80 74 70 69 69 63 67 72 71 70 70 69 65 62 62 70 76 73 64 59 60 60 62 67 76 78 79 80 80 76 71 68 62 61 72 100 143 163 175 179 180 181 182 186 184 180 180 181 184 185 185 185 186 185 183 184 184 182 178 177 179 187 189 189 189 187 184 184 180 158 143 133 124 113 102 98 95 93 84 74 70 68 66 64 66 68 69 70 71 73 75 78 81 82 81 81 84 89 89 87 86 86 83 77 77 78 78 75 73 74 73 72 72 73 73 70 70 71 71 69 70 75 74 75 75 75 75 69 69 72 81 94 112 138 161 184 207 228 243 243 240 239 238 235 235 242 245 245 245 245 247 245 243 244 243 241 238 240 244 243 244 250 252 249 243 243 242 242 242 244 252 252 253 254 252 248 241 237 234 239 242 242 253 255 255 255 255 255
241 241 241 241 241 241 243 254 255 250 243 241 229 229 235 236 236 237 247 253 253 252 252 252 244 237 238 240 240 234 242 250 255 255 255 255 253 244 240 238 237 234 238 248 255 255 255 255 255 255 246 228 206 175 141 112 88 70 54 44 40 51 59 63 62 61 62 68 71 68 66 67 72 69 74 79 75 69 68 66 62 61 61 69 79 76 67 62 61 61 63 66 72 75 77 79 80 76 70 66 58 56 63 87 127 151 171 182 184 186 187 189 186 180 179 180 183 184 184 184 185 185 182 182 182 180 175 173 175 184 187 187 187 185 182 181 175 144 126 115 107 97 89 85 84 82 75 69 67 67 65 63 65 67 68 70 72 75 78 80 81 81 80 80 84 88 88 84 82 82 79 74 75 76 74 70 69 71 71 71 70 71 71 68 69 70 69 68 69 74 74 74 75 77 78 76 79 86 100 119 141 166 188 207 225 239 247 241 236 234 233 232 232 240 244 245 245 246 248 245 242 242 240 239 236 240 246 246 248 255 254 249 242 241 241 241 242 245 255 255 255 255 252 245 238 235 236 242 241 240 255 255 255 255 255 255
248 248 248 248 248 247 236 245 255 249 239 236 233 236 243 246 246 246 245 244 242 241 241 244 248 251 254 252 251 248 246 244 246 248 250 253 254 254 252 251 250 243 238 237 242 248 253 255 255 255 255 255 243 217 181 143 115 93 73 58 49 59 62 63 62 60 59 57 55 55 57 62 71 77 82 86 81 73 70 65 59 59 59 67 78 79 73 68 67 66 65 64 66 68 69 70 71 71 68 64 57 56 62 77 107 133 160 181 187 190 191 190 188 184 183 182 181 181 182 181 181 181 180 177 176 175 173 171 171 179 182 182 182 183 183 183 174 130 110 101 92 85 79 78 78 77 75 73 72 70 70 70 68 67 67 68 70 73 78 82 82 81 80 80 81 82 82 79 75 75 75 74 76 77 74 71 69 69 70 70 69 69 70 70 70 71 70 68 68 68 68 69 72 76 81 90 99 110 128 151 174 191 207 223 234 240 243 241 238 238 238 238 239 239 239 240 242 244 245 246 245 244 242 241 240 240 241 243 248 254 250 248 247 246 245 245 247 247 249 249 250 249 245 241 243 241 246 252 247 243 247 248 248 248 248 248
249 249 249 249 249 249 234 240 255 250 238 233 236 242 249 253 252 250 242 238 235 234 235 240 250 255 255 255 255 255 248 240 239 239 240 244 250 255 255 254 255 248 239 232 232 235 240 246 255 255 255 255 255 246 216 178 151 128 105 86 71 70 65 62 60 59 56 50 45 47 51 59 71 80 86 87 83 75 71 67 60 60 60 65 75 77 73 70 67 65 63 60 59 60 62 65 66 68 68 64 57 56 60 69 91 117 150 179 189 191 193 190 188 186 184 183 180 180 180 180 179 179 179 174 174 173 173 173 172 179 181 182 182 185 187 188 175 122 100 93 85 80 76 76 76 76 77 76 75 73 73 74 72 70 69 70 72 75 81 84 83 81 79 80 79 78 77 75 72 72 73 75 77 78 74 72 71 70 71 71 70 70 70 71 71 70 68 66 65 63 64 66 72 79 88 104 119 134 155 179 201 212 224 234 240 241 241 242 241 241 243 244 244 241 239 240 242 244 244 245 245 242 240 240 240 240 239 242 248 253 247 247 249 246 245 245 247 246 244 246 246 246 242 239 243 244 251 255 249 244 242 242 242 242 242 242
249 249 249 249 249 248 236 237 255 252 241 236 241 247 254 255 254 251 242 236 233 232 234 240 253 255 255 255 255 255 249 238 235 234 236 239 245 251 252 251 254 249 241 232 229 229 231 237 246 255 255 255 255 255 242 213 191 169 147 127 105 87 71 63 59 57 54 45 39 43 48 57 69 78 83 82 79 74 72 70 65 65 64 65 71 71 70 67 64 62 59 55 53 55 60 64 67 69 70 67 59 57 59 64 78 101 136 172 186 190 191 189 187 186 185 183 180 180 181 181 181 181 182 175 175 176 177 177 176 182 183 184 185 188 190 190 172 114 92 87 81 77 76 75 75 75 77 77 76 75 75 78 76 73 73 74 76 79 83 85 83 80 78 78 77 75 73 72 70 70 72 76 78 77 75 73 74 73 74 73 71 70 70 71 69 68 66 65 64 62 66 71 79 90 103 123 143 161 183 206 225 232 239 245 247 245 244 246 247 247 249 250 251 247 244 244 245 246 244 245 245 241 239 239 241 241 239 242 248 252 246 246 249 247 245 245 246 245 242 244 245 245 242 240 243 246 254 255 248 244 239 239 239 239 239 239
250 250 250 250 250 249 237 230 247 249 243 240 250 255 255 255 255 252 240 233 231 231 235 240 254 255 255 255 255 255 247 234 231 231 232 234 241 248 248 247 250 249 242 232 228 226 227 231 238 248 253 255 255 255 255 240 227 210 193 173 147 114 87 73 64 60 54 44 39 44 47 54 63 72 76 73 72 73 73 74 72 70 69 67 66 66 66 64 62 60 56 53 51 53 59 64 66 69 73 70 64 62 62 63 68 85 119 160 181 186 188 186 186 187 185 183 179 180 182 183 182 184 184 177 177 177 179 180 179 182 183 184 186 188 189 187 165 104 84 81 78 75 75 75 75 75 77 78 77 77 77 80 79 77 76 76 78 80 83 84 81 78 76 76 73 69 69 69 69 68 71 76 77 76 75 74 75 74 74 73 71 69 68 69 68 67 66 66 66 66 72 81 93 107 125 148 170 190 210 230 244 245 248 251 250 248 247 253 255 255 255 255 255 253 249 248 248 247 245 247 247 244 242 242 244 242 237 240 245 247 243 245 250 248 247 246 246 244 238 239 241 241 240 241 247 250 255 255 248 246 235 234 234 234 234 234
253 253 253 253 253 251 237 225 235 245 245 245 255 255 255 255 255 254 239 231 230 232 235 240 254 255 255 255 253 255 245 232 230 232 234 234 240 248 247 245 247 247 242 232 229 227 227 230 234 243 243 245 250 255 255 255 250 240 229 212 187 148 114 94 81 72 63 51 49 52 50 52 55 63 67 62 64 70 72 74 75 74 73 69 65 66 67 66 64 63 59 57 55 55 60 63 64 67 73 72 68 68 68 65 61 73 102 145 172 181 186 186 187 188 187 184 181 182 185 185 185 186 187 178 177 178 180 181 181 182 182 183 184 183 181 178 153 94 77 76 74 74 74 74 75 75 78 79 79 78 79 83 81 79 78 77 78 78 80 81 78 76 75 74 70 65 66 68 69 68 71 76 74 73 73 73 74 71 70 69 67 66 66 69 68 69 70 72 74 77 86 99 114 130 150 174 196 214 231 246 254 251 251 251 250 249 250 255 255 255 255 255 255 255 252 250 248 247 245 249 251 249 248 248 249 245 236 237 241 240 239 244 252 251 250 249 248 245 235 235 236 236 238 243 252 255 255 253 248 248 232 230 230 230 230 230
253 253 253 253 253 252 238 225 229 243 248 250 255 255 255 255 255 255 242 234 234 235 236 238 249 255 252 250 247 251 242 232 233 237 239 238 243 250 248 245 246 247 244 235 232 231 232 233 237 243 241 242 246 255 255 255 255 254 249 237 218 183 151 129 112 97 84 71 69 68 61 55 50 54 58 52 55 65 67 70 73 74 75 71 66 69 72 71 71 71 68 66 63 61 62 61 60 63 71 71 71 74 74 69 60 69 89 132 165 179 186 188 189 190 187 185 183 184 187 187 186 188 189 179 177 177 178 179 179 181 182 182 182 175 168 163 136 84 71 72 71 71 72 73 74 74 78 79 79 78 80 84 82 79 78 76 77 75 76 77 75 75 75 74 68 64 65 68 69 66 69 73 69 66 67 67 67 64 63 61 61 61 62 68 70 74 78 85 91 97 110 125 141 158 176 198 216 230 243 253 255 252 250 250 249 248 250 255 255 255 255 255 255 255 251 249 247 246 244 250 253 253 254 254 253 246 235 235 236 234 235 242 251 251 252 251 250 246 234 233 233 233 236 244 255 255 255 252 249 249 231 229 229 229 229 229
243 243 243 243 243 243 247 239 240 254 255 255 255 249 243 241 244 249 252 251 250 249 247 244 240 234 231 235 234 239 241 244 247 251 251 248 243 239 237 235 238 243 247 249 247 244 243 242 240 238 234 236 241 249 255 255 255 255 255 255 241 209 182 162 145 128 114 106 102 94 81 66 53 47 47 44 46 55 58 64 71 75 78 74 68 68 70 71 71 72 72 74 71 69 69 66 64 63 66 67 68 72 72 70 66 73 87 122 157 175 184 189 187 184 182 182 185 188 191 192 192 193 193 184 180 180 176 176 179 183 186 186 183 168 151 144 117 78 69 68 70 71 71 71 71 72 72 71 71 72 73 75 77 78 79 78 79 77 75 72 71 71 73 73 71 69 70 72 72 69 68 67 63 59 58 57 59 60 60 59 59 61 64 67 73 79 88 99 111 128 144 160 175 190 204 214 225 235 243 250 253 254 252 252 251 251 253 255 255 255 255 255 255 255 255 255 253 250 249 249 249 250 251 251 250 249 246 244 241 238 240 242 242 244 245 246 245 246 245 243 241 240 243 247 249 251 250 242 241 244 242 242 242 242 242 242
239 239 239 239 239 239 252 254 252 255 255 255 245 234 228 230 237 246 255 255 255 255 250 245 233 223 223 226 229 237 243 250 254 255 255 250 242 235 235 236 240 247 253 255 255 251 247 244 241 235 232 235 240 245 253 255 255 255 255 255 252 231 214 197 181 165 152 145 134 119 102 81 60 48 45 43 43 49 51 56 63 69 74 71 68 68 71 73 73 75 78 80 77 74 72 65 62 59 61 62 66 71 72 71 69 74 81 110 145 167 179 186 185 181 179 182 187 191 193 194 195 195 194 186 181 179 173 172 176 182 186 185 178 157 133 125 100 73 67 67 69 71 70 71 71 71 70 69 69 70 72 72 75 77 77 77 78 76 73 68 68 69 71 72 72 72 72 73 71 69 67 63 58 54 53 53 55 59 60 60 62 66 71 76 85 95 107 122 138 160 177 194 207 219 228 230 236 241 245 249 251 254 253 251 250 250 250 248 247 247 246 246 245 251 254 253 250 248 248 246 244 247 249 249 248 251 252 250 244 240 242 241 237 239 241 243 244 247 252 248 244 241 243 245 243 245 244 240 240 242 248 249 249 249 249 249
237 237 237 237 237 238 255 255 255 255 255 251 233 223 220 224 233 244 255 255 255 255 251 244 230 221 222 224 229 239 248 255 255 255 255 251 242 233 235 238 241 249 255 255 255 255 252 248 244 236 233 235 238 240 246 254 255 255 255 255 255 251 244 231 217 204 191 185 168 147 127 101 76 59 52 49 47 49 49 51 57 61 66 65 66 68 70 73 74 78 82 84 81 78 73 64 60 57 57 58 64 70 71 71 72 74 75 97 131 155 171 182 183 179 177 181 188 193 194 194 195 195 192 185 180 178 170 170 174 180 184 183 172 145 117 109 87 71 68 67 69 71 70 71 71 71 70 69 69 70 72 71 72 73 74 75 75 73 70 66 66 67 70 71 72 73 73 72 70 68 65 60 56 53 51 52 55 60 63 65 69 75 83 91 103 117 132 148 167 191 208 223 234 242 248 244 244 245 246 247 248 253 252 251 250 250 251 245 242 241 239 238 237 244 248 247 246 245 246 243 241 245 248 249 248 252 255 253 247 242 244 241 235 237 240 242 244 248 255 251 246 243 242 243 238 239 239 240 242 244 252 253 253 253 253 253
235 235 235 235 235 237 255 255 255 255 252 248 232 224 223 225 232 240 255 255 255 255 255 251 235 224 224 226 230 237 247 255 255 255 255 255 246 236 236 237 236 241 248 255 255 255 255 255 252 242 237 236 236 234 238 247 248 250 254 255 255 255 255 255 244 232 221 218 202 180 158 133 105 82 68 61 56 54 51 51 53 56 60 61 64 67 68 69 70 73 78 81 81 78 74 65 60 57 56 57 63 69 71 71 75 75 70 84 114 139 158 174 178 176 176 181 189 193 194 194 194 194 191 186 180 179 171 171 175 180 183 180 166 135 105 98 80 74 74 73 73 74 72 72 72 71 69 68 69 71 71 67 67 69 69 70 70 69 67 64 66 67 70 70 71 73 73 71 69 68 65 59 56 55 55 56 60 66 71 76 82 91 101 112 126 141 157 174 193 217 232 245 254 255 255 252 248 246 244 242 243 250 251 252 253 254 255 245 240 236 233 231 230 238 242 242 242 243 246 244 242 245 247 247 245 249 255 253 247 244 246 243 236 238 240 242 242 246 254 251 248 246 245 244 237 235 232 236 242 244 254 255 255 255 255 255
234 234 234 234 234 235 255 255 252 244 244 246 238 236 237 234 231 232 247 255 255 255 255 255 247 236 233 234 233 233 243 251 251 254 255 255 252 243 243 242 236 236 240 249 252 254 255 255 255 246 241 239 237 233 236 244 245 246 249 254 255 255 255 255 255 249 241 241 230 211 194 176 153 123 97 83 73 65 58 54 53 53 55 58 62 64 64 63 63 65 69 73 77 77 75 67 64 60 58 60 63 68 69 71 78 77 68 73 95 119 140 159 169 170 171 178 187 192 192 193 194 193 190 187 182 181 173 173 176 178 180 175 157 125 97 91 79 80 81 78 76 75 74 72 71 70 67 66 67 69 67 61 60 61 61 63 63 63 63 65 67 68 69 69 70 73 72 69 68 68 66 60 60 61 63 65 70 79 86 93 102 114 127 138 153 168 184 199 216 238 250 255 255 255 255 255 249 245 242 241 241 251 254 255 255 255 255 245 236 232 228 226 225 234 239 239 241 244 249 247 242 243 242 239 237 243 251 251 249 249 252 248 239 239 238 238 238 241 251 251 252 254 254 250 237 231 226 232 240 243 255 255 255 255 255 255
235 235 235 235 235 236 255 255 245 235 236 244 244 251 255 249 239 231 238 243 245 248 253 255 253 248 243 244 243 237 243 245 242 242 247 254 254 249 251 250 242 236 237 243 244 246 249 253 254 248 247 246 243 239 240 244 242 241 242 245 252 255 255 255 255 255 252 254 247 234 223 217 204 176 142 120 105 89 76 68 60 55 53 55 60 60 60 58 56 56 60 64 71 74 76 71 69 66 63 65 66 69 70 72 80 78 69 66 79 98 120 142 157 164 168 177 186 191 191 192 193 192 190 188 184 183 176 175 176 173 171 165 144 114 92 88 81 85 86 82 77 75 74 73 70 68 66 66 67 68 65 57 53 53 53 56 58 59 62 65 67 67 66 66 67 71 69 65 65 68 67 64 67 72 77 81 88 98 107 118 129 142 156 168 182 196 209 221 234 251 255 255 255 255 255 255 250 247 245 244 245 255 255 255 255 255 255 243 235 231 227 226 225 233 236 238 241 246 253 250 244 241 237 233 232 238 247 249 251 254 255 250 241 238 236 235 234 237 248 252 255 255 255 253 238 230 224 231 239 242 255 255 255 255 255 255
248 248 248 248 248 247 243 246 240 229 226 233 247 255 255 255 255 247 236 231 229 229 233 238 249 255 255 255 255 255 250 240 233 228 230 238 248 255 255 255 254 247 240 232 232 234 238 244 251 255 255 255 255 253 248 239 234 231 229 229 235 252 255 255 255 255 255 253 248 239 235 236 233 221 198 177 160 140 122 99 81 67 56 56 60 62 61 59 56 54 56 56 62 65 69 65 64 66 68 70 72 77 80 78 81 78 69 65 69 83 104 127 150 167 174 183 187 189 189 188 187 185 185 181 178 179 177 175 168 152 144 138 117 95 84 83 82 84 85 82 75 73 74 73 72 70 72 74 74 72 70 62 53 50 50 52 54 55 59 65 66 65 63 61 58 58 58 55 57 62 67 72 80 90 100 108 116 122 134 146 158 171 185 203 215 225 234 242 248 252 255 255 255 255 255 255 255 255 254 254 254 253 253 253 251 248 244 244 242 239 238 238 237 232 229 231 237 243 247 250 250 246 243 241 242 240 238 240 245 248 246 246 248 245 243 243 244 242 240 244 249 252 250 247 247 242 240 247 250 247 244 244 244 244 244 244
253 253 253 253 253 252 235 239 246 239 232 231 244 251 255 255 255 255 243 235 232 229 227 227 241 253 255 255 255 255 254 243 237 229 226 228 238 249 251 253 253 251 244 233 233 235 238 242 249 255 255 255 255 255 252 240 235 232 228 226 228 245 252 255 255 255 255 251 246 242 241 241 243 247 242 232 218 198 178 149 123 100 80 72 69 66 62 57 52 48 49 48 54 59 66 66 67 70 74 74 73 79 85 84 85 80 71 64 60 66 83 104 133 160 171 180 180 182 181 179 177 176 177 172 170 171 171 166 151 121 107 101 84 70 67 68 72 76 76 75 69 68 69 69 68 67 71 73 72 69 66 61 54 52 54 57 58 58 62 66 65 64 61 58 53 52 53 52 57 65 75 86 98 113 128 141 151 156 168 180 192 202 214 232 240 246 250 254 255 248 247 247 247 246 247 255 255 255 255 255 254 248 245 243 241 238 237 244 247 247 247 248 248 238 233 236 240 244 244 249 252 250 249 250 251 244 236 236 238 240 238 241 249 249 249 251 253 249 240 241 242 241 238 240 251 250 252 255 255 249 238 238 238 238 238 238
255 255 255 255 255 254 232 236 249 249 242 235 244 244 245 252 255 255 249 242 241 238 233 229 241 253 255 255 255 255 252 244 241 236 231 228 235 245 243 244 247 249 245 234 236 239 241 243 247 255 255 251 248 249 251 242 242 241 238 234 232 241 241 244 248 252 253 243 242 243 242 242 244 255 255 255 255 242 224 195 169 141 116 102 90 80 71 62 53 46 44 41 46 52 63 67 69 71 76 75 72 77 85 86 85 79 72 62 54 55 67 89 122 157 173 183 183 185 185 183 180 179 180 174 174 174 174 166 145 103 84 79 65 59 62 64 70 74 75 75 70 69 70 70 69 68 72 72 71 67 65 63 59 59 62 64 65 64 66 69 67 65 62 59 55 54 56 59 67 78 91 108 122 139 158 174 186 190 200 211 221 228 238 253 255 255 255 255 255 242 240 239 239 240 244 255 255 255 255 255 254 244 240 238 237 236 237 251 255 255 255 255 255 245 239 240 243 243 240 247 253 253 253 255 255 245 233 231 231 233 233 239 252 253 255 255 255 253 239 238 235 231 230 235 252 255 255 255 255 250 233 232 232 232 232 232
255 255 255 255 255 254 232 230 246 255 251 241 247 242 238 245 254 255 249 245 247 247 243 237 246 255 255 250 245 248 244 241 244 242 239 235 240 247 244 242 244 245 243 233 236 240 241 242 243 250 247 243 241 245 250 244 247 248 246 242 238 238 233 234 239 243 244 234 236 242 242 242 243 255 255 255 255 255 250 228 207 184 161 146 131 116 102 87 74 62 53 47 47 50 58 62 63 63 67 65 61 67 76 78 78 74 71 62 52 50 59 79 111 151 173 187 190 193 194 194 192 191 191 185 183 180 174 162 141 94 72 68 58 58 64 66 72 74 75 75 72 70 70 70 69 68 71 70 68 65 63 64 64 65 68 70 70 69 71 73 72 72 71 71 70 71 75 80 92 105 120 139 153 169 187 202 213 217 225 234 241 246 253 255 255 255 255 255 254 240 236 235 235 237 242 255 255 255 255 255 254 242 238 236 236 237 239 254 255 255 255 255 255 250 243 243 243 241 237 244 252 252 253 254 254 244 231 228 229 230 232 240 254 255 255 255 255 253 238 235 230 226 227 235 253 255 255 255 255 249 231 230 230 230 230 230
255 255 255 255 255 254 232 224 239 254 254 246 251 246 239 242 249 254 244 242 247 249 248 244 254 255 255 250 241 241 238 236 242 244 243 240 246 253 249 246 245 243 240 231 234 238 239 239 242 250 248 245 244 248 248 241 245 247 246 244 241 241 235 235 238 240 239 228 233 241 242 241 241 254 255 255 255 255 255 246 235 223 208 198 187 172 155 137 120 102 87 73 63 58 58 55 52 50 50 47 45 53 63 65 66 68 68 63 52 50 57 72 100 138 166 187 194 201 203 204 203 201 201 194 188 179 164 149 129 85 65 62 56 59 66 68 73 74 74 73 69 67 66 66 66 67 69 68 66 63 63 67 69 70 71 72 73 73 76 81 83 86 90 94 97 101 108 116 129 142 158 176 187 199 212 223 232 234 241 246 251 254 255 255 255 255 255 255 254 241 236 235 235 237 241 253 255 255 255 254 251 239 235 235 235 236 239 252 255 255 255 255 255 249 241 241 239 236 233 241 250 251 252 252 252 243 230 229 230 231 234 243 255 255 255 255 255 251 235 232 229 226 228 237 255 255 255 255 253 249 231 229 229 229 229 229
252 252 252 252 252 252 238 225 234 247 249 245 250 249 246 246 248 249 242 240 242 244 245 245 253 255 255 254 249 245 243 241 243 244 242 240 244 250 250 249 249 246 243 237 238 238 236 234 236 243 245 246 248 251 246 239 242 244 244 246 246 248 245 245 245 243 241 234 236 241 242 241 241 246 252 255 255 252 251 249 250 252 249 246 241 231 218 203 184 164 144 125 103 87 75 61 51 44 38 33 34 44 53 56 59 66 69 65 56 54 56 63 78 106 136 166 181 192 196 199 200 198 197 190 179 160 132 115 101 72 59 58 56 58 62 63 66 67 66 64 60 57 56 57 59 61 62 60 58 57 61 70 73 74 75 77 81 84 89 95 103 110 120 130 139 147 156 165 176 187 199 211 217 222 227 234 239 241 245 248 249 251 253 255 255 255 255 254 253 246 243 242 241 241 242 245 245 243 243 244 243 235 232 232 232 234 236 244 248 252 255 255 255 250 245 244 242 240 237 241 245 246 247 247 248 245 239 238 239 241 242 246 253 252 253 252 251 248 240 239 238 238 239 242 252 255 255 252 247 247 238 237 237 237 237 237
238 238 238 238 238 239 249 236 237 248 254 254 246 247 249 245 238 233 241 244 243 243 246 251 247 244 243 248 251 246 255 255 255 255 251 246 238 232 235 238 239 239 244 253 252 249 245 240 236 232 234 238 242 244 239 242 244 244 245 250 252 246 248 248 247 243 242 247 250 249 248 248 249 240 234 234 231 230 232 244 254 255 255 255 255 255 255 247 231 214 196 178 155 135 118 99 84 67 53 44 42 46 50 56 67 75 76 69 61 59 57 57 59 73 102 138 163 179 185 191 195 196 192 187 172 148 104 85 81 71 65 65 65 63 59 58 59 63 62 58 55 52 49 50 53 56 52 50 52 57 65 73 80 85 86 91 99 108 112 117 128 138 151 166 182 197 205 212 220 229 234 234 236 235 232 233 237 245 246 246 245 246 245 239 240 241 242 245 250 255 255 255 255 254 250 239 234 231 230 231 233 239 239 240 241 244 246 239 238 242 243 243 243 251 254 254 252 251 250 242 238 239 239 239 241 250 255 255 255 255 255 249 239 237 235 234 235 240 251 253 255 255 255 253 241 240 239 234 231 239 253 254 254 254 254 254
233 233 233 233 233 235 255 248 242 248 255 255 249 252 254 245 232 222 233 238 238 240 247 255 250 248 247 251 255 251 255 255 255 255 254 248 237 226 228 232 231 229 239 254 255 255 254 251 246 236 236 237 238 237 234 241 241 241 243 247 249 241 242 241 239 237 239 250 255 253 252 255 255 245 232 226 224 224 228 243 253 255 255 255 255 255 255 255 250 239 227 218 206 192 178 161 146 126 109 96 86 81 76 78 88 88 82 72 64 61 57 53 48 52 73 106 130 147 155 162 169 173 170 166 153 129 82 64 65 65 64 64 65 62 57 56 56 59 57 54 51 48 47 50 53 56 54 57 65 79 89 95 102 108 111 118 128 139 145 153 165 174 186 197 212 227 234 238 244 250 249 243 243 240 237 236 239 247 247 245 244 245 243 233 234 235 237 240 246 255 255 255 255 255 255 240 235 233 233 233 236 249 253 255 255 255 255 248 242 241 239 236 234 246 252 252 252 253 255 244 237 237 237 236 237 249 255 255 255 255 255 252 235 231 228 226 226 233 251 255 255 255 255 255 237 234 231 227 229 238 255 255 255 255 255 255
228 228 228 228 228 230 255 255 252 255 255 255 249 249 247 237 226 218 235 244 246 249 255 255 252 248 245 241 244 243 255 255 255 255 255 254 239 225 227 229 227 226 238 255 255 255 255 255 250 237 233 233 233 232 234 247 247 247 248 249 247 233 230 226 226 228 231 245 251 253 253 255 255 250 238 231 231 234 240 254 255 255 255 255 255 247 245 246 243 238 234 237 243 240 238 231 219 201 185 169 150 135 121 117 122 110 96 83 75 69 62 56 48 45 58 80 101 115 124 132 139 148 147 144 134 117 75 59 62 64 64 65 66 65 61 60 59 59 58 57 58 58 59 63 67 70 70 79 93 113 124 129 139 147 152 160 170 180 187 194 202 209 215 220 231 243 247 248 252 255 252 242 242 241 242 240 245 254 252 250 249 249 245 233 232 233 233 235 241 255 255 255 255 255 255 249 247 248 248 246 247 255 255 255 255 255 255 255 247 241 235 232 229 243 251 251 251 251 254 243 234 234 234 233 232 244 255 255 255 255 255 252 233 230 227 225 224 232 252 255 255 255 255 255 234 233 231 226 229 237 255 255 255 255 255 255
232 232 232 232 232 234 251 254 253 255 255 255 245 237 231 226 224 226 245 255 255 255 255 255 247 235 230 232 231 227 240 251 253 255 255 255 246 236 238 240 241 241 250 255 255 255 253 250 247 239 237 238 237 233 235 246 246 247 249 249 248 241 239 235 233 232 232 241 246 250 251 252 253 246 242 243 247 253 255 255 255 255 255 245 236 230 232 238 240 239 242 252 255 255 255 255 255 254 243 230 212 198 186 178 175 155 131 116 108 100 89 77 66 57 59 70 83 94 101 106 112 123 124 120 115 106 75 62 64 66 68 69 72 73 71 71 71 74 77 78 82 86 90 95 100 104 108 119 133 151 161 168 180 190 197 204 212 219 225 230 235 240 241 240 243 251 253 252 253 253 248 238 237 238 242 243 247 254 252 250 249 248 244 234 232 231 232 234 240 252 255 255 255 255 255 254 253 254 252 248 245 255 255 255 255 255 255 246 240 238 235 235 235 247 254 254 253 251 252 243 237 237 238 237 234 242 251 248 245 249 255 249 236 236 236 235 234 240 254 253 253 255 255 253 237 238 235 231 232 237 255 255 255 255 255 255
240 240 240 240 240 241 244 252 255 255 255 252 234 219 213 215 224 235 253 255 255 255 255 254 240 223 223 238 236 230 234 245 251 254 255 255 249 243 243 243 247 250 253 255 251 246 242 241 244 247 251 255 255 254 251 252 249 248 248 246 248 253 255 255 254 248 244 244 242 244 246 238 234 233 242 255 255 255 255 255 255 255 249 234 225 224 231 238 241 242 248 255 255 255 255 255 255 255 255 255 248 244 240 234 228 212 192 180 174 166 153 136 122 109 104 104 108 112 115 116 118 125 128 124 122 121 108 101 101 104 107 109 113 116 116 117 119 125 129 131 137 143 148 153 158 163 168 176 184 193 199 207 218 226 234 240 244 247 252 254 255 255 255 253 251 253 252 249 248 246 241 234 234 235 238 241 244 247 246 245 245 243 241 236 234 232 232 235 239 244 245 245 246 246 246 244 244 243 242 239 237 244 244 241 237 233 230 224 224 228 232 239 242 251 255 255 255 253 251 246 244 245 246 245 242 244 248 244 239 243 249 247 242 243 245 246 247 249 254 249 244 241 243 245 242 242 239 241 240 240 253 255 255 255 255 255
246 246 246 246 246 246 242 245 247 247 246 245 240 235 233 235 239 245 248 249 250 250 248 245 243 238 239 246 245 244 243 245 247 248 247 246 245 245 244 244 246 247 248 246 246 245 244 243 245 248 249 250 251 249 248 245 245 245 245 245 247 252 254 254 253 251 249 246 244 244 244 240 237 239 245 251 253 255 255 254 251 249 245 241 238 240 241 243 243 244 245 247 248 249 251 250 249 250 250 249 247 249 250 250 248 244 238 234 231 228 224 218 214 211 209 208 207 207 206 205 205 206 206 205 205 206 206 204 203 202 202 203 205 207 209 210 212 216 218 219 221 223 225 226 228 230 232 234 235 237 238 241 243 245 247 248 249 248 250 250 250 250 249 248 246 245 245 244 243 243 243 242 242 242 244 246 246 246 246 246 246 246 246 245 245 244 244 244 245 244 243 243 243 243 243 244 244 243 242 240 239 238 237 236 235 234 235 235 237 239 241 244 246 246 247 247 247 246 245 245 247 248 248 249 248 247 245 244 242 243 244 245 246 247 248 248 249 248 246 244 242 240 240 242 246 246 246 247 246 244 246 246 246 246 246 246
255 255 255 255 255 253 239 238 238 238 237 238 250 254 254 254 254 253 239 232 232 233 234 236 248 255 255 255 255 255 249 239 237 236 237 238 246 255 255 255 253 249 244 234 236 238 240 242 246 255 255 253 251 250 246 237 236 238 239 238 240 251 250 249 248 247 246 240 238 239 239 241 242 249 251 250 250 250 250 244 242 241 240 242 245 251 251 250 251 250 249 246 243 241 239 236 236 240 243 245 247 250 252 248 242 243 242 246 246 246 247 248 251 253 253 252 248 246 244 242 240 239 240 238 237 239 243 245 241 238 237 237 237 239 244 246 246 244 244 245 243 244 245 246 248 249 252 254 254 254 255 255 250 247 245 243 242 241 243 245 245 246 246 244 240 236 237 238 238 238 241 245 244 245 247 248 247 242 242 242 243 244 246 250 251 251 250 250 248 242 240 240 241 242 244 252 253 252 253 252 251 244 241 241 241 241 242 250 252 252 252 251 250 241 235 235 236 238 238 245 250 250 251 252 252 245 237 238 240 239 239 244 253 252 252 252 251 247 236 236 236 236 236 241 253 254 255 255 255 251 236 235 235 235 235 235
255 255 255 255 255 253 239 238 238 238 237 238 250 254 254 254 254 253 239 232 232 233 234 236 248 255 255 255 255 255 249 239 237 236 237 238 246 255 255 255 253 249 244 234 236 238 240 242 246 255 255 253 251 250 246 237 236 238 239 238 240 251 250 249 248 247 246 240 238 239 239 241 242 249 251 250 250 250 250 244 242 241 240 242 245 251 251 250 251 250 249 246 243 241 239 236 236 240 243 245 247 250 252 248 242 243 242 246 246 246 247 248 251 253 253 252 248 246 244 242 240 239 240 238 237 239 243 245 241 238 237 237 237 239 244 246 246 244 244 245 243 244 245 246 248 249 252 254 254 254 255 255 250 247 245 243 242 241 243 245 245 246 246 244 240 236 237 238 238 238 241 245 244 245 247 248 247 242 242 242 243 244 246 250 251 251 250 250 248 242 240 240 241 242 244 252 253 252 253 252 251 244 241 241 241 241 242 250 252 252 252 251 250 241 235 235 236 238 238 245 250 250 251 252 252 245 237 238 240 239 239 244 253 252 252 252 251 247 236 236 236 236 236 241 253 254 255 255 255 251 236 235 235 235 235 235
255 255 255 255 255 253 239 238 238 238 237 238 250 254 254 254 254 253 239 232 232 233 234 236 248 255 255 255 255 255 249 239 237 236 237 238 246 255 255 255 253 249 244 234 236 238 240 242 246 255 255 253 251 250 246 237 236 238 239 238 240 251 250 249 248 247 246 240 238 239 239 241 242 249 251 250 250 250 250 244 242 241 240 242 245 251 251 250 251 250 249 246 243 241 239 236 236 240 243 245 247 250 252 248 242 243 242 246 246 246 247 248 251 253 253 252 248 246 244 242 240 239 240 238 237 239 243 245 241 238 237 237 237 239 244 246 246 244 244 245 243 244 245 246 248 249 252 254 254 254 255 255 250 247 245 243 242 241 243 245 245 246 246 244 240 236 237 238 238 238 241 245 244 245 247 248 247 242 242 242 243 244 246 250 251 251 250 250 248 242 240 240 241 242 244 252 253 252 253 252 251 244 241 241 241 241 242 250 252 252 252 251 250 241 235 235 236 238 238 245 250 250 251 252 252 245 237 238 240 239 239 244 253 252 252 252 251 247 236 236 236 236 236 241 253 254 255 255 255 251 236 235 235 235 235 235
255 255 255 255 255 253 239 238 238 238 237 238 250 254 254 254 254 253 239 232 232 233 234 236 248 255 255 255 255 255 249 239 237 236 237 238 246 255 255 255 253 249 244 234 236 238 240 242 246 255 255 253 251 250 246 237 236 238 239 238 240 251 250 249 248 247 246 240 238 239 239 241 242 249 251 250 250 250 250 244 242 241 240 242 245 251 251 250 251 250 249 246 243 241 239 236 236 240 243 245 247 250 252 248 242 243 242 246 246 246 247 248 251 253 253 252 248 246 244 242 240 239 240 238 237 239 243 245 241 238 237 237 237 239 244 246 246 244 244 245 243 244 245 246 248 249 252 254 254 254 255 255 250 247 245 243 242 241 243 245 245 246 246 244 240 236 237 238 238 238 241 245 244 245 247 248 247 242 242 242 243 244 246 250 251 251 250 250 248 242 240 240 241 242 244 252 253 252 253 252 251 244 241 241 241 241 242 250 252 252 252 251 250 241 235 235 236 238 238 245 250 250 251 252 252 245 237 238 240 239 239 244 253 252 252 252 251 247 236 236 236 236 236 241 253 254 255 255 255 251 236 235 235 235 235 235
255 255 255 255 255 253 239 238 238 238 237 238 250 254 254 254 254 253 239 232 232 233 234 236 248 255 255 255 255 255 249 239 237 236 237 238 246 255 255 255 253 249 244 234 236 238 240 242 246 255 255 253 251 250 246 237 236 238 239 238 240 251 250 249 248 247 246 240 238 239 239 241 242 249 251 250 250 250 250 244 242 241 240 242 245 251 251 250 251 250 249 246 243 241 239 236 236 240 243 245 247 250 252 248 242 243 242 246 246 246 247 248 251 253 253 252 248 246 244 242 240 239 240 238 237 239 243 245 241 238 237 237 237 239 244 246 246 244 244 245 243 244 245 246 248 249 252 254 254 254 255 255 250 247 245 243 242 241 243 245 245 246 246 244 240 236 237 238 238 238 241 245 244 245 247 248 247 242 242 242 243 244 246 250 251 251 250 250 248 242 240 240 241 242 244 252 253 252 253 252 251 244 241 241 241 241 242 250 252 252 252 251 250 241 235 235 236 238 238 245 250 250 251 252 252 245 237 238 240 239 239 244 253 252 252 252 251 247 236 236 236 236 236 241 253 254 255 255 255 251 236 235 235 235 235 235
244 244 244 244 244 244 246 245 246 246 246 246 245 246 247 246 245 244 244 245 245 245 246 246 246 246 246 245 245 245 247 247 247 247 247 247 245 244 244 244 244 244 245 246 247 247 247 247 246 245 244 244 244 245 246 246 246 246 246 245 245 245 244 244 244 244 245 246 245 245 245 246 247 246 245 244 244 243 244 246 246 247 247 248 248 247 246 246 245 245 245 244 244 244 245 245 245 245 244 244 243 244 245 246 248 248 249 248 247 246 246 246 246 245 246 247 247 247 246 245 245 244 244 243 243 244 244 244 244 243 243 243 243 244 244 244 245 246 246 246 246 246 246 246 246 246 246 246 246 247 247 247 247 247 247 247 247 247 247 245 245 245 245 245 245 244 244 243 244 244 245 245 245 245 244 244 245 246 245 245 245 245 246 245 245 245 245 245 246 247 246 247 247 247 248 247 246 246 246 246 246 246 246 246 246 246 247 247 246 246 245 245 244 245 245 245 245 245 245 245 245 245 245 245 244 245 246 246 247 247 247 246 245 245 244 244 244 244 246 246 247 247 247 246 245 245 245 244 244 245 246 247 247 247 247 247
234 234 234 234 234 236 251 251 252 253 254 252 240 238 239 238 236 235 248 255 255 255 255 255 243 236 234 234 234 234 244 253 255 255 255 253 244 234 233 234 235 238 245 255 255 255 253 251 246 235 234 235 237 239 244 253 254 252 251 251 249 239 238 239 240 241 243 250 251 251 250 250 250 243 239 239 238 237 238 246 249 252 252 251 249 244 241 241 239 239 240 242 244 246 249 252 252 248 243 242 239 237 237 243 252 252 254 249 247 246 244 244 240 238 239 242 246 247 247 247 248 248 246 247 247 247 243 242 245 247 247 248 248 247 243 242 243 247 247 246 247 247 246 245 244 244 239 237 238 240 240 239 244 247 248 249 250 251 249 245 244 243 243 245 248 251 249 247 248 249 248 244 245 243 242 241 243 248 247 247 246 246 246 240 240 240 240 241 243 250 252 252 252 251 250 242 240 240 240 240 240 248 249 248 249 251 252 243 240 239 238 238 239 249 254 254 252 251 251 245 240 239 239 238 237 245 253 253 253 254 253 247 237 237 237 237 237 242 254 254 255 255 255 250 236 235 235 234 234 238 254 255 255 255 255 255
234 234 234 234 234 236 251 251 252 253 254 252 240 238 239 238 236 235 248 255 255 255 255 255 243 236 234 234 234 234 244 253 255 255 255 253 244 234 233 234 235 238 245 255 255 255 253 251 246 235 234 235 237 239 244 253 254 252 251 251 249 239 238 239 240 241 243 250 251 251 250 250 250 243 239 239 238 237 238 246 249 252 252 251 249 244 241 241 239 239 240 242 244 246 249 252 252 248 243 242 239 237 237 243 252 252 254 249 247 246 244 244 240 238 239 242 246 247 247 247 248 248 246 247 247 247 243 242 245 247 247 248 248 247 243 242 243 247 247 246 247 247 246 245 244 244 239 237 238 240 240 239 244 247 248 249 250 251 249 245 244 243 243 245 248 251 249 247 248 249 248 244 245 243 242 241 243 248 247 247 246 246 246 240 240 240 240 241 243 250 252 252 252 251 250 242 240 240 240 240 240 248 249 248 249 251 252 243 240 239 238 238 239 249 254 254 252 251 251 245 240 239 239 238 237 245 253 253 253 254 253 247 237 237 237 237 237 242 254 254 255 255 255 250 236 235 235 234 234 238 254 255 255 255 255 255
234 234 234 234 234 236 251 251 252 253 254 252 240 238 239 238 236 235 248 255 255 255 255 255 243 236 234 234 234 234 244 253 255 255 255 253 244 234 233 234 235 238 245 255 255 255 253 251 246 235 234 235 237 239 244 253 254 252 251 251 249 239 238 239 240 241 243 250 251 251 250 250 250 243 239 239 238 237 238 246 249 252 252 251 249 244 241 241 239 239 240 242 244 246 249 252 252 248 243 242 239 237 237 243 252 252 254 249 247 246 244 244 240 238 239 242 246 247 247 247 248 248 246 247 247 247 243 242 245 247 247 248 248 247 243 242 243 247 247 246 247 247 246 245 244 244 239 237 238 240 240 239 244 247 248 249 250 251 249 245 244 243 243 245 248 251 249 247 248 249 248 244 245 243 242 241 243 248 247 247 246 246 246 240 240 240 240 241 243 250 252 252 252 251 250 242 240 240 240 240 240 248 249 248 249 251 252 243 240 239 238 238 239 249 254 254 252 251 251 245 240 239 239 238 237 245 253 253 253 254 253 247 237 237 237 237 237 242 254 254 255 255 255 250 236 235 235 234 234 238 254 255 255 255 255 255
234 234 234 234 234 236 251 251 252 253 254 252 240 238 239 238 236 235 248 255 255 255 255 255 243 236 234 234 234 234 244 253 255 255 255 253 244 234 233 234 235 238 245 255 255 255 253 251 246 235 234 235 237 239 244 253 254 252 251 251 249 239 238 239 240 241 243 250 251 251 250 250 250 243 239 239 238 237 238 246 249 252 252 251 249 244 241 241 239 239 240 242 244 246 249 252 252 248 243 242 239 237 237 243 252 252 254 249 247 246 244 244 240 238 239 242 246 247 247 247 248 248 246 247 247 247 243 242 245 247 247 248 248 247 243 242 243 247 247 246 247 247 246 245 244 244 239 237 238 240 240 239 244 247 248 249 250 251 249 245 244 243 243 245 248 251 249 247 248 249 248 244 245 243 242 241 243 248 247 247 246 246 246 240 240 240 240 241 243 250 252 252 252 251 250 242 240 240 240 240 240 248 249 248 249 251 252 243 240 239 238 238 239 249 254 254 252 251 251 245 240 239 239 238 237 245 253 253 253 254 253 247 237 237 237 237 237 242 254 254 255 255 255 250 236 235 235 234 234 238 254 255 255 255 255 255
234 234 234 234 234 236 251 251 252 253 254 252 240 238 239 238 236 235 248 255 255 255 255 255 243 236 234 234 234 234 244 253 255 255 255 253 244 234 233 234 235 238 245 255 255 255 253 251 246 235 234 235 237 239 244 253 254 252 251 251 249 239 238 239 240 241 243 250 251 251 250 250 250 243 239 239 238 237 238 246 249 252 252 251 249 244 241 241 239 239 240 242 244 246 249 252 252 248 243 242 239 237 237 243 252 252 254 249 247 246 244 244 240 238 239 242 246 247 247 247 248 248 246 247 247 247 243 242 245 247 247 248 248 247 243 242 243 247 247 246 247 247 246 245 244 244 239 237 238 240 240 239 244 247 248 249 250 251 249 245 244 243 243 245 248 251 249 247 248 249 248 244 245 243 242 241 243 248 247 247 246 246 246 240 240 240 240 241 243 250 252 252 252 251 250 242 240 240 240 240 240 248 249 248 249 251 252 243 240 239 238 238 239 249 254 254 252 251 251 245 240 239 239 238 237 245 253 253 253 254 253 247 237 237 237 237 237 242 254 254 255 255 255 250 236 235 235 234 234 238 254 255 255 255 255 255
