P2
256 256
255
249 251 251 246 253 253 251 250 252 252 250 252 253 253 253 253 253 253 253 253 254 254 255 254 254 254 254 254 253 252 251 251 251 252 251 251 251 251 250 250 251 253 253 254 254 254 254 254 255 255 255 255 255 255 254 254 254 254 255 253 253 254 255 255 255 254 253 252 252 252 252 253 253 253 252 253 252 250 249 250 252 252 252 252 251 250 251 251 252 253 253 252 251 251 251 253 252 251 249 251 252 254 255 255 255 255 254 253 252 253 255 255 255 254 254 254 255 255 255 254 255 253 251 251 252 253 253 253 251 250 250 251 253 254 253 254 255 255 255 255 254 254 253 255 255 255 255 255 255 255 255 254 254 254 254 254 254 254 255 255 254 254 253 253 254 255 255 253 254 255 254 253 255 255 255 251 253 255 255 255 255 255 254 255 255 255 253 254 253 252 253 252 252 251 251 252 252 254 252 251 251 252 252 252 251 250 251 252 254 254 254 254 252 252 252 252 253 253 252 252 254 254 255 255 255 254 253 252 251 250 250 253 254 255 255 255 255 255 255 254 253 254 253 252 253 254 254 254 254 254 254 254 254 255 255 255
249 251 250 245 252 253 251 250 252 251 249 252 253 252 253 253 253 253 254 254 254 254 254 255 255 254 254 254 253 252 252 253 254 254 253 253 252 252 252 252 253 254 254 255 254 254 254 254 254 254 254 254 253 254 254 254 255 255 255 255 255 254 255 255 255 255 254 253 253 254 254 255 255 255 254 254 254 251 251 251 253 254 254 254 253 253 253 254 254 254 254 253 252 252 254 255 255 254 252 252 254 254 255 255 255 255 255 254 254 253 255 255 255 254 255 255 255 255 255 255 255 253 253 253 254 253 253 253 253 253 253 253 254 254 254 254 255 254 254 254 253 252 252 254 254 253 252 253 252 253 253 253 253 253 253 253 253 253 254 254 253 252 251 252 252 254 253 251 252 253 252 251 254 254 252 249 252 254 254 254 254 253 252 254 255 253 250 254 255 254 254 253 253 253 253 253 253 255 253 252 253 254 254 254 253 253 253 254 254 255 255 255 254 253 253 254 254 254 253 252 254 254 255 255 255 255 255 254 253 253 251 252 253 253 254 253 253 254 254 253 253 253 252 252 252 253 253 254 254 254 254 253 253 255 255 255
249 250 233 196 201 201 200 199 200 200 198 200 200 200 201 201 202 202 202 203 203 203 203 204 204 205 206 207 208 209 209 209 210 210 210 209 208 209 209 209 209 211 211 211 211 211 211 212 212 211 210 211 212 212 213 212 212 212 212 212 212 211 211 211 210 210 210 210 209 209 209 210 210 210 209 209 209 209 209 210 210 211 211 211 210 209 210 210 210 210 210 208 208 208 210 211 210 208 206 206 206 205 205 205 206 207 207 207 206 206 208 208 208 208 208 209 210 210 210 210 210 209 208 208 209 209 209 210 210 210 211 211 211 211 210 211 212 212 211 211 211 211 211 213 213 213 213 213 213 213 214 214 214 214 212 212 213 213 211 210 209 208 210 211 212 214 213 212 213 213 212 210 212 212 211 209 211 211 211 210 210 210 210 211 211 210 208 210 211 210 209 208 208 208 208 209 210 211 209 209 210 211 211 209 208 208 208 208 207 207 207 207 206 207 208 209 209 208 207 206 207 207 207 207 207 207 208 209 208 208 206 207 207 208 209 210 211 212 213 214 214 215 214 213 213 214 215 216 217 219 221 221 222 244 254 254
251 249 191 69 69 68 67 68 68 68 68 67 66 66 66 66 67 68 69 70 71 73 72 73 75 77 80 85 90 95 94 93 91 93 94 94 91 93 93 93 91 96 98 99 100 101 102 102 101 100 100 103 106 107 106 102 101 102 101 100 101 102 101 98 96 95 95 94 93 91 90 91 92 92 91 91 92 97 99 99 97 95 96 98 95 93 93 94 94 94 95 94 92 92 93 93 90 87 84 83 81 78 78 78 79 80 83 83 83 84 86 87 86 86 86 87 88 91 93 93 93 93 91 90 92 97 97 95 92 93 95 98 99 98 97 98 103 105 103 101 104 107 108 111 112 115 118 121 122 121 118 116 115 114 109 110 111 110 104 99 96 100 104 109 112 116 119 119 115 113 112 110 109 110 112 114 109 104 101 100 101 104 104 104 102 101 101 96 95 96 93 90 89 91 92 93 94 94 93 94 97 98 95 92 89 87 86 86 88 85 82 80 82 86 90 93 91 89 88 88 87 87 86 84 83 82 83 87 88 88 88 90 92 95 98 102 106 109 113 116 117 118 116 114 114 115 117 121 125 131 137 140 143 218 252 252
249 248 190 66 65 65 65 65 66 66 67 66 66 65 65 65 65 66 67 67 68 67 65 66 69 73 77 82 87 91 92 94 95 97 97 96 96 94 93 93 96 98 98 99 100 100 100 101 101 100 100 101 102 104 106 103 102 102 100 99 98 98 97 96 95 94 95 96 97 96 96 96 95 95 94 93 91 97 101 102 100 98 99 101 98 97 97 97 96 96 97 95 94 95 97 97 94 90 87 82 80 79 79 79 81 84 85 85 84 85 88 89 89 89 90 92 95 95 95 94 94 95 94 93 94 96 96 96 96 99 100 102 100 100 101 103 104 102 101 104 105 106 105 107 106 106 106 108 108 108 108 109 110 110 107 109 111 110 106 102 98 99 103 107 110 110 110 109 108 107 105 102 101 102 104 106 104 103 102 100 101 103 103 101 99 99 101 98 97 97 96 95 95 96 95 96 97 98 95 97 100 101 98 95 93 90 87 86 88 85 83 81 81 86 91 94 92 89 88 88 87 87 87 85 84 83 84 87 87 87 86 87 89 90 93 95 99 103 107 110 112 113 111 110 110 111 113 117 121 127 132 136 139 215 251 251
251 250 191 65 65 64 63 63 64 64 64 64 63 62 61 61 61 62 63 63 64 64 62 62 65 69 73 78 82 87 89 91 93 95 95 95 95 93 93 94 96 96 95 97 97 95 95 96 96 96 96 96 97 98 101 101 100 100 98 97 95 94 93 93 93 92 93 94 95 95 95 95 95 95 94 94 93 97 100 101 99 99 100 101 99 98 98 98 97 96 96 95 94 95 96 96 93 90 86 81 79 78 78 78 81 83 84 85 85 86 89 90 90 89 89 90 92 94 95 96 96 98 97 95 94 95 95 96 97 99 100 101 99 99 100 101 101 99 98 102 104 105 105 107 106 105 104 105 106 107 109 110 111 109 107 108 108 106 103 100 96 97 100 105 108 109 109 108 107 105 104 102 102 102 103 104 102 100 98 98 98 99 100 98 96 95 96 97 98 99 97 96 96 97 98 99 99 99 97 98 99 99 97 94 92 90 88 86 86 83 81 80 81 85 90 93 91 89 88 88 87 86 85 83 81 81 81 82 83 83 83 84 86 88 92 94 98 101 105 109 111 112 110 109 108 110 112 116 120 126 131 135 137 217 253 253
255 254 193 64 64 62 61 61 60 60 60 59 59 58 57 56 56 56 57 58 60 60 58 59 61 63 68 72 77 81 84 86 86 89 90 90 89 89 90 91 92 91 90 91 91 89 88 89 89 89 90 91 92 92 93 95 96 96 94 93 91 90 90 89 89 88 89 89 89 88 89 91 92 92 92 92 93 97 97 96 96 96 96 96 95 95 96 95 93 92 92 92 91 91 91 91 88 84 81 77 75 74 74 74 75 77 80 83 84 84 86 87 87 85 83 83 85 89 93 95 95 96 96 94 92 92 92 93 93 95 96 97 96 96 95 96 97 97 96 97 101 103 104 107 107 107 107 108 110 112 114 114 113 110 107 106 105 103 99 95 91 92 96 101 107 109 110 109 106 105 105 106 105 104 104 105 100 95 92 93 95 96 96 96 94 92 91 94 96 97 95 93 92 94 97 98 97 97 97 96 95 95 93 90 87 86 85 84 82 77 75 75 78 82 85 88 88 87 86 86 85 83 81 78 77 76 75 76 78 78 79 81 84 87 91 94 98 101 105 108 109 111 108 107 107 108 110 114 119 125 130 133 136 218 255 255
255 253 192 63 61 60 59 59 60 61 61 60 60 59 58 57 56 57 57 58 58 57 55 56 59 63 68 73 77 82 84 87 89 91 91 90 90 88 88 88 91 89 89 91 92 92 92 94 94 94 95 95 95 96 99 101 101 101 100 98 96 95 94 93 92 90 89 90 90 89 90 90 92 94 93 92 89 92 94 96 95 95 95 96 96 95 95 94 93 92 92 90 89 89 91 91 88 84 81 77 76 76 77 77 79 81 83 83 83 85 86 87 88 86 87 88 91 93 93 92 92 93 92 92 92 92 94 96 97 99 100 102 100 101 104 109 107 105 104 109 109 108 107 107 106 106 105 106 106 108 109 110 110 110 109 110 109 108 108 105 100 99 101 105 109 107 105 104 104 105 105 103 102 101 101 102 102 102 102 101 100 101 101 100 98 97 98 98 97 96 96 97 98 97 96 97 98 98 96 95 97 97 95 92 89 85 82 82 82 80 78 76 76 80 85 88 87 85 85 84 83 82 81 79 77 75 74 74 75 75 76 78 79 80 83 86 89 92 96 100 101 103 102 101 100 102 104 108 112 118 123 126 129 216 255 255
255 253 192 62 61 59 57 58 58 59 59 58 58 57 56 55 55 55 56 57 58 58 55 56 58 61 66 71 75 79 82 84 86 88 88 87 87 86 85 86 88 86 86 87 89 88 88 89 89 90 91 91 91 91 92 93 94 93 92 90 89 88 88 88 87 86 86 87 88 88 89 89 90 91 91 91 90 92 93 93 93 93 93 94 94 93 93 92 90 90 91 90 89 88 88 87 85 82 79 75 74 74 74 75 76 78 80 81 81 82 84 85 85 84 84 85 88 91 92 92 92 93 92 91 91 92 93 94 95 97 98 99 100 100 101 104 105 104 103 106 107 107 107 108 107 107 106 107 108 109 110 110 110 110 108 108 107 105 103 99 95 95 99 103 107 107 106 106 104 103 103 103 102 102 102 102 101 99 98 99 99 99 98 97 96 95 95 96 97 97 96 95 95 96 97 98 97 97 95 95 95 95 93 90 88 84 82 82 81 78 75 73 74 78 82 85 85 84 83 83 82 81 79 77 75 74 74 75 76 76 78 80 82 84 86 89 92 95 99 102 103 105 103 102 101 102 105 109 113 119 124 128 130 216 255 255
254 253 192 62 61 58 56 57 57 57 57 56 56 55 54 53 53 54 54 56 57 58 56 56 57 59 64 68 72 77 79 81 82 84 85 85 85 83 83 85 86 84 83 85 87 85 84 85 85 86 88 88 87 86 87 88 88 88 87 86 84 83 83 84 84 84 85 85 86 86 87 88 89 90 90 91 91 93 92 91 92 92 92 93 92 92 92 90 88 88 90 89 89 88 87 85 84 81 78 75 73 72 72 73 74 75 77 78 79 81 83 84 84 83 82 83 86 89 91 92 91 92 92 91 90 92 93 94 95 96 97 98 99 98 98 99 101 102 102 102 104 106 106 108 108 107 107 108 110 111 112 111 110 109 106 106 104 101 97 93 90 91 96 101 105 106 107 106 102 101 101 102 102 102 101 101 99 96 94 97 96 96 94 94 93 91 90 94 97 99 96 94 93 94 97 97 97 95 96 95 95 94 92 89 87 84 83 83 81 77 74 72 73 76 80 83 84 83 82 82 81 80 78 76 74 74 74 76 77 78 79 81 83 85 89 91 94 97 100 103 104 105 103 102 102 103 105 109 114 119 125 128 131 216 255 255
253 252 191 61 59 57 56 56 56 56 56 55 55 54 53 53 53 54 54 55 55 55 53 53 55 58 63 67 70 74 77 79 80 84 86 86 85 82 82 83 84 82 82 84 88 88 87 88 88 89 90 90 90 90 91 92 92 92 91 92 91 90 88 88 88 87 87 87 87 87 87 88 90 92 92 92 90 91 91 91 91 92 92 93 92 92 91 90 88 89 90 89 88 88 88 87 84 82 79 74 72 71 72 72 73 74 74 76 77 79 81 83 83 83 83 85 87 90 90 90 89 90 91 90 90 92 94 96 97 98 98 100 100 101 103 105 105 105 104 107 108 108 107 108 107 107 106 108 109 109 109 109 109 109 107 106 105 102 101 98 93 94 97 101 105 105 104 103 102 102 102 103 102 101 101 100 100 98 97 98 97 97 96 96 95 94 94 96 97 97 95 95 95 96 96 96 96 96 94 94 94 95 94 91 87 85 83 83 82 79 76 72 71 74 78 81 82 81 81 81 80 78 76 75 75 75 75 77 78 79 80 79 80 80 83 84 87 90 93 97 98 99 98 97 96 98 100 104 108 114 119 122 125 214 255 255
255 254 193 62 60 57 55 55 55 54 54 54 54 53 53 52 53 53 54 55 55 54 51 51 52 55 60 65 70 75 76 78 78 82 83 83 82 81 82 82 82 81 81 83 85 86 86 87 88 88 89 90 90 90 90 92 91 91 90 90 89 87 85 84 84 83 83 84 84 84 86 88 90 92 91 90 90 91 90 88 90 91 92 92 91 90 90 89 89 90 90 89 87 87 87 85 82 80 78 74 73 72 72 73 75 76 77 79 79 80 82 83 84 84 83 83 84 87 90 92 92 93 92 91 90 93 95 97 96 96 97 98 97 98 100 102 103 104 104 106 106 106 105 107 107 107 108 109 109 109 109 108 108 108 106 106 104 101 98 95 92 94 98 102 106 104 103 103 103 104 104 103 102 102 102 102 100 98 98 98 97 97 96 95 94 93 94 95 96 96 95 95 95 95 96 97 97 97 94 92 92 92 91 88 84 81 81 82 81 77 73 68 66 69 73 78 79 80 79 79 79 78 77 76 75 75 76 77 78 78 78 78 78 78 80 82 85 88 92 95 96 98 96 95 95 96 99 103 107 113 118 121 123 215 255 255
255 255 193 63 60 57 55 54 54 53 53 53 53 53 52 52 52 53 54 54 54 53 50 50 51 53 58 64 70 75 76 77 78 82 83 82 80 81 82 82 81 81 81 83 84 84 85 87 88 88 89 89 91 91 90 92 91 90 89 88 87 86 84 83 82 82 82 82 83 83 85 88 91 92 90 90 90 91 89 87 89 91 91 91 90 89 89 89 89 90 90 89 87 86 86 84 81 79 77 74 72 71 72 73 76 77 78 80 80 81 82 83 85 84 82 81 82 86 90 93 93 95 93 92 91 93 95 96 96 96 96 97 96 97 98 100 102 103 103 105 105 105 104 106 107 107 108 109 109 109 108 107 108 107 106 105 104 101 97 94 91 94 98 103 106 104 103 103 104 105 105 103 103 102 102 102 100 99 98 98 98 98 97 95 93 92 94 95 96 96 96 95 95 95 96 97 97 97 94 92 90 90 89 86 83 79 80 81 81 77 71 66 63 66 71 76 78 79 79 77 77 77 77 76 75 74 75 76 77 77 77 77 76 76 78 80 84 87 91 94 95 97 95 94 94 96 98 102 106 112 117 120 123 215 255 255
255 255 193 62 59 57 55 54 54 53 53 53 53 52 52 51 52 52 53 54 54 53 50 50 51 53 58 64 69 74 75 77 78 81 82 82 80 81 82 82 81 81 81 82 84 84 84 86 87 88 88 89 90 90 90 92 91 90 89 88 87 85 83 82 82 81 81 82 83 83 85 88 91 91 90 90 90 91 89 87 89 91 91 91 90 89 89 89 89 89 90 89 87 86 86 84 81 79 77 74 72 71 71 73 76 77 78 79 80 80 81 83 84 84 83 82 83 86 90 93 93 94 93 91 90 93 95 96 95 95 95 97 96 97 98 100 102 103 103 105 105 105 104 106 106 106 107 108 108 108 108 107 107 106 105 105 103 100 97 94 91 94 98 102 106 104 102 102 103 104 104 102 102 102 101 101 100 98 97 98 97 97 96 95 93 93 94 95 95 96 95 95 95 95 96 97 97 96 93 91 90 90 89 86 83 80 80 81 81 77 72 66 64 67 72 76 78 78 78 77 77 76 76 75 74 74 74 75 76 76 76 76 76 76 78 80 83 87 90 93 95 96 95 94 94 95 97 101 105 111 116 119 122 215 255 255
255 254 192 61 58 56 54 53 53 53 53 52 52 51 51 50 51 51 53 53 53 52 49 49 50 52 58 64 69 73 75 76 77 80 80 80 79 80 81 81 81 80 79 81 84 84 84 85 86 87 88 89 89 89 90 91 90 89 88 88 87 85 83 82 81 81 81 82 83 83 85 88 90 91 90 90 90 91 89 88 89 91 91 91 90 89 89 88 88 89 89 89 87 86 86 84 81 79 78 74 72 71 71 73 76 77 78 79 79 80 80 82 84 85 84 83 84 87 90 91 92 93 92 90 90 92 94 95 94 94 95 96 96 97 98 100 102 103 104 106 105 104 104 105 106 106 106 107 107 107 107 106 106 105 104 104 103 99 97 94 91 93 97 101 104 103 102 101 102 103 102 101 101 101 100 100 98 97 97 97 97 96 96 95 93 93 94 95 95 95 95 95 95 95 95 96 95 95 92 90 89 89 88 86 83 80 79 80 81 77 72 67 65 68 72 76 77 77 76 75 75 75 74 73 72 71 71 72 74 74 75 75 75 75 77 78 82 85 89 92 93 95 93 92 92 94 96 100 104 110 115 118 121 214 255 255
255 254 192 61 58 55 53 53 53 53 53 52 51 51 50 49 49 50 51 52 53 52 49 48 49 51 57 63 69 73 74 76 77 79 79 79 79 79 80 80 81 79 79 80 83 83 83 84 85 86 87 88 89 89 89 90 90 89 88 88 87 85 83 82 81 80 80 82 83 84 85 87 90 91 91 90 90 91 89 88 89 90 91 91 91 89 89 88 87 88 89 88 87 86 86 84 81 79 78 74 72 71 71 73 76 77 78 79 79 79 80 82 84 84 84 83 84 87 89 91 91 92 91 90 89 91 93 94 93 94 94 95 96 97 98 100 101 102 104 105 105 105 104 106 106 107 107 108 108 108 108 107 107 106 104 103 102 98 96 94 91 93 96 100 104 102 101 101 101 101 101 100 100 100 99 99 97 96 96 97 97 96 96 95 94 93 94 94 94 94 94 94 94 94 94 95 94 93 91 90 89 88 87 85 82 79 79 80 81 77 73 68 65 68 72 75 76 75 74 73 73 72 71 70 69 69 69 70 71 71 72 73 74 74 76 78 81 84 88 91 92 93 92 91 91 92 94 98 103 108 114 117 120 213 255 255
255 254 192 60 58 55 53 53 53 52 52 51 51 50 50 49 49 50 51 52 53 52 49 48 49 51 57 63 68 72 74 75 76 79 79 78 79 79 79 80 81 79 79 81 83 83 83 83 85 86 87 88 88 89 90 90 90 89 88 88 87 85 83 82 81 80 80 82 83 84 85 87 90 91 91 90 90 91 89 88 89 91 91 91 91 89 89 88 87 88 89 88 87 86 86 84 81 79 78 74 72 71 71 73 76 77 78 79 79 79 80 82 83 85 84 84 85 87 89 90 90 92 91 90 89 91 92 94 93 93 94 95 96 97 99 100 101 102 104 105 105 105 104 106 107 107 107 108 108 108 108 107 107 106 104 103 102 98 96 94 92 93 96 100 103 101 100 100 100 100 101 100 100 100 99 98 97 96 96 97 97 97 96 95 94 94 94 95 94 94 94 94 94 94 94 94 94 93 91 89 88 88 87 85 83 80 79 80 81 77 73 68 65 68 72 75 75 74 73 72 71 71 70 69 68 67 67 68 69 70 72 73 73 74 76 77 80 83 87 90 91 93 91 90 90 91 94 97 102 107 113 116 119 213 255 255
255 253 191 60 57 55 53 53 52 52 52 51 51 50 49 48 48 49 50 51 52 51 48 47 48 50 56 62 67 72 73 75 76 77 77 77 78 78 78 78 80 78 78 80 82 82 81 82 83 85 86 87 88 88 89 90 89 88 87 87 86 85 82 81 81 80 80 81 83 84 85 87 89 91 91 90 90 90 89 88 89 90 91 92 91 89 89 88 87 87 89 88 87 86 86 84 81 80 79 74 72 71 71 73 75 77 78 79 79 79 80 82 84 85 84 84 85 87 89 90 90 92 91 89 89 90 91 92 92 93 93 93 94 95 97 99 99 100 102 103 104 103 103 106 107 108 108 109 109 109 109 108 107 106 104 103 101 97 96 93 91 91 94 98 102 100 99 99 98 99 99 99 98 98 97 97 96 95 95 96 96 96 96 95 94 94 94 94 94 93 93 93 93 93 93 93 92 91 90 88 87 86 85 84 82 79 79 80 80 76 71 67 65 68 72 75 74 73 72 71 70 69 68 67 66 65 65 66 67 68 69 71 72 72 74 76 79 82 85 88 89 91 89 88 88 90 92 96 100 106 111 114 117 212 255 255
254 252 191 60 57 54 52 53 52 52 52 51 50 49 48 47 47 48 49 50 51 50 47 46 47 49 55 61 67 71 73 74 75 76 76 76 77 77 77 77 80 77 77 79 81 81 80 80 82 84 85 86 87 87 88 90 89 88 87 87 86 84 81 80 80 79 79 81 83 84 85 87 89 90 90 90 90 90 90 88 89 90 91 92 91 89 88 87 86 87 88 88 86 86 85 83 82 80 79 74 72 71 71 73 75 77 78 79 79 79 80 82 84 85 84 83 84 87 89 90 90 91 90 89 89 89 90 90 91 92 92 92 92 94 96 98 98 98 100 101 101 101 102 105 106 107 108 108 108 108 108 107 107 105 103 102 100 97 95 93 91 91 93 97 101 100 99 98 97 97 98 98 98 97 96 96 95 94 94 95 95 95 95 95 94 93 94 94 93 93 93 92 92 91 92 92 91 90 89 88 86 86 85 83 81 78 78 79 80 75 71 66 65 68 73 76 75 73 72 71 70 69 67 66 65 64 64 65 66 67 68 70 71 71 73 75 78 80 84 87 87 89 88 87 87 88 91 94 99 104 109 113 115 211 255 255
253 252 190 59 57 54 52 52 52 51 51 50 50 49 48 47 47 47 48 49 50 50 46 45 46 48 55 60 66 70 72 74 75 77 76 76 77 76 76 77 80 77 77 79 81 80 79 80 82 84 85 86 87 87 88 90 89 88 87 87 86 84 81 80 80 79 79 81 84 84 85 87 89 90 90 89 89 91 90 89 89 91 92 92 91 89 88 87 86 87 88 88 86 86 85 84 82 80 79 74 72 71 71 73 75 77 78 79 79 79 80 82 84 85 83 83 84 87 89 90 90 91 90 89 89 89 89 90 91 92 91 91 91 92 95 97 96 96 97 99 99 100 100 104 105 106 106 106 106 107 107 106 105 104 102 101 100 97 95 93 91 90 92 95 100 98 98 97 96 97 98 98 97 96 96 95 95 94 94 95 95 95 95 95 94 93 94 94 93 93 93 93 92 91 91 91 91 90 89 88 86 85 84 82 81 78 78 79 79 74 70 66 64 68 72 75 74 73 72 71 70 69 67 66 65 65 64 64 66 67 68 69 70 71 73 74 77 79 83 86 86 88 87 86 86 87 90 94 98 103 108 112 115 210 254 254
253 251 190 59 57 54 52 52 51 51 51 50 49 48 47 46 46 47 48 48 49 48 45 44 45 47 54 60 65 69 71 73 74 76 76 75 75 75 75 77 80 77 76 78 80 79 79 80 82 83 85 85 86 86 88 90 89 87 86 87 85 83 80 80 80 79 79 81 84 85 86 87 89 90 89 89 89 90 90 89 89 91 92 92 91 89 88 87 86 86 88 87 86 85 85 84 82 81 79 74 72 71 71 73 76 78 79 79 79 79 80 82 84 85 83 82 83 86 89 91 91 91 90 89 89 89 88 89 90 91 91 90 90 91 93 95 94 94 96 98 98 98 99 102 103 104 104 104 104 104 105 104 103 102 101 100 99 96 95 93 91 90 92 95 99 98 97 95 95 96 97 97 96 96 95 95 94 94 94 95 94 95 96 95 94 93 95 94 93 93 93 93 92 90 89 90 90 90 89 87 86 85 84 83 81 78 78 79 79 73 68 65 63 67 72 75 74 73 72 71 70 69 67 66 65 65 64 64 65 66 68 69 69 70 72 73 76 79 82 84 85 87 86 85 85 86 89 93 97 102 107 111 113 209 254 254
252 251 190 59 57 54 52 52 51 51 51 50 49 48 47 46 46 46 47 48 49 48 45 44 44 46 53 59 64 68 71 73 74 76 75 75 75 75 75 77 80 77 76 78 80 78 77 79 81 83 84 85 85 86 88 90 89 87 86 86 85 83 80 80 80 79 79 81 84 85 86 87 89 89 88 88 89 91 90 89 89 91 92 92 91 89 88 86 85 86 87 87 86 85 85 84 83 81 79 73 72 72 71 73 75 78 79 80 79 79 80 82 84 85 82 81 82 86 89 91 91 91 90 89 89 89 88 89 90 91 91 89 89 90 92 93 92 92 94 97 96 96 97 101 102 102 103 102 102 102 103 102 102 100 99 99 98 96 95 93 91 90 91 95 99 98 96 94 94 95 97 97 96 95 94 94 94 93 94 94 94 95 96 95 94 93 94 94 93 92 93 92 91 89 89 89 89 89 89 87 86 85 84 82 80 78 78 78 79 72 67 64 63 67 72 75 74 73 72 72 70 69 67 66 65 65 64 64 65 66 67 68 69 69 71 72 75 78 81 84 85 87 85 84 84 86 88 92 96 102 107 110 113 209 253 253
251 250 189 59 56 54 52 51 51 50 50 50 49 48 47 46 46 46 47 48 48 47 44 44 45 47 53 59 65 69 71 72 72 75 74 74 75 76 76 77 79 78 77 78 79 77 77 78 80 82 84 86 88 88 88 90 90 89 89 89 87 83 80 79 79 79 80 83 86 87 88 89 91 91 90 89 89 90 90 89 89 91 92 92 91 89 88 88 87 88 90 89 87 86 85 84 84 85 85 80 76 73 71 72 75 79 80 81 80 79 81 83 85 85 83 81 82 84 88 90 90 90 89 88 87 87 87 87 88 89 89 88 88 89 91 91 91 93 95 96 95 94 96 101 102 102 102 101 100 99 101 101 101 100 98 97 96 94 93 91 89 88 90 93 97 97 96 95 94 95 96 96 95 94 93 93 93 93 93 94 93 94 94 94 92 93 94 94 93 92 92 92 91 88 88 88 89 90 89 88 87 86 84 81 79 77 77 77 77 71 66 62 61 65 71 74 74 73 73 72 71 70 68 66 65 64 63 63 64 65 66 67 68 68 70 72 75 78 81 83 84 86 85 84 84 85 88 92 96 101 106 109 112 208 253 253
251 250 189 59 56 54 52 51 50 50 50 50 50 49 49 47 47 47 47 48 48 46 43 44 46 48 53 60 65 70 70 70 70 73 73 73 75 78 78 78 79 79 79 78 78 77 77 78 80 82 84 88 90 90 89 91 91 91 92 92 89 84 79 78 79 79 81 85 88 89 90 91 93 94 92 90 89 91 92 91 90 93 95 95 93 91 91 91 92 93 94 93 92 91 91 90 92 95 96 93 87 81 76 78 81 84 84 83 82 81 83 85 87 88 85 83 81 81 84 87 88 89 88 87 86 84 84 85 85 87 88 88 87 88 89 87 89 93 96 93 92 92 94 102 103 102 101 100 98 96 97 99 100 100 97 95 93 93 91 89 86 86 87 90 94 96 96 95 95 94 94 94 94 93 92 91 91 92 93 93 92 93 93 93 92 93 94 93 92 92 91 91 89 88 87 88 89 90 88 87 87 86 83 80 77 76 75 75 75 69 64 60 59 64 69 73 74 74 73 72 71 71 69 67 65 63 62 61 62 63 65 66 66 66 69 70 74 77 80 82 83 85 84 83 83 84 87 90 95 100 105 108 111 207 252 252
252 251 190 59 56 54 53 51 51 50 50 50 50 51 50 49 48 47 48 48 47 46 43 44 46 48 52 58 64 69 69 70 70 72 71 71 73 77 78 78 78 79 78 78 78 78 78 79 80 82 83 86 88 88 89 90 90 90 90 90 87 83 79 78 79 80 83 84 85 84 85 88 91 93 90 88 89 93 97 99 101 104 106 106 104 100 98 97 98 100 102 103 105 107 109 112 114 115 114 111 106 100 95 97 97 95 92 89 87 85 88 90 93 96 92 85 77 76 78 81 84 88 90 89 88 86 84 83 86 90 92 91 87 86 87 86 89 92 95 90 89 90 93 99 100 99 99 99 98 97 98 98 98 98 98 96 92 92 90 89 87 86 87 88 91 95 95 94 93 91 90 92 94 93 90 87 89 91 93 93 91 92 92 93 93 93 90 89 90 92 91 88 88 89 90 89 88 87 83 83 85 85 82 79 79 78 76 74 74 67 63 61 61 63 67 72 75 75 73 71 71 70 69 67 64 63 62 62 63 64 64 64 64 64 67 69 72 75 78 80 82 84 82 82 82 84 86 89 93 98 103 106 109 207 253 253
252 251 190 58 55 54 52 50 50 49 49 50 50 51 50 48 47 46 46 47 47 46 44 45 47 48 51 56 62 67 67 68 69 71 71 70 71 75 78 79 77 79 79 77 77 78 79 79 81 82 84 86 88 90 91 91 92 93 93 91 88 84 82 82 82 84 88 88 86 84 84 87 91 94 92 91 92 94 98 102 107 111 114 115 115 113 110 108 113 116 119 121 124 128 133 138 140 138 134 132 129 126 123 122 119 115 110 107 105 103 104 104 103 103 100 93 85 82 82 82 83 85 88 88 86 83 80 78 81 86 88 86 83 83 84 84 88 90 89 87 88 90 92 97 98 98 99 98 97 96 97 97 97 97 97 94 90 92 90 88 86 85 86 89 90 92 94 94 91 88 89 91 93 91 89 86 87 91 94 93 91 90 90 92 93 92 87 85 88 92 91 87 87 89 90 88 86 83 81 83 86 86 83 79 78 78 76 74 74 66 61 59 61 62 65 70 75 75 74 71 71 70 69 66 64 62 61 61 62 62 63 63 63 64 67 69 72 75 77 79 81 83 81 81 82 83 85 88 92 96 100 103 106 206 253 253
252 252 190 58 55 53 52 50 50 49 49 50 51 51 50 47 46 44 44 46 47 47 45 47 49 49 51 55 60 65 66 67 67 70 71 72 71 74 77 79 76 80 81 77 77 79 81 80 82 83 84 87 90 91 92 92 93 94 95 92 88 85 83 83 84 86 91 90 88 85 85 87 91 94 94 94 95 95 98 103 111 116 121 125 128 128 127 126 132 136 140 143 145 149 154 160 160 157 151 149 149 149 148 145 141 136 132 130 128 126 127 122 116 112 109 106 102 100 97 93 89 87 89 89 86 82 78 74 77 81 82 78 79 80 82 85 88 88 84 84 88 91 93 94 95 96 98 98 97 96 96 97 98 97 95 92 88 92 89 87 85 84 87 90 90 90 92 92 87 87 88 90 89 89 87 85 87 91 94 93 90 88 87 90 92 91 84 83 87 93 92 87 85 87 88 85 82 77 81 84 87 88 84 80 77 77 75 74 74 65 60 58 60 62 64 69 75 76 75 73 72 70 68 65 64 62 61 61 61 61 62 62 63 65 68 70 73 74 76 79 81 83 81 80 82 84 86 88 91 94 98 101 104 205 253 253
252 252 191 59 55 53 52 48 49 49 48 50 50 50 48 46 44 43 42 44 46 48 46 47 49 49 50 53 58 64 66 67 67 69 72 74 73 73 75 78 76 82 82 77 77 81 84 83 83 83 84 89 91 91 90 90 92 95 96 92 87 83 82 81 83 86 92 91 89 87 87 88 90 94 96 98 99 97 99 105 115 122 129 136 142 146 147 147 155 159 163 164 164 167 172 177 176 172 164 165 167 169 170 165 161 157 157 156 155 153 154 145 133 123 122 124 128 128 122 113 103 95 94 93 88 82 76 73 76 78 76 69 73 77 81 86 88 86 80 83 89 93 95 93 92 94 96 97 96 95 96 97 98 97 94 90 88 91 87 85 84 83 86 90 89 88 90 90 85 87 90 90 86 86 86 86 87 91 95 92 89 86 84 87 90 89 82 81 86 93 92 87 84 84 84 81 78 73 83 87 88 88 84 79 76 75 74 74 75 64 58 56 58 60 63 67 74 76 76 74 74 71 67 63 62 62 61 61 60 60 62 62 63 65 68 70 73 74 75 78 81 82 80 80 82 84 86 88 90 92 96 99 101 205 253 253
253 253 192 61 57 54 52 49 49 48 48 50 49 48 46 45 43 42 42 43 45 47 44 45 46 48 50 52 57 64 67 69 68 67 71 76 78 75 75 76 76 83 83 78 79 84 88 86 86 85 86 91 92 90 86 87 90 93 94 89 84 79 78 78 79 82 88 89 88 88 90 90 91 95 100 103 104 104 108 114 123 133 142 150 159 163 165 166 171 174 176 177 177 178 180 184 184 181 176 177 178 179 180 176 174 173 175 175 174 173 178 168 153 143 145 152 160 162 155 142 128 115 111 107 99 85 76 73 82 85 80 70 73 76 80 87 88 85 80 82 88 92 93 87 87 90 94 95 95 94 95 96 96 96 92 88 86 88 84 83 83 81 85 88 87 87 88 88 84 88 90 88 84 85 85 85 86 91 94 91 88 84 83 86 88 87 79 80 85 91 90 84 82 80 79 78 76 72 84 88 87 85 81 78 76 74 73 73 73 62 57 56 58 59 61 66 73 75 76 75 75 71 66 61 59 59 60 62 61 60 61 61 62 64 67 69 72 74 75 78 81 82 80 80 82 85 87 88 90 92 95 99 102 206 254 254
254 254 194 63 59 57 54 51 50 49 47 49 48 47 45 44 43 43 42 43 44 45 43 43 44 47 50 53 58 65 69 70 69 66 69 75 81 79 77 77 78 84 84 79 80 86 90 89 88 88 88 92 92 89 87 88 92 94 96 91 86 81 80 79 81 83 88 90 90 91 93 94 95 99 105 110 111 114 119 124 130 139 147 155 164 169 171 174 176 178 180 183 183 183 183 187 188 188 186 188 187 186 185 183 182 182 185 184 183 184 192 184 172 165 168 176 185 188 179 166 152 137 131 124 112 91 77 74 86 90 85 72 73 75 79 86 86 85 82 84 86 89 88 83 84 88 93 95 95 95 95 95 95 95 92 89 86 87 84 83 83 80 83 87 87 87 88 87 84 87 88 86 84 86 86 85 86 90 93 91 87 85 84 87 88 86 79 80 84 88 87 83 80 78 77 77 77 73 83 85 83 81 79 77 76 74 73 73 72 62 58 58 59 59 61 67 74 76 76 74 75 71 65 59 57 57 59 63 63 61 60 60 62 64 67 70 73 75 76 78 80 81 79 79 82 84 86 87 89 91 94 98 101 206 255 255
254 254 194 66 62 59 57 53 52 50 48 49 47 45 43 43 43 42 42 42 42 43 41 41 42 46 50 54 59 66 69 71 71 66 67 73 82 82 79 78 80 85 86 83 83 89 92 92 91 91 91 93 92 90 89 92 95 98 100 96 91 86 83 83 84 87 91 92 92 93 96 98 100 104 110 115 118 122 127 131 135 142 147 153 161 166 170 174 174 176 179 183 184 184 182 186 189 192 192 195 193 190 188 187 186 186 188 187 186 189 200 196 188 185 188 195 202 205 197 186 174 159 152 143 127 100 82 77 88 91 86 74 72 73 77 83 83 84 84 84 83 83 81 79 82 88 93 95 94 94 94 93 92 92 92 89 86 87 85 84 81 78 81 84 86 87 88 87 85 86 87 86 85 87 87 86 87 89 91 89 87 86 85 88 88 85 78 80 82 84 85 82 80 78 77 77 78 76 81 81 79 77 78 77 76 74 73 71 70 61 58 59 59 58 61 67 75 76 75 73 74 71 65 59 56 56 58 62 64 62 60 61 62 64 68 70 74 76 76 77 78 79 78 78 81 83 85 86 87 89 93 97 100 206 255 255
254 254 195 70 65 63 60 56 54 52 48 48 46 44 41 41 41 40 39 40 40 42 41 40 41 43 48 54 60 66 69 71 72 69 69 72 80 81 79 79 81 85 87 86 84 89 93 94 94 93 93 94 94 93 94 96 97 99 102 100 96 92 88 87 87 89 91 91 90 90 92 95 98 103 109 115 121 125 130 133 135 138 141 144 150 156 160 165 165 168 172 178 180 180 179 182 186 190 191 195 193 191 190 190 188 186 187 186 186 189 202 202 197 195 197 203 208 213 206 198 190 180 173 163 144 117 97 86 87 84 78 70 69 71 75 80 80 82 83 81 78 77 77 78 82 88 93 95 95 93 92 90 89 90 92 89 86 86 86 83 79 78 79 81 84 88 90 89 86 86 86 86 86 88 89 89 89 90 89 88 88 88 86 86 86 84 79 81 80 80 82 83 82 80 78 78 78 77 77 76 75 76 79 79 76 74 72 70 67 58 57 59 58 58 61 69 75 75 73 70 71 69 65 60 57 56 58 61 63 62 59 61 64 65 69 71 74 76 75 76 76 78 76 77 79 81 83 84 85 87 90 94 98 205 255 255
254 253 196 74 68 66 64 57 56 54 50 49 46 44 41 40 40 39 38 38 40 43 42 40 39 40 46 53 60 65 68 71 73 75 72 72 77 78 77 78 82 86 88 87 84 89 93 94 94 92 92 93 95 95 94 94 93 94 97 97 96 93 87 84 83 85 86 85 83 83 83 85 88 93 99 107 117 122 127 132 135 137 138 140 144 149 154 158 159 162 167 174 177 177 175 177 182 185 186 190 190 190 191 192 190 186 185 185 186 189 202 203 199 196 195 200 208 215 210 205 202 195 190 181 162 138 118 102 90 79 70 64 68 71 74 79 77 78 78 75 74 76 78 80 82 86 91 93 94 93 90 88 87 88 92 91 86 85 85 82 79 80 78 78 81 89 93 92 89 87 86 87 87 89 91 93 92 91 89 88 90 88 85 83 83 84 81 82 79 77 80 83 84 82 79 78 77 77 74 73 75 77 80 80 77 74 71 67 64 56 54 56 56 57 62 69 74 73 70 68 68 67 66 62 60 58 58 59 61 61 59 63 65 67 70 72 74 75 74 74 75 77 75 75 78 80 82 82 83 85 89 92 96 205 255 255
254 253 198 78 71 68 65 56 57 55 52 51 49 46 44 43 42 41 40 41 43 45 43 40 38 37 44 51 59 64 68 71 74 79 75 71 73 74 74 77 82 86 88 89 87 89 92 92 93 92 91 93 96 97 97 95 92 92 93 93 93 92 84 80 79 80 82 82 82 83 85 87 89 92 98 106 117 123 127 130 134 137 139 141 142 146 150 154 157 161 165 172 175 175 174 175 178 180 181 181 183 186 190 194 193 190 188 187 187 189 199 202 200 196 194 198 205 211 209 208 210 208 204 194 178 161 148 135 114 92 75 66 72 74 75 78 73 72 72 71 72 75 79 81 83 85 89 92 94 93 90 88 87 88 92 91 87 85 83 79 76 79 78 78 81 91 96 96 93 90 88 86 86 89 91 93 94 93 91 89 90 88 83 79 80 82 82 82 79 77 79 82 83 82 80 78 77 75 73 72 73 75 78 78 77 75 71 66 61 53 51 52 53 57 64 71 73 72 69 67 65 64 65 63 63 62 61 57 58 58 58 62 65 67 69 70 71 72 71 72 73 75 74 74 77 80 81 82 82 84 87 91 94 204 255 255
254 254 199 81 72 67 62 53 54 55 54 54 53 52 50 48 47 47 46 47 48 49 44 39 36 34 42 50 58 63 69 72 75 81 77 72 69 70 72 77 84 85 88 92 92 90 88 87 92 93 92 93 97 101 104 101 97 93 91 89 90 90 83 79 77 77 84 88 91 96 100 104 106 106 109 115 125 130 129 129 132 138 143 146 147 149 151 153 160 164 168 172 174 175 176 175 175 176 177 169 172 180 188 195 199 199 195 191 188 187 195 198 199 197 195 198 202 200 202 207 215 220 214 202 191 187 188 187 164 126 96 79 82 80 77 76 66 63 65 71 72 74 79 82 83 85 89 92 94 94 92 91 89 90 89 89 87 86 81 74 68 71 77 82 86 94 98 99 99 96 91 84 86 88 89 89 95 96 94 91 89 86 80 76 76 80 82 82 81 80 77 79 81 82 81 81 78 72 74 74 71 70 71 73 77 75 71 65 57 50 46 47 51 58 67 73 74 72 70 67 63 61 63 65 66 66 64 56 54 54 56 61 64 64 65 65 65 65 67 70 71 72 73 74 77 79 82 82 83 85 87 90 92 204 255 255
253 254 198 78 71 66 60 51 53 54 54 54 54 53 52 50 49 48 47 47 48 47 41 38 36 35 42 48 56 63 71 74 75 79 79 75 69 68 70 77 84 84 87 93 95 92 90 91 95 95 93 92 96 101 105 107 103 97 93 87 86 87 88 91 93 95 105 110 113 118 124 126 127 123 125 129 135 137 137 139 144 145 145 145 146 147 147 146 154 162 167 169 169 170 171 174 177 182 187 180 179 182 185 187 191 196 194 191 188 186 194 199 202 200 195 196 199 198 201 207 218 222 217 209 197 196 201 206 192 162 136 119 112 101 87 78 69 66 67 70 70 71 74 79 83 85 87 88 91 92 91 89 86 84 86 87 86 83 80 75 70 71 78 84 88 92 94 94 94 93 91 88 89 91 91 90 93 94 92 91 88 85 82 80 79 81 83 82 81 78 78 80 81 81 79 77 75 69 76 76 73 72 71 72 76 74 70 65 59 50 47 48 51 58 65 71 71 69 68 68 63 62 64 65 66 65 64 56 53 52 54 60 63 64 65 64 65 65 68 71 72 72 73 75 78 80 82 83 84 86 88 90 92 203 255 255
253 254 198 75 69 65 59 52 53 54 54 54 54 53 53 51 50 48 47 47 46 45 39 38 37 37 42 47 54 63 72 75 73 75 78 78 72 70 72 79 85 84 87 93 95 93 92 95 97 96 93 92 97 100 104 106 102 96 92 86 85 87 92 99 103 105 115 119 122 125 131 134 133 129 129 131 134 136 139 144 149 149 148 148 151 150 148 145 152 160 165 168 167 169 171 173 178 185 193 187 184 183 183 183 187 195 196 193 189 186 195 201 202 198 193 193 196 196 199 205 215 219 218 213 205 205 211 218 212 194 175 160 147 129 109 92 82 73 66 65 68 72 73 79 83 85 85 85 87 89 89 88 85 84 85 86 85 80 78 75 73 72 78 84 88 90 91 90 91 91 91 90 91 93 93 92 92 91 89 89 87 86 85 84 82 82 83 82 81 80 79 79 80 79 77 75 73 69 77 77 74 72 71 72 76 73 69 65 61 52 49 49 51 56 62 68 70 69 68 69 64 63 65 64 64 63 62 57 55 53 54 59 62 63 63 64 65 66 69 72 73 72 74 76 78 81 83 84 85 87 88 90 92 203 255 255
252 254 197 72 68 65 59 52 53 53 54 52 52 52 52 51 49 47 46 45 45 43 38 38 38 38 41 45 53 63 71 73 69 71 77 80 77 74 77 82 86 86 87 91 95 95 96 100 100 97 93 93 98 100 101 100 97 93 90 87 87 91 98 105 109 112 120 121 121 123 129 131 131 126 127 129 130 132 138 145 151 150 151 153 157 155 151 146 152 159 164 167 169 171 173 174 179 186 194 192 188 185 184 183 188 195 197 194 190 186 197 201 200 196 191 191 194 194 197 202 208 212 215 215 212 213 217 221 223 216 207 196 182 162 139 120 107 88 67 61 69 76 76 82 84 84 83 83 84 87 88 87 86 86 86 86 84 78 77 76 76 73 78 83 85 87 87 87 87 88 89 89 92 94 94 92 89 87 85 85 86 87 88 87 84 83 83 81 82 83 80 78 77 77 74 72 71 69 77 77 73 71 71 73 76 73 69 66 62 56 52 50 51 55 60 66 70 70 70 70 64 62 64 62 61 60 60 57 56 54 55 57 59 61 62 63 65 66 69 71 71 71 73 76 78 80 82 84 85 86 88 90 92 203 254 254
252 254 197 70 67 65 60 53 53 53 53 52 51 51 51 50 48 45 43 42 43 42 38 37 38 38 42 47 55 62 67 69 69 68 74 79 82 81 83 86 87 89 90 91 97 98 100 103 98 94 91 94 99 101 100 98 95 92 89 89 92 98 107 114 119 121 125 121 117 117 122 125 126 125 126 129 132 134 140 145 149 149 150 152 155 154 151 149 156 161 165 168 171 174 176 176 179 183 189 192 191 188 187 189 191 194 196 195 191 186 199 200 197 194 191 191 193 194 197 199 201 206 210 214 215 217 216 216 219 221 219 215 206 193 178 166 152 120 82 68 75 81 78 86 88 87 84 82 83 85 86 87 88 88 88 87 85 80 79 79 79 73 76 79 83 84 85 85 84 85 86 86 87 89 92 92 88 86 85 83 86 88 89 86 84 84 84 81 82 82 79 78 78 78 73 71 71 72 77 76 73 72 73 73 74 70 66 65 64 60 55 50 49 54 60 67 71 71 70 69 63 61 63 61 59 58 56 54 54 54 56 57 59 60 62 63 65 66 68 68 69 69 71 74 76 79 81 82 82 84 86 88 89 202 254 254
254 255 198 72 68 66 61 53 54 54 54 53 52 52 52 50 48 45 42 42 42 42 38 37 39 40 45 51 58 62 64 68 72 71 75 79 83 86 86 86 86 90 92 91 97 101 103 103 97 95 96 100 103 105 104 103 101 97 94 97 104 112 122 126 128 127 122 111 102 97 102 106 111 113 116 123 130 134 139 144 149 148 145 142 141 142 143 145 153 157 160 163 167 172 177 180 181 182 184 191 193 192 190 191 190 187 191 192 189 185 193 195 194 196 196 193 189 193 198 200 199 203 206 210 215 217 215 213 217 220 221 219 213 208 205 206 197 165 122 103 99 93 81 85 86 86 84 83 84 85 86 86 86 85 88 90 88 79 78 79 81 76 74 76 81 81 83 83 82 82 85 88 85 86 89 90 88 89 88 85 86 86 86 84 84 86 86 84 80 77 77 79 80 81 75 71 70 75 76 75 74 71 72 73 73 68 66 65 67 60 54 49 48 54 61 68 71 70 69 68 62 61 65 63 59 56 53 52 53 53 55 57 58 60 62 64 65 65 67 67 67 68 70 72 75 78 80 81 81 82 84 87 89 202 255 255
255 255 198 74 70 68 64 55 55 55 55 54 53 53 53 50 48 45 42 41 41 41 38 38 40 43 49 54 61 62 63 68 74 74 77 81 83 87 87 87 84 91 94 92 96 101 104 102 98 100 105 107 107 107 106 105 103 101 100 107 117 128 134 130 126 120 105 90 79 72 76 82 89 95 102 112 123 129 134 138 143 144 140 134 129 130 135 140 146 148 150 154 159 166 174 181 182 181 181 188 191 192 189 191 187 182 186 188 187 186 187 188 190 195 198 193 187 192 198 200 197 200 202 206 213 215 213 211 215 218 218 218 215 215 220 230 227 203 166 149 133 114 91 86 84 83 83 83 84 86 87 86 85 82 87 91 89 77 77 79 81 77 73 74 79 80 82 84 84 83 85 90 86 86 87 89 89 90 90 86 85 86 84 82 84 86 87 86 80 73 75 80 82 83 77 71 69 76 73 74 74 71 72 73 73 70 67 65 67 59 53 50 49 54 59 65 68 68 68 67 62 62 66 63 59 55 51 52 54 53 55 55 56 59 60 63 65 64 67 67 67 68 69 71 74 77 79 80 81 82 84 87 89 203 255 255
255 255 199 78 72 70 67 59 59 58 56 55 54 53 52 50 48 46 44 42 41 41 38 39 42 45 50 56 62 65 65 68 73 77 81 82 79 83 86 87 85 93 96 94 94 97 100 100 104 112 118 115 111 107 104 98 97 99 106 119 133 143 140 123 108 94 72 58 49 43 47 53 62 73 84 97 109 118 122 124 130 137 136 129 123 124 129 136 135 133 135 142 150 160 169 178 180 179 177 180 183 185 185 186 184 179 183 184 185 186 179 179 184 192 196 192 186 191 196 197 194 197 199 202 211 212 210 208 214 214 213 213 212 215 221 233 235 225 207 197 175 147 114 92 82 79 78 81 84 87 88 86 85 83 86 88 85 75 76 78 80 77 75 74 76 80 84 86 89 86 88 91 89 88 87 86 89 89 87 84 84 85 84 82 83 85 85 88 82 74 75 80 83 84 79 72 68 75 69 70 73 70 72 73 74 73 68 64 61 56 54 53 52 53 55 58 61 64 66 67 63 63 64 61 56 52 49 53 55 54 54 52 52 55 57 60 63 63 67 67 67 67 69 71 73 76 78 79 81 82 86 89 92 205 255 255
255 255 198 78 72 70 67 60 59 57 54 53 53 52 50 48 47 46 44 42 41 40 37 39 42 44 49 54 61 67 69 70 71 79 83 83 79 80 85 90 91 97 100 98 94 95 98 103 113 120 122 114 106 100 95 88 91 99 111 121 128 128 116 94 75 59 46 41 41 43 49 54 61 72 83 94 101 111 113 113 116 126 131 130 125 125 129 135 129 128 130 137 146 153 159 166 171 173 174 172 173 176 178 180 181 181 179 178 180 183 175 175 177 181 183 183 183 186 189 190 188 191 194 198 206 207 206 205 209 208 208 211 213 214 214 218 218 219 220 218 203 181 152 118 99 87 77 77 80 85 86 85 85 85 84 84 83 78 77 76 76 76 77 76 73 81 86 88 93 90 89 89 91 90 87 84 87 85 82 80 83 85 85 83 82 83 82 87 85 81 80 81 82 81 78 73 71 75 70 70 71 68 70 71 72 73 70 64 58 56 56 57 55 53 53 55 60 64 66 65 63 61 61 59 55 52 50 52 55 55 55 52 51 53 55 58 61 62 65 66 66 67 68 70 72 75 77 79 80 83 87 90 93 205 255 255
255 254 198 79 73 70 66 59 58 55 53 52 52 52 50 48 47 46 44 42 40 39 38 39 41 44 48 52 59 67 71 72 72 81 83 83 82 82 86 92 95 100 102 101 95 96 101 108 118 121 119 108 98 90 84 83 92 105 119 118 113 103 86 65 47 32 30 33 39 46 53 58 62 71 82 89 92 104 108 109 110 120 127 128 122 122 126 132 128 129 132 137 143 147 150 155 162 167 169 168 168 170 174 175 178 179 174 172 174 178 173 174 175 173 172 174 178 182 183 185 186 188 191 195 201 203 204 205 205 204 205 210 214 213 210 209 209 215 224 225 217 203 181 142 116 96 78 75 77 83 84 83 82 82 83 85 87 82 78 74 73 77 79 76 71 83 87 88 94 91 88 87 90 89 87 84 86 84 81 80 83 85 85 83 83 83 82 85 85 84 85 83 80 77 77 75 75 78 75 73 71 67 68 69 70 70 68 63 58 57 58 58 56 53 54 56 62 66 66 64 62 61 60 59 57 54 51 52 54 55 55 53 53 54 56 58 61 62 65 66 66 66 68 70 72 75 77 79 81 83 87 91 93 205 255 255
254 254 199 78 73 69 64 56 55 54 52 52 52 52 50 49 47 46 44 42 40 38 40 39 41 45 49 53 59 67 72 75 75 83 83 83 87 88 90 94 99 101 103 103 97 100 106 113 117 114 107 96 88 81 77 85 101 115 127 111 92 71 55 40 26 15 24 33 42 52 61 65 68 73 81 85 84 99 105 109 110 117 122 124 118 117 120 128 129 133 137 139 141 141 141 145 152 157 161 163 165 166 170 170 172 175 168 167 168 171 171 174 173 165 160 163 171 178 178 180 185 185 189 194 197 200 202 205 201 200 203 210 214 211 205 204 203 209 220 221 219 215 205 165 134 108 82 75 76 81 82 80 78 76 81 88 93 86 78 73 72 78 77 74 70 84 88 86 91 88 86 86 87 86 85 84 84 84 83 81 82 84 84 83 84 85 85 83 83 85 89 85 79 75 77 78 80 82 80 77 72 67 67 67 68 66 64 63 60 58 58 59 56 55 56 61 65 68 66 61 59 59 59 60 58 56 52 50 52 54 55 55 55 55 57 58 60 61 64 64 64 65 66 69 70 74 76 78 80 83 86 89 91 204 255 255
250 252 197 78 74 70 65 58 58 57 54 53 52 51 49 48 47 46 44 42 40 38 41 40 42 47 52 57 62 69 75 79 80 85 82 82 90 96 98 98 100 99 100 101 97 104 112 114 105 93 82 75 76 80 87 102 116 123 123 96 68 44 33 27 19 14 31 43 55 68 80 84 86 88 90 88 83 95 101 106 108 109 113 116 116 114 118 125 130 135 140 143 142 137 132 129 130 134 138 147 152 155 160 159 163 169 166 167 167 165 167 169 166 154 148 153 165 174 173 175 181 182 188 193 194 192 194 200 197 196 199 209 213 209 201 201 197 200 209 214 218 222 223 188 157 126 95 82 80 83 84 80 75 70 80 86 88 82 75 70 68 73 73 74 78 89 88 83 83 84 86 86 85 82 82 85 85 85 83 80 81 82 83 84 86 87 88 81 80 84 87 83 79 76 78 81 84 84 82 78 71 68 69 70 68 67 66 65 62 58 57 56 53 55 59 63 66 67 65 59 57 56 56 57 57 56 53 51 52 55 55 56 56 56 57 57 58 59 61 62 62 63 64 67 69 72 74 77 79 82 85 87 89 202 254 254
249 252 198 78 72 68 65 59 60 59 57 54 53 52 50 47 46 45 44 42 41 40 41 40 42 48 55 61 65 70 75 80 84 85 83 83 87 95 97 97 100 101 101 101 100 104 105 100 90 80 73 71 78 87 99 110 114 110 98 70 48 33 30 33 33 35 55 67 80 95 109 116 118 115 112 108 104 112 111 108 106 103 102 102 102 103 106 112 120 128 137 144 144 140 136 135 136 137 136 140 144 148 152 153 157 163 163 165 165 161 164 164 162 154 150 154 163 172 171 173 180 184 187 190 193 192 194 197 195 196 201 210 211 206 199 198 196 200 209 213 214 217 220 199 171 140 106 90 83 83 83 79 75 71 81 86 87 82 77 71 66 70 71 74 80 88 87 84 82 83 85 87 84 83 84 85 85 86 85 83 84 83 82 83 86 87 89 82 82 85 87 84 81 78 79 80 80 80 80 78 72 69 69 69 68 66 65 64 62 57 54 53 52 56 61 64 65 65 63 60 58 57 57 58 57 55 52 51 51 52 53 55 56 56 57 58 59 60 61 62 62 63 64 66 68 71 73 76 78 80 82 84 86 201 254 254
249 253 199 77 71 67 64 61 62 61 58 55 54 52 50 47 46 45 44 43 42 41 41 40 42 48 57 64 68 70 74 80 85 86 85 84 85 92 95 96 99 104 106 104 105 105 100 86 74 69 68 74 86 100 115 119 111 93 69 46 34 30 36 44 51 59 78 89 100 115 131 140 143 137 130 126 125 128 119 109 102 96 91 89 89 93 96 101 110 122 134 146 148 146 143 145 147 145 139 138 142 146 150 151 155 160 161 164 164 161 161 161 160 158 156 158 163 171 171 173 179 186 187 188 193 194 195 197 197 199 203 210 208 203 197 197 199 204 212 213 209 208 212 202 179 148 114 96 86 82 81 79 76 73 82 85 84 81 78 72 67 70 71 74 80 85 86 86 83 84 85 87 85 85 86 84 85 86 85 86 86 85 83 83 85 86 89 84 85 87 87 84 82 82 80 78 76 77 77 76 73 69 67 68 70 67 65 63 62 56 52 51 53 58 61 63 63 62 62 63 59 59 59 59 56 54 52 52 51 51 52 54 55 56 57 58 59 60 62 63 63 63 65 67 68 71 73 76 78 80 81 82 84 201 255 255
250 254 199 77 71 68 66 63 64 63 60 57 54 53 51 48 47 46 45 45 44 43 43 42 44 50 59 67 72 71 73 79 86 88 89 87 83 91 94 95 96 107 111 109 112 111 100 77 61 57 63 79 100 119 135 131 111 81 47 30 27 34 45 55 66 80 93 100 107 119 134 145 149 143 135 132 134 135 121 105 95 90 84 80 79 85 91 96 107 121 135 150 152 151 149 153 153 149 140 141 146 151 155 155 157 160 160 165 166 163 159 158 159 161 160 161 163 172 173 173 176 186 187 188 196 196 196 197 200 201 203 207 204 199 195 199 204 209 214 211 203 200 205 202 181 150 117 99 88 82 81 80 79 76 85 86 82 77 76 73 70 72 72 73 77 81 85 88 87 87 87 88 87 88 88 85 87 86 85 87 87 86 85 85 86 87 89 86 88 89 86 83 83 84 80 74 71 73 72 73 73 68 66 67 71 70 65 61 61 54 52 52 54 58 60 60 60 60 62 65 61 61 62 60 56 52 50 53 53 52 51 52 53 54 55 57 59 60 63 65 65 64 66 68 69 72 74 76 78 80 81 82 83 201 255 255
249 252 198 78 71 68 66 63 63 62 59 55 54 53 51 49 49 48 47 47 46 46 45 44 45 49 57 65 70 72 75 80 86 89 90 89 84 86 89 92 99 110 111 107 108 101 87 67 62 67 80 99 114 123 129 118 98 74 49 43 49 61 71 78 88 100 105 107 111 121 137 148 153 149 146 145 146 140 122 104 91 88 86 84 86 95 103 107 114 125 137 148 150 151 151 155 157 155 149 151 155 158 161 161 161 161 159 163 166 166 161 158 159 163 164 165 166 172 174 174 174 183 186 189 195 196 197 200 205 205 204 204 201 198 197 201 208 212 215 209 203 201 202 198 177 147 116 97 86 79 79 80 81 81 84 83 81 79 77 74 72 72 73 74 76 80 85 90 92 90 89 88 90 90 89 86 87 86 84 85 85 86 87 88 88 87 87 91 93 92 87 86 86 85 79 73 70 73 69 70 71 69 67 69 71 68 63 59 58 57 56 56 56 56 57 58 60 61 61 62 61 62 63 60 56 53 52 55 55 54 52 52 53 55 56 57 59 60 63 65 66 65 67 69 70 73 75 78 79 81 82 83 83 200 254 254
248 252 198 78 71 68 65 63 63 61 58 54 53 52 51 50 49 48 47 47 48 48 46 46 46 49 55 62 68 73 79 83 86 88 90 89 87 83 85 93 105 110 107 98 95 83 69 56 67 83 102 117 121 118 112 100 86 72 61 67 78 90 98 102 108 113 112 111 115 124 140 151 156 154 155 157 157 146 126 105 89 89 88 89 91 103 112 116 117 126 135 143 148 151 153 157 161 161 157 157 160 162 164 164 164 162 160 162 166 171 166 160 159 163 168 169 168 172 175 175 173 181 186 190 193 195 198 200 207 209 207 203 200 200 200 203 208 212 215 212 208 205 200 195 175 147 118 98 84 76 76 79 82 84 81 80 83 82 80 76 72 69 71 74 76 81 86 90 94 92 90 89 92 91 90 88 89 87 85 85 83 86 89 90 89 87 86 94 97 94 90 89 88 85 79 73 69 73 68 67 69 69 69 70 69 65 61 58 57 60 60 60 57 55 55 57 61 61 61 61 61 61 62 60 58 56 55 56 56 56 54 54 54 56 57 58 59 61 63 65 66 65 68 69 71 73 76 78 80 81 82 82 81 199 253 253
247 251 197 77 71 68 65 64 64 61 58 54 53 52 52 50 50 49 47 47 48 49 47 47 48 50 55 60 66 74 82 87 87 85 87 89 90 82 86 96 111 107 97 85 77 62 51 50 75 100 122 131 122 108 95 85 80 78 83 96 109 120 123 123 122 119 113 112 117 126 142 153 158 158 162 165 166 150 129 109 92 90 91 93 95 108 118 120 118 124 132 139 146 151 155 160 165 166 162 160 161 162 164 166 166 164 165 164 168 178 172 165 162 165 172 174 172 173 175 176 173 181 186 190 191 195 199 201 207 212 210 202 201 202 203 203 206 210 214 217 216 211 199 194 176 151 124 101 85 75 75 79 83 85 77 78 85 87 85 79 71 65 68 72 77 84 87 91 94 92 91 91 92 91 90 91 90 88 86 85 84 86 91 90 89 86 85 95 99 96 92 92 89 85 80 73 69 72 69 67 67 70 71 71 68 63 60 58 58 62 63 62 58 54 54 58 62 62 61 60 61 60 60 60 59 59 59 58 58 58 56 56 57 59 60 60 60 62 63 64 64 65 67 69 71 73 76 79 80 81 81 80 79 197 252 252
249 253 198 76 71 68 66 66 67 64 61 57 55 54 53 52 51 50 47 47 48 49 46 48 49 53 58 64 71 78 85 89 90 86 87 89 92 92 98 105 110 99 85 73 62 57 58 67 87 105 120 123 118 113 110 109 107 107 113 124 131 135 131 124 117 109 104 106 112 120 132 142 150 154 157 159 159 145 127 110 96 90 88 89 91 102 111 117 118 126 135 145 152 156 159 160 161 159 156 158 162 165 167 171 172 173 177 177 180 185 178 172 169 169 173 176 177 176 176 176 175 181 186 190 194 196 197 199 204 208 207 201 202 203 204 205 204 206 213 223 221 215 205 199 183 160 132 108 91 80 79 82 85 84 77 79 86 90 87 80 71 62 65 71 76 83 86 89 90 91 92 93 92 91 92 94 94 92 89 89 88 90 93 91 88 86 86 94 97 96 92 89 86 83 78 73 70 71 70 68 67 69 71 70 68 65 64 63 62 63 62 60 56 55 56 58 62 63 63 62 60 58 57 57 58 59 60 61 61 61 60 59 58 58 60 60 60 61 62 62 62 62 65 67 70 72 75 77 78 79 78 78 77 198 254 254
250 254 199 76 71 68 67 67 68 66 62 60 58 57 55 54 53 51 49 48 48 47 45 47 50 54 60 67 74 81 87 90 91 89 89 90 95 102 108 111 108 91 76 66 56 59 70 84 97 109 119 123 127 131 137 143 142 140 142 146 145 140 130 121 112 104 104 108 113 120 127 136 146 156 158 156 151 138 123 110 97 88 83 84 87 96 105 113 120 130 141 152 155 157 157 158 157 156 156 163 169 172 173 175 176 179 182 184 187 189 182 179 178 175 174 178 182 182 180 179 179 183 187 191 196 196 197 198 200 201 202 201 203 205 206 207 203 205 212 222 219 215 211 206 191 168 140 116 98 86 84 86 86 84 81 82 87 90 87 79 70 62 66 71 76 82 85 86 87 90 92 93 92 91 92 95 94 93 91 92 92 93 93 91 89 87 89 93 95 93 89 86 83 80 77 75 73 71 71 70 68 69 70 69 67 67 68 67 65 64 61 58 56 56 57 59 62 64 64 62 61 58 57 56 58 58 58 59 59 59 60 59 58 58 59 59 60 60 61 61 61 61 64 66 69 71 74 76 77 77 77 77 76 198 255 255
251 254 199 77 72 69 67 67 68 66 63 61 59 58 57 55 54 52 50 48 47 45 44 47 50 54 60 67 74 82 88 90 91 92 92 93 99 107 112 112 106 85 69 60 52 61 76 94 105 116 126 134 143 149 155 168 168 164 164 163 155 143 129 119 111 104 106 111 115 119 122 131 143 158 159 153 143 130 119 109 96 84 78 79 86 93 101 110 120 134 147 156 154 153 154 158 159 159 161 171 178 181 180 177 177 179 180 185 190 192 186 185 185 178 176 179 186 186 184 183 183 183 188 192 195 196 198 198 194 195 197 200 204 206 207 208 205 205 210 218 217 215 216 210 195 174 147 123 105 91 87 88 86 81 84 85 88 89 84 76 68 65 68 72 76 81 83 84 85 89 91 92 91 90 91 94 93 93 93 95 94 93 91 91 89 89 92 93 92 90 88 85 81 78 78 78 76 71 72 70 68 69 69 68 65 66 68 68 67 64 62 59 56 56 58 60 63 65 64 62 61 59 57 57 58 58 57 55 55 56 57 58 57 57 58 59 60 60 61 62 61 61 63 66 68 71 74 76 76 76 76 76 76 199 255 255
251 254 200 80 74 71 68 66 66 65 62 61 60 60 58 56 54 52 50 49 46 44 45 48 50 53 57 62 70 82 90 92 90 95 94 98 108 108 110 110 107 84 66 54 50 57 70 88 108 128 147 162 166 161 153 169 172 173 176 175 164 147 133 123 116 110 110 112 113 112 115 124 138 155 158 149 133 121 114 107 92 79 75 78 89 96 102 108 118 134 147 152 145 144 149 162 167 170 171 183 188 188 183 174 171 171 169 176 186 192 188 189 188 179 179 182 187 189 188 187 188 185 189 193 191 197 200 196 188 191 196 201 201 205 208 209 209 208 207 211 214 217 218 210 196 177 153 130 109 94 89 87 83 78 87 90 91 89 81 73 67 69 71 74 75 81 83 84 87 88 90 91 91 90 90 93 91 92 94 96 94 91 89 91 92 93 96 94 90 87 88 86 81 77 81 84 82 74 73 70 68 69 70 68 64 63 65 67 67 65 63 62 57 58 59 62 65 65 64 59 61 60 59 58 58 57 55 50 49 50 51 56 57 57 58 59 60 61 62 63 62 62 64 66 69 71 74 76 77 77 77 76 76 198 255 255
254 255 202 85 78 72 69 69 69 68 65 64 64 63 61 58 56 54 53 52 51 50 47 48 50 51 58 67 78 88 92 91 90 94 95 100 111 114 113 105 89 69 53 41 47 65 84 101 118 137 155 171 179 176 168 178 176 171 169 172 169 161 148 137 128 123 116 114 113 110 112 123 139 154 152 144 134 116 108 102 92 76 69 73 89 95 101 109 120 133 145 155 153 154 158 167 167 166 164 172 176 177 175 174 174 176 177 185 193 197 192 191 192 191 192 191 190 191 194 195 193 190 191 193 195 202 203 198 190 191 194 198 200 205 209 212 214 213 210 211 212 212 210 211 205 194 178 156 132 109 92 84 79 76 86 87 86 85 79 73 68 70 74 76 76 78 79 80 84 88 90 89 88 88 89 91 91 91 92 93 90 88 88 91 92 92 95 90 87 86 83 83 82 82 84 84 82 76 76 74 72 69 68 67 66 66 66 65 62 59 56 53 52 58 62 63 63 64 64 62 61 59 58 57 57 55 52 48 48 50 55 57 55 53 55 57 58 59 61 62 62 62 63 65 69 72 75 77 78 78 78 78 78 200 255 255
255 255 202 87 78 71 67 70 70 70 67 65 65 64 62 58 56 55 53 53 54 53 48 49 50 50 59 69 82 91 95 94 93 97 99 103 110 113 107 93 69 52 39 32 46 74 100 118 135 150 164 174 182 180 170 176 174 171 168 171 170 167 157 144 134 126 117 112 109 107 111 124 140 153 149 140 129 107 101 99 96 75 65 69 88 93 99 109 120 131 142 155 156 157 158 161 158 157 160 170 174 175 175 179 182 185 189 193 196 195 189 189 191 193 194 191 187 190 193 194 191 190 191 192 196 202 203 200 194 194 196 201 205 207 208 210 216 219 217 215 214 212 209 213 213 209 198 179 155 127 98 81 74 76 86 87 84 82 79 76 73 72 74 76 77 79 80 80 84 88 90 88 87 87 88 88 89 91 92 92 88 87 88 91 91 91 94 87 86 87 82 81 82 84 84 85 82 78 77 75 72 69 67 67 69 67 64 61 58 57 53 49 50 57 62 63 63 64 65 63 60 58 59 58 57 55 51 47 48 50 58 59 55 53 54 56 57 58 60 61 61 61 63 65 69 72 75 77 78 78 79 80 81 201 255 255
255 254 201 87 77 69 64 70 70 69 68 65 64 63 62 59 57 55 53 53 54 54 50 49 50 52 60 70 81 91 97 97 97 102 104 107 109 106 94 75 49 37 31 31 51 86 117 136 153 164 170 171 176 171 161 163 166 169 169 168 165 160 152 141 130 119 110 105 103 104 112 125 139 152 148 137 122 98 96 101 103 76 64 67 87 90 95 107 120 129 139 153 156 155 152 148 145 150 161 177 180 180 181 187 191 194 198 197 194 186 182 183 185 188 188 184 181 185 186 185 184 186 188 190 194 196 198 199 197 198 201 206 212 209 205 204 215 225 229 219 217 216 213 216 219 218 211 198 177 147 107 82 72 78 88 90 87 82 81 80 80 75 74 74 76 82 84 83 86 89 89 88 87 89 89 87 87 91 94 93 90 89 91 94 92 91 93 86 88 90 85 81 81 84 85 85 84 80 75 73 71 68 65 67 71 66 61 57 56 57 53 49 50 55 59 61 64 66 65 62 58 58 61 61 59 56 52 49 49 51 59 61 58 55 55 57 57 57 60 60 60 60 63 66 69 72 75 77 78 79 80 81 82 200 255 255
254 253 200 87 79 69 63 69 67 66 66 63 63 63 62 60 58 56 55 55 57 57 53 50 51 54 63 72 82 89 94 96 98 100 106 112 113 99 78 56 39 44 50 57 81 112 135 143 155 162 164 163 163 154 137 134 139 141 137 126 117 112 109 105 101 97 95 96 100 107 121 133 143 147 143 135 126 109 108 111 109 90 81 81 92 91 96 110 126 134 141 152 156 156 153 150 152 158 166 174 170 165 166 174 181 184 185 182 180 177 184 186 188 195 194 188 181 185 185 183 182 182 181 181 184 185 183 181 181 188 195 200 206 204 201 201 217 230 236 219 214 212 210 214 217 217 211 204 189 163 119 89 77 85 92 96 94 85 79 79 83 81 77 75 74 85 87 87 90 89 87 85 87 90 90 84 87 92 96 94 92 92 93 92 91 90 92 85 89 96 91 84 82 85 84 83 82 80 75 75 73 67 60 61 68 63 56 52 54 53 51 49 50 55 60 64 67 67 64 59 56 58 63 64 60 57 54 52 52 51 56 58 57 56 55 56 56 57 60 61 61 62 64 66 69 72 75 76 77 78 80 82 84 200 254 254
253 251 198 88 80 70 65 70 66 64 63 60 59 59 59 57 57 55 53 55 56 58 55 54 56 60 68 76 84 90 94 97 101 104 109 111 105 86 65 48 40 55 69 83 105 127 141 143 154 159 158 151 148 139 124 121 127 131 129 116 106 102 102 102 100 96 94 96 102 110 124 136 145 145 141 136 131 115 110 109 108 90 81 79 87 89 95 110 125 132 137 144 149 150 150 153 157 163 167 172 171 170 173 181 186 188 189 188 187 188 195 196 196 199 198 191 185 190 192 191 187 186 183 181 181 179 176 174 176 182 188 192 197 198 197 198 213 226 234 222 216 211 205 207 211 214 212 209 199 178 134 101 85 89 95 100 100 91 85 82 83 79 75 74 76 86 88 86 88 88 88 87 89 92 92 90 90 93 95 93 93 94 95 93 90 88 91 89 92 96 95 90 87 87 85 83 81 81 76 74 72 68 63 62 65 59 53 50 52 51 51 52 52 54 59 66 71 69 65 59 56 58 62 63 61 57 54 52 52 50 52 55 56 57 58 58 58 59 60 62 62 63 65 67 69 72 74 74 75 77 79 82 84 199 252 252
252 250 198 88 80 72 67 73 68 64 62 59 57 55 55 54 54 52 51 52 55 57 55 56 59 64 71 77 83 88 95 100 104 109 112 108 94 71 54 45 45 61 80 100 120 136 145 144 154 156 150 135 130 123 112 113 120 126 127 117 109 105 107 108 106 100 97 100 105 112 125 136 143 143 141 139 137 118 110 106 106 86 75 74 85 91 99 110 121 127 132 137 142 146 150 156 161 165 165 165 167 172 179 184 187 189 191 192 194 198 201 201 199 198 198 194 190 195 198 199 195 192 191 189 184 181 178 177 179 183 188 189 192 193 194 196 205 217 227 228 224 215 203 201 206 214 215 215 209 192 150 113 93 93 96 100 101 97 92 86 80 74 72 74 78 85 86 84 85 87 89 90 90 92 94 95 94 93 93 91 92 94 96 93 90 88 91 93 94 94 95 93 92 88 84 82 80 81 76 73 70 69 67 66 63 58 53 51 49 49 51 54 53 54 59 67 72 71 67 61 57 57 59 61 59 57 53 51 51 50 51 53 56 58 60 61 60 60 61 62 62 63 65 67 69 72 73 74 74 76 79 81 84 199 252 252
253 251 199 91 84 75 71 79 74 70 67 63 60 57 55 54 54 53 52 53 55 56 52 53 57 64 72 75 78 84 96 104 109 115 115 105 85 54 43 44 49 58 76 100 123 140 150 152 159 154 141 117 111 105 99 106 112 117 120 115 109 106 106 107 106 100 97 101 107 114 125 133 139 142 144 145 141 120 110 108 111 86 74 75 94 105 110 112 117 124 131 138 147 154 159 161 163 161 154 142 143 149 159 162 165 167 171 174 179 187 191 191 189 187 191 194 198 197 199 200 201 202 205 204 198 196 194 192 192 196 199 200 195 192 191 193 193 201 216 235 235 225 210 201 207 218 221 225 222 208 165 124 101 99 97 95 95 99 95 85 74 75 77 77 77 79 81 84 84 87 91 94 93 93 94 97 98 95 92 94 92 91 91 93 92 93 97 98 97 95 91 92 93 90 83 78 77 79 74 71 68 69 70 67 63 61 58 54 48 50 52 53 52 53 57 65 70 71 68 65 59 57 58 60 59 57 52 50 50 51 54 55 57 57 59 60 60 59 60 60 60 60 63 66 68 71 73 73 74 76 79 81 84 200 253 253
255 253 201 92 86 78 74 80 76 72 68 66 64 62 60 58 58 58 57 57 56 56 53 52 57 63 73 77 80 85 96 104 110 117 110 95 72 51 45 48 52 61 82 111 134 152 162 158 153 141 125 108 112 118 122 137 140 138 132 123 114 106 102 103 103 101 103 109 115 121 128 135 143 148 150 150 148 132 122 117 121 99 85 83 100 107 110 112 123 133 141 146 152 157 161 163 163 161 155 150 153 159 165 165 166 169 174 182 188 191 190 191 191 188 187 191 196 193 192 191 193 196 202 205 202 198 197 199 200 200 202 205 201 199 199 203 199 203 214 231 228 219 209 200 204 213 216 221 222 212 172 130 101 92 94 92 91 96 93 85 75 77 78 77 75 77 80 84 84 86 90 95 97 96 96 98 99 96 93 97 94 91 89 93 95 96 98 99 97 93 89 90 91 88 82 78 76 76 73 71 70 71 71 68 64 66 63 58 51 51 52 54 53 51 52 59 68 72 72 69 62 58 58 58 57 55 51 49 51 53 58 56 55 55 57 58 58 57 59 59 59 59 62 64 67 69 71 71 72 74 77 80 83 201 255 255
255 254 202 93 87 80 77 80 76 71 68 68 67 65 63 61 61 61 62 61 58 57 54 54 57 63 73 80 85 89 96 103 109 114 104 85 62 50 47 51 59 73 98 129 148 161 163 151 141 130 119 112 125 137 145 159 156 146 132 122 110 101 95 95 98 101 107 115 123 129 133 140 148 154 154 153 151 143 129 118 119 103 91 86 95 98 100 105 121 134 143 147 148 150 153 157 159 159 157 160 165 171 173 170 170 174 178 189 195 195 191 193 195 193 188 188 193 190 187 185 185 188 194 199 200 195 194 198 200 198 199 202 201 202 205 211 208 209 216 224 217 210 206 201 203 207 208 213 214 207 171 131 101 88 93 92 90 95 92 85 79 79 78 77 74 78 81 84 84 84 88 94 98 98 96 98 98 95 93 97 96 93 90 94 98 100 99 99 96 91 89 90 89 86 83 79 76 74 71 71 71 71 69 66 63 67 64 60 54 52 53 55 54 49 49 55 67 72 73 70 65 60 57 57 55 54 50 48 51 54 58 54 53 54 55 56 56 57 59 59 58 58 61 63 65 68 69 69 70 72 76 79 83 201 255 255
255 254 202 93 87 81 78 80 75 70 67 67 67 66 65 63 63 63 65 63 61 58 56 56 58 62 73 82 90 96 99 101 105 109 96 77 54 49 47 51 68 94 124 153 164 164 153 132 127 124 124 130 148 159 162 166 154 136 117 108 100 92 87 85 89 98 106 118 129 136 141 148 156 160 157 154 150 149 131 112 104 96 89 84 82 79 82 92 111 126 137 140 137 137 139 146 154 159 160 168 176 179 177 173 175 181 182 193 199 199 194 195 198 199 191 189 190 188 185 182 181 181 184 188 194 189 187 189 191 190 190 191 194 201 209 215 216 219 221 217 208 202 202 205 204 202 200 202 201 192 163 130 103 90 96 95 92 93 90 87 84 81 78 77 75 79 82 83 84 85 87 90 96 98 97 97 97 96 95 97 98 96 93 96 100 102 100 98 95 91 92 92 89 87 87 84 80 75 71 71 72 70 68 65 63 65 62 59 56 53 54 57 55 50 49 55 67 72 72 68 66 63 59 57 54 53 50 50 53 55 56 52 51 52 53 53 54 56 58 59 58 59 61 63 64 66 67 67 69 71 75 79 82 201 255 255
255 253 203 98 90 84 81 83 79 74 69 68 67 66 65 62 62 63 64 63 62 59 56 56 58 61 69 78 89 99 103 103 102 106 95 78 55 43 40 48 76 109 137 159 163 150 131 109 124 138 150 159 167 163 148 136 122 108 99 101 104 104 99 94 95 101 103 114 128 139 147 155 161 165 162 156 147 145 130 112 98 91 89 90 83 82 87 97 110 124 135 138 141 144 148 157 168 173 170 170 174 178 177 175 179 186 186 190 194 198 193 190 190 193 193 193 192 190 189 188 188 188 187 188 195 191 186 182 184 184 183 181 181 191 201 207 211 217 223 221 215 210 206 210 208 204 200 199 193 179 152 127 110 104 102 100 98 94 92 90 86 83 79 76 74 77 79 81 84 86 87 88 92 95 96 95 97 99 99 98 97 96 94 98 104 106 102 97 93 92 93 91 89 87 87 86 83 77 71 70 71 69 68 67 66 62 58 56 56 58 59 58 55 52 53 59 67 70 68 63 64 62 59 57 55 53 52 50 52 53 53 51 51 52 53 52 53 57 57 58 58 60 61 63 64 66 68 69 70 73 77 80 83 201 255 255
254 253 204 99 92 85 80 84 78 72 68 66 66 66 66 64 63 62 62 62 62 61 58 60 62 63 67 76 89 106 113 114 108 105 90 68 42 35 44 64 93 123 145 156 145 130 121 118 141 154 159 158 155 141 117 101 94 93 98 108 112 113 105 96 92 93 98 110 124 137 146 153 158 164 163 157 147 144 131 115 102 93 93 95 80 80 86 93 106 120 129 130 140 147 152 157 169 176 173 176 176 173 172 170 174 180 186 186 189 196 196 193 190 192 192 193 192 188 187 187 189 189 188 190 196 193 189 184 185 187 186 182 181 186 190 191 198 206 213 215 215 214 210 216 212 205 198 194 184 166 141 126 120 124 109 103 102 100 93 87 82 79 78 77 75 80 81 83 86 90 91 90 91 93 93 91 96 100 102 96 96 96 97 99 103 105 102 97 97 98 95 91 89 88 85 85 83 80 76 74 70 67 65 65 64 62 59 57 54 58 57 53 51 52 56 64 71 70 66 59 61 61 60 58 56 55 54 54 55 54 52 51 52 53 54 53 54 56 55 56 57 58 60 62 63 66 67 68 69 72 75 78 81 200 255 255
254 253 203 98 92 84 79 83 76 70 66 64 64 65 66 65 64 62 61 62 63 64 62 66 68 67 68 76 90 110 120 121 114 102 81 56 29 34 57 87 111 133 146 148 126 118 122 137 154 155 148 135 126 109 86 75 79 89 105 115 117 113 104 95 88 86 96 108 121 133 139 146 152 159 159 156 151 146 134 122 112 99 97 97 79 80 84 88 102 115 123 122 139 150 155 154 166 172 169 177 173 166 163 163 163 167 179 179 182 191 197 196 193 192 191 191 190 183 182 184 187 187 189 192 196 196 194 192 192 193 193 190 187 186 184 181 187 193 198 205 211 213 212 220 215 205 196 190 178 158 134 125 126 135 110 102 103 104 93 83 77 75 76 78 77 83 85 86 89 95 96 94 92 92 91 90 97 102 102 95 95 97 99 99 101 102 100 98 101 103 95 90 89 89 83 82 81 82 82 77 70 65 63 62 62 63 63 60 54 56 53 48 47 51 58 67 73 71 65 58 58 60 61 58 57 57 57 58 58 57 53 52 54 55 54 54 54 54 53 54 55 55 58 60 61 64 66 66 67 69 72 75 77 199 255 255
253 253 203 95 91 85 81 83 77 71 67 65 64 64 64 64 64 63 62 63 63 64 64 67 69 70 74 83 95 107 112 113 108 88 64 44 33 51 80 108 121 131 136 135 126 130 140 149 139 121 102 88 85 81 77 83 90 99 107 107 102 95 91 89 88 89 105 115 123 129 131 138 146 151 150 152 158 156 143 131 123 105 98 97 88 89 89 88 100 113 122 125 141 153 159 157 164 163 153 159 155 151 153 156 153 149 156 161 167 178 188 192 192 190 189 189 186 177 178 180 183 184 190 195 194 198 199 198 197 199 203 204 197 195 196 196 193 189 186 200 208 211 210 218 215 206 197 190 179 163 140 125 118 120 100 92 94 101 94 84 75 75 76 77 79 84 86 88 90 93 94 93 92 91 91 94 99 102 102 96 97 99 100 98 99 99 99 99 100 99 91 91 91 91 82 79 80 85 84 79 73 68 66 64 62 65 66 64 59 60 56 51 47 50 57 67 72 71 68 64 59 59 61 59 57 57 56 57 57 57 56 55 55 55 54 55 55 54 54 54 53 54 56 59 60 63 64 65 65 68 71 74 76 199 255 255
253 253 204 99 93 88 84 85 80 74 70 69 67 66 64 64 65 65 66 66 65 66 68 68 67 68 76 88 100 109 111 111 107 79 50 32 34 67 97 120 127 126 123 121 120 128 134 132 115 98 84 75 73 75 80 97 105 108 108 100 91 86 88 90 89 89 105 114 120 124 127 138 149 150 145 150 164 164 150 135 128 108 98 96 95 94 91 88 97 110 122 131 144 152 157 158 160 157 148 155 158 161 167 170 166 162 169 175 179 183 186 188 190 191 191 187 181 176 179 182 183 185 189 192 191 196 199 199 201 203 205 205 200 201 206 210 207 200 195 207 214 214 209 218 218 212 204 194 182 168 146 125 108 98 89 87 91 98 95 89 80 74 74 77 82 84 86 88 89 91 93 94 93 92 92 97 99 102 102 99 99 99 100 99 100 99 96 98 97 94 92 92 92 91 88 85 83 82 82 78 72 68 67 67 66 67 67 66 63 60 56 52 50 52 57 64 69 70 69 68 60 58 59 58 58 59 58 56 54 55 55 56 56 55 54 54 54 54 54 55 54 54 56 59 60 63 64 65 65 67 70 73 75 198 255 255
253 253 206 103 97 91 87 89 85 79 74 73 71 69 66 65 66 67 69 69 69 69 70 68 66 66 76 91 105 114 114 112 106 71 40 27 38 79 108 125 129 120 111 105 108 116 119 112 99 89 83 77 76 80 91 109 115 115 109 96 88 86 91 92 89 85 99 109 115 119 125 139 152 150 145 151 168 168 152 136 130 110 100 98 101 97 91 87 93 107 121 136 145 151 154 155 155 153 149 156 163 170 178 182 180 178 186 190 191 188 183 183 187 193 194 188 180 180 183 186 187 187 188 188 189 192 194 196 200 202 201 199 199 203 208 211 211 209 207 216 220 217 209 219 221 218 212 200 188 174 155 131 108 90 87 87 91 96 96 93 86 75 74 78 84 84 85 87 88 91 93 94 94 94 95 98 99 101 102 102 101 101 101 102 102 99 94 96 94 91 94 95 94 92 95 91 85 77 79 78 73 69 69 71 71 70 68 66 64 59 56 54 54 55 58 61 66 68 69 69 61 57 57 58 59 60 59 56 53 51 51 55 56 55 54 53 53 53 55 57 56 56 58 60 62 65 66 66 66 68 71 73 76 198 255 255
254 253 207 106 100 94 90 93 89 84 79 77 74 72 68 66 67 68 70 71 72 72 71 69 66 64 75 91 108 120 120 114 102 62 37 30 46 90 115 125 126 111 97 87 88 94 98 95 94 94 95 90 87 92 105 118 121 117 109 98 92 93 97 94 87 79 88 99 109 115 124 139 153 152 149 155 169 166 150 134 129 111 102 102 107 97 88 86 89 103 120 139 146 148 148 148 147 150 155 161 167 174 181 185 188 192 198 198 195 188 178 178 184 195 196 191 184 187 191 194 194 192 189 185 187 186 186 188 197 198 195 189 195 198 200 200 205 212 220 224 224 218 209 218 223 224 221 207 194 181 166 144 121 100 96 93 94 95 97 96 92 75 75 80 86 83 83 86 87 92 95 95 95 98 99 100 99 100 102 104 103 102 102 104 104 100 93 94 91 90 96 96 94 92 99 95 85 70 76 76 72 70 72 75 76 71 67 64 62 59 57 56 58 58 59 60 65 67 67 67 61 58 57 57 58 60 60 56 52 49 47 51 54 55 53 51 51 53 55 57 58 58 60 62 63 65 67 67 67 69 71 74 76 198 255 255
253 253 206 104 99 94 91 95 89 84 79 77 74 73 71 69 69 68 69 70 71 73 70 70 70 68 76 91 108 120 115 103 84 48 38 45 67 106 126 129 118 101 84 71 70 84 100 112 106 96 87 77 80 91 107 115 117 116 111 102 96 92 90 85 78 73 82 94 103 108 113 125 138 145 148 155 165 156 145 137 131 115 108 109 114 99 87 86 89 103 121 140 149 149 144 138 141 149 159 162 158 154 157 165 170 173 169 166 164 164 166 173 182 193 193 194 194 194 197 199 200 197 192 188 187 182 182 185 192 194 193 192 200 199 193 184 188 199 213 214 214 212 208 217 223 225 223 212 202 190 178 163 148 133 113 100 94 90 92 93 93 79 79 81 83 80 83 87 90 93 94 94 98 102 104 102 101 100 101 104 106 105 102 101 99 97 93 94 94 94 96 96 94 92 93 89 82 73 77 78 75 74 75 77 76 72 67 62 58 63 63 60 59 58 60 63 68 69 67 64 61 59 59 58 56 57 57 57 54 50 48 51 54 55 53 51 51 52 53 55 57 57 59 61 62 64 65 64 64 66 69 71 74 198 255 255
254 254 206 102 98 94 91 95 89 83 79 76 74 73 72 71 71 69 68 69 70 72 70 71 72 72 78 89 102 111 102 86 64 34 42 66 97 122 131 125 108 92 75 61 66 86 106 121 106 90 77 71 77 88 101 107 111 113 111 102 93 86 80 76 73 72 79 89 96 98 99 109 122 135 143 152 159 149 144 138 128 117 112 113 116 99 87 87 91 106 122 138 147 148 141 132 137 147 155 152 137 123 120 131 136 133 118 114 118 128 147 161 173 186 191 196 200 198 200 202 201 198 195 191 187 184 184 187 190 193 195 198 206 204 198 187 190 200 211 207 207 207 207 218 223 226 225 218 208 196 185 174 165 156 126 107 96 88 88 90 92 84 80 78 78 80 85 90 94 93 91 91 98 103 104 102 102 102 101 104 106 105 101 97 95 94 94 95 96 95 93 94 93 90 85 82 80 79 80 80 79 77 74 74 73 71 66 61 58 65 66 62 57 56 59 66 71 70 67 64 60 60 62 59 56 55 55 56 55 53 50 53 55 56 54 52 51 51 52 54 55 56 57 59 59 62 62 62 62 64 67 70 73 198 255 255
254 255 207 103 100 95 92 94 88 83 78 76 74 73 72 72 71 69 69 69 69 71 70 71 73 74 79 86 94 98 85 68 46 24 51 90 127 133 128 115 95 84 70 57 73 94 110 118 96 79 70 73 81 88 94 99 104 108 107 99 87 76 68 67 69 73 76 83 87 85 86 95 110 125 136 145 151 144 142 137 119 117 114 113 114 96 86 88 94 108 123 132 141 142 138 131 137 143 143 132 108 86 77 90 92 83 61 59 70 91 124 144 159 175 186 196 202 199 202 203 201 199 197 194 188 190 191 193 190 193 198 206 210 210 208 200 202 207 211 205 205 206 206 218 224 226 228 222 214 203 190 181 175 171 137 115 100 88 85 87 90 88 80 75 76 82 88 92 98 94 90 90 99 102 102 101 104 104 103 104 106 104 100 95 93 93 96 98 98 95 90 92 91 89 79 76 79 86 83 83 83 78 72 70 70 69 65 61 61 66 67 64 56 55 59 68 71 70 67 64 60 61 63 60 56 54 54 55 55 56 54 56 57 55 53 51 51 50 50 51 52 53 55 56 57 59 60 60 60 62 65 68 71 198 255 255
255 255 209 107 103 98 94 94 89 83 78 76 74 72 71 70 70 70 70 70 70 71 70 71 72 73 78 81 83 83 74 58 39 29 70 117 149 130 110 93 81 77 71 65 90 101 101 91 74 69 75 91 97 97 94 99 102 102 98 88 76 67 62 63 67 72 69 74 77 74 80 93 109 122 131 138 142 141 137 126 103 111 111 106 105 92 83 85 93 106 118 122 127 131 134 136 138 134 120 96 71 50 39 49 49 40 19 22 38 65 102 122 138 158 177 191 198 198 202 203 198 198 196 193 190 198 201 199 192 194 200 209 207 209 214 214 217 217 216 216 214 211 205 215 221 225 228 225 219 209 197 186 180 176 148 129 112 96 90 87 85 85 77 74 78 85 89 91 97 93 91 92 100 99 97 98 104 105 104 104 103 102 100 96 94 95 99 102 100 96 90 91 90 87 78 76 79 87 83 83 82 76 69 66 68 67 65 63 64 63 63 64 56 56 58 65 67 67 67 66 61 59 60 60 58 57 56 55 55 56 55 56 56 53 52 50 50 50 50 51 50 52 53 55 55 58 60 61 61 64 66 69 72 198 255 255
254 255 208 109 104 98 94 93 89 82 77 75 73 70 67 66 67 68 70 70 70 71 71 72 73 74 78 77 76 75 72 60 44 45 93 135 149 116 91 76 70 71 73 78 101 100 87 69 61 66 79 95 102 105 105 107 105 99 89 78 69 65 63 63 66 69 62 66 70 69 82 99 115 124 130 134 136 135 125 110 89 105 106 99 99 90 82 80 91 104 113 113 116 123 132 141 137 125 104 72 55 44 36 42 43 39 26 31 45 66 95 110 123 140 163 181 192 199 203 203 197 199 197 194 193 201 205 205 198 196 199 207 203 204 208 210 212 211 211 225 223 215 204 209 215 220 225 223 221 216 208 198 189 184 162 143 126 110 101 91 80 76 74 77 85 88 88 89 92 93 94 96 100 99 97 97 104 104 102 102 102 104 104 100 98 97 99 104 103 97 93 93 91 87 81 78 78 82 81 81 78 74 70 68 68 68 68 67 65 59 60 63 59 56 56 59 62 65 67 67 61 57 56 58 58 59 58 55 55 55 53 53 53 52 52 50 50 50 51 52 52 53 54 55 56 59 60 62 63 65 67 69 71 197 255 255
253 254 209 110 105 100 96 95 91 84 78 76 74 70 67 65 66 67 69 70 71 73 72 73 73 73 77 75 72 74 77 68 54 60 107 144 145 103 75 61 64 68 76 89 104 93 73 54 58 72 88 101 108 111 112 110 104 95 84 75 69 66 63 62 63 63 53 57 64 66 84 102 117 123 129 132 131 129 116 99 81 101 104 98 96 88 80 77 88 101 111 111 112 120 132 141 137 125 106 75 65 60 55 55 59 61 50 52 61 74 94 105 114 127 148 168 184 194 199 200 197 202 200 198 200 204 205 206 202 200 200 203 199 198 200 203 202 202 206 226 225 217 206 206 211 218 222 223 223 222 217 206 195 185 166 148 132 119 109 98 86 75 75 80 89 88 88 88 90 93 96 97 99 99 99 101 106 105 102 101 103 106 106 102 100 98 99 103 101 97 97 96 92 87 85 83 80 78 78 78 75 73 73 71 68 69 69 69 67 58 57 62 61 57 54 57 61 65 67 65 60 57 55 57 58 59 58 55 55 55 53 52 52 51 52 50 50 51 51 52 52 54 56 56 57 60 61 62 63 65 67 69 70 196 255 255
253 255 210 112 107 102 99 100 95 88 83 80 77 73 70 69 68 68 68 70 72 74 75 73 72 71 75 73 72 79 87 80 64 69 111 142 139 93 63 51 63 69 80 96 99 81 61 51 67 86 103 111 116 117 115 104 96 89 84 81 76 70 62 58 57 55 43 50 60 65 84 100 111 115 125 130 127 123 110 95 79 98 104 101 96 85 77 76 85 99 112 116 117 123 132 139 138 136 130 109 102 99 91 88 94 100 85 78 78 85 98 107 114 122 136 153 171 182 188 194 199 206 206 206 213 208 203 200 204 207 205 199 196 192 191 193 191 194 203 218 218 214 210 208 213 219 223 224 225 225 220 207 193 180 159 144 131 122 113 108 104 87 81 82 86 87 89 91 91 95 96 96 98 101 105 110 109 107 105 102 105 107 107 103 101 100 99 99 97 96 100 97 93 89 90 88 83 75 74 74 74 74 75 72 67 69 69 69 70 59 57 60 60 56 55 58 64 67 65 58 58 58 58 58 58 58 56 57 56 55 53 52 52 51 51 49 49 51 50 51 51 54 56 57 58 59 60 62 63 65 67 68 70 197 255 255
254 255 211 114 108 102 98 99 95 89 85 79 77 74 71 69 68 67 69 71 73 75 77 79 79 77 77 74 74 88 102 94 73 75 105 121 105 75 63 65 77 79 85 95 93 77 60 49 67 86 102 106 107 106 104 92 86 81 76 70 66 63 59 55 51 46 40 49 61 67 87 104 114 117 123 121 109 109 106 100 92 101 104 101 97 86 74 66 74 90 105 109 112 119 129 138 144 148 149 131 126 123 116 103 107 119 116 108 100 93 96 101 106 111 126 145 165 183 187 191 198 203 201 200 206 202 202 206 211 208 202 194 189 177 165 159 167 183 202 218 221 219 216 211 214 218 222 222 221 220 215 206 195 185 167 152 138 124 113 108 104 85 81 84 91 90 90 92 90 96 100 102 100 100 102 103 104 108 111 108 106 105 105 105 105 103 100 99 97 96 101 97 92 88 93 91 83 70 72 72 72 71 71 71 70 69 68 68 68 57 55 59 62 60 57 57 62 66 66 62 57 55 54 55 57 59 59 58 56 53 52 52 53 53 51 50 50 50 51 53 54 54 56 57 58 60 61 63 64 66 67 69 70 197 255 255
253 255 210 114 109 102 96 97 92 87 83 77 75 74 72 69 68 67 68 70 72 74 78 81 83 80 77 72 74 93 110 102 77 79 97 102 78 55 58 73 85 82 82 86 79 68 59 58 75 88 96 95 91 86 81 72 71 71 71 66 61 58 55 51 47 43 43 53 63 68 85 98 107 112 118 113 99 99 103 107 107 107 106 103 101 89 74 58 63 81 96 97 104 114 126 135 147 155 158 141 130 120 111 92 94 109 114 109 101 93 95 98 100 103 115 135 158 177 178 182 191 197 199 199 199 197 200 206 206 201 196 191 184 166 144 128 141 163 188 206 216 220 218 212 214 218 222 222 221 218 213 207 200 193 174 157 141 124 111 103 97 87 84 85 89 89 91 92 89 94 100 105 102 101 100 99 102 107 112 113 108 104 102 105 106 106 102 99 96 95 100 97 93 89 93 89 81 69 72 74 74 73 73 72 71 71 70 68 65 58 56 57 61 59 57 57 62 66 67 65 58 55 55 55 57 59 59 57 54 53 52 52 54 54 53 53 53 52 53 54 55 54 56 57 58 60 61 63 64 66 67 68 69 197 255 255
253 254 209 112 108 101 94 95 89 84 80 75 74 74 73 70 68 66 67 68 70 72 76 81 83 80 76 70 72 94 113 105 78 80 90 87 60 40 53 79 88 80 74 73 63 58 61 73 88 91 88 80 72 63 55 52 54 60 65 65 60 54 49 47 45 44 48 58 66 68 78 86 94 101 109 106 92 90 100 113 119 113 109 106 105 95 75 51 55 72 86 84 95 109 123 132 147 156 154 134 114 97 85 66 67 80 87 86 84 83 91 95 97 95 103 123 148 164 165 170 184 191 197 198 193 195 199 202 194 189 187 185 174 151 123 99 109 132 160 182 203 215 218 213 214 218 222 223 222 219 213 209 205 202 180 160 142 123 108 97 89 92 88 85 85 88 91 92 89 91 98 105 105 104 101 99 103 108 113 115 110 105 101 104 107 109 106 100 96 94 98 97 95 91 90 83 77 72 75 77 77 77 75 72 70 70 70 68 63 60 58 56 58 56 55 57 62 66 68 67 61 59 58 57 57 58 57 55 53 53 54 54 55 56 55 57 57 55 56 56 56 55 56 57 58 60 61 62 64 66 67 68 69 197 255 255
253 253 209 112 109 101 95 97 91 85 80 76 76 75 75 72 70 68 69 70 71 72 75 79 81 76 74 71 75 94 109 99 71 77 86 83 60 38 53 81 89 77 70 68 58 57 67 87 95 89 76 66 62 56 50 50 51 54 59 61 58 52 44 43 44 46 54 63 70 69 71 76 84 93 100 97 87 86 100 115 121 116 113 113 112 99 77 49 50 67 79 74 88 106 124 134 145 146 132 100 75 58 49 40 42 50 44 43 48 60 78 92 97 89 90 105 129 144 149 160 179 187 192 194 189 194 196 194 184 178 173 166 142 116 89 63 61 77 107 145 178 202 215 214 216 220 223 225 224 220 215 212 211 212 187 164 142 122 108 96 88 97 92 85 80 87 89 90 92 93 97 102 106 106 104 102 106 109 112 115 110 106 105 107 108 110 111 101 97 96 94 94 94 89 81 76 77 82 81 82 81 79 75 71 69 67 66 65 63 66 63 57 53 51 52 56 61 66 69 67 63 61 61 58 56 56 54 54 53 54 57 56 54 52 53 55 57 57 56 55 54 55 56 56 57 59 61 63 65 67 69 71 72 197 255 255
252 253 209 112 109 102 97 98 93 87 82 77 75 74 72 70 69 68 70 72 75 77 79 80 78 68 72 78 88 103 110 96 70 77 78 70 49 47 65 87 88 78 75 76 68 67 73 87 88 78 64 55 64 76 86 78 69 60 51 49 50 52 49 46 46 48 57 65 69 69 73 82 91 96 94 88 83 85 99 112 117 114 115 117 116 98 74 51 54 69 80 78 90 108 127 137 143 141 128 99 90 93 100 101 108 113 90 79 74 71 82 98 106 94 79 81 98 120 139 159 179 184 184 185 191 197 196 190 186 174 160 145 121 99 77 56 46 50 69 106 143 174 199 208 214 217 221 223 223 221 218 215 213 211 194 173 148 124 112 104 99 90 86 83 83 90 91 90 96 99 99 97 101 105 106 104 104 109 114 113 112 112 113 109 107 108 109 100 99 101 98 94 89 83 80 82 86 89 84 81 79 74 72 72 72 64 60 60 65 71 68 59 54 52 53 57 63 68 70 66 59 58 59 58 57 57 55 54 54 55 58 58 55 50 50 51 52 55 54 53 53 55 57 58 58 60 62 63 65 68 70 72 74 197 254 254
252 253 210 114 112 105 100 99 93 86 81 77 75 74 72 70 69 69 72 75 79 81 82 81 76 63 71 84 97 107 110 96 77 81 72 56 36 52 73 90 86 80 80 81 71 72 76 80 74 62 50 49 69 92 111 105 90 72 52 46 49 54 54 51 51 55 65 69 71 69 72 83 96 99 89 84 85 91 101 111 117 116 115 115 111 93 73 57 68 80 87 84 93 109 129 139 140 136 125 107 107 116 126 133 141 142 119 112 103 90 94 112 124 111 82 68 73 97 125 152 175 181 180 181 194 197 193 185 181 165 145 126 103 85 70 56 45 41 48 73 109 145 180 202 212 215 220 221 221 220 221 219 214 207 200 183 157 127 112 105 103 87 82 81 84 93 93 93 98 102 102 100 103 106 108 107 104 107 113 111 114 116 118 110 107 108 109 101 101 102 101 94 88 82 83 87 90 91 85 82 78 72 70 71 72 64 59 59 64 69 67 60 57 55 54 57 63 68 68 64 58 56 58 59 58 58 56 55 55 55 57 56 53 49 49 49 50 52 52 53 54 56 58 59 59 61 62 64 65 68 70 71 72 196 254 254
252 254 211 117 117 110 103 98 89 82 77 76 76 77 77 75 73 73 75 77 78 79 80 80 74 61 72 85 97 102 106 102 92 91 71 46 24 47 69 85 80 80 80 78 63 68 74 70 54 40 33 48 73 93 106 121 108 87 65 61 59 57 57 56 62 74 81 81 77 69 63 73 90 97 86 84 96 103 109 117 127 124 115 103 94 84 74 67 92 102 101 90 92 106 127 140 137 129 119 117 107 95 85 88 90 90 91 108 114 108 112 134 151 144 105 75 62 76 102 132 163 175 183 190 196 192 187 179 163 144 127 113 86 71 61 54 52 49 47 50 78 115 159 197 212 215 221 220 219 218 223 222 216 204 206 192 167 131 107 95 95 93 85 79 80 94 97 96 97 99 105 114 117 112 107 108 106 105 107 110 114 115 113 109 107 109 112 108 103 99 99 96 93 91 90 85 83 87 85 84 82 75 69 67 68 70 69 65 60 55 56 59 61 58 55 56 60 63 65 64 62 62 63 62 60 58 56 55 55 55 52 48 47 49 49 49 50 49 53 55 56 56 57 58 59 61 63 64 66 67 67 67 68 195 254 254
251 253 210 117 117 109 101 101 91 83 79 77 76 76 76 75 74 75 78 79 80 79 79 76 69 59 74 88 98 97 102 103 100 89 66 45 32 47 60 69 72 70 73 75 60 65 69 62 49 37 29 33 45 59 74 95 91 80 69 67 65 63 63 64 67 71 74 71 67 62 57 68 86 93 83 88 108 113 116 120 131 126 113 96 85 83 81 81 105 110 105 96 103 118 135 135 118 99 81 72 56 41 31 47 50 46 52 67 78 85 100 127 151 156 123 93 72 71 86 115 153 175 187 192 192 182 172 160 140 117 98 82 49 34 30 34 29 29 36 48 73 104 143 186 206 215 221 220 218 217 220 220 217 210 209 199 180 151 130 113 100 99 90 83 82 95 100 99 99 98 105 115 117 113 108 107 109 107 107 110 111 112 114 113 111 110 113 109 107 103 99 96 94 95 91 84 82 91 88 85 81 77 73 71 71 69 67 63 59 57 59 61 61 57 55 58 63 65 64 61 61 62 63 64 61 59 57 55 54 54 50 48 48 49 50 50 51 51 54 55 55 55 57 58 60 62 64 66 67 69 70 71 72 196 254 254
251 252 209 115 115 108 101 102 93 85 80 77 76 75 74 73 74 76 79 81 82 83 81 76 70 61 77 90 99 97 102 106 105 84 62 45 38 50 55 60 68 70 76 82 67 68 66 51 42 33 26 22 24 34 49 65 67 66 65 63 63 64 66 67 65 62 62 59 57 56 56 69 87 91 81 87 111 117 118 120 129 124 112 95 82 84 86 90 114 116 110 104 115 130 139 125 96 71 54 43 27 14 6 29 36 35 53 62 67 73 92 114 135 148 130 109 91 81 83 104 143 173 186 189 185 167 153 141 121 97 80 68 40 27 27 37 30 25 26 43 67 95 127 173 197 211 221 220 218 216 218 219 220 218 210 203 193 175 159 138 116 108 99 92 91 98 101 101 98 99 103 111 113 111 108 107 111 109 107 108 110 113 117 117 113 110 111 108 107 106 100 95 93 95 91 86 85 92 89 84 78 77 77 77 75 70 65 62 60 60 60 60 60 56 54 58 65 67 65 61 59 59 60 62 61 60 58 54 53 53 51 50 49 49 51 52 52 53 54 54 54 56 58 59 60 63 65 66 68 70 72 74 75 197 253 253
251 252 209 115 114 108 102 103 95 87 81 76 75 73 71 71 73 76 79 82 85 87 85 79 73 67 81 92 100 101 108 112 110 82 61 47 42 55 55 55 68 76 87 95 78 74 65 41 33 28 23 18 15 20 31 37 44 50 55 53 53 57 62 63 57 48 47 46 47 52 60 76 92 91 80 84 105 116 117 119 126 123 113 98 84 88 93 99 122 122 115 115 129 140 139 111 74 49 40 33 21 9 1 25 38 48 85 89 81 72 90 99 108 126 126 122 114 104 92 101 136 171 184 185 179 149 131 121 106 88 77 74 58 47 47 62 54 38 24 38 62 88 114 161 189 207 220 220 217 214 218 222 226 226 213 207 203 198 185 164 139 121 110 104 103 100 99 100 96 99 103 105 106 109 110 109 113 112 110 109 112 117 120 119 115 112 109 106 107 109 101 93 90 91 91 91 91 92 90 83 75 76 80 82 79 71 67 64 63 64 62 58 59 56 55 58 67 69 68 63 58 56 57 59 60 61 59 54 53 53 53 52 51 50 52 53 54 55 55 54 54 56 58 59 61 63 65 66 67 69 72 75 77 197 254 254
250 253 211 116 116 111 104 105 97 90 85 78 76 73 71 70 72 75 79 82 85 86 84 77 72 73 85 92 97 104 118 127 125 93 68 51 46 62 59 53 68 80 89 93 74 76 67 35 21 15 16 28 28 28 29 31 36 39 38 34 32 33 41 44 42 38 34 36 43 55 70 86 97 94 85 82 88 107 118 126 133 129 119 106 96 101 108 118 143 139 130 130 142 144 131 89 52 37 46 57 42 19 0 11 32 66 138 146 125 90 102 92 83 98 110 125 138 138 117 114 142 173 185 186 181 129 103 102 105 102 103 107 99 90 90 113 107 80 45 40 60 87 116 162 190 207 219 217 212 209 216 223 229 228 216 211 206 199 181 169 160 139 123 112 111 98 95 96 94 101 106 106 103 105 107 111 114 116 118 117 119 119 116 116 118 119 117 110 107 106 97 89 86 88 91 95 95 91 93 88 79 75 76 77 75 71 70 69 67 69 64 56 58 60 59 57 60 64 68 69 61 57 55 55 57 59 58 56 53 54 57 54 50 49 51 53 54 54 55 55 54 55 56 57 59 62 64 64 66 68 70 73 75 198 255 255
251 254 212 118 117 111 105 105 98 91 86 79 76 74 73 73 75 78 82 84 85 85 82 74 70 75 92 100 105 110 121 128 127 101 71 49 41 60 54 47 65 84 95 95 80 83 72 32 22 17 18 32 35 36 36 32 33 33 33 32 33 34 36 35 34 33 30 40 54 72 85 93 95 88 81 78 82 97 113 126 134 129 120 110 103 110 122 138 154 146 135 134 140 136 118 80 60 64 91 101 80 50 28 42 69 110 176 181 158 121 121 110 105 121 121 128 137 142 130 133 163 189 197 193 182 125 102 108 113 100 86 77 75 67 65 80 84 87 88 68 80 105 138 179 200 211 217 213 207 204 210 217 222 220 213 213 213 198 185 177 170 149 123 106 103 99 98 100 101 104 107 109 108 109 109 110 114 116 116 117 118 116 113 115 116 119 120 116 109 103 98 95 92 91 90 92 93 92 92 90 84 78 75 74 74 74 73 70 65 67 64 59 57 59 60 58 56 59 63 67 61 58 57 56 57 58 57 55 53 54 57 53 50 50 50 52 53 54 56 56 56 57 57 58 61 63 65 66 67 70 72 74 76 199 255 255
252 254 213 120 117 112 106 106 99 93 88 80 76 75 75 75 77 80 83 84 84 84 82 73 68 74 95 106 112 114 121 125 124 105 70 44 38 55 48 41 66 88 99 99 86 89 75 33 28 23 23 33 38 43 46 36 32 32 32 34 37 38 33 30 29 30 30 44 62 82 91 91 86 77 74 76 82 90 105 120 131 128 124 120 118 123 137 156 160 152 141 139 139 131 113 83 78 97 136 145 125 98 81 98 123 156 196 196 176 147 140 137 141 153 136 129 132 141 137 147 179 199 207 203 189 134 113 120 120 94 64 40 42 38 36 45 53 84 120 92 101 130 171 200 212 213 212 206 202 202 207 211 213 212 209 214 216 197 191 186 179 155 122 99 93 102 105 106 108 105 106 110 114 114 111 110 114 115 114 116 116 116 115 116 116 117 117 118 110 101 102 103 101 96 91 89 89 92 87 87 88 82 77 75 75 75 73 68 65 65 64 62 55 54 57 59 57 57 58 60 59 59 59 59 57 57 56 53 53 54 54 52 51 52 52 53 52 53 56 57 57 58 59 60 62 64 66 67 68 70 72 75 77 200 255 255
252 255 213 120 117 113 108 107 101 96 90 82 77 76 75 77 78 79 80 82 83 84 89 76 66 68 89 103 109 110 116 121 122 104 65 40 44 51 43 42 75 90 100 102 89 90 77 39 36 31 27 33 38 46 53 40 35 35 36 36 35 34 26 25 26 28 33 43 55 72 78 73 65 61 67 77 87 87 98 113 125 132 139 145 147 146 154 169 165 160 154 150 148 139 123 98 97 120 162 180 175 164 161 175 187 194 194 187 174 160 157 166 175 177 142 126 129 141 140 150 177 193 207 212 204 156 133 130 124 92 54 19 30 31 32 47 50 81 121 93 114 158 211 223 222 212 201 198 200 206 209 208 206 207 209 212 212 197 197 197 192 158 122 97 90 111 116 112 110 103 102 106 114 116 114 111 114 115 115 115 116 118 122 122 117 113 107 113 111 106 108 108 106 102 98 92 88 89 78 79 87 89 86 81 78 75 70 66 68 66 64 62 53 47 49 58 64 62 58 51 55 58 61 63 58 55 53 52 54 54 49 51 55 59 58 56 54 55 56 57 57 58 60 61 63 64 66 66 67 69 71 74 76 199 255 255
250 253 212 117 116 112 107 108 102 96 91 83 78 73 70 72 74 77 79 81 83 85 89 74 63 64 87 98 102 99 110 123 133 115 74 47 52 47 41 48 88 97 102 106 96 93 76 35 30 26 27 38 41 45 49 45 37 31 27 30 33 35 29 29 30 30 32 36 43 53 54 51 48 48 56 70 87 87 88 90 95 100 109 121 134 146 158 168 165 162 158 153 151 149 146 129 113 108 117 119 125 135 145 160 168 170 170 174 176 178 177 181 182 172 142 131 136 139 140 152 177 189 202 209 207 173 149 137 134 106 67 26 21 29 49 84 67 66 81 88 121 166 215 220 218 212 203 200 202 208 212 209 204 200 202 208 212 206 200 195 188 163 137 113 95 106 109 111 115 112 109 105 110 112 114 117 120 119 117 120 120 120 121 118 113 112 114 121 118 111 105 104 102 98 95 93 92 94 89 90 92 90 85 79 74 73 70 67 67 64 63 60 54 52 54 57 57 57 56 54 58 58 58 61 59 58 57 56 53 51 47 50 53 56 56 55 53 54 57 58 58 58 61 63 65 66 68 69 70 71 73 75 76 199 255 255
251 254 212 115 114 110 105 106 101 96 91 85 79 74 71 72 74 77 79 80 82 84 90 76 66 67 86 93 95 93 110 126 137 118 79 54 60 46 43 58 102 108 110 113 107 101 81 38 29 27 31 49 48 45 42 42 34 26 20 24 27 30 28 32 35 36 37 38 38 40 39 39 40 42 49 62 80 87 89 89 87 90 99 111 123 138 146 148 148 151 150 145 145 151 158 152 131 111 99 94 103 118 130 139 141 139 143 153 163 172 177 179 174 159 141 137 143 143 142 151 174 187 199 208 210 191 168 149 146 128 98 60 42 51 79 123 96 70 57 80 122 168 212 215 215 212 206 204 206 210 212 209 204 196 200 207 213 211 200 193 188 168 145 121 99 104 106 109 116 116 111 103 105 109 114 119 122 122 122 124 122 121 119 114 112 114 120 120 116 109 102 101 100 98 97 97 97 97 95 95 95 89 83 77 74 74 71 69 70 63 60 59 54 56 58 58 54 55 56 57 59 59 58 59 59 59 58 58 54 51 49 52 53 54 53 53 52 53 56 58 57 57 60 62 64 66 67 68 69 70 71 74 75 199 255 255
253 255 212 113 113 109 104 104 99 94 91 85 81 77 74 75 76 79 81 81 81 82 92 82 74 75 86 89 89 93 112 127 131 111 77 58 68 50 50 70 113 119 120 120 120 112 89 46 32 30 38 62 59 47 31 31 25 19 15 19 20 21 24 33 41 45 49 46 41 35 34 36 39 41 46 54 67 85 95 99 94 95 103 115 124 133 133 124 126 134 138 133 134 146 160 164 148 129 110 105 110 118 123 121 117 113 120 132 142 152 165 165 157 145 141 144 150 149 144 149 169 183 198 210 213 207 187 164 161 156 141 114 89 95 121 160 134 93 56 73 120 168 205 210 211 211 209 209 210 211 211 208 202 195 200 207 213 211 198 192 188 172 148 123 100 102 104 108 115 113 108 102 103 107 112 118 121 125 128 127 124 121 116 114 115 119 124 115 108 103 100 100 100 102 101 101 101 99 95 94 94 86 80 77 78 78 73 71 74 64 59 57 55 59 61 60 55 56 58 58 59 59 60 59 58 57 57 58 56 54 55 56 55 53 52 53 53 53 56 58 57 56 59 61 62 65 66 67 67 68 70 73 74 200 255 255
251 255 212 114 113 110 106 105 100 94 89 81 77 74 72 72 74 79 83 82 81 81 90 82 77 79 87 90 92 99 109 113 110 91 60 49 72 58 56 69 107 119 120 116 135 129 98 42 29 27 37 68 66 47 21 11 7 8 11 19 22 23 26 34 42 48 52 50 45 42 42 42 42 42 45 48 52 60 71 77 72 75 94 126 162 177 176 162 146 148 151 146 145 150 159 163 158 150 143 140 140 141 146 145 141 137 138 147 152 156 167 162 153 151 156 157 153 141 140 146 160 171 191 209 212 219 202 172 162 169 171 163 146 153 173 196 177 137 92 84 135 183 208 208 209 210 212 213 212 210 206 200 196 195 198 199 202 214 200 186 173 164 152 132 102 98 100 107 116 115 110 103 105 108 111 117 122 126 128 128 124 122 120 118 120 122 123 116 113 110 103 103 103 102 104 108 107 100 91 89 90 86 86 84 84 83 79 75 70 69 65 60 56 59 62 62 61 61 60 57 57 57 58 59 56 55 53 56 55 54 56 54 51 48 49 51 53 55 57 58 57 58 61 63 65 67 68 69 70 72 74 77 80 200 255 255
251 254 211 116 113 109 104 104 100 94 89 80 77 75 73 73 74 78 82 82 81 80 88 83 79 79 84 88 91 96 96 93 85 66 48 47 72 63 58 64 94 119 125 119 144 138 101 35 24 26 41 71 68 51 24 8 5 8 12 16 19 24 32 38 43 48 52 48 42 39 41 43 44 44 46 48 51 53 60 66 65 69 88 120 155 169 172 165 153 158 164 163 159 160 164 167 164 160 157 157 155 155 161 162 155 145 141 145 150 156 164 162 160 167 173 166 151 135 134 141 153 162 180 197 205 219 207 178 164 170 174 170 159 166 181 198 195 172 136 113 153 191 206 207 208 208 211 213 211 205 198 194 194 196 196 195 195 203 194 181 165 159 150 133 106 101 103 109 113 115 113 111 109 111 114 116 121 125 128 128 124 122 122 124 125 125 122 112 110 112 110 107 105 105 108 109 106 98 93 91 89 87 88 88 88 83 78 75 73 69 64 59 57 57 59 60 63 62 60 57 56 57 59 59 56 55 54 57 56 56 56 55 53 51 52 53 54 56 58 59 58 59 61 64 66 69 70 70 71 73 75 79 81 200 255 255
250 253 211 118 113 107 103 103 99 93 89 80 77 75 73 73 74 77 81 81 81 80 86 83 80 78 81 84 88 89 82 73 63 48 43 51 73 66 58 58 83 119 132 126 152 144 103 29 19 25 44 75 74 57 32 12 9 12 16 15 18 26 37 40 43 47 51 46 40 37 40 43 46 45 46 49 54 51 52 55 59 64 83 110 139 153 161 163 158 166 175 175 168 166 168 170 166 162 159 159 157 157 163 165 157 143 137 142 150 161 167 167 168 178 182 171 150 134 134 140 150 157 171 186 195 215 209 185 168 167 167 164 158 164 176 189 200 192 169 140 170 199 207 207 206 206 208 209 206 199 192 190 192 196 193 190 188 189 185 175 159 155 147 133 110 104 105 110 110 115 118 120 114 116 117 117 120 123 125 126 122 121 124 129 128 124 120 110 109 112 115 111 108 107 109 107 102 96 98 96 92 90 89 89 88 81 76 75 76 67 62 60 57 56 55 57 61 60 59 58 58 58 59 60 57 56 56 58 57 56 55 56 55 54 55 55 55 57 58 59 59 59 62 64 66 69 71 71 72 73 76 79 81 199 253 253
248 250 210 120 114 109 104 101 97 91 85 78 75 73 71 70 71 75 80 80 80 80 84 83 81 79 79 81 84 83 73 59 47 44 51 64 81 68 58 56 77 121 137 131 159 148 103 22 13 20 43 82 87 70 39 20 16 19 23 23 25 32 40 39 42 49 52 50 47 44 44 45 47 46 47 49 53 44 39 38 41 53 74 104 137 157 170 176 171 177 182 177 166 161 163 168 165 160 152 147 142 141 146 147 142 133 133 146 162 178 180 176 173 177 179 170 152 137 142 149 153 155 168 182 187 212 212 192 169 163 161 160 159 166 175 181 193 190 174 150 181 209 214 210 206 203 204 204 200 194 190 189 192 195 189 184 181 181 177 165 149 153 149 136 112 105 104 107 110 119 126 130 124 121 122 124 126 123 120 123 122 123 127 131 127 122 119 116 115 115 116 115 112 107 106 102 99 97 105 104 97 94 91 87 83 80 79 79 73 64 62 62 59 56 54 54 55 56 59 62 62 60 58 58 58 58 57 55 54 54 54 54 54 54 55 56 56 57 59 60 61 62 63 65 68 71 72 73 74 75 77 79 81 198 251 251
252 253 213 123 117 112 108 100 96 89 81 75 74 73 72 72 73 76 79 81 82 84 89 90 87 82 78 82 87 88 73 54 39 45 55 67 82 77 66 61 79 132 152 144 170 156 105 22 16 26 52 100 108 89 49 21 15 19 26 28 32 39 47 43 45 54 55 53 48 43 44 47 49 47 46 48 52 49 49 49 48 60 82 109 135 151 163 173 171 178 183 178 167 162 163 171 176 177 174 173 168 166 171 171 166 159 159 173 186 194 190 179 170 172 176 167 150 140 148 156 158 161 174 186 189 213 214 193 163 157 158 164 176 189 199 198 212 203 175 136 168 200 205 205 201 199 201 202 198 192 189 189 189 189 184 181 179 174 167 160 154 160 150 133 108 105 105 107 114 117 121 125 126 126 127 131 127 122 118 122 126 129 129 127 124 122 120 118 116 116 121 118 112 104 105 104 101 99 101 99 96 94 93 90 86 82 78 74 71 66 65 65 61 57 54 55 57 58 59 60 60 58 57 59 60 61 59 54 53 55 55 55 56 58 60 59 58 59 59 61 64 65 65 66 69 71 72 72 72 74 75 78 80 199 254 254
253 255 214 124 117 113 109 100 95 89 81 75 74 75 74 74 75 77 80 82 84 86 91 93 91 85 79 82 87 90 72 51 33 44 55 66 76 78 69 62 80 139 164 156 177 159 106 21 15 26 55 107 119 100 58 23 16 20 28 32 39 46 52 44 43 52 52 50 46 42 44 47 50 49 48 47 49 51 53 54 51 64 85 110 128 141 154 169 173 181 186 183 175 168 166 170 176 180 181 185 182 179 183 183 179 177 179 191 198 199 189 172 160 162 169 163 148 139 145 151 155 162 174 184 187 210 214 199 168 156 154 162 181 196 206 204 220 211 180 137 166 197 202 203 199 194 197 199 194 185 184 185 187 186 177 173 171 164 155 152 154 159 146 128 106 106 107 110 116 117 119 122 126 127 128 134 129 124 122 124 130 132 130 126 125 123 120 117 116 116 120 114 107 101 103 104 102 99 99 97 94 92 91 89 87 83 78 74 72 69 67 66 62 57 55 56 58 59 61 61 59 57 57 59 61 62 60 53 53 56 56 57 59 61 63 61 60 60 60 61 64 65 65 66 69 71 72 72 72 73 75 78 80 200 255 255
254 255 214 124 114 110 107 98 96 91 83 77 77 77 77 76 76 78 81 83 85 86 90 95 95 89 80 82 86 88 69 47 28 42 55 64 66 74 67 60 77 142 171 164 178 159 105 17 11 22 51 103 120 106 68 28 18 21 30 35 44 53 56 42 37 44 43 42 40 40 43 47 50 52 50 47 42 48 50 50 48 61 83 106 115 127 145 167 176 185 191 191 186 179 172 166 167 170 174 181 181 179 182 182 182 183 191 198 200 194 178 157 144 147 159 159 149 135 134 138 145 157 168 175 182 203 213 209 183 160 149 153 174 189 197 198 218 216 193 156 177 201 205 204 196 189 191 192 186 175 173 179 184 185 169 161 157 149 143 142 146 151 140 124 108 107 110 114 118 119 120 122 124 125 127 132 131 130 128 128 131 131 128 126 127 125 121 114 114 116 115 106 100 98 101 103 101 96 98 96 91 88 86 86 87 84 79 76 76 72 68 64 60 57 55 56 57 60 63 64 61 58 57 58 60 62 60 53 53 55 57 58 60 61 63 62 61 60 60 61 62 64 64 65 68 71 72 72 73 74 76 79 81 200 255 255
255 255 213 124 111 108 107 100 99 93 85 78 76 77 77 77 77 79 81 83 85 87 90 98 101 96 87 88 91 90 67 41 22 43 64 72 62 71 66 58 70 142 175 170 180 161 108 20 11 19 46 95 120 119 92 43 25 21 23 29 44 60 63 45 40 47 42 40 38 39 43 47 49 54 55 51 42 44 45 45 44 58 80 101 109 121 140 164 171 180 187 187 185 179 171 166 169 174 180 185 185 187 192 192 192 194 194 198 199 193 169 150 140 143 155 156 150 139 139 142 146 158 166 172 182 200 214 218 196 165 145 145 169 182 188 188 213 227 224 193 205 217 216 206 193 181 180 182 177 167 166 174 182 186 166 153 143 132 129 132 137 143 133 121 110 110 113 116 119 119 120 121 124 125 126 128 131 131 130 129 130 128 125 123 123 123 122 118 116 115 112 105 100 97 95 95 94 95 94 94 94 94 93 93 93 87 81 76 76 75 72 67 61 56 54 55 57 59 63 64 61 59 58 58 58 59 59 56 57 58 56 56 57 59 61 61 61 60 60 60 62 64 64 65 68 71 72 72 73 75 77 79 81 201 255 255
255 254 212 121 108 106 107 100 100 95 85 77 75 75 74 75 77 79 81 83 85 88 91 100 105 101 94 95 95 89 64 39 21 46 72 80 61 74 68 58 62 135 171 169 178 163 113 25 9 10 31 76 112 128 118 66 41 28 19 23 41 62 67 48 43 51 44 40 38 39 44 48 52 56 55 51 43 44 43 42 41 57 77 97 105 118 137 161 168 176 182 184 184 180 176 173 175 178 181 182 186 192 199 199 201 202 198 199 196 188 160 144 139 143 151 150 143 135 138 143 147 159 165 170 183 198 213 222 208 175 150 145 162 169 172 173 199 220 231 210 213 217 214 200 186 174 172 175 171 163 164 173 182 186 166 149 136 126 125 126 130 132 128 122 114 114 115 117 118 119 120 120 122 124 125 126 132 132 130 127 128 129 129 126 123 121 121 117 114 109 101 95 92 90 85 83 84 88 86 89 93 92 89 88 88 88 82 76 75 73 71 68 64 60 57 55 55 57 61 64 59 57 58 56 55 56 55 57 58 58 54 52 54 57 60 61 61 59 60 61 62 63 65 66 68 71 72 73 73 75 77 80 82 201 255 255
254 253 211 118 106 104 106 99 100 94 85 78 75 74 73 74 76 78 81 83 86 89 92 101 106 103 99 100 98 86 61 37 24 48 77 87 66 81 73 59 55 127 165 166 176 165 119 32 7 2 15 54 96 125 131 86 60 42 27 23 36 55 64 48 43 50 45 41 38 38 44 51 56 58 54 50 46 46 42 39 40 57 75 90 100 114 134 158 168 175 180 184 186 185 184 181 180 178 178 177 183 192 200 203 205 207 202 200 195 183 156 145 143 146 149 144 135 127 133 141 148 160 164 169 185 194 209 222 219 189 163 153 159 160 160 165 187 209 225 215 210 208 205 193 180 170 168 170 167 162 163 172 180 183 166 149 134 128 126 125 125 122 122 122 118 116 117 117 116 120 122 120 120 122 124 124 132 133 131 127 127 130 134 131 125 120 120 115 111 105 92 87 86 87 82 82 85 91 92 96 100 97 89 85 83 87 84 80 77 71 68 67 65 63 60 57 54 56 60 65 58 56 57 55 53 53 53 58 59 57 52 51 52 55 58 62 62 60 62 62 62 63 64 66 69 71 72 73 73 76 78 81 83 201 255 255
252 253 211 118 107 104 103 98 97 92 85 80 77 75 73 74 75 78 81 85 89 92 93 100 104 102 101 101 97 79 55 37 31 47 76 90 76 94 83 63 53 119 159 166 174 168 127 40 8 0 6 34 70 100 116 91 78 67 55 33 29 36 49 42 38 40 41 38 35 36 42 51 60 61 54 50 50 52 42 35 41 59 71 78 87 106 129 156 173 179 183 190 194 195 193 189 180 172 167 167 175 185 193 199 203 204 205 203 196 184 166 158 156 156 152 143 130 119 125 136 147 159 162 168 184 190 202 219 230 209 188 175 168 162 163 173 190 204 213 213 205 197 194 189 181 173 170 169 165 160 163 170 176 177 167 152 137 134 130 125 119 111 114 119 120 116 117 119 115 122 126 124 120 122 123 122 129 134 135 134 131 131 134 136 129 122 118 113 113 109 94 87 89 99 103 110 117 121 131 134 130 122 103 90 81 86 91 91 84 71 63 61 63 64 62 59 57 59 63 68 58 55 54 51 50 50 50 54 53 52 51 52 53 55 59 62 63 61 63 62 60 61 64 66 68 71 73 73 74 76 79 81 84 201 254 254
252 253 212 121 111 106 103 97 95 91 85 81 79 77 75 75 75 77 80 85 90 93 93 101 106 104 101 100 95 77 53 36 31 47 77 95 89 103 87 62 54 120 162 173 175 170 130 42 14 6 12 32 52 67 76 69 76 85 91 56 30 21 39 42 41 36 40 37 34 35 40 49 57 62 57 52 50 49 41 36 46 61 66 67 75 101 129 156 177 181 181 184 191 193 193 190 185 181 178 177 180 186 190 199 202 200 200 195 189 185 178 171 162 149 134 118 104 95 105 123 143 155 163 171 182 185 196 214 232 224 210 196 180 174 176 187 199 207 212 216 211 203 197 193 185 176 171 168 163 159 161 166 169 167 162 152 139 132 129 125 119 109 109 113 115 117 119 121 120 125 128 127 123 123 124 123 125 131 138 141 132 127 126 129 126 121 116 113 109 104 94 96 104 116 132 149 163 171 180 184 183 178 145 110 77 75 82 84 72 67 62 58 56 56 55 57 60 62 64 66 58 54 51 50 52 53 53 51 48 48 51 54 55 56 59 60 61 60 61 60 60 63 64 67 69 72 74 75 75 77 80 83 86 201 254 254
251 253 213 122 112 108 105 96 95 91 85 81 79 78 77 77 76 77 80 85 89 92 92 102 108 106 100 98 92 75 51 35 30 51 80 99 98 106 86 59 55 120 165 180 175 167 127 41 19 12 17 30 40 44 45 50 70 94 118 77 39 16 36 45 45 36 41 38 36 36 40 47 54 60 57 53 49 45 40 39 50 63 64 61 69 101 130 155 177 180 178 177 185 189 192 191 192 193 194 190 189 189 191 198 201 199 196 188 182 181 177 169 155 131 107 88 73 64 79 103 133 151 166 177 181 184 193 209 228 229 223 210 189 183 185 189 197 202 206 213 213 207 198 192 184 175 170 165 161 157 160 163 162 156 154 147 138 130 128 125 121 113 109 109 111 118 121 123 127 129 129 128 126 125 126 127 124 129 139 145 136 129 124 123 122 119 115 110 102 94 92 104 117 129 151 174 193 205 208 214 220 221 182 131 79 72 78 81 65 67 64 57 51 48 49 54 60 63 62 60 56 53 50 51 55 58 58 51 47 47 52 54 55 55 58 57 57 59 58 60 62 66 67 68 71 74 75 76 77 79 81 84 86 201 254 254
251 253 212 119 110 109 107 96 95 91 85 81 79 78 79 79 79 79 81 85 88 90 91 104 111 109 99 95 88 73 51 35 30 58 87 103 101 105 82 54 54 120 167 185 172 158 117 37 20 15 18 27 34 36 32 38 62 94 131 96 55 25 39 49 49 38 42 42 40 39 41 46 52 56 54 51 47 40 39 42 53 63 65 63 73 105 133 154 173 177 175 172 178 184 191 193 199 204 209 204 198 194 192 196 200 200 194 185 177 174 165 154 135 104 79 59 45 32 48 79 119 146 168 181 180 183 192 206 219 227 226 216 195 189 188 181 183 187 194 204 209 205 194 184 177 170 166 161 158 157 162 163 158 146 143 139 133 129 127 126 125 119 112 108 107 119 122 125 134 133 129 125 127 128 130 134 125 129 139 146 144 140 132 121 116 115 115 106 93 82 90 110 125 135 156 182 204 218 212 219 232 242 205 150 90 84 89 89 71 72 68 60 48 43 45 52 59 60 57 51 52 52 51 53 58 62 60 53 48 47 51 52 52 53 56 54 55 57 57 60 65 69 70 71 73 75 76 77 77 79 81 84 85 201 255 255
253 255 213 117 108 108 108 98 98 93 85 83 81 80 80 82 84 86 87 87 87 89 91 104 110 107 97 91 82 64 45 35 36 62 91 108 105 110 85 55 55 115 163 187 168 146 104 34 15 8 8 14 30 42 46 50 65 90 125 107 73 41 41 46 44 35 40 44 46 43 43 47 51 49 47 49 52 45 37 36 47 63 70 73 87 116 140 157 168 174 179 183 186 189 192 194 195 197 201 197 194 192 187 190 196 203 201 197 190 180 161 143 125 100 87 76 64 41 47 71 111 145 171 184 182 187 195 205 211 219 222 217 208 208 204 186 179 182 192 206 208 199 182 172 167 164 163 158 154 155 165 164 155 137 136 131 129 133 135 133 128 121 115 111 108 117 122 126 133 133 129 123 126 130 133 133 127 132 143 154 167 168 154 128 117 114 119 110 102 98 110 128 142 152 169 190 209 220 219 220 224 235 217 181 137 142 150 147 123 95 75 62 50 46 46 51 55 54 49 41 50 56 58 54 55 56 56 59 53 48 49 49 50 52 55 55 56 58 60 61 65 70 71 71 73 74 75 75 75 76 78 80 82 201 255 255
253 255 212 118 109 106 103 98 97 93 86 83 79 77 75 78 81 85 87 88 90 93 96 104 107 105 98 90 77 57 43 39 46 67 92 108 110 110 79 48 57 104 151 187 177 151 105 37 14 7 9 11 26 42 53 57 69 91 123 113 79 40 30 38 39 31 37 44 48 45 45 49 52 49 46 48 51 44 38 37 49 61 69 75 89 115 139 159 164 171 180 187 187 188 190 191 189 188 191 191 194 195 189 190 196 203 201 195 183 164 139 128 122 111 109 105 94 60 51 66 108 146 172 185 184 188 195 204 206 214 220 223 217 215 210 189 177 179 192 205 202 189 170 164 161 160 161 156 154 156 165 162 152 134 134 132 130 125 128 131 132 126 119 114 110 115 121 127 129 131 129 124 124 128 130 128 128 141 158 170 187 190 176 144 125 115 117 110 110 116 133 148 160 170 181 195 207 212 216 210 203 210 208 195 176 183 192 194 180 147 126 113 102 95 90 86 80 70 57 44 47 54 59 52 51 50 49 57 53 48 49 51 53 54 57 57 57 56 62 62 63 69 70 70 71 72 73 73 74 75 77 79 81 201 255 255
252 253 211 119 111 104 98 98 95 92 87 81 77 74 72 75 78 81 83 86 91 95 100 104 104 103 99 90 76 55 43 44 54 70 88 105 119 108 72 41 62 92 134 181 188 160 110 40 14 10 15 12 22 39 58 61 74 94 122 114 77 34 18 33 38 29 36 43 47 44 46 50 55 52 49 47 48 42 40 43 52 60 67 75 89 111 136 158 159 165 175 184 184 184 185 186 182 181 183 186 194 199 195 197 201 201 190 179 160 134 109 110 122 130 140 139 123 77 56 65 108 149 175 186 186 188 195 205 207 212 220 229 220 218 211 190 177 179 192 200 193 178 162 160 159 158 158 155 155 158 164 159 150 136 136 137 132 117 120 127 134 130 121 114 110 111 119 128 126 126 128 128 126 127 126 120 129 151 175 185 200 203 193 162 134 115 112 106 114 131 155 166 175 186 191 197 201 201 204 192 175 176 188 197 201 202 209 216 216 194 180 171 163 158 152 144 132 112 87 62 51 51 55 50 48 45 43 52 53 52 51 53 54 54 59 58 57 55 62 62 61 68 69 69 70 70 71 72 74 76 78 80 82 200 255 255
253 254 212 122 116 106 97 98 92 88 84 79 78 79 81 84 83 80 77 78 82 87 95 102 105 105 101 93 82 62 46 41 46 66 80 99 129 112 75 47 72 81 113 166 187 160 107 35 14 15 22 15 13 32 64 63 76 96 118 109 75 35 19 39 45 34 40 41 41 37 41 52 61 60 51 48 50 45 43 45 52 62 70 79 93 112 131 148 150 153 159 170 178 181 182 181 179 180 182 183 191 199 200 213 211 193 162 140 118 95 73 88 119 151 175 170 137 78 55 65 105 151 180 192 190 188 196 211 219 220 222 227 220 218 212 193 178 179 190 192 182 169 157 162 162 159 154 152 153 156 159 158 155 150 144 137 128 121 125 127 128 125 115 107 102 107 116 128 128 121 122 130 140 138 126 109 132 156 177 188 194 198 199 175 139 111 103 95 113 142 164 173 181 190 192 195 195 194 181 162 144 145 166 186 200 189 186 188 194 193 187 182 185 195 206 214 216 196 161 112 73 53 47 50 50 49 48 51 61 66 58 44 39 44 59 59 56 54 61 61 59 66 69 70 70 71 72 74 75 78 81 83 84 201 255 255
252 254 212 118 115 107 100 101 94 89 85 76 75 76 80 85 85 82 77 77 80 85 94 99 104 109 105 95 81 66 54 46 46 74 85 101 130 103 78 65 83 67 82 128 170 164 118 35 7 7 21 23 15 32 68 65 77 96 115 112 82 45 23 38 43 34 38 40 40 35 40 51 62 62 53 49 51 51 47 47 56 71 79 85 103 122 134 137 139 141 146 157 169 175 177 177 179 183 185 183 190 197 199 207 197 175 154 137 113 78 61 76 108 147 177 182 160 113 84 79 98 137 171 192 196 186 186 197 210 213 218 225 222 222 218 201 187 185 193 192 182 169 159 166 164 158 153 154 155 155 153 150 149 149 142 134 125 123 127 129 128 123 114 107 101 110 121 131 129 123 127 140 146 134 115 97 129 154 173 187 184 184 187 166 126 95 89 93 113 140 165 182 194 202 199 190 182 176 156 146 144 147 158 168 174 169 168 168 172 185 186 182 188 200 212 223 237 228 204 164 96 51 30 45 64 81 93 100 117 128 116 71 47 44 60 60 55 51 59 62 62 64 68 69 70 71 73 75 77 79 82 83 84 202 255 255
251 254 211 116 114 108 101 103 96 91 87 77 74 73 75 82 84 84 79 79 82 88 95 97 101 111 109 96 79 69 64 57 55 87 94 102 122 92 82 85 90 56 54 88 146 163 132 48 7 2 17 29 18 29 61 63 77 97 116 119 93 55 26 33 37 32 37 42 43 38 41 50 59 60 53 49 51 56 49 48 64 82 89 93 114 133 139 130 132 132 136 146 160 168 172 175 181 185 188 187 191 194 193 190 175 159 157 150 123 74 60 70 94 130 159 173 169 141 110 92 89 119 153 181 192 182 181 189 199 203 209 220 221 224 223 210 197 194 196 193 183 171 162 169 166 158 155 158 158 155 146 140 139 142 135 129 124 124 128 131 130 122 116 110 105 114 125 134 129 126 134 148 140 118 97 89 125 151 169 181 168 160 159 140 104 78 76 97 118 141 167 190 204 210 202 182 165 155 140 142 152 154 153 152 151 158 162 164 164 181 185 184 191 197 204 211 228 232 226 206 123 65 36 58 92 121 143 150 170 184 175 107 63 47 59 59 54 47 56 62 64 62 65 67 69 71 74 76 79 81 82 83 83 201 255 255
250 253 210 117 114 107 100 101 96 93 90 81 75 72 71 77 80 84 83 85 89 94 99 95 96 109 110 95 76 71 76 74 72 104 104 100 104 78 88 105 92 48 31 49 117 157 147 78 22 3 12 31 22 25 42 57 76 99 120 129 105 64 27 27 29 30 38 48 51 45 43 47 54 55 52 49 50 57 50 51 75 94 99 101 124 144 146 129 129 129 132 138 150 160 168 175 182 187 189 192 193 189 181 166 151 147 170 173 141 79 67 68 79 101 122 143 157 151 126 100 81 98 129 158 173 175 182 192 192 190 196 212 216 222 225 219 211 204 200 195 184 173 164 170 166 159 159 164 163 156 139 129 125 128 123 123 122 122 127 131 132 124 119 116 114 118 128 136 128 130 141 151 123 90 74 84 120 147 166 171 145 125 114 98 74 60 66 108 131 147 171 193 208 211 197 170 147 136 138 150 163 162 149 139 137 158 171 177 175 183 188 190 196 193 189 185 198 214 228 235 155 100 74 95 134 167 188 192 208 223 224 144 85 52 55 58 54 44 54 62 65 61 62 65 68 71 75 78 80 82 82 82 82 200 254 254
251 253 211 120 115 106 98 98 94 93 92 85 81 77 75 78 80 83 84 87 89 92 97 93 93 102 104 94 80 78 86 91 94 117 113 102 92 83 99 113 82 47 29 36 87 130 146 124 66 31 16 19 19 22 28 45 65 89 112 128 111 74 31 28 31 35 43 49 51 44 42 46 53 54 51 49 50 53 51 59 83 98 104 111 132 149 151 136 127 125 126 129 141 153 165 173 178 183 187 195 192 181 166 159 153 154 168 161 125 64 54 55 63 73 85 95 99 98 94 85 74 89 109 129 145 163 181 194 188 184 189 202 202 210 218 219 216 209 199 190 176 165 161 166 163 159 162 167 164 154 136 126 123 128 122 120 119 122 127 130 130 123 118 115 118 118 128 138 135 137 140 138 101 71 62 83 115 144 162 152 124 99 80 61 54 59 79 124 153 172 186 192 194 189 170 151 140 140 150 152 148 143 142 150 167 185 196 202 202 191 188 191 193 190 183 178 187 202 217 224 178 154 149 156 173 185 190 192 199 208 215 146 87 48 46 52 51 44 53 58 61 63 63 65 68 71 76 79 82 83 83 83 83 200 254 254
252 253 211 120 114 106 98 100 96 94 91 86 82 79 77 78 80 82 83 85 87 89 93 90 90 97 100 94 85 83 92 102 112 133 129 113 94 92 106 110 65 41 28 29 61 102 138 158 105 58 23 9 17 23 25 34 50 69 91 118 113 82 36 30 33 40 41 44 44 39 40 46 54 54 51 51 56 52 54 65 86 98 108 118 140 154 154 138 120 115 116 120 135 151 165 171 176 181 185 193 186 171 156 161 165 169 169 151 111 52 45 43 45 47 51 52 51 55 66 70 68 84 97 111 128 146 158 163 163 171 182 194 191 203 217 222 217 208 198 186 172 162 161 164 161 157 159 164 161 151 134 125 125 133 126 120 118 126 131 131 128 121 116 113 117 119 130 142 144 142 134 118 82 61 60 84 108 135 151 135 115 93 68 42 48 72 106 141 168 186 195 193 184 169 144 135 139 155 159 151 141 139 152 172 195 207 213 216 215 195 186 184 183 176 168 163 173 188 199 201 186 188 198 194 192 188 182 192 196 200 207 144 87 45 42 49 51 48 52 53 56 64 64 65 68 71 76 79 81 83 83 83 82 201 255 255
253 254 211 118 113 106 101 103 98 94 89 84 81 78 77 78 79 80 80 82 85 88 91 89 89 94 98 96 91 87 95 109 126 147 141 123 99 98 104 98 47 33 26 25 38 75 121 169 129 80 32 4 17 27 28 26 32 45 63 100 106 85 38 31 35 44 37 36 36 34 39 47 55 55 52 55 63 53 57 69 85 98 110 124 149 160 156 137 111 104 105 112 132 150 165 170 176 181 184 186 176 162 149 168 181 186 174 148 106 52 47 40 34 32 28 22 17 25 43 55 60 79 89 99 118 126 124 120 132 155 174 180 180 196 217 225 215 205 196 184 171 163 165 163 159 155 154 157 155 148 133 127 129 138 130 123 120 132 136 134 128 120 115 112 114 122 134 145 149 140 121 95 66 57 63 85 100 123 139 121 111 94 69 36 54 91 136 157 177 193 198 191 175 152 124 123 140 168 162 152 143 149 172 194 212 219 219 216 214 194 182 175 169 160 150 146 159 174 182 178 186 205 223 213 200 186 175 193 196 195 197 136 83 44 41 48 53 53 53 50 52 64 63 64 66 70 74 77 79 81 81 81 81 201 255 255
253 254 211 117 114 108 103 104 97 92 87 81 78 75 74 76 78 79 79 82 87 92 92 90 90 93 100 101 97 88 95 111 133 149 135 113 91 87 87 79 39 28 21 17 26 54 92 133 115 80 40 14 20 26 27 20 23 30 39 70 79 67 31 27 33 42 32 32 35 36 41 47 53 52 52 57 67 53 56 68 83 98 113 130 157 164 155 132 106 98 99 108 128 147 162 170 177 183 185 174 167 161 153 176 193 200 188 166 131 87 79 63 49 45 33 22 15 23 35 44 48 67 76 86 105 105 99 95 121 148 159 152 162 186 212 224 211 200 193 183 173 167 169 162 158 153 149 149 148 145 136 130 128 131 130 126 124 132 138 136 130 122 120 118 117 129 136 138 134 118 96 72 55 54 61 74 89 112 130 120 109 91 66 39 63 107 156 168 180 189 192 181 163 140 122 122 136 160 157 159 165 180 196 204 204 207 206 203 199 189 176 164 159 152 145 141 155 169 178 175 188 203 216 213 203 192 183 195 195 186 172 117 75 49 49 53 56 57 55 50 50 63 61 61 64 67 71 74 76 78 79 79 79 200 255 255
252 253 211 119 116 109 101 100 92 88 84 78 76 75 76 79 81 82 81 84 89 92 92 91 91 94 100 102 99 89 96 115 137 134 107 81 65 61 62 62 50 35 22 13 24 40 57 75 83 74 54 38 28 20 15 15 22 29 28 38 40 34 21 24 30 35 30 35 40 43 44 46 49 49 51 56 61 47 55 70 83 96 114 137 163 162 149 128 108 102 105 111 123 139 156 168 175 181 185 161 162 169 166 182 195 200 191 178 161 139 122 103 90 87 69 47 24 20 24 29 34 47 53 61 82 95 106 119 155 167 152 115 136 167 197 213 206 198 190 178 172 168 166 157 154 153 151 148 147 146 142 133 124 118 126 130 128 122 131 135 133 124 126 128 125 135 133 121 105 84 66 56 53 51 49 45 74 106 129 131 105 76 50 39 63 105 156 174 188 193 186 158 136 124 132 131 130 128 146 164 183 199 202 198 191 190 191 191 191 174 153 136 137 145 152 156 166 175 181 182 190 196 202 214 213 208 202 196 180 150 105 71 54 51 54 57 55 52 56 54 52 60 60 60 62 66 69 72 75 77 78 79 80 200 255 255
252 253 210 118 115 107 98 96 90 87 85 79 76 76 78 81 83 83 82 84 89 92 94 94 95 96 100 103 102 95 105 124 143 113 78 50 36 36 42 52 62 46 28 14 20 28 33 35 54 60 56 49 30 17 12 16 26 32 24 16 12 12 16 24 28 28 32 41 48 51 48 44 43 44 49 52 54 44 55 71 80 92 114 142 164 155 140 123 108 104 107 111 120 135 152 165 168 172 177 156 166 179 175 180 186 189 187 182 177 174 156 140 130 130 109 79 47 33 27 26 28 33 38 51 81 109 134 160 195 191 154 96 122 152 180 203 204 198 186 173 167 164 161 153 152 154 152 149 146 144 140 133 123 114 124 129 128 116 126 133 132 114 124 135 132 137 123 98 73 57 50 52 52 45 37 30 77 117 142 143 101 63 38 38 55 87 134 162 183 190 170 129 106 108 131 127 112 89 128 164 193 208 200 190 184 182 180 177 175 144 120 108 125 147 163 171 175 178 182 188 192 193 197 217 222 223 220 205 177 131 62 41 40 51 55 56 52 44 55 56 55 57 59 61 63 67 70 72 75 77 78 79 81 200 255 255
254 255 210 113 110 103 94 95 91 90 90 83 80 78 78 80 81 80 80 82 87 91 99 100 101 101 102 105 107 110 124 142 150 89 52 28 9 13 30 52 71 57 39 20 11 17 25 29 36 40 39 36 24 18 20 23 32 34 21 5 1 7 21 28 28 25 39 50 58 61 53 43 36 37 44 49 51 49 60 71 73 87 114 144 156 143 128 115 104 99 101 107 119 136 153 161 155 153 159 162 180 191 178 169 166 167 178 176 176 182 175 168 165 166 144 115 86 67 53 42 35 29 38 64 111 153 184 209 231 212 166 103 126 145 166 198 206 200 183 170 161 157 157 155 154 153 152 149 144 137 129 126 123 124 125 125 125 120 129 134 127 90 110 134 137 131 105 70 39 43 54 63 49 35 29 36 105 151 172 155 99 56 35 35 36 50 85 126 160 174 142 96 80 95 114 103 79 47 104 155 194 207 191 183 187 186 174 158 143 96 79 90 132 163 179 180 178 176 179 191 194 197 203 222 227 231 234 227 194 140 67 42 39 50 49 52 47 36 49 56 57 56 61 64 67 70 72 74 75 76 77 79 81 200 255 255
255 255 210 115 111 105 99 94 91 90 89 88 85 80 76 74 75 77 80 84 89 93 97 99 98 94 92 97 108 124 129 128 113 54 31 18 7 11 22 32 37 42 42 34 17 17 22 24 22 22 22 22 20 18 19 22 25 24 16 8 9 15 24 26 26 27 39 47 53 54 49 43 39 37 39 44 51 58 65 70 72 93 118 142 149 135 118 103 95 89 88 96 113 136 158 168 158 149 148 168 178 174 147 145 149 157 177 171 164 167 174 172 168 169 152 132 112 99 81 72 72 74 87 113 151 177 195 209 223 211 185 150 141 147 164 187 190 184 172 170 165 160 154 151 150 150 151 149 145 137 130 125 122 121 118 119 123 126 141 142 125 95 121 149 152 125 82 40 19 40 57 62 39 33 48 86 141 173 176 138 86 53 41 39 35 36 45 67 88 104 100 91 91 96 90 75 62 52 92 141 188 209 200 190 181 164 128 92 66 69 95 136 183 179 162 145 157 169 180 192 205 208 207 210 214 219 225 233 225 203 170 106 65 47 41 42 44 44 43 49 56 58 62 65 69 71 74 74 75 76 77 79 81 200 255 255
255 255 210 114 111 105 98 93 90 88 86 85 83 80 76 74 75 78 82 86 89 93 94 97 99 95 91 98 112 130 121 102 71 25 13 12 11 13 15 15 14 26 33 31 17 15 16 14 11 11 13 15 14 13 13 19 20 21 20 17 17 18 21 23 25 27 35 42 49 51 49 46 43 41 40 43 49 57 63 68 74 94 118 139 141 129 115 105 99 94 92 97 111 130 148 156 148 143 145 169 175 163 129 136 150 165 181 164 151 154 172 174 169 166 153 144 139 133 115 108 116 118 130 151 180 196 203 207 214 211 202 184 162 162 173 186 182 173 163 166 168 163 153 148 147 147 148 147 143 137 131 125 121 119 114 118 126 128 141 138 121 113 139 162 165 127 77 31 11 35 55 62 39 43 73 129 164 185 182 139 87 54 43 40 35 33 35 45 60 76 87 93 94 88 68 53 46 50 70 108 152 177 174 160 136 103 69 46 42 83 123 157 183 157 129 116 150 173 187 189 199 197 188 186 190 196 203 220 229 230 221 143 83 47 47 50 57 67 54 49 51 59 61 63 67 70 73 73 74 75 76 78 80 200 255 255
254 255 209 111 109 102 93 93 87 84 84 80 80 79 78 77 78 80 84 86 88 90 89 95 99 98 96 102 113 123 100 68 30 5 3 10 18 16 11 6 4 12 17 18 13 11 8 3 3 7 12 14 10 6 4 13 17 20 27 26 24 19 16 19 22 26 30 37 46 51 50 48 46 46 46 46 45 51 57 65 74 92 114 133 132 122 114 113 106 105 105 107 115 124 130 131 132 137 145 164 168 156 122 136 158 179 186 158 141 148 171 175 167 158 150 154 165 164 147 144 160 158 163 175 196 207 207 203 207 212 213 206 184 182 189 192 182 168 157 161 169 166 150 147 146 145 144 142 140 135 131 126 122 119 114 121 129 128 134 127 115 137 158 172 175 138 89 43 13 29 48 60 45 60 100 160 176 191 190 155 102 65 48 46 43 44 51 59 71 85 98 97 89 73 52 39 36 43 46 66 96 119 120 104 69 30 16 26 60 122 150 153 145 108 85 90 145 179 194 186 186 176 162 159 163 168 174 192 212 227 232 163 100 59 69 76 88 104 81 58 47 59 59 61 65 68 71 72 73 75 76 78 80 200 255 255
251 254 210 112 111 102 92 93 87 85 87 83 83 82 81 79 80 83 86 87 87 86 85 90 95 98 97 96 93 84 59 32 7 5 6 10 17 18 18 18 14 9 3 0 6 6 4 1 0 5 12 19 15 6 0 14 16 18 24 30 31 24 13 12 17 23 28 38 48 53 49 44 42 46 49 47 43 52 55 60 68 84 104 122 121 112 108 109 101 108 117 124 130 127 116 108 121 134 139 149 156 150 121 134 156 177 183 159 147 159 176 174 162 148 146 160 180 178 163 163 185 181 178 180 188 199 203 205 208 211 211 208 198 199 205 202 187 170 156 159 166 162 145 147 147 144 141 138 135 132 130 128 125 121 121 123 126 128 124 113 104 151 166 174 181 157 119 73 24 20 32 53 58 80 118 168 178 191 198 183 141 105 80 76 77 82 94 115 131 138 126 97 73 57 48 40 37 40 38 39 43 49 48 38 21 7 28 67 119 154 149 120 92 56 42 57 119 160 184 190 183 170 156 150 148 146 144 157 177 196 207 177 136 102 120 133 145 157 131 84 50 63 63 65 68 71 74 76 77 79 81 82 84 201 255 255
251 253 211 115 113 106 97 94 89 87 88 85 83 80 78 76 77 81 85 86 86 85 85 87 90 92 92 84 70 49 28 13 5 10 11 11 10 16 22 27 25 20 12 5 12 12 9 5 1 3 8 17 17 11 4 17 17 14 17 24 28 27 18 15 18 27 33 42 49 51 43 39 37 41 44 46 49 59 61 63 67 80 96 110 108 98 92 90 90 102 118 132 143 137 118 103 118 127 123 128 138 139 116 121 133 149 165 154 153 169 179 172 157 146 148 165 186 175 159 161 189 194 194 193 188 193 200 207 207 205 204 207 205 204 204 201 185 168 155 162 163 155 138 142 144 143 141 138 134 131 131 130 127 123 126 123 120 130 120 105 99 155 171 178 189 173 137 86 26 13 23 50 70 96 128 168 181 194 202 199 178 157 138 129 124 124 130 147 154 146 116 80 57 49 45 39 35 36 34 31 27 25 19 11 5 23 61 103 142 146 122 84 57 32 22 34 80 116 144 168 160 149 139 136 132 127 122 131 148 163 169 174 159 139 156 169 178 181 156 99 55 65 66 67 69 72 74 75 76 77 80 82 84 201 255 255
252 253 211 116 114 108 100 94 90 87 88 85 82 78 75 73 74 78 81 83 85 87 89 89 88 86 82 70 50 24 10 5 9 14 15 12 7 15 21 28 31 32 30 25 27 25 20 12 5 4 5 13 17 16 11 20 18 13 12 18 24 26 22 20 23 31 38 44 47 47 39 35 34 37 41 45 52 66 70 71 72 80 91 101 99 88 80 76 84 100 119 135 150 142 117 96 110 115 103 112 126 131 112 109 110 119 145 148 153 169 175 163 148 142 149 167 184 168 149 153 184 196 202 203 192 188 194 204 205 201 201 207 210 205 200 199 186 169 157 163 159 150 136 138 141 142 140 138 134 132 131 130 127 125 129 123 120 131 115 101 102 159 175 184 197 186 147 89 24 10 22 54 83 109 135 163 181 194 202 205 203 198 188 175 163 157 158 162 156 138 99 64 45 42 41 39 38 42 39 34 26 19 13 10 16 54 95 127 145 123 90 55 40 26 19 22 46 70 95 124 117 110 104 103 99 95 92 104 122 137 140 166 171 166 178 187 190 186 162 103 56 63 65 66 68 70 71 72 72 74 77 80 82 200 255 255
252 254 210 111 112 106 98 94 88 85 84 82 79 77 75 73 73 73 74 79 85 91 96 93 88 81 71 55 35 13 7 8 14 15 16 15 12 16 18 21 30 41 51 57 50 45 38 27 15 9 4 7 14 17 17 20 19 16 14 18 21 22 22 23 28 35 39 42 44 43 39 36 36 38 41 45 52 68 80 86 83 84 89 96 95 85 77 75 90 107 123 135 151 138 106 78 91 95 84 106 123 128 112 104 96 96 130 140 146 155 162 149 134 135 147 163 175 158 138 141 173 185 198 206 199 184 183 192 201 203 206 210 213 206 198 198 189 175 161 158 154 148 140 140 140 141 139 138 135 133 130 128 127 128 128 126 126 133 108 100 116 167 182 192 206 196 150 85 20 14 33 68 96 119 139 156 175 186 194 200 211 217 215 200 186 176 175 159 143 122 88 59 41 35 34 39 49 64 60 48 33 22 24 35 54 94 122 135 131 94 62 40 41 37 30 22 27 33 42 58 53 48 45 44 41 41 45 72 99 121 130 159 174 180 185 185 181 172 148 94 52 58 61 63 64 66 67 67 68 70 74 77 80 199 255 255
251 254 209 109 111 104 95 95 88 85 86 87 85 83 81 78 74 73 73 79 85 91 95 90 81 68 51 33 18 10 12 15 18 18 22 26 30 33 36 38 42 52 67 79 71 65 59 49 34 24 17 13 15 16 15 18 17 17 17 23 25 23 20 21 24 30 34 38 41 42 40 39 41 46 48 47 45 68 89 100 94 90 90 94 94 85 76 70 85 104 122 134 149 130 89 54 70 75 63 96 115 122 114 106 92 83 113 126 129 126 137 124 109 115 132 146 153 144 128 132 158 167 180 191 191 176 172 181 196 202 205 207 208 205 202 202 197 184 167 150 148 149 150 146 142 139 137 138 137 135 130 128 129 132 129 133 135 127 102 104 134 169 183 192 203 186 136 74 21 25 50 86 110 124 137 149 167 176 183 196 207 208 200 189 183 179 176 163 153 142 119 92 69 54 58 76 98 119 111 85 54 36 53 85 126 152 155 140 110 68 47 44 60 54 37 18 16 14 16 23 24 22 19 15 17 24 37 78 117 152 176 189 196 196 187 175 164 156 129 86 54 60 64 67 68 70 71 71 73 75 79 82 86 200 253 253
252 254 209 111 113 106 98 95 89 86 86 86 84 83 82 80 77 75 74 80 85 91 91 83 71 54 35 20 11 12 18 22 23 23 29 38 50 56 62 66 69 73 83 93 88 82 75 64 52 43 34 24 17 14 14 13 14 18 21 25 25 22 22 22 24 26 31 35 39 41 41 42 45 51 53 49 44 66 92 108 104 95 92 92 88 76 63 54 73 95 115 131 149 129 85 43 54 57 45 73 95 109 115 108 86 68 90 103 106 100 112 100 87 96 116 127 129 125 116 122 145 157 172 183 184 172 170 177 188 192 194 198 202 204 204 204 199 185 164 145 145 150 152 146 142 138 137 138 137 135 132 132 134 136 130 138 140 117 96 109 148 171 182 189 193 165 113 57 20 31 61 100 121 128 134 144 163 171 177 195 202 199 190 185 183 180 175 167 162 156 143 122 104 92 105 125 144 154 138 111 82 70 90 121 157 177 167 138 93 56 38 37 53 49 35 18 11 5 2 5 7 7 6 15 32 51 72 111 148 179 197 200 203 201 181 157 140 131 105 76 57 61 65 68 69 71 72 72 73 76 80 83 87 201 254 254
255 254 210 117 116 112 106 95 91 87 84 83 80 79 79 81 80 79 78 82 86 90 82 71 56 38 23 15 13 18 26 31 33 31 39 52 70 80 90 97 100 96 95 98 97 94 87 76 73 66 54 38 21 13 14 8 12 19 25 23 22 21 25 25 25 23 30 35 38 41 41 44 48 54 55 52 49 63 89 109 113 100 95 92 81 63 46 36 58 82 104 125 147 131 88 41 42 41 31 42 65 90 111 106 80 52 63 73 77 75 85 75 67 79 96 101 98 97 99 111 132 150 167 177 175 169 170 175 177 177 178 184 196 201 203 205 198 181 157 145 146 149 150 143 140 139 138 138 137 135 134 137 138 138 132 141 141 104 91 113 159 173 181 182 176 135 83 37 20 37 68 107 128 129 130 141 162 170 177 196 199 193 184 185 183 178 172 174 172 167 160 150 142 140 160 176 182 172 148 128 115 114 128 143 158 176 165 133 85 59 39 26 30 30 27 20 10 2 0 3 5 7 15 44 77 108 135 160 184 199 195 195 196 192 164 131 109 100 78 65 59 62 65 67 68 70 71 71 71 74 78 81 85 202 255 255
255 254 211 123 119 116 110 93 91 89 86 85 81 78 76 78 80 82 84 86 89 88 72 52 32 15 16 21 27 28 34 44 54 46 55 70 90 103 106 104 100 94 88 82 83 90 98 105 102 89 69 46 32 25 21 13 14 19 23 20 20 21 24 24 24 23 30 35 39 45 46 46 46 45 48 53 60 60 79 99 110 105 104 101 86 63 49 46 63 79 96 118 136 123 86 37 24 21 21 22 39 63 84 90 74 49 44 45 46 46 52 53 55 64 56 46 37 43 67 93 114 131 145 155 157 156 158 162 162 165 170 178 187 189 191 198 193 180 164 150 143 141 144 140 139 140 139 136 134 135 137 138 139 140 135 143 140 95 90 122 174 177 178 168 147 100 54 24 32 54 80 106 122 120 123 143 163 174 180 188 193 192 190 185 178 170 162 183 188 183 179 174 172 173 183 191 190 177 153 142 139 138 141 145 152 169 163 141 104 80 58 38 24 21 20 18 4 0 4 18 35 54 77 109 137 160 178 189 194 192 177 180 177 165 131 100 81 75 62 59 62 65 66 68 69 71 71 72 73 75 79 82 86 202 255 255
255 253 210 121 115 111 106 90 90 90 91 90 88 83 79 77 80 84 89 86 80 70 54 36 19 8 15 23 32 38 46 56 65 53 56 67 84 104 112 111 102 96 87 77 81 92 105 118 110 96 78 61 49 35 20 16 15 16 19 21 24 26 25 22 20 21 31 36 39 44 45 44 43 43 46 50 55 56 70 88 102 104 107 106 93 69 52 44 52 69 88 112 124 114 85 42 23 20 27 28 37 49 62 68 62 48 40 40 40 40 42 46 50 53 40 28 20 26 46 67 86 104 117 126 128 132 139 147 154 163 173 184 182 181 184 190 187 177 164 150 144 142 144 138 137 138 137 135 135 136 138 138 138 137 139 141 131 94 109 144 185 178 170 152 124 80 46 33 60 81 95 107 118 116 120 141 156 168 177 180 184 183 180 175 171 165 156 182 191 193 196 195 192 191 193 195 192 180 160 151 146 145 146 152 162 170 160 142 116 93 76 59 36 19 10 7 5 18 38 66 95 122 146 164 177 189 196 198 191 181 171 168 153 129 94 72 62 62 56 58 63 66 68 69 70 72 72 73 74 77 81 84 87 202 255 255
254 252 209 118 110 106 102 88 90 92 93 93 93 89 83 79 81 85 90 80 65 47 36 25 17 13 21 29 38 48 57 65 69 59 56 59 72 95 109 114 104 97 87 77 82 94 107 117 104 92 80 72 61 42 21 21 18 15 16 23 28 30 27 21 18 19 31 36 39 41 42 41 41 43 44 46 47 53 65 79 96 105 109 109 99 78 58 43 42 59 82 107 116 108 84 49 30 28 40 42 42 43 46 51 52 50 45 46 48 48 45 48 51 48 39 32 29 32 41 52 65 83 97 106 107 110 116 128 145 161 176 187 177 176 179 183 179 171 161 149 147 146 146 137 135 135 136 136 136 136 138 138 137 135 143 136 118 94 125 160 187 173 155 130 99 65 46 48 87 103 109 110 122 120 122 135 148 161 173 176 179 177 171 166 164 161 153 176 188 196 208 208 204 199 197 196 193 184 165 156 150 149 151 158 168 165 153 138 124 100 83 66 38 15 3 6 24 54 88 122 153 177 193 196 198 200 201 198 183 168 159 145 121 90 62 51 50 55 56 59 64 66 68 70 70 72 73 73 75 77 81 85 88 202 254 254
253 252 208 116 108 106 103 91 92 92 90 90 92 90 87 84 86 87 86 68 46 26 22 22 24 30 36 42 49 59 64 67 66 66 58 54 61 81 98 109 105 96 86 80 81 93 101 100 86 77 72 72 60 45 30 30 23 16 13 22 29 31 29 23 19 20 29 34 39 41 40 40 40 40 40 40 41 53 62 74 93 109 114 111 105 89 70 48 42 56 78 104 114 108 86 52 37 41 58 58 50 43 39 43 50 57 59 63 67 69 60 57 57 51 49 53 58 63 60 59 63 78 93 105 108 95 91 99 132 157 171 175 171 173 177 174 168 162 156 150 149 148 143 137 135 135 135 135 136 136 138 139 137 134 146 128 102 88 127 159 172 156 128 96 67 54 49 60 105 113 115 117 138 136 129 127 144 157 170 181 183 178 169 163 157 153 151 167 180 194 207 209 205 200 198 196 194 187 165 157 158 159 162 163 161 149 139 132 129 100 70 40 11 1 6 28 68 111 148 174 189 195 196 195 194 196 198 194 175 151 129 103 76 53 41 41 47 54 59 62 64 66 67 69 70 72 72 72 73 75 80 83 86 201 254 254
251 251 210 122 114 114 112 98 98 95 90 91 93 94 92 87 83 77 69 51 34 20 21 30 39 45 47 50 54 61 66 68 69 77 71 65 65 75 88 101 106 99 93 88 77 82 86 84 80 76 73 70 58 47 40 33 26 20 15 18 22 25 27 26 24 23 28 32 37 40 39 39 38 35 35 38 43 50 55 67 87 105 111 109 105 94 76 53 50 58 78 107 123 118 94 61 52 58 73 71 65 59 53 55 59 64 71 77 85 90 78 68 61 55 59 65 71 74 70 66 64 76 93 105 105 82 69 71 100 123 135 134 155 165 170 171 167 161 154 149 146 142 140 138 137 136 135 134 133 133 137 140 142 142 150 120 88 95 136 162 167 151 118 87 67 64 62 69 103 109 115 126 151 147 133 122 147 160 168 182 183 179 173 166 157 153 157 162 175 189 198 197 194 192 192 189 185 180 160 158 164 170 173 168 158 147 137 128 119 76 38 10 1 21 50 85 127 164 191 202 201 196 190 190 187 185 180 167 145 116 83 61 49 45 46 51 55 58 62 63 65 68 68 69 70 72 72 71 71 73 77 80 83 200 254 254
252 253 213 126 119 118 117 103 103 101 97 97 98 97 93 83 73 61 51 39 29 23 26 37 47 52 50 50 54 62 69 72 73 84 82 78 73 76 86 98 109 105 102 98 79 75 76 77 82 83 82 78 65 56 47 34 27 21 16 16 19 23 27 28 26 25 26 30 36 39 38 38 35 32 33 37 44 44 46 55 75 91 100 102 104 97 79 54 50 56 74 108 131 128 106 77 72 76 85 82 79 76 72 71 70 73 81 87 93 99 86 73 63 57 63 68 70 68 66 64 62 74 91 104 106 85 68 62 78 96 108 110 147 161 165 168 167 161 154 148 143 139 139 140 139 137 134 132 131 131 135 139 144 146 147 106 71 96 137 160 162 145 112 85 74 75 76 81 101 109 119 134 153 145 130 120 149 160 164 174 176 175 172 167 161 159 163 158 169 185 192 192 191 190 187 181 175 170 160 161 166 173 176 173 165 156 140 120 101 52 21 11 29 67 102 131 159 186 204 208 202 193 185 183 175 164 150 128 105 81 55 42 40 47 54 58 60 59 61 62 65 70 70 70 71 73 73 72 72 73 77 80 83 200 254 254
252 255 216 129 121 119 117 106 108 109 106 106 104 99 90 72 55 42 34 32 32 32 34 42 50 51 46 45 49 60 72 77 77 87 91 90 85 81 88 100 112 112 112 108 87 76 73 79 88 94 95 90 79 68 54 35 26 21 16 17 20 24 28 29 27 25 24 28 34 38 38 36 33 30 33 39 45 39 36 43 61 72 83 92 102 98 80 53 45 49 69 109 137 137 118 98 96 96 94 90 91 93 91 88 85 85 92 95 97 98 89 76 65 60 65 66 63 54 56 59 61 77 93 105 112 101 85 70 68 80 93 107 147 161 163 166 166 162 154 148 142 138 140 142 140 137 132 130 130 130 133 136 142 145 138 90 52 88 129 152 153 135 107 88 84 86 89 94 102 112 126 140 144 133 123 121 149 158 159 162 166 167 167 165 167 169 169 156 164 181 189 194 195 193 185 173 164 160 162 165 165 170 173 176 180 171 144 111 77 36 26 43 88 129 153 160 165 178 191 197 193 187 181 172 158 138 111 82 62 49 47 45 48 57 61 63 61 58 56 59 64 72 70 70 71 73 73 74 74 75 79 82 85 201 255 255
253 255 216 128 119 116 114 107 111 112 109 103 96 86 70 51 37 29 28 34 39 42 41 46 50 52 50 51 55 65 72 73 70 78 86 91 94 94 98 103 109 112 113 111 105 93 82 75 77 85 93 95 87 74 57 36 26 20 15 17 21 27 30 30 27 24 21 24 29 34 36 35 33 33 36 40 40 37 38 43 52 56 65 80 101 101 86 61 38 38 59 104 135 137 124 117 119 116 105 95 95 100 105 105 107 110 115 115 112 106 103 95 87 84 87 88 87 80 80 83 88 105 116 124 131 126 107 83 68 79 103 134 160 168 167 164 161 157 153 150 147 144 140 142 140 136 132 131 131 132 133 134 137 140 138 90 47 71 112 133 133 115 92 80 82 86 94 103 108 117 128 138 131 122 121 130 150 157 159 161 166 167 166 164 171 173 167 157 161 173 184 195 198 194 182 169 159 156 160 163 163 164 168 175 183 168 135 99 66 57 72 107 150 167 166 149 138 145 161 179 179 178 173 158 142 119 90 62 45 42 57 61 61 60 60 60 59 58 54 56 61 70 68 68 69 71 72 73 74 76 80 83 86 201 255 255
252 254 215 130 119 117 116 109 111 109 102 91 79 66 50 37 30 28 30 36 41 44 46 50 55 60 61 63 65 70 73 71 68 74 83 90 98 103 104 104 106 111 112 109 113 106 93 77 70 73 81 87 82 71 56 36 28 22 16 13 16 22 28 28 26 23 21 23 26 30 33 34 34 36 37 37 33 34 40 47 48 47 55 72 98 100 89 70 37 34 55 102 131 136 127 124 128 126 117 104 105 111 120 122 127 133 136 135 131 125 127 123 118 116 118 121 123 122 120 118 120 134 140 142 142 130 106 80 65 82 113 152 167 171 169 164 160 156 153 152 151 147 139 140 139 136 134 132 131 132 133 133 136 139 147 104 57 65 107 126 120 100 82 74 80 85 94 104 111 117 124 132 125 120 124 137 152 160 164 165 170 172 171 168 170 170 163 160 162 170 179 188 191 187 178 167 157 151 149 154 161 168 174 177 177 159 132 107 85 95 117 146 172 174 164 144 132 139 158 185 187 188 187 175 160 141 117 91 72 61 59 64 63 57 57 59 60 60 57 58 61 68 67 67 68 70 71 71 72 74 78 82 85 201 255 255
252 252 214 131 121 120 121 113 112 105 93 76 62 47 34 31 31 33 35 38 41 44 49 54 61 70 73 75 75 75 75 73 73 75 83 91 100 106 107 106 106 111 109 105 114 112 101 83 71 68 69 73 70 64 54 35 28 23 17 11 11 16 23 25 24 22 23 23 23 26 30 33 34 37 37 34 27 31 41 49 45 42 49 67 92 95 88 75 38 34 54 100 129 136 128 126 130 131 128 116 118 126 135 138 143 149 151 149 145 142 147 148 147 145 146 149 152 156 152 147 147 156 159 158 152 128 100 73 70 94 128 165 172 172 169 164 160 156 154 153 152 147 138 139 139 138 136 133 131 130 132 133 136 140 155 116 67 60 102 118 107 85 72 69 78 85 93 102 111 113 120 127 123 121 125 140 154 163 167 169 173 176 177 173 169 165 162 164 166 170 176 180 182 181 177 168 157 146 138 145 160 175 184 182 169 154 139 126 116 132 149 163 173 170 163 152 145 152 170 199 200 202 203 199 191 179 165 145 122 95 62 62 59 54 55 59 61 61 60 61 62 66 66 68 68 70 70 70 71 73 77 81 84 201 255 255
251 251 213 132 125 125 126 119 112 100 84 65 49 37 30 36 40 42 39 38 39 44 53 60 69 79 81 80 77 76 80 84 88 87 93 97 100 101 104 108 112 111 106 102 107 110 106 98 86 73 63 57 54 53 52 33 27 24 20 13 12 13 17 20 21 21 24 24 23 25 29 32 33 34 33 30 25 26 38 47 43 36 46 64 83 85 81 72 39 37 57 100 130 138 130 122 125 130 135 131 135 142 150 151 151 152 153 150 147 147 152 158 163 164 163 162 161 164 161 158 157 161 168 171 167 132 98 75 92 125 155 174 177 173 166 162 159 157 154 151 148 144 141 144 144 143 138 134 130 127 128 130 134 137 148 113 66 50 85 100 91 69 61 62 72 86 95 101 105 109 118 128 125 120 122 135 152 161 164 165 169 175 180 178 168 163 169 166 169 176 180 177 177 181 180 170 157 141 131 140 160 182 196 191 168 162 159 156 149 154 157 157 160 168 177 182 179 183 194 214 208 206 209 217 219 219 219 210 186 142 71 58 53 54 56 60 60 57 59 61 62 64 66 68 69 71 71 71 72 74 77 80 84 201 255 255
251 249 211 134 128 124 120 113 101 86 70 55 42 33 29 37 42 43 40 40 45 52 60 67 74 80 80 79 79 81 85 88 90 94 98 98 95 92 93 97 101 106 109 113 111 105 102 105 100 86 72 62 61 59 55 38 29 23 18 20 20 18 14 15 18 22 21 21 21 22 26 29 32 35 34 32 27 28 35 40 35 32 43 60 73 78 80 76 46 40 54 89 120 130 125 120 126 133 137 140 143 147 151 157 163 169 171 171 169 168 171 175 179 181 180 178 176 176 178 178 178 178 178 177 171 128 96 84 119 153 177 185 177 172 169 165 160 156 154 153 149 146 147 147 145 141 135 131 127 127 130 134 138 139 144 114 70 40 60 71 67 57 56 60 68 77 85 92 100 106 115 125 127 124 128 144 157 160 159 160 161 165 172 177 173 168 169 160 165 176 180 176 173 174 173 167 160 151 145 146 155 171 194 196 177 168 165 160 147 169 181 185 191 195 200 202 201 202 205 211 207 204 204 210 210 212 216 217 205 169 97 67 55 56 58 61 61 60 59 59 61 64 66 67 69 71 72 72 73 76 79 82 85 201 254 254
252 248 210 135 129 121 112 102 87 72 57 48 38 31 30 39 44 45 42 45 51 59 66 72 76 79 77 78 81 85 88 89 90 97 99 96 89 86 88 91 93 100 107 116 113 103 100 109 110 99 82 70 68 63 55 42 34 28 23 25 24 19 12 12 16 22 21 21 20 19 21 26 31 35 34 31 27 29 33 35 31 30 41 55 65 71 74 72 48 41 51 79 108 120 119 118 128 136 138 144 147 151 154 164 173 180 183 186 187 187 187 190 193 198 197 195 191 191 193 195 193 190 186 179 169 127 103 103 144 170 186 189 176 171 169 164 158 155 155 154 151 149 150 147 144 140 134 130 126 126 131 136 139 138 142 118 78 36 45 50 48 48 54 60 63 67 74 82 95 100 107 116 123 124 129 146 158 160 157 158 157 160 167 176 174 170 166 157 163 175 182 178 174 172 170 167 163 159 156 153 154 165 190 197 181 166 162 154 136 173 194 203 210 210 209 209 210 210 209 206 204 200 199 204 205 207 212 215 211 182 113 75 58 58 60 61 61 60 58 59 61 64 65 66 68 70 72 72 73 75 78 81 84 201 255 255
254 248 210 136 127 115 102 88 73 60 48 44 37 33 33 40 46 47 45 49 55 64 69 74 75 74 73 76 82 87 89 87 87 96 94 89 84 85 89 91 89 91 97 107 111 103 101 112 118 109 94 82 74 63 51 44 42 40 34 29 23 16 11 12 16 20 23 22 19 15 15 21 28 33 31 28 26 27 32 35 33 32 40 51 60 64 65 61 45 39 47 69 95 107 111 116 128 136 139 144 148 153 160 172 181 186 187 192 197 200 199 202 207 212 212 209 205 204 205 205 203 198 191 179 161 129 120 133 165 176 181 185 174 171 167 159 155 155 155 155 153 152 151 145 142 139 135 131 128 127 131 134 136 134 142 125 89 39 41 41 37 44 53 59 57 60 64 73 91 93 96 102 115 119 125 139 154 158 158 160 158 159 166 176 173 167 160 157 164 175 184 183 178 173 172 170 167 163 162 158 156 163 185 191 179 158 149 139 119 166 193 206 214 209 205 203 207 208 206 203 200 196 194 201 203 206 209 205 202 178 115 79 62 61 62 60 59 59 57 59 61 64 64 65 67 69 70 70 71 73 76 79 83 200 255 255
255 249 209 133 121 105 87 68 56 48 43 44 42 40 39 42 45 45 44 49 57 65 69 72 72 68 67 72 80 86 88 85 83 94 90 84 80 85 90 91 86 86 91 99 106 101 100 112 120 116 105 94 80 61 40 40 46 49 44 27 14 6 9 15 17 18 25 24 19 13 13 19 26 30 28 26 26 26 29 33 35 34 37 43 49 53 53 49 42 37 42 58 79 90 97 104 118 129 134 139 143 149 157 169 178 185 186 192 198 203 200 201 203 206 205 204 201 201 204 205 204 199 188 171 146 132 144 172 190 179 172 177 172 168 163 155 156 158 157 154 152 151 149 142 140 138 136 133 130 129 129 131 132 132 141 129 97 45 40 37 32 42 49 52 50 52 58 71 96 94 92 94 111 117 123 137 154 162 165 166 160 158 163 172 171 164 151 155 163 172 182 182 178 170 171 170 168 165 169 164 157 155 166 171 166 136 123 110 88 138 170 190 203 200 196 192 196 198 199 197 194 192 193 199 197 192 186 167 161 144 99 75 64 62 62 60 58 57 58 60 63 65 65 66 67 70 70 70 70 72 75 78 81 200 255 255
255 249 206 122 109 91 71 55 46 43 44 47 47 47 46 45 44 43 43 49 57 65 69 71 69 67 68 74 82 88 89 87 85 90 87 84 84 90 92 91 88 86 89 96 103 99 99 108 116 115 111 103 85 62 38 42 50 55 49 27 10 2 10 20 21 19 26 25 21 16 16 20 24 26 25 25 26 26 29 32 35 33 34 36 39 43 44 43 41 36 38 49 66 75 80 88 103 115 123 130 135 139 147 159 169 177 181 187 194 200 199 201 203 203 203 202 201 201 203 204 202 195 181 162 142 139 160 193 204 183 168 171 170 166 160 155 159 160 158 153 150 148 146 143 141 140 137 134 131 129 127 128 130 132 139 130 103 52 40 35 34 41 44 45 44 50 58 73 97 96 92 93 107 114 122 136 155 166 171 171 163 159 162 169 166 159 145 153 162 170 179 180 176 170 168 166 163 160 168 162 148 135 136 142 145 112 97 84 65 109 142 165 183 184 181 176 176 176 175 173 169 167 169 171 165 156 145 123 116 106 80 69 64 63 63 61 59 57 60 62 63 66 66 67 68 70 71 70 71 72 75 78 81 199 255 255
255 251 202 103 92 75 57 47 41 42 47 51 52 52 51 49 46 43 43 50 57 65 69 69 69 69 73 79 87 91 93 93 91 87 84 87 93 97 95 91 93 90 90 94 98 95 96 101 106 111 113 109 91 69 48 51 56 57 49 28 12 6 16 26 27 22 25 25 23 21 20 21 21 21 22 23 24 24 28 32 34 31 30 31 32 34 38 41 40 35 35 44 57 63 65 72 86 99 108 120 125 129 136 146 158 168 175 180 187 194 198 200 201 200 200 201 202 201 202 200 197 186 169 155 147 150 168 195 205 186 171 170 167 164 160 159 161 161 157 151 148 145 143 144 144 142 140 136 132 128 125 126 129 133 136 131 110 60 38 33 38 40 39 40 41 49 60 74 94 96 95 94 102 111 122 135 154 167 175 176 168 163 162 164 160 153 142 151 160 169 175 176 175 171 167 161 155 151 159 152 133 109 103 109 119 88 73 62 49 82 108 130 148 153 152 145 140 136 132 129 124 123 125 123 115 106 98 85 80 75 66 65 64 64 63 61 59 58 62 63 63 65 65 66 67 70 71 70 71 73 75 78 81 199 254 254
254 252 196 78 72 59 46 47 43 45 50 53 53 53 54 55 53 50 50 55 61 67 70 70 70 73 81 88 94 98 100 102 101 89 87 93 104 105 100 94 98 96 96 95 91 91 92 92 94 102 111 111 100 88 79 73 65 53 39 29 22 21 27 32 31 25 21 21 23 24 23 21 18 17 19 19 18 21 26 31 32 28 28 30 30 31 34 40 38 35 35 44 54 56 54 60 74 86 93 109 117 122 127 135 147 159 169 175 180 185 192 194 194 193 192 194 197 199 197 193 188 172 157 151 164 165 167 173 190 188 180 173 166 163 161 162 161 159 156 151 148 145 143 147 148 146 144 139 133 128 125 127 131 134 136 136 120 69 33 27 42 37 37 38 38 47 59 71 82 91 94 92 92 106 121 133 148 162 174 178 174 169 163 159 154 150 147 153 161 169 172 173 174 175 169 161 151 141 140 131 113 82 74 80 93 70 59 50 41 57 69 79 90 93 92 85 78 70 62 58 56 57 58 54 51 50 53 68 69 66 67 67 67 67 63 60 59 59 62 62 62 63 63 64 66 68 69 69 70 72 75 78 81 200 255 255
254 254 194 65 61 52 44 50 46 47 51 53 53 53 55 57 57 56 55 57 60 64 67 66 67 72 82 90 96 100 103 104 104 93 95 102 110 109 102 96 97 98 97 95 86 89 91 87 88 96 107 111 108 106 106 93 72 48 26 22 23 28 31 30 28 24 15 15 19 22 23 22 17 15 17 16 13 18 22 25 27 27 28 31 33 33 34 36 33 32 36 46 52 52 49 54 67 77 83 97 106 113 121 125 136 150 160 167 171 172 180 180 177 174 173 178 187 197 196 190 181 162 148 149 175 172 159 148 169 181 183 176 167 163 162 163 160 157 155 154 151 147 144 146 146 145 143 140 135 130 128 130 134 138 141 141 126 76 33 24 39 33 36 37 33 42 55 68 77 90 96 92 88 105 124 133 144 156 168 177 178 174 165 157 153 153 155 157 163 168 172 173 175 175 170 161 150 136 124 115 103 72 64 65 72 56 48 42 33 39 38 36 39 40 38 34 32 27 22 18 20 22 23 19 20 26 39 71 75 70 73 70 68 66 61 58 58 61 62 62 62 62 62 64 65 68 69 69 70 72 75 78 81 201 255 255
253 254 193 58 56 50 45 52 49 49 51 52 52 53 54 57 58 57 56 57 59 61 63 63 64 71 83 91 97 100 103 105 105 97 102 108 113 107 102 98 98 98 97 93 84 89 92 87 86 93 104 109 109 113 119 104 77 47 20 18 23 29 31 27 25 23 13 14 18 23 24 22 17 14 15 15 13 17 18 20 23 25 27 30 34 35 33 32 29 30 35 45 49 48 45 49 60 68 71 81 91 99 107 109 119 132 143 153 159 159 169 168 163 159 157 164 178 192 192 185 172 150 138 144 176 172 150 127 145 166 177 175 167 163 162 163 160 156 154 155 153 149 145 146 146 144 141 138 134 131 131 134 138 141 145 144 129 85 37 23 36 31 37 38 29 38 52 66 73 90 98 96 89 106 125 135 143 153 163 174 178 175 167 158 155 156 162 162 165 169 172 175 176 175 168 157 143 128 113 105 96 68 59 57 57 46 41 36 29 29 22 15 14 14 14 12 13 12 8 6 8 9 9 7 11 20 37 75 80 74 77 71 67 64 60 57 58 61 62 62 63 63 62 64 65 68 69 69 70 72 75 78 82 201 255 255
253 254 192 58 57 51 47 52 49 48 50 51 50 50 51 54 55 54 52 53 55 59 61 60 62 70 83 91 96 98 102 104 106 100 105 110 111 102 98 98 100 98 94 91 84 90 95 92 89 93 100 102 103 108 116 106 82 53 26 20 22 27 28 25 23 23 14 16 21 26 26 23 17 13 14 16 18 18 16 16 21 23 24 26 32 34 32 28 27 28 32 40 42 41 39 45 54 58 56 63 71 80 87 87 94 105 119 133 142 146 157 158 154 149 145 153 169 183 183 175 159 135 125 134 167 166 142 114 123 145 162 169 166 163 161 163 161 156 153 156 155 150 147 146 145 142 138 135 133 133 134 137 141 144 147 146 132 93 45 26 32 32 38 39 29 36 51 65 71 90 103 103 93 107 125 138 146 153 160 170 175 175 170 162 159 160 166 166 167 169 174 177 177 172 161 145 129 116 103 98 92 68 59 53 48 39 36 34 27 27 22 17 18 19 21 20 21 20 18 17 16 15 14 15 21 31 45 79 82 76 76 69 65 63 60 58 59 61 61 63 64 63 63 64 65 68 69 69 70 72 75 78 81 201 255 255
253 253 191 54 54 50 46 51 48 46 48 49 48 48 50 53 53 52 51 53 56 61 63 62 64 71 85 92 96 96 102 110 115 105 105 106 105 95 94 98 103 100 96 92 85 92 99 99 93 92 92 89 88 93 104 102 85 64 42 35 32 32 32 30 28 26 21 25 30 34 31 25 19 13 13 17 23 21 18 17 24 22 21 22 26 30 30 28 30 30 30 33 34 34 35 42 47 47 41 48 55 61 66 63 65 72 92 112 125 132 142 144 143 139 132 133 141 148 148 143 130 108 105 120 152 159 140 110 106 127 149 162 163 160 158 162 161 157 153 156 154 150 146 147 147 144 139 135 133 134 136 137 138 141 142 145 139 106 54 30 31 33 41 43 33 39 52 64 63 85 104 111 96 104 121 140 149 154 158 166 171 173 172 165 160 161 168 170 170 170 175 177 175 169 154 133 113 100 91 88 84 64 55 49 44 42 42 39 30 24 20 20 24 28 30 28 22 17 12 11 10 11 13 19 28 37 50 80 82 76 74 69 67 68 64 61 59 58 59 62 64 63 63 64 65 68 69 70 70 72 75 78 81 200 255 255
252 252 190 55 54 50 47 50 47 46 47 47 47 48 51 54 56 56 56 58 61 64 69 69 70 76 87 94 97 96 101 107 112 103 106 108 107 99 97 99 101 100 96 91 89 95 99 96 94 94 95 92 89 90 95 92 85 75 62 52 46 43 41 36 30 24 21 23 27 31 30 28 24 17 13 15 19 20 21 21 23 21 21 22 23 24 25 26 30 29 27 28 29 31 33 39 43 40 34 38 44 50 55 52 50 51 69 84 93 98 107 110 111 114 114 113 111 111 111 107 99 86 87 103 134 156 148 118 93 105 128 154 163 161 158 160 167 164 157 155 153 150 144 146 147 145 141 138 136 134 133 132 134 138 140 145 143 118 62 31 25 27 38 42 34 45 59 71 70 87 102 111 98 103 119 142 153 160 164 165 169 171 172 166 163 164 169 174 176 176 176 171 165 159 147 126 104 86 72 69 70 56 49 45 42 41 40 37 32 24 21 22 26 29 32 31 25 18 12 9 8 13 22 35 46 56 65 86 84 76 70 70 71 70 66 62 58 56 58 61 63 63 63 64 65 68 70 70 71 73 76 78 81 199 254 254
253 251 190 59 55 52 50 48 47 47 47 46 48 51 54 58 60 62 62 63 65 67 74 75 77 81 90 96 100 99 101 103 105 101 108 112 110 107 104 103 100 100 94 86 88 94 96 91 93 95 97 96 94 92 91 86 86 85 81 68 60 55 51 41 30 21 19 20 22 25 28 30 28 21 14 12 13 18 23 25 21 20 21 23 22 21 21 22 28 26 22 22 25 28 31 36 38 36 32 33 36 40 45 43 38 36 47 55 59 60 66 68 70 80 89 87 78 72 73 73 71 69 74 89 115 152 156 130 82 82 106 144 161 161 157 157 170 171 162 154 154 150 143 146 147 146 144 142 138 135 131 130 132 137 139 144 145 130 71 32 19 23 35 40 33 47 65 79 82 90 101 110 102 105 120 146 159 167 171 166 167 168 169 164 165 167 171 178 182 181 176 163 154 146 139 121 98 75 52 48 53 46 42 40 39 38 35 32 31 25 23 23 24 27 31 33 29 24 17 11 11 21 38 57 69 76 80 90 84 75 68 73 73 71 67 62 58 56 57 60 63 64 64 65 66 69 71 71 72 74 77 79 81 199 254 254
255 253 192 60 56 56 55 48 48 48 48 49 52 56 60 62 63 62 63 64 64 65 71 74 77 82 92 99 103 103 103 104 105 108 111 110 104 110 113 114 105 99 88 74 72 78 86 93 91 85 79 78 85 92 95 96 96 94 90 82 74 66 55 43 33 27 26 28 30 31 30 30 28 21 15 14 17 18 22 25 23 20 20 20 21 21 21 20 26 22 17 16 17 19 22 26 28 30 31 32 30 27 26 22 20 20 29 36 37 34 31 31 32 39 46 44 37 31 41 51 57 60 68 82 102 143 154 131 71 64 87 131 153 155 150 151 164 168 164 156 154 152 151 153 152 148 144 138 135 134 137 139 140 140 139 142 146 143 83 39 20 31 40 39 29 40 61 81 88 93 104 115 109 109 125 161 171 173 171 163 161 160 159 158 165 171 174 182 182 177 170 160 150 139 127 108 87 66 40 36 43 40 37 33 29 33 32 28 26 20 20 20 20 26 32 37 35 32 27 19 22 37 58 77 85 85 82 83 78 73 72 76 74 69 65 63 59 57 58 60 64 66 65 66 67 70 71 72 73 75 77 79 80 201 255 255
255 254 191 59 53 52 51 44 46 47 47 50 55 59 63 64 65 64 64 61 59 58 66 71 76 84 94 101 105 104 102 101 100 99 105 109 108 111 112 112 104 97 87 77 76 82 90 103 99 90 81 77 86 96 104 105 103 101 96 87 79 69 53 41 33 30 33 37 39 39 34 30 27 24 22 21 21 21 22 22 18 18 21 23 25 22 19 16 18 18 18 18 16 16 15 15 20 26 32 34 29 23 20 18 16 13 13 17 24 34 39 44 49 60 74 79 75 64 63 65 66 67 72 81 95 135 149 132 68 51 66 108 134 140 138 140 152 161 166 159 155 153 153 153 152 148 144 140 138 136 137 140 143 146 144 143 145 151 102 55 21 30 37 36 28 39 62 84 91 94 101 111 109 113 129 160 174 177 172 164 159 155 153 158 168 175 177 179 179 176 169 160 151 140 125 108 89 69 44 39 43 43 44 43 40 41 37 32 29 21 19 19 19 26 36 46 51 50 44 34 42 58 78 91 93 89 83 83 79 73 72 74 71 65 64 62 61 60 60 61 62 66 65 65 66 69 70 71 72 74 77 80 81 202 255 255
255 253 188 54 47 45 44 39 42 45 46 51 55 59 63 65 66 65 64 59 53 50 60 68 78 89 97 101 102 100 97 98 98 90 96 104 111 107 104 102 101 96 91 87 88 89 94 103 99 92 86 82 87 95 102 108 108 105 101 91 81 68 52 43 36 33 43 48 50 48 37 29 24 27 29 29 26 26 23 19 13 16 21 26 27 23 19 14 13 16 21 21 17 14 12 12 17 23 29 33 28 20 17 18 15 9 5 14 34 64 78 88 95 105 122 132 129 106 86 73 69 68 73 78 85 123 142 134 75 48 52 85 110 122 127 129 137 149 162 160 157 157 159 156 152 148 144 142 141 139 138 140 143 149 147 144 144 152 118 72 25 26 32 34 32 48 71 90 93 93 97 105 108 117 132 154 173 177 172 167 160 154 150 159 171 178 177 175 177 177 170 163 157 149 133 115 97 79 61 55 58 59 62 64 62 57 48 38 31 23 23 29 31 33 39 50 60 61 57 50 64 79 93 99 95 89 84 84 80 74 68 71 69 64 63 63 62 62 62 62 62 64 64 65 66 69 70 70 70 72 76 79 82 202 255 255
253 249 183 45 39 35 34 34 37 41 45 51 54 57 60 62 63 63 62 55 47 42 55 68 82 97 100 99 94 89 89 95 100 84 87 98 111 98 89 87 96 96 98 103 103 97 92 91 87 87 89 88 85 85 88 105 108 107 105 96 82 68 56 50 44 39 53 59 60 56 39 25 20 29 35 35 30 32 25 17 9 16 22 27 27 23 19 15 14 19 24 23 18 15 15 18 21 22 21 28 24 17 14 18 14 6 9 34 73 125 147 157 160 165 180 188 182 143 98 68 60 62 69 74 71 106 132 138 90 54 44 66 86 105 119 121 120 131 149 157 161 165 167 158 153 148 143 142 143 143 141 141 142 145 148 145 143 146 130 88 31 21 26 34 42 67 86 96 92 88 91 101 109 121 134 146 169 173 168 169 166 160 153 162 173 178 175 173 174 176 174 171 170 166 150 129 108 92 86 84 85 87 91 94 92 81 64 45 28 23 33 51 58 48 43 47 59 61 62 66 87 98 101 99 93 87 85 85 82 74 64 65 67 68 65 64 63 63 64 64 62 62 64 66 66 69 69 69 69 70 74 77 80 199 254 254
253 248 183 46 39 35 34 32 36 41 45 53 55 55 55 56 57 59 59 55 49 46 54 69 85 101 102 98 92 88 90 96 101 96 98 100 101 94 88 85 89 96 103 108 104 99 92 83 81 85 92 98 95 88 81 100 106 109 112 109 100 89 79 66 54 45 55 64 68 66 46 31 25 32 35 32 24 29 27 21 18 23 24 24 23 23 22 21 22 20 18 14 13 13 16 21 23 21 15 17 10 3 2 8 17 31 63 101 140 178 185 176 162 152 163 175 178 147 101 67 55 59 64 63 54 79 112 137 102 60 43 60 81 103 118 113 104 111 132 153 164 169 169 160 155 152 147 144 142 143 144 144 142 140 143 144 144 136 129 98 48 29 26 34 50 75 88 94 96 93 96 103 111 122 134 149 168 167 160 165 168 166 158 162 171 178 176 177 173 169 171 177 178 171 150 129 113 108 112 114 113 109 107 106 104 94 72 45 19 26 49 77 86 69 51 40 40 48 62 83 102 105 99 92 90 87 82 75 72 70 73 70 69 68 64 62 61 60 62 64 63 63 64 65 67 68 70 69 69 71 73 76 78 198 253 253
254 249 184 49 40 36 35 32 37 42 45 53 53 52 51 52 53 54 55 53 51 50 55 69 85 99 101 99 96 94 93 93 96 103 105 103 96 98 96 92 86 94 101 104 100 98 95 87 89 92 97 103 101 96 88 98 103 106 111 113 113 110 102 82 64 51 54 64 71 71 53 40 32 35 33 28 20 25 25 23 22 27 27 25 24 24 25 25 25 18 11 10 13 15 16 18 19 17 13 9 7 10 21 34 55 83 124 158 185 204 198 174 147 126 134 151 166 152 115 82 62 62 58 52 43 60 94 129 110 66 41 50 78 103 119 112 94 94 110 142 159 167 167 160 157 155 151 146 142 140 142 144 143 141 140 143 145 132 133 111 70 37 28 34 55 77 86 91 101 102 102 103 111 123 138 154 166 162 155 160 168 169 163 161 168 175 177 179 173 167 170 179 178 165 142 127 120 122 129 130 125 116 111 109 106 90 67 42 19 35 58 82 89 75 58 44 40 51 71 98 109 105 94 87 88 88 82 69 66 69 80 74 69 66 62 60 60 59 60 62 63 63 64 65 66 68 70 70 70 72 73 75 78 198 254 254
255 251 186 51 41 37 37 34 39 42 44 51 50 49 49 50 51 51 49 49 51 54 57 70 84 96 99 101 102 101 95 91 90 105 108 104 96 106 107 100 88 92 97 99 94 95 96 94 99 102 102 102 102 103 102 98 99 102 105 109 117 123 119 98 77 59 56 63 68 69 57 47 40 37 32 26 20 21 21 20 22 27 29 29 28 26 26 27 25 15 8 9 17 18 17 12 11 12 15 10 21 40 66 88 114 144 176 197 209 211 196 166 131 102 106 125 149 154 130 101 71 64 52 43 40 50 79 115 114 73 42 37 74 103 120 117 92 80 87 125 147 160 164 160 159 158 154 148 142 139 141 143 144 144 140 143 145 133 139 126 93 44 29 34 59 79 86 91 107 110 107 101 110 126 143 158 163 159 152 154 164 170 168 162 166 172 177 178 174 170 172 179 174 156 135 128 128 133 137 133 124 114 110 107 100 77 56 38 26 45 61 73 76 71 62 54 53 67 87 106 108 99 88 84 88 89 82 68 65 70 83 74 68 63 62 60 59 59 58 60 61 63 64 65 66 68 69 69 69 71 73 75 78 199 255 255
254 251 185 46 39 36 36 37 40 42 44 47 45 44 47 52 51 48 42 43 47 54 65 77 87 94 98 101 103 100 95 92 93 101 102 102 104 110 110 104 97 93 94 98 88 87 88 88 96 100 100 94 94 100 109 98 97 98 98 97 105 115 121 111 94 75 70 65 60 56 48 43 39 38 35 32 27 21 16 12 13 21 27 32 32 27 24 26 23 17 13 16 23 24 21 12 10 14 25 40 70 108 145 166 179 186 187 193 201 206 197 175 145 109 103 113 131 143 127 99 64 51 42 39 46 51 69 96 113 83 48 25 63 94 117 128 101 74 61 92 123 149 167 165 164 160 154 148 145 143 143 144 144 145 143 145 145 137 146 141 114 45 26 35 65 90 98 101 110 112 109 103 112 131 150 161 159 156 153 152 160 167 171 166 165 167 171 175 178 182 182 179 169 154 142 138 136 136 129 120 112 109 111 107 92 61 42 33 37 50 56 57 58 57 59 64 78 90 99 101 101 93 84 84 87 89 86 78 75 74 73 68 66 66 67 64 61 62 59 58 59 62 64 66 67 68 68 69 68 70 72 73 76 198 254 254
253 251 185 46 40 37 37 41 41 42 45 45 43 43 47 53 53 48 42 44 47 55 76 86 94 101 101 101 100 102 104 104 104 105 107 108 111 110 106 101 100 99 102 107 92 89 88 85 87 93 99 104 106 109 111 98 97 98 97 94 96 104 115 114 106 93 84 70 56 46 43 40 37 39 39 34 25 19 13 10 9 19 26 30 28 24 24 27 25 22 21 21 24 23 20 10 11 23 48 91 127 157 184 190 192 191 188 190 195 198 198 181 153 115 106 113 131 150 132 101 63 47 44 48 56 49 59 82 108 89 60 32 59 83 105 126 108 78 49 62 95 131 161 165 165 162 158 154 150 148 145 144 143 145 148 147 143 136 143 143 126 48 24 33 68 97 108 111 115 117 114 110 115 133 152 167 159 157 157 150 154 160 167 169 169 168 165 173 179 184 185 177 167 157 150 145 139 133 121 111 104 103 106 100 83 52 35 32 44 49 53 57 58 53 53 62 84 94 98 94 98 96 90 86 85 85 85 85 82 77 71 66 65 66 66 64 62 62 60 59 59 61 64 66 67 67 67 68 67 69 71 72 74 197 254 254
253 251 185 46 42 38 38 42 40 41 45 44 41 42 47 54 53 47 42 45 48 56 82 91 98 105 104 101 98 103 108 111 110 107 110 112 115 110 106 102 103 105 109 112 95 93 92 88 84 89 99 111 116 113 106 96 96 99 100 95 92 96 110 117 115 107 97 78 58 44 42 40 37 42 44 38 25 18 13 10 9 18 23 23 19 17 21 27 27 25 23 20 21 20 17 8 14 33 68 128 162 182 197 194 188 184 182 184 187 190 196 185 160 119 106 109 125 148 133 103 65 47 47 53 58 47 52 74 105 94 69 39 56 73 92 118 109 80 44 42 75 115 154 165 167 164 161 158 154 149 144 142 142 146 152 149 143 134 139 143 134 55 27 34 71 102 117 122 123 125 124 122 123 137 155 173 161 158 160 150 149 153 161 169 171 168 161 172 179 183 183 174 166 162 158 151 143 135 121 110 103 100 99 89 69 41 30 33 49 51 54 58 58 51 51 62 85 94 95 90 96 98 96 89 83 82 83 85 82 76 69 66 66 67 65 64 63 63 61 60 60 61 64 66 67 67 67 68 68 69 71 72 74 197 254 254
253 251 186 48 43 38 36 41 37 38 43 41 39 41 47 54 52 46 42 45 49 57 81 90 96 104 105 103 100 102 105 107 107 106 107 108 110 112 114 113 109 111 111 107 92 97 101 98 89 89 96 110 113 106 94 90 94 101 107 100 94 94 110 121 123 119 109 89 69 52 46 43 43 48 49 44 33 23 15 12 14 19 18 12 4 8 16 25 26 23 19 14 17 17 15 8 20 44 80 139 165 177 188 184 177 171 170 173 177 184 192 186 164 122 100 94 104 129 126 104 69 49 47 50 52 43 52 75 105 96 72 42 50 62 79 104 101 77 43 37 66 106 147 167 171 167 164 159 152 144 138 138 142 149 155 152 144 134 136 143 139 67 36 39 75 106 123 133 137 137 137 138 139 148 162 178 163 160 161 153 146 147 154 166 168 164 156 174 182 182 177 170 167 167 165 158 150 145 133 121 111 103 90 72 49 26 24 34 53 56 57 57 53 50 54 67 86 94 95 92 95 97 97 90 83 80 80 78 74 69 64 66 67 67 65 66 66 64 64 63 62 62 65 67 67 67 68 69 69 71 72 73 75 197 254 254
254 253 187 44 41 39 39 43 40 42 48 45 41 41 46 51 48 41 38 43 48 53 69 75 82 95 102 103 99 97 99 102 106 106 103 101 103 102 106 109 110 113 113 110 103 111 118 114 104 98 97 104 107 103 94 86 87 94 104 103 99 97 106 113 115 111 107 99 91 81 68 56 46 47 50 48 41 29 19 14 16 22 22 20 13 15 22 29 26 19 14 12 18 17 12 9 32 65 104 148 164 170 180 181 180 178 177 178 179 180 189 185 167 129 93 78 82 101 108 96 66 43 40 46 54 46 51 68 99 97 78 48 56 68 83 100 92 74 54 39 57 89 130 158 165 162 161 159 155 149 143 144 148 155 154 148 142 139 143 150 143 69 36 34 63 97 119 132 139 140 141 143 142 147 159 176 166 163 163 157 155 159 168 174 174 170 164 179 182 177 171 172 174 174 166 155 147 145 136 133 130 117 89 61 36 28 30 36 42 46 50 55 55 59 65 76 82 87 93 101 98 96 93 89 86 84 83 79 74 71 70 70 70 68 64 64 63 60 60 61 62 61 63 66 65 66 66 67 68 70 72 74 76 198 255 255
254 254 187 41 40 39 39 44 40 41 48 46 42 42 47 52 47 40 37 42 46 49 58 64 74 90 101 104 101 94 92 94 100 104 100 98 99 100 104 107 109 114 115 111 109 120 126 124 115 105 99 102 106 105 101 93 91 95 104 106 102 98 101 107 110 110 110 112 112 106 88 70 57 53 54 53 50 37 25 17 16 20 21 18 12 14 20 27 23 16 11 11 18 16 12 17 52 92 130 158 164 165 173 178 182 184 178 179 179 180 189 188 174 140 94 69 63 76 95 95 70 44 36 40 53 48 50 61 94 100 86 54 58 70 84 92 82 71 61 41 47 71 111 149 161 160 160 159 156 150 146 147 150 156 151 146 142 141 143 146 137 68 35 30 51 88 115 133 142 144 145 148 148 152 162 178 169 166 164 163 164 169 176 180 179 177 176 184 183 176 170 175 177 175 164 154 147 147 142 141 139 121 85 51 26 28 35 41 41 41 45 50 52 62 74 86 85 87 94 105 98 93 90 88 86 85 84 80 75 72 72 70 69 67 64 63 62 59 60 61 61 61 63 64 64 65 65 66 67 69 71 73 75 199 255 255
254 254 187 39 39 38 38 44 38 39 46 46 43 43 50 55 50 42 38 42 43 44 50 58 70 88 101 105 102 91 85 85 92 98 97 96 100 102 106 108 108 114 115 111 113 121 126 126 120 111 103 103 107 110 110 106 100 99 106 109 105 98 97 103 108 111 115 125 130 124 103 86 72 63 59 58 60 48 33 21 16 17 16 13 6 8 14 22 19 14 11 13 18 16 15 32 78 121 155 167 166 163 167 177 185 188 177 177 178 181 189 192 183 155 106 70 50 54 84 96 79 49 34 34 48 50 50 55 90 106 96 61 56 68 82 81 71 67 66 42 39 55 91 138 157 160 163 161 157 150 147 149 150 151 147 145 144 144 141 138 126 65 35 29 45 82 113 135 146 148 149 153 155 159 168 182 171 167 165 169 172 176 181 182 182 183 188 187 183 176 174 178 177 172 161 153 149 149 145 143 137 114 76 43 21 29 40 48 47 40 40 45 48 64 82 96 92 91 96 106 98 92 88 86 85 84 83 81 77 74 72 68 65 64 63 63 62 60 60 60 60 61 62 63 63 64 65 65 66 68 70 71 73 198 255 255
254 255 187 39 39 37 36 44 37 38 45 47 45 46 54 57 53 45 42 44 42 40 45 55 69 86 97 100 96 86 83 85 92 93 92 96 104 108 110 111 108 109 108 104 110 111 111 113 114 111 107 104 105 106 109 113 108 105 109 113 108 101 97 102 105 106 112 125 132 125 109 98 90 76 62 59 65 58 42 27 20 21 20 18 14 16 19 22 18 15 15 20 22 22 28 57 103 140 164 167 164 161 162 174 183 186 175 174 176 179 185 190 189 172 134 89 50 42 75 94 85 58 38 32 41 52 55 59 92 111 103 67 50 59 74 68 60 61 66 47 39 47 75 124 149 160 168 165 159 152 150 149 147 142 145 146 149 156 150 139 119 62 41 41 59 89 116 137 145 148 151 155 157 160 167 178 169 165 162 166 171 175 178 180 179 182 190 184 181 179 181 180 175 167 160 152 145 138 136 126 110 82 56 38 32 44 55 61 57 37 35 46 55 72 88 99 95 93 96 103 97 92 88 85 82 80 79 80 76 73 71 67 64 62 62 62 63 62 62 61 59 60 62 63 63 64 65 66 67 69 70 70 72 197 255 255
255 255 187 37 37 34 35 45 38 40 48 51 49 49 55 57 51 44 43 43 39 34 40 54 70 86 92 90 84 79 84 91 99 93 93 98 103 109 112 113 109 107 106 105 110 103 98 101 107 113 115 106 99 97 100 108 106 105 110 114 112 106 103 104 102 95 101 113 121 115 107 106 105 89 69 62 68 71 59 45 37 36 33 27 18 14 12 12 13 11 14 25 31 36 47 79 118 147 162 163 161 158 159 168 175 179 178 177 175 173 176 182 185 180 157 111 56 35 59 78 79 67 49 37 39 52 59 68 97 112 105 74 48 53 64 55 51 55 63 50 38 39 58 108 137 155 170 170 167 160 158 154 147 139 143 143 145 156 152 139 115 54 37 46 75 101 125 141 144 144 149 156 156 158 162 171 166 162 159 162 169 175 177 176 176 178 183 176 177 182 187 181 175 171 168 156 140 122 117 102 79 51 37 38 49 64 67 63 53 27 32 56 75 86 92 96 91 88 91 101 96 93 90 85 81 78 77 78 75 72 72 70 68 66 63 63 62 60 61 60 59 60 62 63 64 65 66 67 67 69 69 69 71 197 255 255
255 255 187 38 36 35 36 45 40 42 50 52 50 50 56 57 51 44 44 44 38 31 38 55 73 89 88 82 75 75 87 97 103 95 98 102 103 109 111 110 106 106 108 110 112 100 90 91 103 116 123 112 99 92 93 103 104 105 112 115 114 110 110 110 103 91 94 101 106 103 104 112 118 105 82 68 66 77 74 66 59 57 53 45 32 24 18 17 21 18 18 30 41 51 65 95 127 150 161 163 162 159 159 165 170 174 180 178 173 165 168 174 180 183 175 129 64 33 47 64 73 75 62 46 40 49 60 75 99 110 105 83 51 50 57 46 45 50 57 48 36 33 45 89 120 143 164 169 169 165 163 158 151 142 149 144 141 150 146 134 110 49 39 57 94 116 133 143 143 141 146 157 159 159 161 166 166 164 161 162 169 174 175 175 176 177 177 172 176 184 190 180 174 174 175 160 137 110 96 75 52 29 27 40 62 74 67 54 41 23 39 71 93 94 92 91 88 86 88 96 94 92 90 84 81 78 77 78 74 71 71 71 71 70 65 63 62 59 59 60 60 60 64 65 65 67 68 68 69 70 70 70 70 197 255 255
255 255 187 42 40 39 41 47 41 42 49 48 48 51 58 60 55 49 49 48 41 31 38 60 81 95 88 79 74 79 90 97 99 98 105 109 106 109 106 101 98 104 112 118 118 103 89 84 102 120 131 124 110 100 95 102 106 109 115 115 112 111 118 120 113 101 96 93 93 91 101 117 129 125 101 77 59 70 80 85 81 81 79 73 65 56 50 49 54 45 37 39 51 63 79 103 130 150 164 170 168 165 164 168 171 175 179 175 168 160 164 169 175 179 182 139 72 38 44 58 71 82 75 59 42 42 54 75 96 104 104 95 57 51 54 44 45 46 44 38 33 31 37 68 95 121 146 156 161 163 164 161 159 157 166 154 138 141 133 123 107 57 56 79 118 131 138 141 145 141 147 161 171 170 167 169 172 173 172 171 171 171 172 176 180 181 179 177 180 186 187 178 173 173 178 165 141 109 76 51 33 20 30 46 61 61 47 33 25 36 61 90 101 91 84 86 93 92 89 87 87 88 87 83 80 79 79 77 75 71 65 65 67 68 65 61 60 60 58 59 61 61 66 67 67 69 70 71 71 72 72 72 72 198 255 255
255 254 187 46 43 43 43 46 41 41 45 44 44 49 57 59 56 53 55 55 48 37 38 56 76 89 84 78 75 78 83 85 85 91 95 98 100 100 95 90 90 93 96 98 106 97 86 80 96 109 118 120 113 104 97 104 105 106 111 115 112 110 116 120 119 114 104 96 92 93 102 114 125 135 120 94 64 57 69 82 85 92 101 112 126 126 124 122 121 107 90 78 82 91 103 118 136 155 173 178 175 171 170 174 178 181 177 172 167 163 165 170 175 177 180 147 92 49 50 59 68 76 75 65 44 39 49 69 87 96 100 100 64 55 55 50 45 40 34 32 33 35 39 50 69 90 114 126 134 143 152 157 165 173 176 155 130 132 117 105 98 78 91 114 135 132 132 136 145 145 149 158 172 171 168 168 175 180 184 184 175 171 175 183 186 186 183 185 185 184 178 174 171 167 164 148 126 96 59 36 25 22 34 43 45 38 31 29 32 77 106 117 106 86 77 83 96 97 92 81 83 82 80 80 78 77 76 74 74 70 61 60 60 61 61 58 58 61 59 60 61 61 66 68 68 71 71 73 74 74 74 74 74 198 255 255
253 253 187 44 41 40 40 44 40 41 46 42 42 46 52 54 52 51 55 56 51 42 35 48 64 77 76 73 70 69 70 72 75 79 78 78 83 84 83 84 88 84 80 76 86 85 80 78 89 96 102 106 104 99 95 101 98 97 103 114 115 112 111 113 115 114 106 98 95 99 102 108 116 136 135 116 84 60 62 74 83 89 103 124 148 156 160 162 163 154 139 124 123 128 134 137 143 157 176 180 177 173 172 177 181 183 178 173 169 166 163 168 175 175 176 157 117 60 48 51 60 67 71 66 48 40 49 68 83 88 94 101 70 58 55 52 42 37 34 36 34 33 34 39 52 70 89 100 110 122 138 152 166 176 161 133 107 109 87 76 77 82 107 126 129 117 122 136 143 145 146 148 156 158 159 163 170 180 188 191 183 179 182 188 189 187 184 187 185 180 174 174 171 163 147 124 98 70 44 27 20 22 31 34 30 25 27 34 47 112 143 143 120 91 78 80 92 94 90 84 83 81 77 77 77 77 76 74 72 69 61 61 60 59 60 58 58 60 60 60 60 61 64 66 67 70 71 73 74 74 73 73 72 197 255 255
251 253 186 38 36 34 33 41 37 41 48 42 41 43 46 46 44 44 49 54 54 48 33 38 50 61 66 65 61 56 57 62 69 64 59 58 62 67 75 83 91 80 68 58 66 70 75 81 84 85 85 86 87 89 91 95 88 83 89 110 115 111 101 99 102 105 102 100 100 106 102 100 105 129 141 137 115 76 62 64 77 76 91 117 139 153 164 171 179 181 177 169 167 167 166 156 152 159 174 178 175 172 171 176 180 182 181 177 173 170 162 166 173 173 170 164 142 68 41 37 49 58 63 63 53 45 51 69 81 83 87 97 76 61 52 49 37 34 39 45 35 27 27 33 43 57 70 79 88 102 121 143 159 166 127 94 74 80 52 42 52 77 108 122 107 93 112 139 139 142 140 134 133 139 148 159 161 172 184 190 189 189 190 191 190 188 185 183 180 176 174 176 172 159 129 94 63 37 32 24 18 21 24 23 19 20 30 45 65 136 167 165 138 104 84 79 83 85 86 91 87 81 76 75 76 77 76 74 71 67 65 67 65 62 60 60 59 58 61 60 59 59 61 63 64 67 69 71 72 71 69 69 68 195 253 253
253 255 187 39 38 35 33 41 35 37 45 42 42 44 48 47 45 43 47 56 62 62 49 48 52 59 63 63 61 57 57 62 67 59 63 69 73 76 83 92 98 94 85 73 79 80 85 98 98 91 83 81 88 92 92 85 72 64 67 88 96 94 82 81 90 100 102 104 106 110 107 104 104 117 134 144 143 103 74 62 72 75 91 114 130 142 151 157 167 175 180 184 186 184 178 165 160 165 178 179 175 170 169 174 179 181 180 174 170 170 166 163 162 165 163 165 153 81 49 39 46 55 59 58 52 46 50 63 76 82 88 96 84 65 47 41 30 28 32 36 27 23 27 32 40 50 57 64 73 86 105 122 132 134 84 56 51 74 45 39 59 91 120 123 93 83 111 146 145 144 138 128 130 142 158 173 162 162 165 169 175 182 188 195 200 199 193 186 185 185 179 175 166 150 112 71 39 20 29 26 19 21 20 18 18 25 33 46 66 129 161 165 147 115 91 79 79 80 81 85 84 82 80 77 76 74 71 70 68 67 70 72 71 66 65 63 62 61 61 60 59 61 61 62 63 65 67 69 70 70 69 69 69 196 255 255
255 255 188 42 41 38 36 41 32 32 39 40 43 46 49 49 47 47 50 58 64 68 62 59 58 61 63 63 62 60 63 69 75 72 78 83 83 81 85 91 93 98 96 89 96 96 99 108 106 96 88 91 102 106 102 96 84 74 71 81 85 83 73 75 84 97 99 100 99 98 99 102 107 112 125 141 156 127 94 71 68 73 84 99 113 128 138 144 159 170 178 186 188 188 186 179 173 171 175 177 175 173 171 173 174 175 175 173 173 176 172 163 157 158 160 163 153 89 57 43 45 52 56 56 51 47 49 58 71 81 90 97 83 62 46 46 39 34 30 35 27 23 29 29 34 42 48 54 63 74 86 92 94 90 51 36 45 83 49 42 68 104 131 127 84 81 111 148 154 148 134 121 132 147 162 176 159 151 150 153 161 170 180 188 194 195 193 187 186 185 176 162 143 119 82 48 24 15 25 25 20 20 19 19 24 29 29 34 53 103 138 154 147 116 90 75 77 81 83 83 83 84 84 81 78 74 70 68 67 67 69 69 67 63 62 62 62 60 61 61 61 62 62 63 64 66 67 69 70 70 70 71 71 198 255 255
255 255 189 45 45 41 38 41 30 28 34 39 43 47 50 50 50 50 53 59 65 70 72 67 63 62 63 63 63 63 68 75 82 82 87 89 85 82 83 86 87 96 101 102 108 108 108 111 107 100 96 104 117 120 114 112 104 95 88 86 82 76 68 70 77 88 91 93 91 85 90 100 110 109 117 137 163 151 118 85 65 70 75 81 93 110 122 128 148 162 173 182 182 183 186 189 184 178 173 175 177 177 174 172 171 170 172 174 177 180 176 165 155 155 160 162 152 94 61 45 45 50 54 56 51 50 50 54 65 79 91 98 81 60 46 50 47 40 32 37 29 24 30 25 29 37 42 48 56 65 71 67 59 49 25 24 47 97 56 48 77 114 139 130 75 82 111 145 161 149 128 111 134 150 162 174 154 143 139 143 154 166 177 179 181 182 185 184 184 181 170 146 115 81 50 27 14 13 20 23 21 20 18 23 36 36 25 21 39 76 115 146 150 119 89 69 75 82 85 82 82 83 84 81 78 74 70 68 67 67 68 66 63 61 60 61 62 61 62 63 63 64 64 65 66 67 68 68 69 70 71 72 72 198 255 255
255 255 190 47 47 44 40 43 30 27 33 40 45 48 51 50 51 53 57 62 66 71 78 73 66 60 60 61 63 67 72 77 81 79 78 78 77 78 79 83 87 93 100 108 109 105 102 103 103 102 105 115 124 125 119 123 123 119 116 105 92 77 65 62 62 66 76 85 88 81 85 99 113 110 115 136 169 174 145 103 62 67 68 67 73 86 97 104 129 147 163 175 172 173 179 190 190 184 176 177 181 182 175 170 169 170 171 174 176 178 173 163 155 157 162 164 154 98 59 41 45 49 53 55 53 54 52 52 57 74 90 100 83 63 48 47 45 40 35 40 29 22 26 24 27 34 40 45 52 60 64 56 41 24 9 20 54 109 64 54 84 117 142 129 66 81 109 139 162 144 117 97 129 148 159 169 147 138 136 143 160 177 186 175 168 165 170 175 175 171 164 132 90 45 22 10 6 10 17 22 25 23 19 29 51 48 27 15 29 59 105 151 165 129 91 64 71 80 84 81 81 80 78 75 74 71 69 66 66 67 69 68 65 62 62 62 63 63 66 66 65 65 66 67 67 67 67 67 68 69 71 72 73 198 255 255
254 254 188 42 44 42 40 47 34 31 36 40 43 45 46 46 47 49 54 57 60 63 70 69 66 62 60 60 62 68 74 77 77 74 69 67 70 77 80 83 87 86 89 96 94 91 90 95 101 106 111 118 123 123 120 123 126 128 132 125 113 97 80 68 60 55 64 78 86 82 85 97 112 117 122 135 156 173 161 128 75 73 70 69 72 80 88 96 113 129 146 162 163 164 167 178 184 184 179 175 175 175 169 167 170 176 177 178 177 174 169 161 154 158 164 167 157 100 55 36 46 54 57 58 58 55 52 52 57 73 89 100 83 65 50 41 35 33 36 40 30 23 27 26 28 33 38 42 48 55 61 57 46 31 18 30 61 107 68 60 88 110 132 120 61 86 112 137 161 137 108 89 128 147 155 157 140 134 137 149 167 181 184 167 158 156 165 171 170 165 155 118 72 26 9 7 10 14 16 23 29 28 28 44 73 65 35 14 25 61 112 162 177 139 97 65 67 74 79 80 79 75 72 69 68 68 68 67 66 66 66 67 67 65 63 63 63 63 65 65 63 63 65 67 66 65 65 65 66 68 70 71 72 196 254 254
253 253 186 39 40 40 41 50 39 36 39 38 40 42 44 44 45 46 48 50 52 54 63 67 69 68 63 61 62 71 77 79 78 78 71 67 70 79 83 85 85 80 80 84 82 83 87 95 104 111 115 119 120 119 117 117 121 126 131 129 123 113 100 86 73 64 66 76 83 80 82 92 107 118 123 129 138 161 170 153 99 85 77 74 79 84 89 97 104 117 133 150 156 158 160 169 180 184 182 173 169 166 162 164 170 178 181 180 178 174 170 161 153 157 164 167 158 107 57 35 48 60 63 63 63 56 52 52 59 74 88 99 83 68 52 39 31 32 37 38 32 29 32 27 27 30 32 37 43 49 54 53 47 36 29 42 67 97 67 66 95 108 122 109 60 93 117 137 160 130 101 89 130 148 152 147 132 128 133 149 164 171 168 153 150 156 173 174 171 164 153 113 65 18 5 6 14 22 16 23 35 38 44 65 96 78 38 10 22 67 120 168 181 142 101 68 67 71 75 78 77 74 69 67 66 67 69 69 68 66 61 63 65 67 64 63 62 61 63 62 60 60 64 66 66 65 65 66 66 68 70 71 72 195 253 253
252 253 185 37 38 38 40 51 42 40 42 36 37 40 44 46 45 44 43 44 45 48 58 68 75 77 68 64 65 74 82 84 83 88 81 75 76 82 85 86 80 76 74 73 73 82 92 102 110 114 116 118 115 113 111 107 109 113 115 118 121 123 119 109 98 89 81 80 78 74 74 83 97 114 120 121 119 141 170 175 131 104 88 82 89 92 96 101 101 111 125 141 151 156 157 164 177 184 183 172 164 158 158 162 168 175 180 181 180 177 174 163 153 153 163 165 156 118 63 36 49 64 69 68 67 58 54 55 64 77 88 97 83 69 55 39 35 37 39 35 36 37 40 28 25 26 26 30 36 42 46 47 44 40 40 54 72 81 63 72 103 115 118 101 62 100 123 139 158 122 97 93 132 149 151 139 123 118 125 145 152 151 142 136 144 162 189 182 174 166 158 120 73 26 9 7 16 32 19 25 42 51 66 91 119 86 35 5 24 78 131 173 179 141 102 72 69 71 74 76 77 75 72 69 67 67 69 70 70 66 58 57 62 66 64 62 60 59 58 59 59 59 63 65 66 66 67 67 68 69 71 71 72 196 253 253
255 255 187 40 40 39 39 49 41 41 46 40 42 48 53 53 51 48 45 46 49 53 65 75 81 81 72 69 71 80 84 85 83 89 82 75 73 78 82 85 81 80 79 78 78 87 97 104 109 113 115 111 103 99 99 95 96 99 98 100 105 112 119 119 118 114 104 94 84 73 70 75 87 100 107 113 117 128 160 178 161 128 104 90 88 86 86 89 95 110 127 139 144 149 156 166 178 185 184 179 172 166 164 165 165 165 169 172 174 176 172 164 157 155 159 159 154 129 69 35 44 61 70 72 71 67 64 63 65 74 84 95 90 77 57 34 39 46 48 37 41 44 43 30 26 25 22 26 33 42 47 47 43 37 43 64 81 67 60 79 116 133 124 99 67 101 122 134 143 110 92 96 123 141 146 135 111 108 120 139 146 144 135 132 142 162 191 179 167 162 180 155 115 66 36 17 17 40 29 37 55 71 90 113 131 84 32 11 50 103 150 183 177 133 95 71 75 78 79 76 78 77 74 71 69 67 68 70 70 68 64 61 64 67 65 62 60 60 58 61 63 63 65 67 67 68 69 70 70 71 72 72 73 197 255 255
255 255 189 43 42 38 37 45 39 42 49 44 46 52 57 57 55 51 49 50 54 59 69 75 78 76 71 71 73 77 78 78 76 81 79 75 75 77 79 83 83 82 83 85 87 92 97 97 101 109 115 108 96 92 96 94 95 96 95 95 97 101 110 117 121 123 116 106 94 81 76 78 86 91 98 108 120 122 145 167 175 151 127 106 90 79 74 75 86 106 126 135 134 139 150 165 176 182 183 180 176 171 169 166 163 160 162 164 167 171 167 165 164 161 155 152 150 137 73 35 39 56 66 70 72 75 75 71 66 71 81 94 97 85 62 31 39 50 56 43 47 49 44 35 31 28 23 25 33 44 52 51 45 36 49 74 88 60 67 93 128 144 125 99 77 106 126 134 128 103 95 105 116 135 143 131 102 103 120 136 143 141 133 134 144 160 181 165 153 155 194 182 154 115 80 45 30 48 47 57 74 91 108 122 129 81 42 38 93 135 168 185 169 122 85 67 75 79 79 77 77 75 71 69 68 67 68 67 67 68 69 67 66 66 64 61 60 60 59 61 63 64 64 65 65 66 67 69 70 71 72 72 73 198 255 255
255 255 189 44 41 37 35 40 37 42 51 45 48 53 56 56 55 52 51 53 57 61 68 70 70 68 68 70 70 68 67 67 68 74 79 81 83 80 79 80 82 80 83 91 97 98 96 90 95 107 117 110 97 95 101 102 102 102 101 100 97 95 100 110 119 124 122 115 105 92 87 87 91 89 93 105 120 119 129 148 178 169 151 126 98 79 68 66 78 100 120 130 126 130 144 161 171 177 180 175 174 171 168 165 162 159 159 161 164 167 165 167 170 167 152 145 145 141 79 37 35 53 62 66 72 81 83 78 68 71 80 92 101 91 67 32 38 50 59 48 52 53 45 41 37 32 26 26 34 47 56 52 43 34 56 82 91 58 80 111 139 146 121 98 92 117 135 139 121 102 103 119 118 135 142 127 98 101 121 133 138 135 128 136 147 158 168 149 139 148 196 194 181 159 126 80 50 58 67 79 92 107 118 123 119 80 60 74 138 164 179 178 153 108 76 62 71 76 78 78 77 73 68 65 67 67 67 65 64 66 70 69 66 62 61 59 58 60 60 60 61 62 61 60 61 62 64 66 68 70 71 71 72 199 255 255
255 255 187 42 37 34 32 37 36 41 49 43 44 47 49 50 50 50 50 51 54 56 61 59 59 61 66 67 63 54 52 57 64 76 90 100 103 92 83 79 78 74 80 93 107 106 98 87 94 109 122 120 111 111 119 120 117 114 112 111 106 100 97 105 115 123 120 116 111 102 100 100 101 94 93 101 113 116 115 130 172 183 173 148 115 89 74 70 75 89 106 120 119 125 138 157 165 170 172 161 161 162 161 161 162 163 164 165 167 168 169 171 172 169 150 139 137 143 89 46 35 53 57 59 71 83 86 80 75 77 82 89 98 92 74 42 40 46 54 52 56 57 51 48 43 35 28 27 33 45 52 44 35 29 64 87 89 60 97 130 147 138 109 95 108 135 153 153 125 112 119 138 132 145 147 124 99 102 119 129 126 118 112 132 150 161 162 138 132 146 181 181 181 185 163 115 76 72 88 99 107 117 120 116 105 83 83 111 175 181 174 156 128 94 70 59 64 69 73 78 75 69 62 62 65 67 67 62 60 61 63 63 59 53 54 54 55 57 57 56 54 55 54 53 55 56 59 62 65 68 69 70 71 198 255 255
255 253 187 49 42 37 35 36 36 39 43 40 40 42 44 46 48 49 51 53 55 58 64 61 57 57 61 62 60 54 55 60 67 69 81 89 89 84 83 84 83 78 82 95 100 95 88 84 93 107 119 118 113 113 120 119 117 115 115 115 110 103 98 103 110 118 116 114 110 104 104 107 109 102 99 103 114 117 109 117 159 187 187 167 138 110 90 79 76 82 93 105 112 121 132 146 153 159 164 162 165 167 164 159 157 158 164 166 167 167 169 168 168 168 152 142 140 149 102 57 32 44 49 53 66 77 81 79 76 77 79 84 95 89 71 44 42 45 51 56 60 60 52 49 44 38 37 34 38 47 52 45 41 43 78 88 80 63 99 127 137 115 98 98 121 142 151 145 116 113 126 146 142 149 144 116 108 117 133 137 128 119 117 141 155 157 145 131 134 149 164 160 169 188 178 135 95 81 102 113 118 123 124 119 110 102 111 138 183 171 151 127 107 83 65 55 58 61 61 64 64 62 58 57 59 61 63 62 58 53 49 52 52 49 49 50 51 52 53 51 48 48 48 48 49 51 53 56 59 62 64 66 67 196 255 255
255 252 187 52 44 39 37 36 37 38 39 39 39 41 42 44 46 48 50 52 55 58 65 63 59 55 57 58 57 55 58 63 67 65 77 84 79 79 83 86 80 74 80 93 90 84 83 88 96 107 113 111 112 118 125 122 119 117 118 118 114 107 100 102 108 115 113 111 109 105 107 111 115 111 108 109 114 115 104 108 145 183 191 178 160 133 108 91 80 80 86 97 108 118 127 134 142 149 157 163 168 170 166 159 155 156 161 164 165 163 168 165 163 167 154 147 145 152 109 63 29 36 43 50 63 71 77 80 78 75 75 79 94 88 68 43 41 44 51 61 64 62 53 48 42 38 41 39 42 48 51 46 47 59 89 86 70 67 101 125 128 98 92 105 132 148 149 135 109 113 128 144 146 149 138 104 111 126 141 142 130 121 121 142 152 150 133 131 142 155 152 146 156 181 177 143 109 92 112 121 124 129 132 131 126 125 134 151 174 151 126 104 94 77 61 50 54 54 51 50 55 57 55 52 51 51 54 57 53 47 39 43 46 46 45 46 46 46 47 45 43 43 44 44 45 47 48 51 53 57 60 62 64 194 254 254
254 251 187 52 43 39 38 37 39 39 38 39 40 42 42 44 45 47 49 51 53 55 63 64 61 56 54 54 55 57 59 63 67 66 81 88 80 80 84 83 68 64 73 89 82 79 83 97 103 107 106 101 111 124 136 128 124 121 119 121 119 113 104 104 108 113 110 109 108 106 110 115 121 122 120 116 114 109 98 101 129 172 185 179 179 155 129 104 87 83 86 95 110 119 122 123 132 142 153 162 166 168 165 160 157 156 158 160 161 159 166 163 159 165 158 154 151 152 110 63 25 32 42 51 61 66 74 82 81 74 71 75 93 88 67 41 36 41 53 65 66 63 54 45 38 35 40 41 44 49 49 45 51 72 97 83 61 74 107 125 123 86 93 115 141 153 146 128 108 114 124 135 143 146 130 90 110 127 139 142 129 121 122 136 144 142 131 138 152 163 145 138 146 167 164 141 118 105 120 127 130 137 144 149 151 150 149 148 149 123 101 87 89 75 58 45 51 49 45 39 50 56 55 48 43 41 42 50 48 42 35 36 40 43 41 41 41 40 40 39 38 39 41 43 43 45 46 47 50 53 57 60 62 193 254 254
255 252 188 54 44 40 38 35 38 38 36 39 41 43 43 43 44 46 48 50 52 54 61 62 60 57 54 54 56 58 61 64 67 70 83 91 85 85 89 87 68 65 74 88 86 87 91 99 104 105 101 96 104 116 126 119 118 118 119 116 112 109 104 107 110 114 114 113 111 111 116 121 126 126 122 117 112 105 94 94 115 159 172 172 188 177 153 123 101 91 90 98 114 123 125 124 135 146 157 161 161 162 163 161 159 156 157 159 159 158 169 162 155 162 158 155 150 148 111 67 26 32 42 52 57 63 72 81 78 70 67 74 87 81 62 39 34 39 52 63 67 65 59 47 38 34 38 37 40 43 43 43 55 83 108 92 72 100 129 134 117 79 93 116 134 146 140 126 118 125 131 137 150 151 133 93 119 134 143 146 130 122 127 144 152 150 136 145 159 165 139 134 142 156 154 142 130 125 136 142 145 152 155 156 156 152 143 130 112 94 81 77 87 78 62 47 54 53 49 44 54 60 59 52 46 43 42 47 46 44 43 41 42 44 42 41 41 40 40 40 41 42 45 47 48 49 50 52 54 57 61 64 66 195 255 255
255 254 191 57 48 44 42 36 39 39 37 41 42 43 42 41 41 43 46 50 52 54 59 60 59 57 56 56 58 61 63 64 67 71 81 86 83 82 88 91 77 71 74 84 89 90 91 92 97 101 101 101 103 108 113 111 115 120 124 118 113 112 112 117 119 121 119 117 115 116 120 125 128 128 124 118 114 105 95 92 108 151 164 165 189 185 164 134 110 94 87 89 105 113 116 117 130 143 153 155 156 159 162 159 155 152 155 160 161 162 172 164 156 161 156 150 143 142 115 77 34 33 44 54 53 57 68 81 79 68 63 69 79 73 58 41 35 39 51 64 68 65 58 45 36 32 36 35 37 42 42 42 53 82 106 90 73 107 132 136 118 83 98 123 141 150 139 122 118 126 134 141 156 151 132 101 129 143 148 150 130 125 136 153 157 151 136 154 164 162 135 135 143 150 145 134 125 122 128 135 142 148 144 140 136 130 119 104 84 77 76 80 93 85 70 56 61 63 63 61 64 63 59 56 53 52 50 47 47 50 52 49 49 50 49 48 46 45 44 45 46 46 50 52 53 54 56 57 60 63 67 69 72 199 255 255
255 255 193 59 51 48 45 38 40 40 39 41 41 41 40 39 38 41 44 49 52 54 59 58 57 57 58 59 60 64 66 65 66 72 76 78 77 74 84 94 89 77 74 78 87 89 87 80 87 95 103 111 107 103 100 104 112 120 126 121 117 117 120 125 127 126 120 118 117 118 122 126 128 127 123 121 119 111 99 94 105 146 160 162 187 185 169 142 119 98 83 78 90 98 103 109 125 139 148 150 154 158 161 156 151 147 154 161 164 166 172 166 159 159 151 141 133 135 120 88 43 34 44 55 50 52 64 79 78 67 60 62 68 64 53 43 37 40 51 65 67 63 53 42 33 30 35 34 37 44 46 43 51 76 97 83 70 102 123 129 121 90 104 128 148 156 140 120 119 128 138 149 160 150 132 113 140 152 154 152 131 129 147 160 157 147 134 163 168 157 135 140 145 143 132 115 103 102 104 112 121 124 116 108 102 97 89 79 66 71 80 92 102 92 79 66 68 73 77 80 73 65 57 58 60 61 58 49 49 54 58 56 55 55 54 53 51 50 49 50 50 49 53 55 56 58 59 62 64 68 71 73 74 201 255 255
255 255 192 55 49 45 42 37 37 37 37 39 38 38 37 37 37 39 43 47 49 50 56 54 52 53 58 60 61 64 67 67 65 68 70 71 71 66 76 90 95 80 71 69 80 81 77 70 74 87 102 118 113 103 94 101 106 112 118 118 118 118 118 120 121 121 111 109 110 112 119 124 126 121 121 124 130 123 108 98 104 147 164 166 183 180 169 151 130 109 91 77 79 86 96 109 124 137 147 153 158 160 159 152 148 146 152 160 164 164 165 165 163 159 147 135 126 131 123 96 51 34 40 50 50 56 67 78 75 64 55 53 57 54 48 44 40 44 54 63 63 57 48 39 31 29 35 36 42 52 56 51 54 73 87 77 68 94 103 113 119 95 104 124 143 155 144 128 130 141 150 159 162 149 135 129 148 158 160 152 134 136 154 158 149 137 131 164 167 154 143 146 145 133 110 83 64 64 65 71 77 75 69 67 69 64 60 62 70 77 92 107 109 95 80 68 69 76 82 86 74 64 56 57 60 61 59 49 48 52 57 53 50 48 48 48 48 46 48 49 50 48 51 53 54 56 58 61 64 66 67 68 68 198 255 255
252 250 185 49 42 38 35 32 31 30 30 32 32 33 34 35 35 36 39 41 41 43 50 48 46 48 54 59 61 64 64 63 59 59 65 71 74 68 74 84 92 83 76 73 81 81 78 75 74 81 94 111 112 105 95 103 106 109 113 119 120 118 113 113 116 118 108 107 110 113 119 120 117 108 111 119 130 125 113 105 109 149 166 169 180 176 172 168 146 124 106 91 89 92 100 112 126 137 147 159 161 157 152 148 147 149 149 157 162 163 160 160 160 156 145 134 125 129 125 102 59 35 37 47 53 59 67 74 72 64 55 50 53 51 46 38 37 45 58 62 60 56 48 41 34 32 37 36 42 52 56 46 42 52 59 52 46 55 53 64 81 62 64 76 95 117 119 114 121 133 146 156 155 141 133 139 150 158 159 146 133 137 155 159 150 139 132 159 165 159 154 153 145 126 94 61 41 45 48 50 49 41 45 56 68 59 54 60 81 81 94 110 104 88 75 66 66 70 73 70 62 57 54 52 52 52 50 47 45 46 48 43 38 35 35 36 36 36 39 41 43 44 46 48 49 53 55 57 59 61 61 61 61 191 252 252
249 247 182 46 40 36 32 30 29 28 27 29 30 31 32 35 35 36 37 37 36 37 44 43 43 44 51 56 60 63 61 58 53 51 60 69 75 71 72 77 87 84 80 79 85 85 83 84 78 80 88 102 108 105 99 109 111 113 118 124 125 121 115 117 120 123 113 113 115 118 121 118 112 102 103 110 119 113 109 110 115 147 162 167 177 173 173 179 158 139 120 103 95 95 99 109 119 129 139 155 157 152 146 143 144 147 146 154 160 163 157 158 160 153 144 134 126 129 127 106 64 35 35 46 51 55 62 69 69 64 57 49 52 51 45 36 34 44 58 60 58 54 46 39 35 34 38 35 38 46 51 40 35 41 47 45 41 40 38 52 75 59 56 64 81 98 96 89 98 116 134 148 144 129 125 139 147 155 156 140 130 138 158 162 151 140 136 158 163 159 162 158 143 117 78 46 31 41 45 42 34 26 39 60 80 65 58 65 93 86 95 108 96 81 71 67 63 65 63 54 51 51 51 48 47 45 43 44 43 42 43 38 34 31 30 29 29 30 32 35 38 39 42 44 45 49 52 54 55 57 57 57 57 188 248 248
252 249 184 47 42 38 36 33 33 32 30 32 32 33 34 37 37 38 38 37 35 35 40 41 43 44 48 53 58 62 58 53 49 48 56 65 72 71 69 69 81 83 83 84 90 91 92 93 87 86 88 96 103 105 104 115 120 125 130 132 131 128 128 131 134 135 126 125 126 126 124 119 112 103 100 99 99 89 100 114 120 139 151 158 173 169 172 182 166 150 133 110 96 91 92 97 104 113 123 139 147 147 142 138 139 143 145 152 159 164 156 159 161 152 145 136 128 132 128 107 69 35 35 45 44 44 52 65 69 66 58 50 51 51 46 38 35 41 54 59 58 53 44 34 32 34 38 31 30 36 42 35 34 45 54 60 62 58 66 87 112 95 91 96 111 107 83 59 69 96 120 136 130 116 113 127 139 150 153 135 128 139 165 166 148 136 144 163 161 153 162 159 140 104 60 36 32 50 53 46 34 29 49 76 98 78 67 74 106 92 95 104 87 76 71 70 62 60 55 44 44 46 48 46 45 44 42 42 42 42 42 41 40 37 34 32 31 31 31 32 34 38 40 42 44 48 50 52 54 56 57 58 59 190 251 251
255 255 189 44 38 35 33 35 37 38 39 37 35 35 36 39 40 42 42 41 37 34 39 42 45 49 52 55 56 59 56 53 50 47 55 65 71 67 63 63 75 83 83 79 87 92 94 94 86 86 90 100 105 104 99 102 107 114 121 123 124 125 128 130 131 128 123 123 125 127 127 123 117 112 108 103 95 85 98 111 109 122 135 148 164 166 172 184 173 167 153 125 102 94 94 98 102 108 118 130 137 140 139 137 140 147 152 154 156 159 158 161 160 144 142 140 139 139 128 106 72 36 31 37 41 48 57 64 66 62 55 46 45 46 47 46 44 44 47 51 50 45 38 31 30 33 39 35 34 36 41 46 58 78 81 89 97 96 104 120 136 120 119 127 140 135 110 87 98 124 138 135 118 113 116 125 134 152 162 142 143 157 176 163 143 139 164 166 153 140 156 153 129 83 35 21 30 55 61 53 39 35 54 80 102 76 66 77 118 102 103 107 86 77 74 71 58 56 57 53 55 58 60 56 53 51 50 51 47 45 49 52 49 43 39 39 39 40 41 41 42 44 48 50 52 55 57 60 61 63 64 64 65 196 255 255
255 255 190 45 40 35 32 37 40 42 43 39 37 37 37 39 41 43 44 42 38 35 38 41 45 49 52 54 55 57 57 57 58 57 59 61 59 59 63 69 78 82 80 74 79 87 94 98 93 93 95 98 100 101 100 100 106 114 120 122 124 128 132 130 126 120 120 121 122 126 128 128 127 125 120 112 101 88 96 104 99 109 121 136 154 162 170 177 173 174 164 133 105 97 99 103 104 106 112 118 126 135 140 140 143 147 154 155 153 151 152 157 158 143 140 141 143 140 127 105 74 38 28 33 42 53 59 63 63 57 50 43 43 44 45 46 46 46 47 52 48 42 36 33 33 35 40 38 36 37 44 61 84 112 109 115 121 122 125 126 125 109 120 137 149 145 126 108 116 142 148 133 107 106 108 106 116 138 155 139 148 166 184 161 141 141 174 168 150 136 155 151 121 69 26 21 37 64 76 65 46 43 61 87 109 82 76 89 126 108 104 105 87 81 79 76 63 61 64 66 65 66 67 61 59 58 59 60 54 49 52 57 56 51 48 49 49 49 52 53 52 54 57 60 62 65 67 70 71 73 73 74 74 200 255 255
255 255 191 49 45 38 34 40 40 41 42 39 37 37 36 39 40 43 44 43 40 38 39 41 43 44 48 50 53 53 57 60 65 67 65 59 49 53 64 77 82 81 77 72 75 82 91 100 100 101 100 96 94 97 103 103 110 117 121 121 124 129 134 130 122 113 118 119 119 124 128 132 136 136 129 123 115 97 94 93 90 98 108 121 142 157 166 167 169 175 169 139 109 100 103 107 105 103 104 106 117 130 142 143 143 143 151 154 152 146 145 151 155 145 140 139 140 136 124 104 75 40 28 32 44 54 58 59 60 54 48 41 44 43 40 40 45 49 51 53 48 41 36 37 37 38 40 38 37 40 51 74 102 131 126 129 134 136 131 118 100 87 109 133 143 143 133 123 127 151 153 132 104 104 103 90 96 116 133 126 143 166 185 163 144 146 178 168 150 139 159 150 115 61 26 27 46 72 92 78 52 51 71 97 117 92 90 103 129 107 100 101 91 87 86 83 74 73 76 78 75 72 70 66 65 65 67 68 62 56 55 60 61 60 58 60 60 59 64 66 64 64 68 71 72 75 77 80 82 84 85 85 85 202 255 255
253 254 191 54 52 44 38 42 38 35 35 34 34 34 35 37 39 41 41 40 39 40 43 42 39 36 39 41 44 46 52 57 62 69 72 70 61 59 67 77 81 81 82 83 89 87 85 88 96 100 100 94 92 94 99 102 108 113 114 113 115 121 127 125 120 115 121 120 119 120 128 135 140 132 127 130 138 117 96 81 77 86 92 102 126 149 161 161 162 171 171 151 119 104 101 103 98 95 98 101 111 123 137 139 137 133 141 151 155 152 144 146 148 143 137 133 130 127 118 102 74 42 33 38 44 48 48 49 56 58 54 45 50 46 37 31 41 50 55 46 44 43 43 43 42 41 38 34 35 43 58 74 89 103 101 109 122 132 126 109 87 81 103 121 119 126 128 130 135 153 155 141 123 123 120 106 93 92 97 101 124 152 177 169 157 156 178 166 152 146 169 153 112 55 29 31 48 74 102 86 54 57 84 111 127 103 100 108 124 97 95 104 104 97 92 88 88 89 90 88 87 82 77 74 73 75 76 77 75 71 63 62 65 69 69 70 70 69 74 77 77 77 80 82 83 85 88 91 94 95 97 96 97 205 255 255
255 255 192 56 55 47 39 46 39 34 33 32 33 34 35 37 37 39 39 40 41 42 44 42 38 35 35 36 40 46 54 58 60 63 69 70 64 60 65 73 77 82 88 96 105 95 84 83 96 101 101 94 93 93 96 105 112 116 118 115 117 121 126 126 124 120 123 123 122 122 128 134 138 132 131 135 141 124 99 80 79 79 81 88 114 141 159 164 160 169 175 167 137 116 103 96 88 86 93 99 108 118 129 131 129 128 140 150 155 155 147 141 137 135 133 129 124 119 110 96 74 45 34 35 41 47 48 47 56 60 56 43 45 40 35 35 47 54 52 35 36 42 47 43 43 45 42 40 43 52 67 76 81 82 85 99 119 137 135 118 93 91 111 123 113 111 121 134 135 151 161 160 147 146 145 136 109 91 84 94 99 110 127 153 164 170 180 161 153 154 166 136 91 42 33 40 55 71 108 90 52 59 91 118 130 102 97 104 115 94 95 108 114 106 98 92 96 97 95 87 93 91 86 83 82 82 82 81 83 84 77 73 73 77 76 75 75 77 77 78 80 81 83 85 87 89 93 96 100 102 104 105 106 208 255 255
255 255 191 54 53 44 37 47 40 35 35 32 34 34 35 36 36 37 38 39 40 40 42 41 38 37 36 36 39 47 54 57 57 58 65 67 62 58 61 67 72 78 88 100 114 102 88 83 93 98 98 93 94 94 96 111 118 121 123 120 121 123 127 129 128 126 126 127 127 126 128 131 133 134 136 138 137 126 108 93 90 80 76 80 105 135 158 170 160 168 177 178 153 129 109 95 87 86 93 99 105 113 122 123 124 126 139 147 153 156 147 137 128 125 126 125 122 115 103 90 73 47 34 32 39 50 53 51 56 59 54 41 38 34 34 40 52 55 48 30 33 39 46 40 41 45 44 44 49 57 68 72 71 66 74 92 113 130 132 120 101 103 119 123 107 98 112 132 132 147 162 173 167 164 162 158 127 103 91 106 91 81 85 130 154 165 169 155 155 161 159 118 71 32 35 48 61 70 110 92 54 61 93 121 133 100 92 98 111 98 102 114 120 111 101 94 100 100 95 85 94 95 92 88 86 85 84 83 86 89 84 81 80 81 80 79 79 82 80 80 81 84 85 87 89 92 96 100 104 106 109 110 111 210 255 255
254 254 188 48 45 37 32 45 41 37 37 33 33 34 34 35 34 36 37 37 36 35 36 37 39 41 40 40 41 47 51 53 53 57 62 62 57 54 56 61 65 69 78 92 110 106 96 87 87 88 90 91 94 96 100 119 125 127 128 125 124 125 129 133 133 131 128 130 131 132 128 126 128 137 142 139 127 127 125 121 111 91 78 78 99 129 158 179 163 167 176 181 162 140 117 102 95 94 97 98 103 110 116 117 120 125 137 143 149 154 145 133 121 113 116 119 121 115 99 85 72 48 33 28 38 54 60 57 56 54 49 40 33 32 36 46 54 54 47 35 34 37 40 34 35 39 42 45 50 56 61 60 57 54 67 85 102 105 107 107 106 113 121 116 97 87 101 122 129 140 157 177 179 173 167 166 143 126 119 138 106 76 61 103 126 137 141 146 159 168 151 102 57 28 37 53 67 74 107 94 63 64 91 120 140 100 86 91 112 108 114 123 123 112 102 94 98 97 92 84 90 93 91 87 85 84 84 84 84 84 82 83 82 80 80 79 81 84 82 82 83 86 87 89 91 94 98 101 104 106 109 110 111 209 255 255
253 254 188 45 42 35 30 44 40 38 38 34 34 34 34 35 35 36 35 35 34 33 32 35 39 42 42 43 43 44 44 45 48 60 66 65 58 54 55 59 58 57 63 76 93 99 97 90 80 79 82 87 92 97 104 123 125 123 119 118 117 119 124 130 133 133 130 133 135 137 129 126 129 141 146 142 132 136 144 145 128 106 89 82 97 124 154 180 164 164 169 174 162 146 127 118 115 111 104 97 98 103 109 112 117 122 126 135 143 150 140 130 121 108 105 108 113 111 99 85 72 49 33 27 38 53 59 56 52 51 47 41 33 34 40 45 50 51 49 44 40 37 37 36 37 39 43 48 53 57 58 58 58 60 72 88 96 81 80 91 109 120 121 110 87 83 93 112 129 135 150 172 184 175 163 157 147 139 139 163 131 96 70 89 95 99 108 137 163 173 149 99 57 32 38 52 69 82 106 99 77 71 89 118 146 107 89 91 117 117 124 131 127 115 105 99 100 99 96 92 92 92 89 86 84 84 86 88 84 80 76 80 81 80 81 82 83 85 87 89 90 91 92 94 96 97 100 103 105 107 109 110 110 209 255 255
254 255 189 46 44 36 32 43 39 37 37 35 35 35 35 36 36 36 35 35 35 35 33 35 37 38 39 42 43 43 40 40 44 57 65 65 56 54 56 59 56 56 62 73 85 92 95 93 82 80 83 89 95 99 103 117 120 119 118 117 118 121 126 130 131 131 130 133 137 139 132 130 133 143 146 144 138 145 155 154 135 120 105 94 97 119 148 177 168 164 165 169 165 153 136 127 122 115 104 97 98 102 106 112 117 120 123 131 139 145 136 128 120 106 99 100 104 105 96 83 68 47 32 28 38 51 56 54 49 49 46 43 36 35 39 43 47 48 46 44 39 36 38 43 43 43 46 50 53 54 54 57 62 70 79 91 96 76 75 90 116 122 121 110 87 85 91 104 127 134 148 169 187 176 162 155 151 148 151 169 143 113 91 97 88 81 84 122 155 168 139 91 54 35 37 50 67 84 105 100 83 72 83 111 143 110 93 94 119 118 124 131 127 117 108 103 102 101 99 97 94 93 91 88 88 88 90 92 87 82 78 82 84 83 85 86 87 88 92 94 95 96 97 98 99 100 102 105 107 108 110 111 111 210 255 255
255 255 191 51 48 40 35 42 38 35 35 35 36 36 36 36 36 37 36 37 37 38 37 36 35 31 32 37 41 43 39 39 41 50 59 60 52 53 56 59 57 62 70 78 81 86 92 95 89 88 91 97 101 101 99 105 111 116 120 121 123 126 130 129 127 125 128 132 135 139 136 136 139 144 144 142 143 153 158 154 135 131 123 111 102 116 142 173 171 165 161 165 167 160 145 131 122 111 98 99 101 104 108 116 119 120 126 131 137 141 134 127 118 106 96 94 97 98 92 80 63 45 32 30 38 48 52 52 48 48 46 45 40 37 37 40 46 45 41 41 39 41 47 58 57 53 54 55 54 53 51 57 68 83 85 94 99 83 82 97 122 120 118 110 92 92 92 99 124 135 149 168 188 177 163 157 157 156 156 164 146 130 120 119 100 79 68 103 137 154 123 78 47 36 36 48 64 81 102 99 82 70 76 101 134 109 96 97 118 113 117 124 125 118 110 104 102 102 101 100 96 95 94 91 91 92 94 95 91 86 82 86 88 87 87 89 91 91 94 96 97 97 99 100 101 101 103 105 107 109 111 111 112 211 255 255
255 255 191 55 50 43 38 40 38 35 34 35 36 35 35 35 36 37 36 36 37 39 39 37 32 26 25 30 37 42 40 40 40 44 49 50 45 48 54 59 60 68 77 83 80 83 89 97 97 98 100 105 106 101 92 91 100 112 122 123 126 128 130 124 118 114 125 129 131 136 137 139 141 141 136 134 138 151 154 148 134 138 137 129 111 116 135 163 167 162 157 161 170 166 154 137 121 105 89 99 103 106 114 122 124 121 129 134 138 142 134 124 114 102 95 93 95 95 86 72 54 41 34 33 39 45 49 51 49 47 46 46 45 39 36 38 43 42 38 44 55 67 80 90 86 79 75 73 67 60 55 60 73 92 91 97 100 89 91 103 119 108 105 100 90 95 93 96 121 135 150 165 186 178 165 159 161 161 159 156 150 149 154 152 127 95 65 77 107 129 101 64 43 41 39 47 60 76 97 94 78 66 72 95 128 111 101 101 117 109 110 115 119 116 111 103 99 98 98 99 94 93 92 90 91 93 95 94 92 88 84 86 87 87 86 88 89 89 91 93 94 94 96 97 98 99 101 102 104 106 107 108 108 210 255 255
255 255 192 57 52 45 40 43 41 38 37 37 38 38 38 38 38 38 36 35 35 36 37 37 35 30 28 30 35 42 44 45 44 45 48 48 47 45 49 54 56 62 68 73 74 78 85 97 102 101 99 101 103 98 89 88 95 103 108 110 113 116 116 112 109 110 125 130 133 137 138 139 140 140 134 127 124 134 143 147 142 139 140 138 124 120 129 147 153 152 152 158 168 168 160 146 131 112 90 93 94 99 111 121 122 120 124 132 140 147 138 124 109 94 91 91 93 92 80 66 52 44 37 33 35 42 48 51 52 49 45 42 41 40 40 42 43 42 44 59 85 112 134 138 133 126 119 115 108 98 89 89 98 111 111 116 116 99 105 115 122 109 100 94 91 97 95 97 116 130 147 165 186 182 172 163 163 161 158 154 149 148 151 161 147 119 84 65 85 112 90 59 45 48 47 52 61 73 95 92 75 66 77 102 131 116 106 105 119 114 112 113 116 118 114 106 98 95 94 92 92 90 88 86 87 88 91 90 89 87 82 82 84 85 84 83 83 83 83 85 86 85 87 89 90 92 94 95 96 97 98 98 98 208 255 255
255 255 193 59 53 46 42 45 44 42 41 41 41 41 41 40 40 38 36 35 35 35 35 36 36 34 32 32 34 40 45 46 45 45 47 49 49 41 43 49 53 57 62 67 71 74 81 94 101 99 93 93 96 94 89 91 94 97 98 102 105 106 104 102 102 106 122 130 134 137 135 134 135 137 131 123 116 123 133 142 144 139 141 143 131 122 123 133 139 143 146 151 160 163 161 155 142 123 98 90 90 95 108 116 119 118 119 128 139 147 137 121 105 88 87 88 91 89 77 64 54 48 39 32 31 41 47 51 56 53 47 38 34 37 43 48 44 43 51 76 105 134 161 160 157 154 149 145 138 130 121 120 125 133 133 135 132 113 123 131 132 117 104 97 98 99 98 100 115 131 149 167 184 183 175 164 164 163 160 157 152 148 149 164 159 138 103 63 71 94 80 59 53 59 55 57 63 72 97 94 78 69 81 102 126 116 109 110 123 119 113 109 110 117 116 107 92 87 86 84 86 84 81 79 79 80 81 80 80 80 76 76 77 78 76 75 73 73 72 74 75 74 76 78 79 82 83 85 85 86 85 85 85 204 255 255
255 255 192 58 52 47 43 45 44 44 44 45 44 43 42 41 40 39 39 38 38 37 34 32 32 34 36 35 34 34 39 43 44 41 45 48 48 37 38 46 56 58 63 68 71 70 74 86 92 90 85 83 88 92 94 99 98 98 99 107 109 106 97 94 95 100 112 124 132 133 127 125 125 129 127 124 120 123 126 129 135 139 145 145 131 121 118 124 131 137 139 139 143 148 154 158 151 136 114 96 94 99 106 110 114 117 117 123 131 136 125 114 102 86 81 83 87 82 76 69 61 52 38 29 31 40 46 51 61 59 50 35 26 32 45 57 46 44 56 88 103 118 139 139 142 146 149 148 146 143 142 146 150 154 149 148 145 134 144 151 150 131 118 111 112 104 102 107 122 142 159 171 179 178 173 162 165 169 170 165 161 158 157 167 163 145 116 70 64 77 71 65 66 73 64 63 66 73 102 103 88 76 78 88 103 105 111 120 133 122 112 104 101 112 114 104 81 74 74 75 76 73 70 67 67 67 67 64 63 64 66 66 66 65 62 61 59 58 59 61 61 62 63 64 65 67 68 70 70 70 70 70 70 198 255 255
253 251 189 57 50 46 43 42 41 39 38 37 36 36 37 37 38 37 38 38 38 38 36 35 34 34 36 35 33 33 38 42 44 41 44 46 45 38 39 45 54 57 60 63 64 61 63 74 82 81 77 80 92 101 105 106 102 97 95 104 108 107 99 95 99 106 112 119 124 123 120 122 127 131 129 125 121 121 121 123 126 132 138 140 133 125 121 123 129 134 136 132 131 137 146 152 147 137 121 105 102 105 107 107 110 114 118 124 130 131 117 106 96 86 85 86 87 80 73 67 60 54 43 33 33 42 48 52 57 56 49 38 28 31 41 55 48 46 55 83 92 103 121 117 119 124 129 127 124 124 129 137 145 150 149 148 147 145 152 156 154 141 135 132 130 117 113 117 130 149 163 171 178 180 174 160 162 165 166 160 156 155 157 168 167 155 133 78 61 63 58 56 57 61 50 49 52 60 85 86 75 69 75 85 94 99 108 118 131 123 114 105 101 112 114 100 72 62 58 55 58 60 60 59 57 56 55 53 52 52 50 52 54 56 53 52 50 49 49 51 51 51 53 54 55 57 58 59 60 60 59 59 59 192 253 253
252 249 187 55 48 45 42 40 38 35 33 31 31 32 33 35 36 36 37 38 38 39 39 37 36 35 37 35 34 33 37 41 43 40 42 44 42 39 41 46 52 57 60 60 61 57 58 68 76 74 70 76 92 104 110 110 104 98 95 103 106 107 101 99 104 112 114 118 120 117 115 119 126 132 130 128 124 121 119 119 120 126 130 133 132 127 124 123 127 132 133 126 123 128 139 146 143 136 126 111 107 107 107 105 106 110 116 122 126 126 110 99 91 86 86 87 87 79 71 64 58 54 45 36 35 43 49 52 55 54 49 41 31 31 38 53 49 49 57 79 83 89 104 96 97 102 107 104 102 104 113 125 135 141 143 143 144 149 154 154 150 144 144 143 139 125 121 126 140 157 168 171 178 182 176 159 159 161 162 156 152 151 156 170 172 165 148 86 58 51 47 50 52 51 39 39 45 56 79 82 76 77 84 90 92 96 104 113 124 122 115 107 103 115 116 100 69 56 50 43 48 51 53 53 52 51 49 47 47 47 41 43 46 49 47 46 44 42 43 46 46 46 48 49 50 52 53 55 55 55 55 54 54 190 252 252
252 249 186 56 48 45 43 38 36 33 30 28 28 30 32 33 35 35 36 37 39 40 41 39 38 36 37 37 36 35 37 39 41 39 41 43 41 42 44 47 50 57 61 61 61 58 59 66 74 71 66 72 89 103 111 111 106 100 97 102 104 106 103 103 109 117 116 117 117 113 112 117 125 131 130 129 127 123 119 117 116 121 123 124 128 128 126 122 125 129 130 124 119 124 133 139 137 134 129 114 107 105 103 101 102 106 113 119 121 120 105 94 87 84 84 85 85 76 68 61 57 54 46 38 38 45 50 52 54 53 50 44 34 31 36 50 48 51 60 78 76 77 89 79 79 83 86 83 81 84 96 109 120 128 131 133 136 145 149 147 141 141 145 146 139 128 126 133 148 163 170 171 178 183 178 159 156 157 157 153 148 148 155 171 177 173 160 91 55 41 40 48 50 45 32 35 46 63 84 90 90 96 102 102 95 94 99 107 115 118 115 109 107 120 120 102 70 57 49 40 45 48 51 53 51 50 49 47 48 47 41 41 43 48 46 44 42 41 41 45 47 46 48 49 50 52 53 55 56 57 56 56 56 190 252 252
254 250 188 57 49 46 43 38 37 35 33 31 32 34 35 36 37 37 37 37 39 41 41 39 37 35 36 37 38 38 37 37 39 39 41 44 47 49 49 50 52 57 62 63 61 59 61 68 77 76 73 77 89 101 108 108 104 100 100 102 104 105 103 104 109 116 115 117 118 115 114 117 123 126 126 127 128 125 121 118 117 120 120 119 122 124 123 119 120 123 126 123 121 123 127 130 130 129 125 110 102 98 97 99 102 106 111 115 117 117 104 92 84 81 79 80 81 75 66 59 57 54 46 39 41 47 50 51 54 54 51 44 36 33 36 45 45 51 64 79 75 74 83 74 72 74 74 70 67 68 78 90 101 108 113 117 121 131 136 136 131 134 137 135 128 125 127 136 152 164 169 170 178 184 180 161 157 157 157 155 150 149 154 170 177 175 163 92 56 44 45 54 56 49 38 44 59 80 99 107 108 115 119 116 107 99 99 102 108 113 111 106 107 121 123 106 77 65 59 50 53 55 56 57 56 56 55 53 55 56 52 49 50 53 52 50 49 49 49 52 54 55 56 57 58 60 62 64 65 66 67 67 67 195 254 254
254 252 189 57 49 46 43 39 39 38 37 36 37 38 39 40 40 39 38 37 38 39 40 37 36 34 35 37 39 39 38 37 38 40 42 46 52 54 54 53 56 58 60 61 57 55 57 66 77 80 80 85 94 101 104 104 100 97 98 102 104 104 100 100 104 109 108 112 116 116 115 117 120 119 119 121 124 125 122 118 116 121 123 122 122 122 121 117 114 116 119 121 120 120 120 121 124 124 123 109 101 97 94 98 104 109 113 115 116 116 104 92 83 78 76 76 76 71 63 58 57 55 47 40 44 50 51 49 52 54 51 43 36 35 37 43 41 50 66 79 73 71 79 71 68 67 65 60 56 56 64 73 82 88 95 100 105 116 123 127 129 133 133 131 126 129 132 138 153 163 167 168 179 185 181 164 160 160 160 159 154 153 156 168 173 170 160 92 60 51 53 62 64 57 47 52 66 86 102 109 111 116 118 116 110 101 100 103 109 110 106 101 102 118 122 107 81 72 67 59 61 61 61 61 60 60 60 59 61 63 61 57 57 58 59 57 57 58 58 60 60 62 62 63 64 67 68 71 72 74 75 75 75 198 255 255
254 252 189 56 48 46 44 40 41 41 40 39 40 41 41 41 41 40 38 37 37 37 38 35 34 34 35 36 38 38 37 37 39 42 43 47 56 58 57 56 60 59 59 59 55 52 54 63 76 82 84 91 97 100 100 99 95 92 95 101 103 101 94 94 96 100 99 105 112 115 116 117 117 113 112 115 120 125 122 117 113 122 126 126 125 123 120 117 110 109 112 117 118 117 114 113 117 120 121 110 102 98 95 99 106 114 118 117 117 116 103 91 81 75 72 71 71 65 59 56 57 56 48 41 46 52 52 48 52 55 52 43 38 37 39 42 38 48 67 79 73 69 75 66 62 59 57 52 49 48 53 58 64 69 78 83 88 102 110 118 126 132 131 128 126 135 137 141 156 164 166 168 179 184 181 168 165 165 165 163 158 157 159 166 167 164 155 92 63 57 58 66 69 64 55 58 69 86 98 105 108 111 112 111 108 102 101 103 111 108 103 98 100 117 121 108 84 77 75 68 70 69 67 67 66 66 66 66 68 69 68 64 62 63 64 64 64 66 66 66 66 67 68 69 70 72 74 76 78 80 81 81 81 200 255 255
254 251 188 56 47 45 45 41 42 43 42 40 40 40 40 40 41 40 39 37 36 35 37 35 34 36 37 38 38 38 37 37 40 43 42 46 56 59 58 58 62 61 59 57 54 53 55 64 75 79 82 90 95 96 92 92 89 88 93 99 101 98 89 87 89 92 91 99 108 113 116 116 114 107 107 110 116 124 122 117 112 122 129 132 131 127 125 122 111 107 108 114 117 114 109 107 112 118 121 114 107 102 98 102 110 120 125 123 120 117 103 90 80 72 69 68 66 60 56 55 57 56 49 43 47 52 53 50 53 56 54 45 41 40 40 41 37 48 69 80 72 65 68 58 53 50 48 45 44 43 46 47 50 53 62 65 70 86 95 106 119 127 127 126 129 143 146 147 160 166 167 168 180 183 180 172 170 170 169 165 161 159 161 163 163 159 151 93 66 60 60 68 71 68 58 59 66 80 88 95 101 103 105 104 102 99 100 103 112 109 104 100 102 118 123 110 87 82 82 79 78 76 74 74 74 74 75 75 76 76 74 70 67 67 68 69 70 72 72 72 70 72 72 73 74 76 79 81 84 86 87 87 87 202 255 255
254 251 189 56 47 46 45 41 44 45 44 41 40 40 40 40 40 40 39 37 36 35 36 35 36 37 38 39 38 38 37 37 39 41 41 44 52 58 58 57 60 60 59 58 56 58 61 69 74 75 76 83 90 91 90 94 93 92 95 99 99 97 92 91 93 95 95 100 108 115 119 119 116 109 110 113 119 126 125 121 118 125 131 135 136 133 132 132 122 116 116 122 124 120 113 108 110 114 117 114 108 104 101 104 111 121 126 125 121 116 101 89 78 67 65 64 64 58 55 55 57 55 49 44 48 52 53 52 55 57 54 47 44 42 41 44 42 53 74 85 76 68 68 56 51 49 48 46 46 46 47 45 45 46 54 55 57 70 77 87 101 112 114 117 125 141 146 147 158 164 167 170 177 179 178 175 172 172 171 165 160 159 161 163 164 160 151 92 64 57 59 67 70 66 55 55 62 78 85 92 98 103 106 106 102 97 96 100 109 108 106 103 104 118 122 110 88 85 86 84 82 81 80 79 80 80 81 82 82 81 79 75 72 71 72 73 75 77 77 76 75 77 77 78 79 82 85 87 89 92 92 93 92 204 255 255
255 252 189 58 48 46 46 42 45 46 45 43 42 42 41 41 41 41 39 37 36 35 35 35 36 37 38 38 39 38 36 35 38 40 40 43 49 58 59 56 56 58 59 58 56 59 64 71 72 71 71 79 88 92 93 101 100 98 98 98 99 98 97 97 99 102 102 105 110 117 122 123 120 116 116 118 123 129 129 127 126 130 133 136 139 138 139 140 133 129 128 133 134 128 120 112 110 110 111 112 109 105 102 106 111 118 124 124 121 115 99 86 75 63 62 62 63 58 55 54 57 55 49 44 48 52 53 53 56 55 53 48 45 43 43 47 48 61 81 90 81 72 72 60 54 53 51 50 50 50 50 47 45 44 52 52 51 60 63 71 84 98 102 108 120 136 142 144 154 161 166 170 175 176 177 177 173 172 172 165 161 159 161 165 167 164 152 91 62 56 60 67 68 61 50 51 59 76 83 88 93 100 107 108 105 96 93 96 107 106 104 102 101 114 117 106 87 85 86 84 84 83 82 81 81 82 83 85 85 84 82 79 77 76 77 78 79 81 81 80 79 81 81 83 84 87 90 92 94 96 97 97 96 205 255 255
255 253 191 60 50 47 47 43 47 48 47 45 45 45 44 42 42 42 40 37 36 35 35 36 37 37 36 37 38 38 35 35 37 38 39 41 46 57 58 55 52 56 58 58 55 59 64 70 69 68 69 76 87 94 98 108 107 103 100 98 99 101 103 105 107 110 110 110 113 120 126 129 127 124 124 125 129 134 133 133 134 134 136 138 141 141 143 146 143 140 140 145 144 137 128 118 112 108 106 111 109 106 104 107 110 115 121 122 120 114 96 82 71 59 60 61 61 58 54 54 57 54 49 45 49 52 54 54 55 54 51 48 46 44 45 51 55 68 86 96 87 78 76 65 61 61 60 59 59 59 57 53 49 46 54 52 49 54 54 60 71 86 92 99 115 130 137 139 148 156 164 170 174 175 176 178 173 172 173 166 161 160 162 167 171 166 151 88 60 55 60 65 65 57 47 48 58 74 81 85 88 96 106 111 108 96 91 94 105 101 99 97 97 107 109 100 84 83 84 81 83 83 83 81 81 80 81 83 84 83 83 81 80 80 81 82 83 85 84 83 82 84 85 86 88 91 94 96 98 99 99 100 99 206 255 255
255 254 191 61 51 48 47 45 49 50 49 47 46 45 42 41 40 40 39 37 37 37 38 38 39 39 37 37 36 36 37 38 41 35 36 38 40 49 51 50 51 54 58 62 61 63 65 68 65 63 63 67 75 80 85 99 102 101 99 96 97 101 108 113 116 117 117 115 116 123 132 135 135 130 132 137 143 146 142 138 139 138 138 140 144 143 144 146 145 141 141 146 147 144 136 125 115 107 103 111 113 113 114 114 113 114 120 122 119 111 92 78 66 54 58 60 58 53 52 53 55 54 50 46 47 51 54 58 61 57 52 47 46 45 48 57 62 72 86 99 91 80 76 69 71 78 84 88 91 92 85 73 61 53 55 49 44 50 50 54 63 71 77 90 113 127 135 139 144 154 163 172 174 172 174 181 176 175 175 166 162 161 162 167 168 159 136 80 55 52 56 62 64 60 53 53 58 69 77 81 84 93 103 108 106 97 91 91 97 92 92 96 100 109 110 101 86 84 85 84 84 84 84 82 83 83 83 84 83 82 84 84 85 87 86 86 86 86 86 86 86 88 89 90 92 95 97 99 100 101 102 102 101 207 255 255
255 255 193 63 54 50 49 48 50 51 50 48 46 45 43 41 40 39 38 38 38 38 38 40 42 41 38 37 36 36 38 39 40 35 36 38 39 45 47 48 49 53 56 60 62 65 67 69 65 63 63 69 76 78 78 93 98 99 100 99 100 103 111 117 120 121 122 118 117 121 128 131 132 132 135 138 140 142 140 138 140 137 137 140 144 144 144 145 147 146 144 146 148 146 141 132 122 114 107 116 115 113 112 111 108 107 113 116 114 105 90 77 65 52 56 58 57 50 50 52 55 54 51 47 47 49 52 55 59 57 54 50 47 47 52 62 67 72 79 88 84 79 78 77 84 96 107 114 117 117 110 98 87 77 74 63 53 52 48 49 55 61 67 81 105 121 132 139 144 152 162 171 171 168 170 179 173 173 174 166 164 163 164 168 170 161 135 77 53 50 56 62 65 62 57 57 61 71 79 82 84 93 102 106 103 95 90 90 94 92 95 100 104 112 112 104 90 88 89 90 89 87 86 84 85 85 86 86 85 85 86 85 87 89 88 87 87 87 87 88 88 89 90 92 93 96 99 100 101 102 102 102 102 208 255 255
255 255 194 63 55 52 50 49 51 51 50 47 45 45 43 41 41 40 39 39 38 38 37 41 44 44 40 37 36 37 38 39 38 35 37 40 41 43 46 48 47 52 54 56 61 65 68 69 65 63 65 74 81 80 76 90 95 97 99 102 103 106 113 118 122 125 127 121 117 119 124 126 128 134 137 136 132 134 137 138 140 136 136 140 144 144 143 144 150 150 147 145 146 146 145 139 132 124 116 125 120 112 110 109 104 100 104 109 108 99 88 76 64 52 56 57 55 48 49 51 55 54 51 48 46 49 51 53 55 55 56 55 50 51 57 66 73 75 75 77 78 81 85 91 100 113 126 134 138 137 130 123 116 109 101 87 71 61 52 48 49 53 57 70 95 113 129 140 146 152 161 171 170 167 168 176 169 170 173 166 166 166 165 170 173 164 134 75 51 50 55 61 64 62 59 60 66 75 82 84 85 93 101 104 99 92 89 90 92 96 100 104 107 113 112 105 92 90 92 93 92 90 88 86 86 87 88 88 88 88 87 86 87 90 89 89 88 87 89 90 90 91 92 93 95 98 100 101 102 103 102 102 102 208 255 255
255 255 193 63 55 52 50 48 49 49 48 45 44 44 43 42 42 42 41 41 39 38 39 43 47 47 43 40 38 38 40 39 38 38 40 41 40 40 44 47 45 51 53 52 59 63 65 65 62 61 65 78 86 84 77 88 93 96 97 102 105 108 116 120 124 129 133 125 118 118 122 125 129 138 142 137 128 132 136 139 139 137 138 141 142 143 143 143 151 152 149 142 142 145 148 147 143 137 128 137 129 118 114 112 104 97 97 103 103 94 85 74 64 53 55 55 52 48 49 52 55 53 51 48 47 52 54 54 53 55 58 62 54 56 63 72 83 86 82 77 82 91 101 110 118 128 140 149 152 150 147 145 144 140 134 118 99 80 65 53 44 44 48 61 84 106 126 143 150 153 160 171 171 169 169 172 165 168 173 168 168 168 166 171 175 164 128 70 48 49 53 56 58 58 59 63 69 77 83 85 86 93 100 101 96 89 89 91 93 100 105 107 107 108 105 98 90 89 90 93 94 94 92 89 89 89 91 93 93 93 91 88 89 92 91 91 91 91 93 94 94 93 94 96 97 100 102 103 104 104 103 102 102 207 255 255
255 254 193 62 55 51 48 45 46 46 45 44 43 44 44 43 43 43 44 43 42 40 42 46 47 47 44 42 40 40 41 41 41 42 43 41 38 38 43 47 45 50 52 52 57 59 58 58 58 60 66 78 84 84 80 88 92 95 97 102 105 110 117 120 124 129 135 127 119 118 123 126 130 139 141 136 128 133 137 138 138 141 142 143 141 141 140 138 146 147 145 138 138 142 148 152 151 146 140 148 141 132 129 126 117 106 101 104 101 91 81 72 64 56 55 53 51 50 52 53 55 54 51 49 49 55 58 57 54 54 57 61 53 54 60 68 81 86 83 75 82 93 106 116 123 129 139 147 150 150 150 153 156 155 153 141 123 104 88 70 52 45 48 60 79 100 121 139 148 150 156 167 171 170 169 168 163 168 174 169 168 167 166 170 173 157 114 66 51 54 56 55 55 57 61 66 72 78 83 84 85 91 97 99 96 90 91 95 97 102 105 105 105 103 98 92 89 88 89 91 93 94 94 92 90 90 92 94 96 96 94 92 92 93 92 93 93 93 95 96 95 94 95 97 98 100 102 102 103 103 102 101 100 206 255 255
255 254 193 62 55 51 48 44 45 45 44 43 43 44 44 43 44 44 45 45 44 43 45 46 45 45 44 43 42 42 43 43 42 44 43 41 38 37 42 47 47 48 49 52 57 55 52 54 58 63 69 74 78 79 81 85 90 95 99 104 109 113 118 120 122 124 132 126 119 118 123 126 129 135 137 135 129 135 137 137 137 144 146 145 141 140 138 136 141 142 140 135 136 141 147 153 153 151 148 153 149 142 142 140 131 118 108 106 100 88 76 69 63 58 55 52 50 52 54 55 55 54 52 50 50 56 59 57 52 51 53 57 53 54 58 65 77 84 85 76 83 94 106 116 123 128 136 143 147 149 152 157 161 162 162 154 140 124 110 90 66 51 52 62 76 93 113 132 142 143 150 163 170 170 168 166 163 168 174 169 167 167 167 171 170 150 102 64 55 61 60 56 55 57 64 69 74 77 81 83 85 91 95 97 96 90 92 96 100 103 104 104 104 100 94 89 91 90 89 90 91 93 94 94 92 91 92 94 96 97 96 94 94 93 93 94 94 95 96 96 95 94 96 97 98 99 100 101 101 101 101 100 100 206 255 255
255 254 193 62 56 52 49 44 45 45 44 44 44 45 44 44 44 44 45 46 46 45 46 44 43 42 45 45 45 44 45 45 44 44 43 41 40 38 41 46 50 46 48 54 58 52 49 52 63 69 72 69 69 71 78 79 86 94 103 110 115 118 120 120 119 117 125 123 119 120 124 125 126 129 131 132 131 136 136 135 136 146 150 149 143 140 138 135 136 135 134 133 136 141 146 150 151 152 152 154 151 149 151 151 144 132 118 109 99 86 72 64 60 59 56 53 52 53 55 55 55 55 53 51 50 55 57 55 49 47 48 52 53 54 57 62 71 80 87 81 85 93 103 112 119 124 132 138 143 147 153 158 161 163 162 158 150 142 132 111 84 61 59 65 74 86 104 122 133 135 143 157 168 169 167 165 164 170 174 168 167 167 169 174 168 143 92 64 61 68 66 61 59 61 68 72 75 76 80 82 85 91 95 96 96 91 93 97 100 102 103 102 103 98 94 90 94 94 92 90 90 91 93 95 94 93 92 91 93 96 97 96 94 93 93 93 93 94 95 94 93 93 95 96 96 97 98 98 98 98 99 99 99 206 255 255
253 252 191 60 54 52 49 45 46 46 45 45 45 45 44 44 44 44 45 45 45 45 44 41 39 40 45 46 47 46 47 47 46 43 42 42 43 39 39 44 51 46 48 56 58 52 47 52 67 74 74 63 58 62 73 73 82 95 109 115 119 123 123 123 118 112 121 123 123 126 130 129 126 123 127 131 133 138 137 135 137 146 150 148 143 141 139 137 135 134 134 137 140 144 146 147 148 150 154 150 148 147 152 153 149 140 127 113 99 85 69 61 56 56 52 51 53 54 55 56 56 56 53 51 50 53 53 49 43 44 45 46 49 48 47 50 57 70 85 83 86 92 100 108 116 123 130 135 140 145 151 155 157 157 156 156 157 156 151 131 99 69 64 66 69 78 95 115 129 134 143 158 169 171 170 170 168 171 173 166 166 168 174 178 169 141 88 61 58 67 66 62 59 58 63 68 71 72 78 82 86 93 95 95 94 90 91 95 100 97 96 95 97 94 92 90 93 92 90 87 86 88 91 94 94 93 92 89 90 92 95 95 92 90 90 90 91 92 93 93 92 93 94 95 96 96 97 97 97 97 98 98 98 204 253 253
252 252 190 58 53 51 49 45 47 47 47 47 47 46 45 45 45 45 46 45 45 44 43 40 38 40 45 47 47 46 48 48 47 42 41 41 43 40 40 43 51 47 49 56 58 53 49 51 64 71 71 59 54 59 72 71 80 92 106 112 117 122 124 124 120 112 123 126 128 130 134 132 127 120 123 128 133 137 137 137 139 144 145 143 138 137 137 138 137 137 138 144 147 148 149 148 146 148 152 149 147 147 151 151 148 142 135 122 107 91 71 59 53 52 50 50 53 54 54 54 56 55 54 52 51 53 52 48 44 49 52 53 55 53 50 52 59 71 86 84 86 91 98 106 116 124 131 134 137 142 148 152 153 151 149 154 161 162 160 143 115 84 76 74 71 74 89 108 123 131 143 158 169 171 171 172 168 170 171 166 166 170 175 178 164 133 82 55 54 64 65 60 57 57 60 64 67 68 76 81 86 91 93 93 94 90 92 96 103 95 91 90 91 91 90 88 90 89 88 87 84 85 88 92 93 93 92 90 89 90 94 94 92 89 90 91 91 93 94 94 95 95 96 97 97 98 98 98 98 98 98 99 99 204 252 252
253 253 191 57 53 52 50 46 48 48 48 48 48 48 47 46 46 46 46 45 44 43 41 39 38 40 44 46 45 45 46 47 46 41 40 40 42 42 41 44 51 48 49 55 59 55 51 49 58 64 66 58 55 60 72 72 79 89 100 106 112 117 122 124 121 116 126 129 130 130 133 131 127 119 120 125 131 134 134 137 141 141 140 137 132 131 133 137 140 142 145 153 153 153 152 151 147 147 150 149 149 149 152 148 145 142 143 134 120 101 76 60 50 48 47 49 53 54 53 53 54 54 54 54 52 53 52 49 48 57 66 69 74 73 71 74 81 89 96 92 93 96 100 108 119 128 134 135 137 141 147 150 149 144 144 152 161 161 160 150 131 105 94 87 80 74 83 100 115 125 140 157 167 169 170 172 167 168 170 166 168 172 174 172 154 121 73 51 51 61 66 62 59 59 61 62 64 64 74 80 84 89 90 91 93 92 94 100 109 98 92 89 88 89 90 88 88 89 89 89 84 83 85 89 91 92 92 90 89 90 94 94 92 90 91 92 93 94 96 97 97 97 97 98 99 98 99 98 98 98 98 98 98 204 253 253
255 255 193 58 55 55 54 48 50 50 50 51 51 52 51 49 48 47 46 45 45 45 41 40 40 43 45 46 45 43 41 42 44 42 40 39 42 47 47 47 52 50 50 52 59 58 53 46 49 54 60 60 60 66 75 75 79 84 90 98 105 111 118 121 121 120 127 128 127 125 125 125 123 117 117 122 129 129 130 134 142 138 135 131 126 125 129 136 144 148 152 160 158 157 155 155 150 146 146 149 153 155 155 148 143 141 149 148 137 115 81 58 45 42 46 49 52 53 52 50 49 52 55 56 52 55 56 54 53 70 86 99 114 120 124 129 137 136 128 117 116 116 113 119 127 135 139 139 139 142 149 150 147 139 139 148 157 153 152 150 146 131 118 107 96 78 78 88 101 112 129 151 163 163 163 167 163 165 168 167 172 173 171 161 138 105 62 48 51 61 69 67 66 67 67 65 62 63 70 76 81 85 87 90 94 97 100 106 117 107 99 93 90 91 92 91 91 93 93 94 86 82 82 86 90 91 89 89 89 92 97 96 95 95 97 98 99 98 100 101 101 101 100 100 100 100 99 99 99 98 99 99 99 205 255 255
255 255 194 61 58 56 54 48 49 49 50 53 55 56 55 53 52 50 50 49 48 47 43 43 44 45 45 45 45 45 43 43 45 43 42 41 42 48 48 46 48 50 52 53 57 56 52 49 54 59 63 60 60 64 71 72 74 76 77 82 89 98 110 115 117 117 123 125 123 121 125 128 127 121 119 121 127 123 124 129 135 131 129 128 126 127 129 134 144 148 151 157 155 154 154 156 152 147 143 146 152 158 159 152 148 147 154 153 144 127 90 64 49 43 50 53 54 55 59 60 58 58 58 54 45 47 52 58 68 87 102 111 120 126 132 139 149 151 148 144 141 136 129 126 132 141 145 144 143 146 151 152 149 142 142 150 159 156 153 153 153 143 136 128 115 85 74 78 94 108 125 142 158 161 162 165 165 168 171 170 174 176 173 160 135 101 61 52 55 64 70 69 67 65 64 66 69 72 77 79 80 80 84 90 98 99 100 103 109 100 93 88 85 86 86 85 87 89 90 89 86 86 86 88 88 87 85 87 89 92 99 99 98 99 101 101 102 103 103 103 102 103 102 101 101 101 100 100 100 99 100 100 100 207 255 255
255 255 195 68 62 60 56 48 48 49 49 54 55 56 56 53 52 51 50 50 49 48 44 45 45 46 45 45 45 45 43 43 45 47 46 44 42 48 49 46 47 52 54 54 56 52 50 51 57 62 64 60 61 64 68 68 69 69 68 72 79 90 104 111 115 117 123 124 123 121 126 130 131 124 121 123 129 122 123 127 131 126 124 123 124 126 129 133 142 146 148 150 148 148 150 155 154 150 144 144 152 160 164 157 154 154 160 159 153 139 102 75 57 48 57 62 65 72 82 87 84 81 76 65 45 43 51 64 74 86 95 99 107 114 123 133 142 149 154 157 154 147 138 131 136 146 151 149 147 148 152 153 150 143 144 153 161 157 154 154 156 152 147 139 128 93 74 73 93 107 121 135 154 159 160 164 166 169 171 169 174 176 173 155 129 96 60 55 55 59 66 69 67 62 60 65 73 81 81 80 78 76 82 90 98 99 99 100 103 95 89 85 81 83 84 85 85 87 88 86 87 89 91 91 89 85 82 83 86 91 99 102 103 104 105 105 106 107 106 104 103 104 103 101 101 101 100 100 99 99 99 99 99 207 255 255
255 254 197 77 69 66 61 49 50 49 48 53 53 53 51 49 49 48 47 47 48 49 46 46 45 45 45 45 45 44 43 42 44 54 52 48 44 49 50 50 51 54 54 53 54 49 47 49 56 59 61 60 63 64 65 66 65 64 62 67 75 87 100 108 115 120 125 127 126 122 127 132 133 125 123 127 135 126 127 129 131 124 119 117 119 124 128 132 138 142 143 143 140 139 142 150 156 155 148 145 153 162 168 161 158 159 164 165 162 152 117 91 73 60 69 78 87 104 122 130 128 123 112 92 56 48 56 70 69 68 67 68 78 90 102 112 121 131 144 154 150 145 140 134 139 150 156 153 150 149 153 153 149 142 146 154 160 154 153 153 156 158 150 142 138 103 81 75 96 107 118 130 150 155 157 165 166 167 166 163 170 173 169 146 118 89 58 57 51 47 57 68 70 62 56 63 74 86 82 78 75 74 80 88 94 95 98 100 101 94 90 86 80 83 88 91 87 88 89 88 89 92 94 94 92 87 82 78 82 89 98 105 107 109 110 110 110 110 108 105 103 104 102 100 100 99 98 98 97 96 96 96 96 206 255 255
254 253 197 80 72 69 65 55 55 53 50 52 51 50 48 47 48 47 47 46 47 48 47 47 47 47 47 47 46 46 46 46 47 54 53 51 48 49 49 50 53 54 54 53 53 50 48 51 54 56 58 59 62 64 65 67 64 61 59 64 72 82 93 103 111 117 122 123 122 118 122 129 132 128 126 131 140 130 128 128 128 122 118 116 120 126 130 132 136 139 141 143 142 142 144 150 156 156 151 150 154 160 163 157 153 152 157 161 164 162 138 122 109 99 105 112 121 134 146 153 153 150 142 121 81 67 69 77 72 67 64 65 68 74 81 89 95 108 125 136 135 133 132 129 136 147 155 154 152 152 153 154 153 151 155 157 157 154 157 158 157 160 155 150 148 117 95 86 104 114 124 136 156 161 161 165 167 166 162 161 167 170 165 142 111 80 53 56 51 46 53 67 73 69 63 65 73 83 77 74 73 75 81 87 90 94 97 97 95 92 91 91 86 87 90 93 90 90 91 91 92 94 95 92 89 85 83 81 85 90 93 99 102 105 107 108 109 109 106 103 101 101 100 98 98 97 96 96 95 94 94 94 94 204 255 255
254 253 197 78 73 70 67 60 58 55 53 53 51 49 48 48 49 49 48 47 46 47 47 47 47 48 48 47 46 46 49 50 49 50 51 52 52 49 48 49 52 51 51 53 53 52 52 53 54 55 56 57 60 63 65 68 65 61 60 64 69 76 87 97 105 111 118 119 118 116 120 126 131 129 128 133 141 131 127 125 125 123 120 120 126 131 134 135 137 140 142 146 147 147 148 151 154 154 152 154 156 157 157 152 148 146 151 157 163 167 155 147 141 133 134 136 138 142 148 153 156 158 155 140 105 90 89 94 91 89 88 87 80 76 76 79 82 93 108 118 121 123 127 127 134 144 151 152 152 153 154 154 155 158 160 158 154 155 159 161 160 160 159 158 153 127 105 95 108 119 131 143 164 168 165 163 168 165 159 161 165 168 164 142 107 74 49 54 56 55 55 65 73 75 70 70 73 79 75 73 75 77 82 86 89 95 97 95 89 88 90 93 92 90 90 91 92 92 93 95 95 95 93 90 87 85 86 89 92 93 90 93 96 99 101 104 105 105 103 101 99 97 97 97 97 96 94 94 94 93 93 93 93 204 255 255
253 254 198 77 74 71 68 65 61 58 56 55 52 51 51 51 52 52 52 50 48 47 48 48 49 50 49 47 46 48 52 53 51 46 48 53 56 50 48 48 50 48 49 52 52 54 55 55 54 53 53 55 58 60 63 68 66 64 63 64 66 70 81 91 97 102 112 115 115 114 119 125 130 128 127 131 138 130 125 123 123 124 124 125 132 135 135 136 138 140 142 147 149 150 150 150 150 151 152 157 157 154 150 146 144 143 149 155 162 169 165 164 162 156 150 145 141 136 139 144 151 157 160 152 124 113 111 115 115 118 120 117 103 91 83 80 79 85 97 103 109 116 124 127 134 143 149 151 153 154 153 153 155 160 163 157 152 155 161 164 164 159 163 164 158 136 113 100 111 122 134 147 169 171 167 162 168 165 158 161 164 166 163 141 104 69 45 54 61 64 58 63 72 80 77 75 74 76 74 75 79 81 82 85 89 96 97 93 84 85 89 95 97 92 89 89 92 93 95 98 97 96 93 90 87 88 91 97 99 97 90 90 91 94 96 99 100 100 100 99 96 93 95 96 95 94 93 93 93 92 93 92 92 204 255 255
254 255 200 79 77 74 70 65 61 59 58 57 55 54 54 55 55 55 55 54 53 51 51 52 52 52 51 49 49 51 54 54 51 46 49 54 58 54 52 49 49 46 46 49 50 53 55 57 56 54 53 54 57 58 58 64 66 66 67 66 64 65 76 85 91 95 108 114 117 118 122 128 132 126 122 125 132 126 125 125 124 126 128 130 136 134 132 132 136 136 136 140 142 143 143 143 146 149 152 156 154 150 146 144 145 148 155 161 166 170 168 166 163 154 143 133 127 122 128 138 149 157 161 156 132 129 133 139 136 139 141 139 127 114 102 92 88 89 94 95 105 116 125 130 138 145 150 151 152 153 152 150 151 155 158 156 153 155 159 162 165 160 165 167 162 143 117 100 109 119 129 142 166 168 164 161 167 164 158 159 163 165 161 134 96 63 45 56 65 69 61 63 70 78 77 76 75 77 76 79 83 84 83 85 89 98 98 94 84 84 87 93 96 92 90 89 91 93 95 100 98 97 95 94 93 94 97 101 102 100 93 93 94 96 98 100 101 101 101 99 96 93 96 96 96 95 94 94 94 94 94 93 93 205 255 255
253 254 200 79 77 75 71 65 62 60 59 58 56 55 54 54 55 55 55 55 54 54 53 55 55 54 53 53 54 55 54 52 49 48 50 53 57 55 53 51 49 47 47 48 49 50 53 57 57 55 54 56 59 59 57 61 63 65 67 66 65 65 72 80 85 90 104 114 120 122 125 129 132 126 121 123 132 129 128 128 124 126 128 131 135 130 126 125 127 127 128 130 130 130 130 134 142 147 150 149 146 143 139 139 143 148 155 161 165 167 168 165 159 148 136 127 123 121 129 140 153 161 163 157 136 143 147 144 123 122 127 134 134 128 117 102 95 91 89 85 97 108 115 125 133 140 145 148 151 152 152 150 151 154 159 159 158 159 161 161 160 160 165 169 167 152 127 107 112 119 128 139 160 163 162 162 166 162 157 159 165 164 153 118 84 58 49 59 66 68 64 66 70 74 74 74 74 76 75 79 85 89 89 89 90 97 98 94 86 87 89 92 95 93 91 91 92 93 95 100 99 98 97 98 99 99 101 102 102 101 97 98 99 101 104 106 106 106 105 101 98 97 98 99 98 97 96 96 96 96 95 95 95 205 255 255
251 253 199 78 77 75 72 67 65 63 62 59 57 55 55 54 55 54 54 54 55 55 54 56 57 56 55 56 57 58 56 52 49 50 51 53 57 56 54 53 51 49 48 50 49 49 51 56 57 56 55 58 61 61 58 61 62 64 66 67 66 65 69 75 79 84 98 110 118 121 124 127 130 124 121 124 134 133 132 130 125 126 129 133 134 128 123 120 121 123 125 126 125 123 123 129 139 145 146 140 137 136 134 136 141 147 153 158 162 163 168 164 156 143 131 125 124 125 132 142 155 163 163 155 139 153 154 140 103 99 107 121 131 133 127 112 103 93 84 77 88 100 105 117 125 132 139 145 150 153 153 153 154 157 161 161 161 162 163 160 156 160 165 169 170 159 138 119 120 124 130 139 155 161 162 163 164 160 156 159 166 161 141 100 71 55 54 61 65 67 67 70 72 73 73 74 74 75 74 79 88 95 98 96 93 97 97 94 89 90 91 92 95 94 94 94 95 95 97 101 100 99 98 100 102 103 103 102 102 101 100 101 102 103 107 108 109 109 106 103 100 100 100 100 100 98 98 97 97 97 96 96 96 205 255 255
250 252 198 76 75 74 72 68 66 65 64 60 58 56 55 54 54 53 52 53 54 55 54 56 57 57 56 57 59 60 57 54 52 54 53 54 58 54 54 54 55 52 52 53 51 49 50 56 56 55 56 60 62 62 59 61 61 61 64 68 67 66 66 71 75 80 92 103 112 117 118 122 126 124 123 129 139 140 137 132 126 127 130 134 133 128 124 120 121 125 128 129 125 123 123 130 139 143 141 133 131 132 132 135 139 145 149 154 158 159 168 164 152 137 127 126 130 131 135 142 154 162 159 150 139 157 155 131 83 75 84 101 120 131 132 123 111 95 78 71 81 91 95 107 115 123 132 141 149 153 155 157 159 161 163 163 163 166 166 161 155 161 167 171 172 164 148 133 132 135 138 142 153 160 163 163 162 158 155 160 166 154 125 82 59 52 60 63 64 66 71 74 75 74 75 76 76 75 75 80 89 100 105 103 96 95 95 94 92 95 94 93 95 95 96 97 99 98 99 101 101 100 99 100 103 104 103 102 101 100 101 101 101 102 106 107 107 108 105 102 101 101 101 101 100 99 98 98 97 96 96 95 96 204 254 254
249 252 198 78 76 74 71 67 65 65 64 61 59 58 57 56 55 54 52 52 53 54 53 54 55 55 54 55 56 57 56 55 56 59 57 57 60 56 56 57 59 55 54 55 52 49 49 54 54 53 55 61 63 63 60 64 63 62 63 68 67 64 64 68 73 78 86 96 105 108 111 116 121 122 124 131 142 143 138 132 126 129 132 135 133 131 129 127 130 135 138 137 131 129 130 136 141 141 138 130 131 136 139 142 146 151 153 158 160 160 164 156 141 122 115 117 124 128 133 142 152 159 153 142 133 151 151 130 87 76 78 88 107 123 135 136 123 101 79 76 84 93 99 106 113 120 129 139 148 154 157 159 159 157 158 159 160 162 161 160 159 166 168 169 170 160 147 138 141 143 143 144 152 158 162 162 159 156 155 159 161 145 111 70 54 52 63 65 65 67 74 76 76 73 76 80 82 81 83 86 91 101 107 106 99 95 95 96 97 98 95 92 92 95 99 102 103 104 104 102 103 101 100 101 104 105 104 101 99 98 99 97 96 96 100 100 100 101 99 98 98 99 98 98 98 97 97 96 96 95 94 93 93 203 254 254
249 252 198 80 76 74 70 66 65 64 64 61 59 59 58 56 55 53 52 53 54 55 55 55 55 54 53 54 55 57 57 57 58 59 57 56 58 58 58 58 59 57 56 57 52 50 51 55 52 51 54 62 65 64 60 63 64 63 64 68 67 65 64 67 71 75 80 87 93 97 101 108 115 119 123 130 138 141 138 132 127 131 134 136 132 131 132 134 138 142 144 142 136 133 133 135 137 138 138 136 139 144 146 149 152 155 157 160 160 156 159 151 137 118 113 115 122 127 132 139 150 157 150 138 130 146 148 131 90 74 71 78 98 116 130 140 130 110 86 80 86 93 100 105 110 117 127 138 147 153 156 159 161 160 161 160 160 161 159 159 163 167 168 170 171 160 149 142 146 148 148 147 154 159 161 160 159 157 157 160 157 137 102 65 53 53 62 65 66 68 71 72 72 72 77 83 86 84 85 86 90 98 104 105 100 94 93 94 96 97 95 91 92 95 98 101 102 102 100 97 99 100 100 101 102 101 100 96 94 93 95 95 94 94 96 96 96 96 94 95 95 97 96 96 96 96 95 95 94 93 92 92 92 202 254 254
250 251 198 81 76 72 69 65 64 64 64 61 59 59 59 57 56 53 53 54 56 57 58 58 57 55 54 55 57 59 58 58 58 57 55 54 55 58 59 57 56 58 59 59 52 52 54 56 52 51 54 62 67 66 62 62 63 64 65 68 67 66 66 67 68 71 73 78 83 87 93 101 109 116 121 127 133 138 135 132 128 133 136 137 131 130 133 139 142 145 145 144 139 136 133 131 132 135 140 144 147 150 151 153 156 158 161 161 157 151 154 146 134 119 114 116 121 126 130 137 146 153 145 133 127 143 147 133 92 71 65 71 91 107 122 137 134 120 99 88 89 94 101 104 107 113 124 137 146 150 152 157 161 165 165 163 161 160 158 159 164 166 167 170 172 162 152 147 151 153 153 152 158 161 162 158 159 159 160 161 153 130 94 63 54 55 61 64 67 69 69 66 66 70 78 85 87 84 86 87 89 96 101 103 101 94 92 92 93 94 92 89 92 95 97 98 98 97 94 89 92 96 99 98 98 96 94 92 89 89 92 93 93 93 94 93 93 93 92 93 94 95 94 95 95 95 94 94 93 93 92 92 92 202 253 253
251 252 198 80 73 69 65 64 64 65 66 62 61 61 60 57 56 54 54 55 57 59 59 58 57 57 57 59 61 63 61 60 59 56 55 53 52 56 57 56 53 56 58 58 54 56 57 56 52 52 56 62 65 66 65 62 62 61 61 63 64 67 67 67 68 69 70 75 81 87 93 101 107 112 118 125 133 137 132 128 129 134 136 136 129 130 134 141 140 141 142 143 139 135 132 130 132 136 143 144 147 151 152 154 158 162 164 161 154 146 144 136 126 114 110 112 117 126 130 134 140 145 132 120 120 141 147 133 93 70 60 63 84 99 113 129 133 129 118 107 101 100 102 101 102 108 119 133 142 146 146 149 154 159 160 160 159 160 160 162 166 167 168 170 172 161 154 153 156 160 161 161 162 164 164 158 160 161 163 163 149 121 85 58 51 53 59 62 66 70 69 66 66 71 79 84 84 81 88 91 93 98 102 104 104 94 92 93 98 95 91 88 93 98 100 100 99 97 94 89 91 95 98 96 95 92 90 90 87 86 92 92 91 89 90 91 91 92 92 93 95 96 96 96 96 96 96 96 96 96 95 96 95 204 255 255
249 250 197 83 76 70 66 65 66 67 69 65 65 66 65 63 61 60 60 61 62 63 62 61 60 60 60 60 61 62 62 61 59 58 61 63 59 61 63 63 59 61 62 59 60 62 62 56 55 56 61 63 63 64 66 64 64 64 64 65 67 72 73 70 69 68 66 70 76 81 89 97 104 109 116 125 133 137 131 127 132 139 140 137 130 132 137 143 142 144 147 148 144 141 139 138 138 141 145 139 139 143 147 150 153 156 157 152 146 141 135 127 119 112 112 114 118 127 131 135 140 145 131 115 113 134 146 144 114 84 64 57 72 83 97 115 124 133 138 134 124 116 115 104 103 107 117 129 138 143 143 147 151 155 153 156 158 157 160 163 166 167 167 167 168 156 152 154 158 161 162 162 163 163 160 151 154 154 154 155 136 108 76 62 60 63 67 69 72 74 72 69 69 74 81 84 83 82 92 95 94 95 97 100 102 94 91 93 98 93 90 88 91 95 97 96 95 94 93 91 91 94 97 96 95 93 92 90 87 88 94 94 91 88 88 89 89 89 90 93 95 95 95 95 96 96 97 98 98 98 98 98 98 203 252 252
249 249 196 84 76 70 65 64 65 67 70 67 68 69 68 66 65 64 64 65 65 65 64 62 62 62 62 60 59 60 62 62 59 59 65 68 64 64 66 68 62 63 62 58 62 65 63 57 57 59 63 63 61 61 64 63 64 65 65 65 68 74 74 71 69 67 66 70 75 79 88 96 102 107 115 124 131 135 129 126 133 141 141 137 130 133 138 143 142 145 149 151 147 145 144 142 141 143 147 137 137 141 145 147 150 152 152 146 142 139 130 122 116 110 113 116 120 129 131 134 139 144 129 112 108 129 147 155 133 100 73 59 67 74 85 103 116 133 149 150 139 130 128 110 105 108 114 125 134 139 140 144 148 151 149 154 158 158 162 166 167 168 169 168 168 155 152 155 159 161 162 162 165 165 160 149 152 151 149 151 129 101 73 67 67 69 69 71 74 76 73 68 69 74 82 84 82 81 95 97 94 93 93 97 102 95 93 95 99 94 91 89 92 95 96 94 93 94 95 95 95 97 99 98 98 97 96 93 92 93 100 98 95 91 90 91 91 91 93 96 97 97 97 97 98 99 100 101 102 102 102 102 102 204 252 252
252 252 198 81 73 67 62 62 63 66 70 67 67 68 68 66 66 65 66 65 65 64 66 64 64 65 64 60 57 59 63 63 60 60 67 71 66 63 66 69 62 61 59 57 62 65 65 59 58 59 63 63 60 59 61 61 64 66 66 64 66 71 73 72 70 68 72 77 81 86 95 102 106 109 116 123 128 133 127 124 131 138 138 135 128 131 136 140 137 141 147 151 147 144 143 141 141 143 149 142 143 147 152 151 153 156 156 149 144 142 133 125 117 109 112 117 123 132 131 132 136 142 128 111 106 130 151 164 145 114 87 72 75 78 84 99 112 130 149 152 145 140 141 120 112 111 113 123 130 135 134 138 143 148 149 156 163 163 170 174 173 172 173 174 174 161 156 158 162 164 165 166 170 171 167 156 158 157 154 155 133 105 78 73 70 66 62 64 70 76 71 64 65 73 82 85 84 82 97 100 97 96 95 99 106 100 99 101 106 100 98 98 101 102 101 97 97 99 102 104 104 106 108 106 105 104 105 104 103 105 111 108 103 98 97 99 100 99 102 104 105 103 103 104 105 105 106 108 109 109 109 109 108 209 255 255
247 249 234 199 202 201 199 198 200 201 200 202 202 203 203 202 202 201 202 202 202 202 202 202 202 202 201 200 199 199 200 201 200 201 203 204 202 201 202 203 202 201 200 199 201 202 202 200 201 201 202 201 199 200 201 201 201 201 201 201 202 204 204 203 202 202 201 202 204 205 208 210 211 212 215 217 218 218 216 216 220 222 222 221 220 221 222 222 220 222 225 226 224 223 223 223 223 223 223 220 220 221 224 224 225 226 224 221 220 219 217 215 212 210 213 215 219 221 219 219 221 222 217 212 212 219 224 228 222 212 204 199 202 203 204 208 212 218 225 226 224 223 223 216 213 212 212 215 218 220 221 222 223 223 222 224 226 227 229 230 230 230 230 229 227 225 225 226 228 229 228 228 231 231 227 221 223 222 221 223 216 206 197 200 202 202 199 201 203 205 204 202 202 203 206 206 205 205 208 208 208 209 209 210 212 210 209 209 210 210 210 210 210 210 209 209 210 210 210 210 210 211 211 211 211 211 211 211 211 211 213 212 211 210 210 210 210 211 211 212 213 212 212 211 212 213 213 214 214 215 215 214 214 241 253 253
247 249 249 244 252 253 251 250 252 252 250 253 254 254 254 254 254 254 254 254 254 254 255 254 255 255 254 254 253 253 253 254 254 255 254 253 254 254 254 254 255 254 254 254 254 254 254 254 255 255 254 254 254 254 255 255 254 253 253 254 254 254 253 253 253 254 253 253 253 253 253 253 252 253 253 253 253 250 250 251 253 254 254 255 255 254 254 253 252 253 254 254 253 253 253 254 253 253 251 252 252 252 253 254 254 254 252 252 251 250 252 252 252 251 253 254 255 255 253 252 253 252 251 252 254 253 253 252 251 251 251 251 253 254 253 252 253 253 253 252 252 253 254 254 254 252 251 252 253 254 254 254 254 253 252 251 252 253 254 254 254 254 253 252 251 252 253 253 254 254 253 252 255 254 252 249 250 251 250 252 251 249 247 251 253 252 249 251 253 253 254 254 254 254 254 254 253 254 252 251 252 254 254 254 254 253 253 253 252 253 254 255 254 253 253 253 255 254 253 252 253 253 253 253 253 253 254 254 254 254 254 254 254 254 255 254 254 255 255 255 255 255 254 254 254 255 255 255 255 255 255 255 255 254 254 254
250 252 251 243 250 251 249 249 251 251 249 252 253 253 253 253 253 252 253 253 253 253 254 254 254 254 253 253 253 253 253 253 254 253 250 250 251 251 251 251 252 252 252 252 251 252 253 253 253 253 253 253 254 254 254 253 252 252 252 253 253 252 252 253 254 254 255 255 255 255 255 255 254 253 252 252 252 250 249 250 251 252 253 254 253 252 252 252 251 252 252 252 252 251 251 252 252 251 250 254 255 255 254 255 255 255 255 255 254 253 255 255 255 253 253 254 255 254 252 251 251 250 251 252 254 254 253 252 250 251 253 254 255 255 255 254 255 253 250 248 248 250 252 255 255 254 253 254 254 253 253 253 253 254 253 253 254 255 255 255 255 255 254 254 254 255 255 253 253 255 254 253 255 255 254 251 254 255 255 255 255 254 252 252 252 249 245 248 250 251 251 251 252 253 253 253 253 254 253 253 254 255 255 255 255 255 255 254 254 254 255 255 255 255 255 255 255 255 254 254 255 255 255 255 255 255 255 255 255 255 255 255 255 255 255 255 255 255 255 255 255 255 255 254 255 255 255 255 255 255 255 255 255 255 255 255
