P2
256 256
255
255 255 255 255 255 255 255 255 255 255 255 255 255 255 255 255 255 254 248 252 249 253 255 255 255 255 246 249 255 254 254 254 254 254 254 254 254 254 254 254 254 254 254 254 254 255 255 255 255 255 255 255 255 255 255 255 255 255 255 255 255 255 255 255 255 255 255 255 250 255 255 255 255 255 255 255 255 255 255 255 255 255 255 255 255 255 255 255 255 255 255 255 255 255 255 255 255 255 255 255 255 255 255 255 255 255 255 255 254 250 255 255 255 255 255 255 255 255 255 255 255 255 255 255 255 255 255 255 255 255 255 255 255 255 255 255 255 255 255 255 255 255 255 255 255 255 255 255 255 255 252 252 255 255 255 255 255 255 255 255 255 255 255 255 255 255 255 255 255 255 255 255 255 255 255 255 255 255 255 255 255 255 255 255 255 255 255 255 255 255 255 255 253 250 255 255 255 255 255 255 255 255 255 255 255 255 255 255 255 255 255 254 254 254 254 254 254 254 254 254 254 254 254 254 254 254 254 253 253 253 254 253 254 253 247 253 254 255 252 253 254 253 252 252 249 254 255 255 255 255 255 255 255 255 255 255
255 255 255 255 255 255 255 255 255 255 255 255 255 255 255 255 255 254 248 252 249 253 255 255 255 255 246 249 255 254 254 254 254 254 254 254 254 254 254 254 254 254 254 254 254 255 255 255 255 255 255 255 255 255 255 255 255 255 255 255 255 255 255 255 255 255 255 255 250 255 255 255 255 255 255 255 255 255 255 255 255 255 255 255 255 255 255 255 255 255 255 255 255 255 255 255 255 255 255 255 255 255 255 255 255 255 255 255 254 250 255 255 255 255 255 255 255 255 255 255 255 255 255 255 255 255 255 255 255 255 255 255 255 255 255 255 255 255 255 255 255 255 255 255 255 255 255 255 255 255 252 252 255 255 255 255 255 255 255 255 255 255 255 255 255 255 255 255 255 255 255 255 255 255 255 255 255 255 255 255 255 255 255 255 255 255 255 255 255 255 255 255 253 250 255 255 255 255 255 255 255 255 255 255 255 255 255 255 255 255 255 254 254 254 254 254 254 254 254 254 254 254 254 254 254 254 254 253 253 253 254 253 254 253 247 253 254 255 252 253 254 253 252 252 249 254 255 255 255 255 255 255 255 255 255 255
255 255 255 255 255 255 255 255 255 255 255 255 255 255 255 255 255 254 248 252 249 253 255 255 255 255 246 249 255 254 254 254 254 254 254 254 254 254 254 254 254 254 254 254 254 255 255 255 255 255 255 255 255 255 255 255 255 255 255 255 255 255 255 255 255 255 255 255 250 255 255 255 255 255 255 255 255 255 255 255 255 255 255 255 255 255 255 255 255 255 255 255 255 255 255 255 255 255 255 255 255 255 255 255 255 255 255 255 254 250 255 255 255 255 255 255 255 255 255 255 255 255 255 255 255 255 255 255 255 255 255 255 255 255 255 255 255 255 255 255 255 255 255 255 255 255 255 255 255 255 252 252 255 255 255 255 255 255 255 255 255 255 255 255 255 255 255 255 255 255 255 255 255 255 255 255 255 255 255 255 255 255 255 255 255 255 255 255 255 255 255 255 253 250 255 255 255 255 255 255 255 255 255 255 255 255 255 255 255 255 255 254 254 254 254 254 254 254 254 254 254 254 254 254 254 254 254 253 253 253 254 253 254 253 247 253 254 255 252 253 254 253 252 252 249 254 255 255 255 255 255 255 255 255 255 255
255 255 255 255 255 255 255 255 255 255 255 255 255 255 255 255 255 254 248 252 249 253 255 255 255 255 246 249 255 254 254 254 254 254 254 254 254 254 254 254 254 254 254 254 254 255 255 255 255 255 255 255 255 255 255 255 255 255 255 255 255 255 255 255 255 255 255 255 250 255 255 255 255 255 255 255 255 255 255 255 255 255 255 255 255 255 255 255 255 255 255 255 255 255 255 255 255 255 255 255 255 255 255 255 255 255 255 255 254 250 255 255 255 255 255 255 255 255 255 255 255 255 255 255 255 255 255 255 255 255 255 255 255 255 255 255 255 255 255 255 255 255 255 255 255 255 255 255 255 255 252 252 255 255 255 255 255 255 255 255 255 255 255 255 255 255 255 255 255 255 255 255 255 255 255 255 255 255 255 255 255 255 255 255 255 255 255 255 255 255 255 255 253 250 255 255 255 255 255 255 255 255 255 255 255 255 255 255 255 255 255 254 254 254 254 254 254 254 254 254 254 254 254 254 254 254 254 253 253 253 254 253 254 253 247 253 254 255 252 253 254 253 252 252 249 254 255 255 255 255 255 255 255 255 255 255
255 255 255 255 255 255 255 255 255 255 255 255 255 255 255 255 255 254 248 252 249 253 255 255 255 255 246 249 255 254 254 254 254 254 254 254 254 254 254 254 254 254 254 254 254 255 255 255 255 255 255 255 255 255 255 255 255 255 255 255 255 255 255 255 255 255 255 255 250 255 255 255 255 255 255 255 255 255 255 255 255 255 255 255 255 255 255 255 255 255 255 255 255 255 255 255 255 255 255 255 255 255 255 255 255 255 255 255 254 250 255 255 255 255 255 255 255 255 255 255 255 255 255 255 255 255 255 255 255 255 255 255 255 255 255 255 255 255 255 255 255 255 255 255 255 255 255 255 255 255 252 252 255 255 255 255 255 255 255 255 255 255 255 255 255 255 255 255 255 255 255 255 255 255 255 255 255 255 255 255 255 255 255 255 255 255 255 255 255 255 255 255 253 250 255 255 255 255 255 255 255 255 255 255 255 255 255 255 255 255 255 254 254 254 254 254 254 254 254 254 254 254 254 254 254 254 254 253 253 253 254 253 254 253 247 253 254 255 252 253 254 253 252 252 249 254 255 255 255 255 255 255 255 255 255 255
255 255 255 255 255 255 255 255 255 255 255 255 255 255 255 255 255 254 248 252 249 253 255 255 255 255 246 249 255 254 254 254 254 254 254 254 254 254 254 254 254 254 254 254 254 255 255 255 255 255 255 255 255 255 255 255 255 255 255 255 255 255 255 255 255 255 255 255 250 255 255 255 255 255 255 255 255 255 255 255 255 255 255 255 255 255 255 255 255 255 255 255 255 255 255 255 255 255 255 255 255 255 255 255 255 255 255 255 254 250 255 255 255 255 255 255 255 255 255 255 255 255 255 255 255 255 255 255 255 255 255 255 255 255 255 255 255 255 255 255 255 255 255 255 255 255 255 255 255 255 252 252 255 255 255 255 255 255 255 255 255 255 255 255 255 255 255 255 255 255 255 255 255 255 255 255 255 255 255 255 255 255 255 255 255 255 255 255 255 255 255 255 253 250 255 255 255 255 255 255 255 255 255 255 255 255 255 255 255 255 255 254 254 254 254 254 254 254 254 254 254 254 254 254 254 254 254 253 253 253 254 253 254 253 247 253 254 255 252 253 254 253 252 252 249 254 255 255 255 255 255 255 255 255 255 255
255 255 255 255 255 255 255 255 255 255 255 255 255 255 255 255 255 254 248 252 249 253 255 255 255 255 246 249 255 254 254 254 254 254 254 254 254 254 254 254 254 254 254 254 254 255 255 255 255 255 255 255 255 255 255 255 255 255 255 255 255 255 255 255 255 255 255 255 250 255 255 255 255 255 255 255 255 255 255 255 255 255 255 255 255 255 255 255 255 255 255 255 255 255 255 255 255 255 255 255 255 255 255 255 255 255 255 255 254 250 255 255 255 255 255 255 255 255 255 255 255 255 255 255 255 255 255 255 255 255 255 255 255 255 255 255 255 255 255 255 255 255 255 255 255 255 255 255 255 255 252 252 255 255 255 255 255 255 255 255 255 255 255 255 255 255 255 255 255 255 255 255 255 255 255 255 255 255 255 255 255 255 255 255 255 255 255 255 255 255 255 255 253 250 255 255 255 255 255 255 255 255 255 255 255 255 255 255 255 255 255 254 254 254 254 254 254 254 254 254 254 254 254 254 254 254 254 253 253 253 254 253 254 253 247 253 254 255 252 253 254 253 252 252 249 254 255 255 255 255 255 255 255 255 255 255
255 255 255 255 255 255 255 255 255 255 255 255 255 255 255 255 255 254 248 252 249 253 255 255 255 255 246 249 255 254 254 254 254 254 254 254 254 254 254 254 254 254 254 254 254 255 255 255 255 255 255 255 255 255 255 255 255 255 255 255 255 255 255 255 255 255 255 255 250 255 255 255 255 255 255 255 255 255 255 255 255 255 255 255 255 255 255 255 255 255 255 255 255 255 255 255 255 255 255 255 255 255 255 255 255 255 255 255 254 250 255 255 255 255 255 255 255 255 255 255 255 255 255 255 255 255 255 255 255 255 255 255 255 255 255 255 255 255 255 255 255 255 255 255 255 255 255 255 255 255 252 252 255 255 255 255 255 255 255 255 255 255 255 255 255 255 255 255 255 255 255 255 255 255 255 255 255 255 255 255 255 255 255 255 255 255 255 255 255 255 255 255 253 250 255 255 255 255 255 255 255 255 255 255 255 255 255 255 255 255 255 254 254 254 254 254 254 254 254 254 254 254 254 254 254 254 254 253 253 253 254 253 254 253 247 253 254 255 252 253 254 253 252 252 249 254 255 255 255 255 255 255 255 255 255 255
255 255 255 255 255 255 255 255 255 255 255 255 255 255 255 255 255 254 248 252 249 253 255 255 255 255 246 249 255 254 254 254 254 254 254 254 254 254 254 254 254 254 254 254 254 255 255 255 255 255 255 255 255 255 255 255 255 255 255 255 255 255 255 255 255 255 255 255 250 255 255 255 255 255 255 255 255 255 255 255 255 255 255 255 255 255 255 255 255 255 255 255 255 255 255 255 255 255 255 255 255 255 255 255 255 255 255 255 254 250 255 255 255 255 255 255 255 255 255 255 255 255 255 255 255 255 255 255 255 255 255 255 255 255 255 255 255 255 255 255 255 255 255 255 255 255 255 255 255 255 252 252 255 255 255 255 255 255 255 255 255 255 255 255 255 255 255 255 255 255 255 255 255 255 255 255 255 255 255 255 255 255 255 255 255 255 255 255 255 255 255 255 253 250 255 255 255 255 255 255 255 255 255 255 255 255 255 255 255 255 255 254 254 254 254 254 254 254 254 254 254 254 254 254 254 254 254 253 253 253 254 253 254 253 247 253 254 255 252 253 254 253 252 252 249 254 255 255 255 255 255 255 255 255 255 255
255 255 255 255 255 255 255 255 255 255 255 255 255 255 255 255 255 254 248 252 249 253 255 255 255 255 246 249 255 254 254 254 254 254 254 254 254 254 254 254 254 254 254 254 254 255 255 255 255 255 255 255 255 255 255 255 255 255 255 255 255 255 255 255 255 255 255 255 250 255 255 255 255 255 255 255 255 255 255 255 255 255 255 255 255 255 255 255 255 255 255 255 255 255 255 255 255 255 255 255 255 255 255 255 255 255 255 255 254 250 255 255 255 255 255 255 255 255 255 255 255 255 255 255 255 255 255 255 255 255 255 255 255 255 255 255 255 255 255 255 255 255 255 255 255 255 255 255 255 255 252 252 255 255 255 255 255 255 255 255 255 255 255 255 255 255 255 255 255 255 255 255 255 255 255 255 255 255 255 255 255 255 255 255 255 255 255 255 255 255 255 255 253 250 255 255 255 255 255 255 255 255 255 255 255 255 255 255 255 255 255 254 254 254 254 254 254 254 254 254 254 254 254 254 254 254 254 253 253 253 254 253 254 253 247 253 254 255 252 253 254 253 252 252 249 254 255 255 255 255 255 255 255 255 255 255
255 255 255 255 255 255 255 255 255 255 255 255 255 255 255 255 255 254 248 252 249 253 255 255 255 255 246 249 255 254 254 254 254 254 254 254 254 254 254 254 254 254 254 254 254 255 255 255 255 255 255 255 255 255 255 255 255 255 255 255 255 255 255 255 255 255 255 255 250 255 255 255 255 255 255 255 255 255 255 255 255 255 255 255 255 255 255 255 255 255 255 255 255 255 255 255 255 255 255 255 255 255 255 255 255 255 255 255 254 250 255 255 255 255 255 255 255 255 255 255 255 255 255 255 255 255 255 255 255 255 255 255 255 255 255 255 255 255 255 255 255 255 255 255 255 255 255 255 255 255 252 252 255 255 255 255 255 255 255 255 255 255 255 255 255 255 255 255 255 255 255 255 255 255 255 255 255 255 255 255 255 255 255 255 255 255 255 255 255 255 255 255 253 250 255 255 255 255 255 255 255 255 255 255 255 255 255 255 255 255 255 254 254 254 254 254 254 254 254 254 254 254 254 254 254 254 254 253 253 253 254 253 254 253 247 253 254 255 252 253 254 253 252 252 249 254 255 255 255 255 255 255 255 255 255 255
255 255 255 255 255 255 255 255 255 255 255 255 255 255 255 255 255 254 248 252 249 253 255 255 255 255 246 249 255 254 254 254 254 254 254 254 254 254 254 254 254 254 254 254 254 255 255 255 255 255 255 255 255 255 255 255 255 255 255 255 255 255 255 255 255 255 255 255 250 255 255 255 255 255 255 255 255 255 255 255 255 255 255 255 255 255 255 255 255 255 255 255 255 255 255 255 255 255 255 255 255 255 255 255 255 255 255 255 254 250 255 255 255 255 255 255 255 255 255 255 255 255 255 255 255 255 255 255 255 255 255 255 255 255 255 255 255 255 255 255 255 255 255 255 255 255 255 255 255 255 252 252 255 255 255 255 255 255 255 255 255 255 255 255 255 255 255 255 255 255 255 255 255 255 255 255 255 255 255 255 255 255 255 255 255 255 255 255 255 255 255 255 253 250 255 255 255 255 255 255 255 255 255 255 255 255 255 255 255 255 255 254 254 254 254 254 254 254 254 254 254 254 254 254 254 254 254 253 253 253 254 253 254 253 247 253 254 255 252 253 254 253 252 252 249 254 255 255 255 255 255 255 255 255 255 255
255 255 255 255 255 255 255 255 255 255 255 255 255 255 255 255 255 254 248 252 249 253 255 255 255 255 246 249 255 254 254 254 254 254 254 254 254 254 254 254 254 254 254 254 254 255 255 255 255 255 255 255 255 255 255 255 255 255 255 255 255 255 255 255 255 255 255 255 250 255 255 255 255 255 255 255 255 255 255 255 255 255 255 255 255 255 255 255 255 255 255 255 255 255 255 255 255 255 255 255 255 255 255 255 255 255 255 255 254 250 255 255 255 255 255 255 255 255 255 255 255 255 255 255 255 255 255 255 255 255 255 255 255 255 255 255 255 255 255 255 255 255 255 255 255 255 255 255 255 255 252 252 255 255 255 255 255 255 255 255 255 255 255 255 255 255 255 255 255 255 255 255 255 255 255 255 255 255 255 255 255 255 255 255 255 255 255 255 255 255 255 255 253 250 255 255 255 255 255 255 255 255 255 255 255 255 255 255 255 255 255 254 254 254 254 254 254 254 254 254 254 254 254 254 254 254 254 253 253 253 254 253 254 253 247 253 254 255 252 253 254 253 252 252 249 254 255 255 255 255 255 255 255 255 255 255
255 255 255 255 255 255 255 255 254 250 248 252 255 247 250 248 250 248 233 247 237 242 255 255 253 255 246 250 255 255 254 254 254 254 254 254 255 255 255 255 255 255 255 255 255 255 255 255 255 255 255 255 255 255 255 255 255 255 255 255 255 255 255 255 255 255 255 255 251 255 255 255 255 255 255 255 255 255 255 255 255 255 255 255 255 255 255 255 255 255 255 255 255 255 255 255 255 255 255 255 255 255 255 255 255 255 255 255 254 250 255 255 255 255 255 255 255 255 255 255 255 255 255 255 255 255 255 255 255 255 255 255 255 255 255 255 255 255 255 255 255 255 255 255 255 255 255 255 255 255 252 253 255 255 255 255 255 255 255 255 255 255 255 255 255 255 255 255 255 255 255 255 255 255 255 255 255 255 255 255 255 255 255 255 255 255 255 255 255 255 255 255 253 250 255 255 255 255 255 255 255 255 255 255 254 254 254 254 254 254 254 254 254 254 254 254 254 254 254 254 254 254 254 254 254 254 253 253 253 254 255 253 254 253 248 254 254 255 252 253 254 252 252 252 250 255 255 255 255 255 255 255 255 255 255 255
255 255 255 255 255 255 255 255 249 230 212 238 252 210 228 218 223 231 186 232 200 209 255 255 249 249 247 254 255 255 255 255 255 255 255 255 255 255 255 255 255 255 255 255 255 255 255 255 255 255 255 255 255 255 255 255 255 255 255 255 255 255 255 255 255 255 255 255 252 255 255 255 255 255 255 255 255 255 255 255 255 255 255 255 255 255 255 255 255 255 255 255 255 255 255 255 255 255 255 255 255 255 255 255 255 255 255 255 254 250 255 255 255 255 255 255 255 255 255 255 255 255 255 255 255 255 255 255 254 255 254 255 255 254 255 255 254 254 255 255 255 254 254 254 254 255 255 255 254 255 251 253 255 255 255 254 255 255 254 254 254 254 254 254 254 254 254 254 254 254 254 254 254 254 254 254 254 254 254 254 254 254 254 254 254 254 254 255 255 255 255 255 253 249 255 255 255 254 255 255 254 254 254 254 254 254 254 254 254 254 254 254 254 254 254 254 254 254 254 254 254 254 254 254 254 254 254 254 254 255 255 254 255 254 249 255 254 255 253 255 255 253 253 253 255 255 255 255 255 255 255 255 255 255 255 255
254 254 254 254 254 254 254 254 247 231 216 239 248 213 228 219 223 228 185 229 199 207 254 253 243 241 241 227 228 228 227 227 227 227 227 227 227 227 226 226 226 226 226 226 226 226 225 225 225 225 225 225 225 225 224 224 224 224 224 224 224 224 224 223 223 222 223 222 217 222 222 223 223 223 223 222 222 222 222 222 222 222 222 222 222 222 222 222 221 221 221 221 221 221 221 221 221 221 221 221 221 221 221 220 220 220 221 221 218 214 221 221 221 220 220 222 221 221 221 221 221 221 221 221 221 221 221 221 221 221 221 221 221 221 221 221 221 221 221 221 221 221 221 221 221 220 221 221 221 221 216 217 221 222 221 220 221 222 222 221 222 222 222 222 222 222 222 222 222 222 222 222 222 222 222 222 222 222 222 222 222 222 223 223 223 223 222 222 222 222 223 224 220 217 224 224 224 222 223 224 224 224 224 224 224 224 224 224 224 224 224 225 225 225 225 225 225 225 226 226 226 226 226 226 227 227 227 226 226 226 227 228 227 227 221 228 229 229 228 228 230 230 230 231 247 255 254 254 254 254 254 254 254 254 254 254
240 240 240 240 240 240 240 240 241 234 222 244 238 216 224 219 218 219 184 222 196 201 240 239 229 220 168 51 40 46 46 46 46 46 47 47 47 47 46 46 47 46 46 46 46 46 46 46 46 46 46 46 46 46 46 46 46 46 46 46 46 46 46 45 39 40 40 43 36 40 42 39 45 47 47 47 47 47 47 48 48 48 48 48 48 49 49 49 49 49 50 50 50 51 51 51 52 52 52 53 53 54 53 50 44 51 55 50 49 48 51 56 51 55 54 55 61 61 61 62 62 63 64 64 65 65 66 66 67 67 68 68 69 69 70 70 71 71 72 72 72 73 74 74 74 71 66 72 75 71 69 69 75 77 72 76 75 77 82 82 83 84 85 85 86 87 87 88 89 90 90 91 91 92 93 93 94 94 95 95 96 96 98 98 99 99 99 95 95 95 101 98 97 96 99 104 100 104 103 104 110 111 111 112 112 114 114 115 116 116 117 118 119 120 120 121 122 123 124 125 127 128 129 130 131 132 133 132 130 131 132 138 135 134 131 138 143 139 143 143 145 151 153 159 178 228 240 240 240 240 240 240 240 240 240 240
255 255 255 255 255 255 255 255 252 234 214 244 252 210 226 217 221 230 187 233 202 208 255 255 247 245 131 7 7 7 8 8 9 10 11 11 12 13 13 14 15 16 16 17 18 18 19 19 20 21 21 22 23 24 24 25 25 26 26 27 28 28 29 30 31 31 32 33 33 34 35 36 36 37 37 38 39 39 40 41 41 42 43 44 44 45 46 47 47 48 49 50 51 52 52 53 54 55 55 56 57 58 59 60 62 62 63 64 64 65 67 68 69 70 71 72 72 73 74 75 76 77 77 78 79 80 81 82 83 84 85 86 87 88 88 89 90 91 92 93 94 95 96 97 98 100 101 101 102 103 103 105 106 107 108 109 110 111 111 112 113 115 116 117 118 119 120 121 122 123 124 125 126 127 128 129 130 131 132 133 133 134 136 137 137 138 139 141 142 143 143 145 145 145 148 149 150 150 152 153 153 153 154 155 156 157 158 159 160 161 162 163 164 165 166 167 168 169 170 171 172 174 175 176 177 178 179 180 182 184 185 185 186 188 188 190 191 193 194 195 197 197 198 203 153 228 255 255 255 255 255 255 255 255 255 255
255 255 255 255 255 255 255 255 251 232 212 243 251 208 225 216 219 229 185 232 200 206 255 255 246 245 131 7 8 7 7 8 9 9 10 11 12 12 13 14 15 15 16 16 17 18 18 18 19 20 21 21 22 23 23 24 24 25 25 26 27 27 28 29 31 31 32 32 33 34 34 36 35 36 36 37 38 38 39 40 40 41 42 43 43 44 45 46 46 47 48 49 50 50 51 52 53 53 54 55 56 57 58 59 62 61 61 64 64 64 67 67 69 69 70 72 71 72 72 73 74 75 76 77 78 79 80 81 82 83 84 85 86 86 87 88 89 90 91 92 93 94 94 96 97 99 101 100 100 102 102 104 105 106 108 107 109 110 110 111 112 113 115 115 116 117 118 119 121 122 123 124 125 125 126 127 128 129 130 131 132 133 134 135 136 137 138 140 141 142 142 145 144 144 148 147 150 149 151 152 151 152 153 154 155 156 157 158 158 159 160 161 162 164 164 165 166 167 168 169 171 172 173 174 175 177 178 179 181 183 184 184 186 187 187 189 190 193 193 195 196 196 197 201 153 228 255 255 255 255 255 255 255 255 255 255
255 255 255 255 255 255 255 255 255 252 246 255 254 243 246 244 244 245 230 246 235 238 255 254 250 250 130 4 6 6 6 7 8 9 10 10 11 12 12 13 14 15 15 16 17 17 18 18 19 20 20 21 22 23 23 24 24 25 25 26 27 28 28 29 30 31 32 32 32 34 34 35 36 36 37 37 38 39 40 40 41 42 43 43 44 45 46 46 47 48 49 50 51 51 52 53 54 55 55 56 57 58 59 60 61 62 63 64 64 64 67 68 69 69 71 72 72 73 74 75 76 77 77 78 79 80 81 82 83 84 85 86 87 88 88 89 90 91 92 93 94 95 96 97 98 99 101 101 102 103 103 104 106 107 108 108 110 111 111 112 113 115 116 117 118 119 120 121 122 123 124 125 126 127 128 129 130 131 132 132 133 134 135 136 137 138 139 140 141 142 143 145 145 145 148 148 150 150 151 152 152 153 154 155 156 157 158 159 159 160 161 162 163 164 165 166 167 168 169 170 172 173 174 175 176 177 178 179 181 182 183 184 185 186 186 189 189 191 192 193 195 195 196 200 148 224 255 255 255 255 255 255 255 255 255 255
254 254 254 254 254 254 254 254 255 255 255 255 255 255 255 255 255 253 249 252 250 252 255 254 253 253 130 3 5 5 6 7 8 9 10 10 11 12 12 13 14 15 15 16 17 17 18 18 19 20 21 21 22 23 24 24 24 25 26 26 27 28 29 29 30 30 31 32 32 33 34 35 36 37 37 38 39 39 40 41 41 42 43 44 45 45 46 47 48 49 49 50 51 52 53 54 54 55 56 57 58 59 60 60 61 62 63 64 64 65 67 68 69 70 71 72 73 74 75 75 76 77 78 79 80 81 82 83 84 85 86 87 88 89 89 90 91 92 93 94 95 96 97 98 99 100 101 102 103 104 104 105 107 108 109 109 110 112 112 113 114 116 117 118 119 120 121 122 123 124 125 126 127 128 129 130 131 132 133 134 134 135 137 138 138 139 140 141 142 143 144 145 145 146 148 149 150 150 152 153 153 154 155 156 157 158 159 160 160 161 162 163 164 165 166 167 168 169 170 171 172 174 175 176 177 178 179 180 181 182 183 184 185 186 186 189 190 191 192 193 195 196 197 201 146 223 254 254 254 254 254 254 254 254 254 254
254 254 254 254 254 254 254 254 255 255 255 255 255 255 255 255 255 253 250 252 251 252 254 254 253 253 129 3 5 6 7 7 8 9 10 10 11 12 13 14 14 15 16 16 17 18 18 19 19 20 21 22 23 23 24 25 25 25 26 27 28 28 29 30 30 31 32 32 32 34 34 36 36 37 38 38 39 40 41 41 42 43 44 45 45 46 47 48 48 49 50 51 52 53 53 54 55 56 57 58 58 59 60 61 62 63 64 65 65 65 68 69 70 70 71 73 73 74 75 76 77 78 79 80 81 82 83 84 85 85 86 87 88 89 90 91 92 93 94 95 96 97 97 99 100 101 101 102 103 104 104 105 107 108 109 110 111 112 113 114 115 116 118 119 119 120 121 122 124 125 126 127 128 128 129 130 131 132 133 134 135 136 137 138 139 140 141 141 142 143 145 146 146 146 149 150 150 151 152 153 154 155 156 157 157 158 159 160 161 162 163 163 165 166 167 168 169 169 170 171 173 174 175 176 177 178 179 180 182 183 184 185 186 186 187 189 190 192 193 194 195 196 197 201 146 223 254 254 254 254 254 254 254 254 254 254
254 254 254 254 254 254 254 254 255 255 255 255 255 255 255 255 255 253 250 252 251 252 254 254 253 253 129 3 5 6 7 8 8 9 10 11 11 12 13 14 15 15 16 17 17 18 18 19 20 20 21 22 23 24 24 25 25 26 26 27 28 29 29 30 30 31 32 33 33 34 35 36 37 37 38 39 39 40 41 42 42 43 44 45 45 46 47 48 49 49 50 51 52 53 53 54 55 56 57 58 59 60 60 61 62 63 64 65 65 66 68 69 70 71 72 73 74 75 75 76 77 78 79 80 81 82 83 84 85 86 87 88 89 90 90 91 92 93 94 95 96 97 98 99 100 101 102 103 103 104 105 106 107 109 109 110 111 112 113 114 115 116 118 119 120 121 122 123 124 125 126 127 128 129 130 131 131 133 133 134 135 136 137 138 139 140 141 142 143 144 145 146 146 147 149 150 151 151 152 154 154 155 156 157 157 159 159 160 161 162 163 164 165 166 167 168 169 170 171 172 173 174 175 176 177 178 179 180 182 183 184 185 186 187 187 189 191 192 193 194 195 196 198 201 146 223 254 254 254 254 254 254 254 254 254 254
254 254 254 254 254 254 254 254 255 255 255 255 255 255 255 255 255 253 250 252 251 252 254 254 253 253 129 3 6 6 7 8 9 10 10 11 12 13 13 14 15 15 16 17 18 18 19 19 20 21 22 22 23 24 25 25 25 26 27 28 28 29 30 30 31 31 32 33 33 34 35 36 37 38 38 39 40 41 41 42 43 43 44 45 46 47 47 48 49 50 51 52 52 53 54 55 56 56 57 58 59 60 61 61 62 63 65 65 66 66 68 69 70 71 72 73 74 75 76 77 78 79 79 81 81 82 83 84 85 86 87 88 89 90 91 91 92 93 94 95 96 97 98 99 100 101 102 103 104 105 105 106 108 109 110 110 111 113 114 115 116 117 118 119 120 121 122 123 125 126 126 127 128 129 130 131 132 133 134 135 135 136 138 139 140 140 141 142 143 144 145 146 146 147 149 150 151 152 153 154 154 155 156 157 158 159 160 161 161 162 163 164 165 166 167 168 169 170 171 172 173 175 176 177 178 179 180 181 182 183 184 185 186 187 187 189 191 192 193 194 196 197 198 202 146 223 254 254 254 254 254 254 254 254 254 254
254 254 254 254 254 254 254 254 255 255 255 255 255 255 255 255 255 253 250 252 251 252 254 254 253 253 129 3 5 6 7 8 9 10 10 11 12 13 13 14 15 15 16 17 18 18 19 19 20 21 22 22 23 24 25 25 26 26 27 28 28 29 30 31 31 31 32 33 33 35 35 36 37 38 39 39 40 41 41 42 43 44 44 45 46 47 48 48 49 50 51 52 53 54 54 55 56 57 57 58 59 60 61 62 62 64 65 66 66 66 69 70 70 71 72 74 74 75 76 77 78 79 80 81 82 83 84 85 85 86 87 88 89 90 91 92 93 94 95 96 97 97 98 100 101 102 102 103 104 105 105 106 108 109 110 111 112 113 114 115 116 117 119 120 120 121 122 123 125 126 127 128 129 129 130 131 132 133 134 135 136 137 138 139 140 141 142 142 143 144 146 147 147 147 150 151 151 152 153 154 155 156 157 157 158 159 160 161 162 163 164 164 166 167 168 169 169 170 171 172 174 175 176 177 178 179 180 181 182 184 185 186 186 187 187 190 191 192 193 195 196 197 198 202 146 223 254 254 254 254 254 254 254 254 254 254
254 254 254 254 254 254 254 254 255 255 255 255 255 255 255 255 255 253 250 252 251 252 254 254 253 253 129 3 6 6 7 8 9 10 11 11 12 13 13 14 15 16 16 17 18 19 19 20 20 21 22 23 23 24 25 25 26 26 27 28 29 29 30 31 31 32 33 33 33 35 35 36 37 38 39 39 40 41 42 42 43 44 45 46 46 47 48 49 49 50 51 52 53 54 54 55 56 57 58 59 60 61 61 62 63 64 65 66 66 67 69 70 71 71 72 74 75 76 76 77 78 79 80 81 82 83 84 85 86 87 88 89 90 91 91 92 93 94 95 96 97 98 99 100 101 102 103 104 104 105 106 107 108 110 110 111 112 113 114 115 116 118 119 120 121 122 123 124 125 126 127 128 129 130 131 132 133 134 135 135 136 137 138 140 140 141 142 143 144 144 146 147 147 148 150 151 152 152 153 154 155 156 157 158 159 160 160 161 162 163 164 165 166 167 168 169 170 171 172 173 174 175 176 177 178 179 180 181 183 184 185 186 187 187 188 190 191 193 194 195 196 197 198 202 146 223 254 254 254 254 254 254 254 254 254 254
254 254 254 254 254 254 254 254 255 255 255 255 255 255 255 255 255 253 250 252 251 252 254 254 253 253 129 3 6 7 7 8 9 10 11 11 12 13 14 14 15 16 17 17 18 19 19 20 20 21 22 23 24 25 25 26 26 27 27 28 29 30 30 31 31 32 33 34 34 35 36 37 38 38 39 40 41 41 42 43 43 44 45 46 47 47 48 49 50 51 51 52 53 54 55 56 56 57 58 59 60 61 62 62 63 64 65 66 66 67 69 70 71 72 73 74 75 76 77 78 79 80 80 81 82 83 84 85 86 87 88 89 90 91 91 92 93 94 95 96 97 98 99 100 101 102 103 104 105 105 106 107 109 110 110 111 112 114 115 116 117 118 119 120 121 122 123 124 126 127 127 128 129 130 131 132 133 134 135 136 136 137 139 140 141 142 142 143 144 145 146 147 147 148 150 151 152 152 154 155 155 156 157 158 159 160 161 162 162 163 164 165 166 167 168 169 170 171 172 173 174 176 177 177 179 180 181 182 183 184 185 186 187 188 188 190 192 193 194 195 196 197 199 202 146 222 254 254 254 254 254 254 254 254 254 254
254 254 254 254 254 254 254 254 255 255 255 255 255 255 255 255 255 253 250 252 251 252 254 254 253 253 129 4 6 7 8 8 9 10 11 12 12 13 14 15 16 16 17 18 18 19 19 20 21 21 22 23 24 25 25 26 26 27 27 28 29 30 31 31 32 32 33 34 34 35 36 37 38 39 39 40 41 42 42 43 44 44 45 46 47 48 48 49 50 51 52 53 53 54 55 56 57 58 58 59 60 61 62 62 63 64 66 67 67 67 69 70 71 72 73 74 75 76 77 78 79 80 81 82 83 84 85 86 86 87 88 89 90 91 92 93 94 95 95 96 97 98 99 100 102 102 103 104 105 106 106 107 109 110 111 112 113 114 115 116 117 118 119 120 121 122 123 124 126 127 128 129 130 130 131 132 133 134 135 136 137 138 139 140 141 142 143 143 144 145 147 148 148 148 151 151 152 153 154 155 156 157 157 158 159 160 161 162 163 164 164 165 166 168 168 169 170 171 172 173 175 176 177 178 179 180 181 182 183 184 185 186 187 188 188 190 192 193 194 195 196 198 199 203 146 222 254 254 254 254 254 254 254 254 254 254
254 254 254 254 254 254 254 254 255 255 255 255 255 255 255 255 255 253 250 252 251 252 254 254 253 253 129 4 6 7 8 8 9 10 11 12 12 13 14 15 16 16 17 18 18 19 19 20 21 21 22 23 24 25 25 26 26 27 27 28 29 30 31 31 31 32 33 34 34 35 36 37 38 39 40 40 41 42 42 43 44 45 45 46 47 48 49 49 50 51 52 53 54 55 55 56 57 58 58 59 60 61 62 63 63 65 66 67 67 67 69 71 71 72 73 75 75 76 77 78 79 80 81 82 83 84 85 86 87 87 88 89 90 91 92 93 94 95 96 97 98 99 100 101 102 103 103 104 105 106 106 107 109 110 111 112 113 114 115 116 117 118 120 121 122 122 124 125 126 127 128 129 130 131 132 132 133 134 135 136 137 138 139 140 141 142 143 143 144 145 147 148 148 148 151 152 152 153 154 155 156 157 158 159 159 160 161 162 163 164 165 166 167 168 169 170 171 171 172 173 175 176 177 178 179 180 181 182 183 184 185 187 187 188 188 191 192 193 194 195 197 198 199 203 146 222 254 254 254 254 254 254 254 254 254 254
254 254 254 254 254 254 254 254 255 255 255 255 255 255 255 255 255 253 250 252 251 252 254 254 253 253 128 4 6 7 8 9 10 10 11 12 13 14 14 15 16 16 17 18 19 19 20 20 21 22 23 23 24 25 26 26 27 27 28 29 30 30 31 32 32 33 34 34 34 36 36 37 38 39 40 40 41 42 43 43 44 45 46 47 47 48 49 50 50 51 52 53 54 55 55 56 57 58 59 60 61 62 62 63 64 65 66 67 67 68 70 71 72 73 74 75 76 77 78 78 79 80 81 82 83 84 85 86 87 88 89 90 91 92 92 93 94 95 96 97 98 99 100 101 102 103 104 105 106 106 107 108 110 111 112 112 113 115 116 117 117 119 120 121 122 123 124 125 127 128 128 129 130 131 132 133 134 135 136 137 137 138 140 141 142 142 143 144 145 146 147 148 148 149 151 152 153 153 155 156 156 157 158 159 160 161 162 163 163 164 165 166 167 168 169 170 171 172 173 174 175 176 177 178 179 180 181 182 184 185 186 187 188 188 189 191 192 194 194 196 197 198 199 203 146 222 254 254 254 254 254 254 254 254 254 254
254 254 254 254 254 254 254 254 255 255 255 255 255 255 255 255 255 253 250 252 251 252 254 254 253 253 128 4 6 7 8 9 10 10 11 12 13 14 14 15 16 16 17 18 19 19 20 20 21 22 23 23 24 25 26 26 27 27 28 29 30 30 31 32 32 33 34 34 35 36 37 38 38 39 40 41 41 42 43 44 44 45 46 47 47 48 49 50 51 52 52 53 54 55 56 57 57 58 59 60 61 62 63 63 64 65 66 67 68 68 70 71 72 73 74 75 76 77 78 79 80 81 81 83 83 84 85 86 87 88 89 90 91 92 93 93 94 95 96 97 98 99 100 101 103 103 104 105 106 107 107 108 110 111 112 113 114 115 116 117 118 119 120 121 122 123 124 125 127 128 129 129 130 131 132 133 134 135 136 137 138 139 140 141 142 143 143 144 145 146 147 149 149 149 152 152 153 154 155 156 157 157 158 159 160 161 162 163 164 165 165 166 167 169 169 170 171 172 173 174 176 177 178 179 180 181 182 183 184 185 186 187 188 189 189 191 193 194 195 196 197 198 200 203 146 222 254 254 254 254 254 254 254 254 254 254
254 254 254 254 254 254 254 254 255 255 255 255 255 255 255 255 255 253 250 252 251 252 254 254 253 253 128 4 6 7 8 9 10 11 12 12 13 14 14 15 16 17 17 18 19 20 20 21 21 22 23 24 25 25 26 27 27 28 28 29 30 31 31 32 32 33 34 35 35 36 37 38 39 39 40 41 42 42 43 44 45 45 46 47 48 49 49 50 51 52 53 54 54 55 56 57 58 59 59 60 61 62 63 63 64 65 67 68 68 68 70 72 72 73 74 75 76 77 78 79 80 81 82 83 84 85 86 87 88 88 89 90 91 92 93 94 95 96 97 98 99 100 100 102 103 104 104 105 106 107 107 108 110 111 112 113 114 115 116 117 118 119 121 122 123 123 125 126 127 128 129 130 131 132 133 133 134 135 136 137 138 139 140 141 142 143 144 144 145 146 148 149 149 149 152 153 153 154 155 156 157 158 159 160 160 161 162 163 164 165 166 166 168 169 170 171 171 172 173 174 176 177 178 179 180 181 182 183 184 185 186 187 188 189 189 191 193 194 195 196 197 199 200 203 146 222 254 254 254 254 254 254 254 254 254 254
254 254 254 254 254 254 254 254 255 255 255 255 255 255 255 255 255 253 250 252 251 252 254 254 253 253 128 4 6 7 8 9 10 11 12 12 13 14 14 15 16 17 17 18 19 20 20 21 21 22 23 24 25 25 26 27 27 28 28 29 30 31 31 32 32 33 34 35 35 36 37 38 39 40 40 41 42 43 43 44 45 46 46 47 48 49 50 50 51 52 53 54 55 56 56 57 58 59 60 60 61 62 63 64 65 66 67 68 68 69 71 72 73 73 74 76 76 77 78 79 80 81 82 83 84 85 86 87 88 89 90 91 91 92 93 94 95 96 97 98 99 100 101 102 103 104 105 106 106 107 108 109 110 112 112 113 114 115 116 117 118 120 121 122 123 124 125 126 127 128 129 130 131 132 133 134 135 136 137 137 138 139 140 142 142 143 144 145 146 147 148 149 149 150 152 153 154 154 155 156 157 158 159 160 161 162 162 163 164 165 166 167 168 169 170 171 172 173 174 174 176 177 178 179 180 181 182 183 184 186 187 188 188 189 189 192 193 194 195 196 198 199 200 204 146 222 254 254 254 254 254 254 254 254 254 254
254 254 254 254 254 254 254 254 255 255 255 255 255 255 255 255 255 253 250 252 251 252 254 254 253 253 128 4 7 8 8 9 10 11 12 12 13 14 15 16 16 17 18 19 19 20 20 21 22 22 23 24 25 26 26 27 27 28 29 30 30 31 32 33 33 34 35 35 35 37 37 38 39 40 41 41 42 43 44 44 45 46 47 48 48 49 50 51 51 52 53 54 55 56 57 57 58 59 60 61 62 63 63 64 65 66 67 68 69 69 71 72 73 74 75 76 77 78 79 80 81 82 82 83 84 85 86 87 88 89 90 91 92 93 93 94 95 96 97 98 99 100 101 102 104 104 105 106 107 108 108 109 111 112 113 113 114 116 117 118 119 120 121 122 123 124 125 126 128 129 130 130 131 132 133 134 135 136 137 138 139 139 141 142 143 144 144 145 146 147 148 149 150 150 152 153 154 155 156 157 157 158 159 160 161 162 163 164 164 165 166 167 168 169 170 171 172 173 174 175 176 178 178 179 180 181 182 183 185 186 187 188 189 189 190 192 193 195 195 197 198 199 200 204 146 222 254 254 254 254 254 254 254 254 254 254
254 254 254 254 254 254 254 254 255 255 255 255 255 255 255 255 255 253 250 252 251 252 254 254 253 253 128 4 7 8 9 9 10 11 12 13 13 14 15 16 17 17 18 19 19 20 21 21 22 23 24 24 25 26 27 27 28 28 29 30 31 31 32 33 33 34 35 35 36 37 38 39 39 40 41 42 42 43 44 45 45 46 47 48 49 49 50 51 52 53 53 54 55 56 57 58 59 59 60 61 62 63 64 64 65 66 67 68 69 69 71 72 73 74 75 76 77 78 79 80 81 82 83 84 85 85 86 87 88 89 90 91 92 93 94 95 95 97 97 98 99 100 101 102 104 104 105 106 107 108 108 109 111 112 113 114 115 116 117 118 119 120 121 122 123 124 125 126 128 129 130 131 132 132 133 134 135 136 137 138 139 140 141 142 143 144 145 145 146 147 149 150 150 150 153 153 154 155 156 157 158 158 159 160 161 162 163 164 165 166 166 167 168 170 170 171 172 173 174 175 176 178 179 180 181 182 183 184 185 186 187 188 189 190 190 192 193 195 196 197 198 199 200 204 146 222 254 254 254 254 254 254 254 254 254 254
254 254 254 254 254 254 254 254 255 255 255 255 255 255 255 255 255 253 250 252 251 252 254 254 253 253 128 4 7 8 9 10 10 11 12 13 14 15 15 16 17 17 18 19 20 20 21 21 22 23 24 25 25 26 27 28 28 29 29 30 31 31 32 33 33 34 35 36 36 37 38 39 40 40 41 42 43 43 44 45 46 46 47 48 49 50 50 51 52 53 54 55 55 56 57 58 59 60 60 61 62 63 64 65 65 67 68 69 69 69 72 73 73 74 75 77 77 78 79 80 81 82 83 84 85 86 87 88 89 89 90 91 92 93 94 95 96 97 98 99 100 101 102 103 104 105 105 107 107 108 108 110 111 112 113 114 115 116 117 118 119 120 122 123 124 125 126 127 128 129 130 131 132 133 134 135 135 137 137 138 139 140 141 142 143 144 145 146 146 147 149 150 150 151 153 154 154 155 156 157 158 159 160 161 161 162 163 164 165 166 167 168 169 170 171 172 172 173 174 175 177 178 179 180 181 182 183 184 185 186 187 188 189 190 190 192 194 195 196 197 198 199 201 204 146 222 254 254 254 254 254 254 254 254 254 254
254 254 254 254 254 254 254 254 255 255 255 255 255 255 255 255 255 253 250 252 251 252 254 254 253 253 128 4 7 8 9 10 10 11 12 13 14 15 15 16 17 17 18 19 20 20 21 21 22 23 24 25 26 26 27 28 28 29 29 30 31 32 32 33 33 34 35 36 36 37 38 39 40 41 41 42 43 44 44 45 46 46 47 48 49 50 51 51 52 53 54 55 56 57 57 58 59 60 61 62 62 63 64 65 66 67 68 69 69 70 72 73 74 74 75 77 78 78 79 80 81 82 83 84 85 86 87 88 89 90 91 92 93 93 94 95 96 97 98 99 100 101 102 103 104 105 106 107 108 108 109 110 112 113 113 114 115 117 117 118 119 121 122 123 124 125 126 127 128 129 130 131 132 133 134 135 136 137 138 139 139 140 142 143 143 144 145 146 147 148 149 150 150 151 153 154 155 155 156 158 158 159 160 161 162 163 164 164 165 166 167 168 169 170 171 172 173 174 175 175 177 178 179 180 181 182 183 184 185 187 188 189 189 190 190 193 194 195 196 197 199 200 201 204 146 222 254 254 254 254 254 254 254 254 254 254
254 254 254 254 254 254 254 254 255 255 255 255 255 255 255 255 255 253 251 252 251 252 254 254 253 253 128 5 7 8 9 10 11 12 12 13 14 15 15 16 17 18 18 19 20 21 21 22 22 23 24 25 26 27 27 28 28 29 29 30 31 32 33 33 34 34 35 36 36 38 38 39 40 41 42 42 43 44 45 45 46 47 48 49 49 50 51 52 52 53 54 55 56 57 58 58 59 60 61 62 63 64 64 65 66 67 68 69 70 70 72 73 74 75 76 77 78 79 80 81 82 83 83 84 85 86 87 88 89 90 91 92 93 94 95 95 96 97 98 99 100 101 102 103 105 105 106 107 108 109 109 110 112 113 114 115 116 117 118 119 120 121 122 123 124 125 126 127 129 130 131 132 133 133 134 135 136 137 138 139 140 141 142 143 144 145 145 146 147 148 149 151 151 151 153 154 155 156 157 158 158 159 160 161 162 163 164 165 166 166 167 168 169 170 171 172 173 174 175 176 177 179 179 180 181 182 183 184 186 187 188 189 190 190 191 193 194 195 196 198 199 200 201 205 146 222 254 254 254 254 254 254 254 254 254 254
254 254 254 254 254 254 254 254 255 255 255 255 255 255 255 255 255 253 251 252 251 252 254 254 253 253 128 5 8 8 9 10 11 12 13 13 14 15 16 17 17 18 19 20 20 21 21 22 23 23 24 25 26 27 27 28 29 29 30 31 32 32 33 34 34 35 36 36 37 38 39 40 40 41 42 43 43 44 45 46 46 47 48 49 50 50 51 52 53 54 54 55 56 57 58 59 60 60 61 62 63 64 65 65 66 67 69 70 70 70 72 73 74 75 76 77 78 79 80 81 82 83 84 85 86 87 88 89 89 90 91 92 93 94 95 96 97 98 99 100 101 102 102 104 105 106 106 107 108 109 109 111 112 113 114 115 116 117 118 119 120 121 123 124 124 125 126 127 129 130 131 132 133 134 135 135 136 137 138 139 140 141 142 143 144 145 146 147 147 148 150 151 151 151 154 155 155 156 157 158 159 160 160 161 162 163 164 165 166 167 167 168 169 171 171 172 173 174 175 176 178 179 180 181 182 183 184 185 186 187 188 189 190 191 191 193 194 196 197 198 199 200 201 205 146 222 254 254 254 254 254 254 254 254 254 254
254 254 254 254 254 254 254 254 255 255 255 255 255 255 255 255 255 253 251 252 251 252 254 254 253 253 128 5 8 9 10 10 11 12 13 14 14 15 16 17 18 18 19 20 20 21 22 22 23 24 25 25 26 27 28 28 29 29 30 31 32 32 33 34 34 35 36 37 37 38 39 40 41 41 42 43 44 44 45 46 47 47 48 49 50 51 51 52 53 54 55 56 57 58 58 59 60 61 62 63 63 64 65 66 67 68 69 70 70 71 73 74 75 75 76 78 78 79 80 81 82 83 84 85 86 87 88 89 90 91 92 93 94 94 95 96 97 98 99 100 101 102 103 104 105 106 107 108 109 109 110 111 112 114 114 115 116 117 118 119 120 122 123 124 125 126 127 128 129 130 131 132 133 134 135 136 137 138 139 140 140 141 143 144 144 145 146 147 148 149 150 151 151 152 154 155 156 156 157 158 159 160 161 162 162 164 164 165 166 167 168 169 170 171 172 173 174 174 175 176 178 179 180 181 182 183 184 185 186 187 188 189 190 191 191 193 195 196 197 198 199 200 201 205 146 222 254 254 254 254 254 254 254 254 254 254
254 254 254 254 254 254 254 254 255 255 255 255 255 255 255 255 255 253 251 252 251 252 254 254 253 253 128 5 8 9 10 10 11 12 13 14 14 15 16 17 18 18 19 20 21 21 22 22 23 24 25 25 26 27 28 29 29 30 30 31 32 33 33 34 34 35 36 37 37 38 39 40 41 42 42 43 44 45 45 46 47 48 48 49 50 51 52 53 53 54 55 56 57 58 58 59 60 61 62 63 64 65 65 66 67 68 69 70 70 71 73 74 75 76 77 78 79 80 81 81 82 83 84 85 86 87 88 89 90 91 92 93 94 95 95 96 97 98 99 100 101 102 103 104 105 106 107 108 109 110 110 111 113 114 115 115 116 118 119 120 121 122 123 124 125 126 127 128 130 131 132 132 133 134 135 136 137 138 139 140 141 141 143 144 145 146 146 147 148 149 150 151 152 152 154 155 156 157 158 159 159 160 161 162 163 164 165 166 166 167 168 169 170 171 172 173 174 175 176 177 178 179 180 181 182 183 184 185 186 187 189 190 190 191 191 194 195 196 197 198 199 201 202 205 146 222 254 254 254 254 254 254 254 254 254 254
254 254 254 254 254 254 254 254 255 255 255 255 255 255 255 255 255 253 251 252 251 252 254 254 253 253 128 5 8 9 10 11 12 12 13 14 15 16 16 17 18 19 19 20 21 22 22 23 23 24 25 26 27 28 28 29 29 30 30 31 32 33 34 34 35 35 36 37 37 39 39 40 41 42 43 43 44 45 46 46 47 48 49 50 50 51 52 53 54 55 55 56 57 58 59 60 61 61 62 63 64 65 66 66 67 68 70 70 71 71 73 74 75 76 77 78 79 80 81 82 83 84 85 86 87 88 89 90 90 91 92 93 94 95 96 97 98 99 100 101 102 103 103 105 106 107 107 108 109 110 110 112 113 114 115 116 117 118 119 120 121 122 124 125 125 126 128 128 130 131 132 133 134 135 136 136 137 138 139 140 141 142 143 144 145 146 147 148 148 149 151 152 152 152 155 156 156 157 158 159 160 161 161 162 163 164 165 166 167 168 168 169 170 172 172 173 174 175 176 177 178 180 181 181 183 184 185 186 187 188 189 190 191 191 192 194 195 196 197 199 200 201 202 206 146 222 254 254 254 254 254 254 254 254 254 254
254 254 254 254 254 254 254 254 255 255 255 255 255 255 255 255 255 253 251 252 251 252 254 254 253 253 128 5 8 9 10 11 12 12 13 14 15 16 16 17 18 19 19 20 21 22 22 23 23 24 25 26 27 28 28 29 29 30 30 31 32 33 34 35 35 36 37 37 37 39 39 40 41 42 43 44 44 45 46 47 47 48 49 50 51 51 52 53 54 55 56 56 57 58 59 60 61 62 62 63 64 65 66 66 67 68 70 71 71 72 73 75 75 76 77 79 79 80 81 82 83 84 85 86 87 88 89 90 91 91 92 93 94 95 96 97 98 99 100 101 102 103 104 105 106 107 108 109 109 110 111 112 113 115 115 116 117 118 119 120 121 122 124 125 126 127 128 129 130 131 132 133 134 135 136 137 138 139 140 140 141 142 143 144 145 146 147 148 149 149 151 152 152 153 155 156 157 157 158 159 160 161 162 163 163 164 165 166 167 168 169 169 171 172 173 173 174 175 176 177 179 180 181 182 183 184 185 186 187 188 189 190 191 192 192 194 195 197 197 199 200 201 202 206 146 222 254 254 254 254 254 254 254 254 254 254
254 254 254 254 254 254 254 254 255 255 255 255 255 255 255 255 255 253 251 252 251 252 254 254 253 253 128 6 9 9 10 11 12 13 14 14 15 16 17 18 18 19 20 21 21 22 23 23 24 25 25 26 27 28 29 29 30 30 31 32 33 33 34 35 35 36 37 38 38 39 40 41 42 42 43 44 45 45 46 47 48 48 49 50 51 52 53 53 54 55 56 57 58 59 59 60 61 62 63 64 65 65 66 67 68 69 70 71 71 72 74 75 76 77 78 79 80 81 81 82 83 84 85 86 87 88 89 90 91 92 93 94 95 96 96 97 98 99 100 101 102 103 104 105 106 107 108 109 110 111 111 112 114 115 116 116 118 119 120 121 122 123 124 125 126 127 128 129 131 132 132 133 134 135 136 137 138 139 140 141 141 142 144 145 146 146 147 148 149 150 151 152 153 153 155 156 157 158 159 160 160 161 162 163 164 165 166 166 167 168 169 170 171 172 173 174 175 175 176 177 179 180 181 182 183 184 185 186 187 188 189 190 191 192 192 194 196 197 198 199 200 201 202 206 146 222 254 254 254 254 254 254 254 254 254 254
254 254 254 254 254 254 254 254 255 255 255 255 255 255 255 255 255 254 251 253 251 252 254 254 253 253 128 5 9 9 10 11 12 13 14 14 15 16 17 18 19 19 20 21 21 22 23 23 24 25 26 26 27 28 29 29 30 31 31 32 33 34 34 35 35 36 37 38 38 39 40 41 42 43 44 44 45 46 46 47 48 49 50 50 51 52 53 54 54 55 56 57 58 59 60 60 61 62 63 64 65 66 67 67 68 69 70 71 72 72 74 75 76 77 78 79 80 81 82 83 84 85 85 87 87 88 89 90 91 92 93 94 95 96 97 98 98 100 100 101 102 103 104 105 107 107 108 109 110 111 111 113 114 115 116 117 118 119 120 121 122 123 125 126 126 127 128 129 131 132 133 134 135 135 136 137 138 139 140 141 142 143 144 145 146 147 148 148 149 150 152 153 153 153 156 156 157 158 159 160 161 161 162 163 164 165 166 167 168 168 169 170 171 172 173 174 175 176 177 178 179 180 181 182 183 184 185 186 187 189 190 191 191 192 193 195 196 197 198 199 200 202 203 206 146 222 254 254 254 254 254 254 254 254 254 254
254 254 254 254 254 254 254 254 255 255 255 255 255 255 255 255 255 254 251 253 251 252 254 254 253 253 128 6 9 10 11 11 12 13 14 15 16 16 17 18 19 19 20 21 22 23 23 24 24 25 26 27 28 28 29 30 30 31 31 32 33 34 35 35 36 36 37 38 38 40 40 41 42 43 44 44 45 46 47 48 48 49 50 51 52 52 53 54 55 56 57 57 58 59 60 61 62 63 63 64 65 66 67 67 68 69 71 72 72 73 74 76 76 77 78 80 80 81 82 83 84 85 86 87 88 89 90 91 92 92 93 94 95 96 97 98 99 100 101 102 103 104 105 106 107 108 109 110 110 111 112 113 114 116 116 117 118 119 120 121 122 123 125 126 127 128 129 130 131 132 133 134 135 136 137 138 139 140 140 141 142 143 144 145 146 147 148 149 150 150 152 153 153 154 156 157 157 158 159 160 161 162 163 164 164 165 166 167 168 169 169 170 172 173 173 174 175 176 177 178 180 181 182 182 184 185 185 186 188 189 190 191 192 192 193 195 196 197 198 199 201 202 203 206 146 222 254 254 254 254 254 254 254 254 254 254
254 254 254 254 254 254 254 254 255 255 255 255 255 255 255 255 255 254 251 252 251 252 254 254 253 253 128 6 9 10 11 12 12 13 14 15 16 17 17 18 19 20 20 21 22 23 23 24 24 25 26 27 28 29 29 30 30 31 32 33 33 34 35 36 36 37 38 38 39 40 41 42 42 43 44 45 45 46 47 48 48 49 50 51 52 53 53 54 55 56 57 58 58 59 60 61 62 63 63 64 65 66 67 68 69 70 71 72 72 73 75 76 77 78 79 80 80 81 82 83 84 85 86 87 88 89 90 91 92 93 94 95 96 96 97 98 99 100 101 102 103 104 105 106 107 108 109 110 111 112 112 113 115 116 117 117 118 120 121 121 122 124 125 126 127 128 129 130 131 133 133 134 135 136 137 138 139 140 141 142 142 143 145 146 146 147 148 149 150 151 152 153 153 154 156 157 158 158 160 161 161 162 163 164 164 166 166 167 168 169 170 171 172 173 174 175 175 176 177 178 180 181 182 183 184 185 186 187 188 189 190 191 192 193 193 195 196 198 198 200 201 202 203 206 146 222 254 254 254 254 254 254 254 254 254 254
254 254 254 254 254 254 254 254 255 255 255 255 255 255 255 255 255 254 251 253 252 252 254 254 253 253 128 6 9 10 11 12 13 14 14 15 16 17 17 18 19 20 21 21 22 23 23 24 25 25 26 27 28 29 30 30 31 31 32 33 34 34 35 36 36 37 38 39 39 40 41 42 43 44 44 45 46 47 47 48 49 50 50 51 52 53 54 55 55 56 57 58 59 60 60 61 62 63 64 65 66 67 67 68 69 70 71 72 73 73 75 76 77 78 79 80 81 82 83 84 85 86 86 87 88 89 90 91 92 93 94 95 96 97 98 98 99 100 101 102 103 104 105 106 108 108 109 110 111 112 112 114 115 116 117 118 119 120 121 122 123 124 125 126 127 128 129 130 132 133 134 135 136 136 137 138 139 140 141 142 143 144 145 146 147 148 149 149 150 151 153 154 154 154 157 157 158 159 160 161 161 162 163 164 165 166 167 168 168 169 170 171 172 173 174 175 176 177 178 179 180 181 182 183 184 185 186 187 188 190 191 191 192 193 193 196 197 198 199 200 201 202 203 207 146 222 254 254 254 254 254 254 254 254 254 254
254 254 254 254 254 254 254 254 255 255 255 255 255 255 255 255 255 254 251 253 252 253 254 254 253 253 127 6 9 10 11 12 13 14 14 15 16 17 17 18 19 20 21 21 22 23 23 24 25 26 26 27 28 29 30 30 31 31 32 33 34 34 35 36 36 37 38 39 39 40 41 42 43 44 45 45 46 47 47 48 49 50 51 52 52 53 54 55 55 56 57 58 59 60 61 62 62 63 64 65 66 67 68 68 69 70 72 72 73 73 75 76 77 78 79 80 81 82 83 84 85 86 87 88 89 90 91 92 92 93 94 95 96 97 98 99 100 101 102 103 104 105 106 107 108 109 110 111 111 112 113 114 115 116 117 118 119 120 121 122 123 124 126 127 128 129 130 131 132 133 134 135 136 137 138 139 139 141 141 142 143 144 145 146 147 148 149 150 151 151 153 154 154 155 157 158 158 159 160 161 162 163 164 165 165 166 167 168 169 170 170 171 173 174 174 175 176 177 178 179 180 182 182 183 184 185 186 187 189 190 191 192 192 193 194 196 197 198 199 200 201 203 204 207 145 222 254 254 254 254 254 254 254 254 254 254
254 254 254 254 254 254 254 254 255 255 255 255 255 255 255 255 255 254 251 253 252 253 254 254 253 253 127 6 9 10 11 12 13 14 15 15 16 17 18 19 20 20 21 22 23 23 24 24 25 26 27 28 29 29 30 31 31 32 32 33 34 35 36 36 37 37 38 39 39 41 41 42 43 44 45 45 46 47 48 49 49 50 51 52 53 53 54 55 56 57 58 59 59 60 61 62 63 64 64 65 66 67 68 69 70 71 72 73 73 74 76 77 78 78 79 81 81 82 83 84 85 86 87 88 89 90 91 92 93 94 95 96 97 97 98 99 100 101 102 103 104 105 106 107 108 109 110 111 112 113 113 114 116 117 118 118 119 121 122 123 124 125 126 127 128 129 130 131 133 134 134 135 136 137 138 139 140 141 142 143 143 144 146 147 148 148 149 150 151 152 153 154 154 155 157 158 159 159 160 161 162 163 164 165 165 167 167 168 169 170 171 172 173 174 175 176 176 177 178 179 181 182 183 184 185 186 187 188 189 190 191 192 193 193 194 196 197 198 199 200 202 203 204 207 145 222 254 254 254 254 254 254 254 254 254 254
254 254 254 254 254 254 254 254 250 241 230 247 250 227 235 231 233 238 214 239 222 225 254 253 247 246 124 7 10 10 11 12 13 14 15 15 16 17 18 19 20 20 21 22 23 23 24 25 25 26 27 28 29 29 30 31 31 32 32 33 34 35 36 37 37 38 39 39 40 41 42 43 43 44 45 46 46 47 48 49 49 50 51 52 53 53 54 55 56 57 58 59 59 60 61 62 63 64 64 65 66 67 68 69 70 71 72 73 74 74 76 77 78 79 80 81 82 82 83 84 85 86 87 88 89 90 91 92 93 94 95 96 97 98 98 99 100 101 102 103 104 105 106 107 108 109 111 111 112 113 114 115 116 117 118 119 120 121 122 123 124 125 126 127 128 129 130 131 133 134 134 135 136 137 138 139 140 141 142 143 143 144 146 147 148 149 149 151 151 152 153 155 155 156 158 158 159 160 161 162 162 163 164 165 166 167 168 169 169 170 171 172 173 174 175 176 177 178 179 179 181 182 183 184 185 186 187 188 190 191 192 192 193 194 195 197 198 199 200 201 203 203 204 208 146 222 254 254 254 254 254 254 254 254 254 254
255 255 255 255 255 255 255 255 243 211 179 225 244 175 203 187 195 212 147 218 170 178 255 255 239 236 124 11 12 12 13 13 14 15 16 17 18 18 19 20 21 21 22 23 24 24 25 25 26 27 28 28 29 30 31 31 32 32 33 34 35 36 36 37 39 39 40 40 41 42 43 44 44 44 45 46 47 47 48 49 49 50 51 52 53 53 54 55 56 57 58 59 59 60 61 62 63 63 64 65 66 67 68 69 71 71 72 74 74 75 77 77 79 79 80 82 81 82 83 84 85 86 87 88 89 90 91 92 92 93 94 95 96 97 98 99 100 101 102 103 104 105 105 106 108 109 111 111 111 113 114 115 116 117 119 119 120 121 121 122 123 124 126 127 128 128 129 130 132 133 134 135 136 137 137 138 139 140 141 142 143 144 145 146 147 148 149 151 152 153 153 155 155 156 158 158 160 160 161 162 162 163 164 165 165 167 168 169 169 170 171 172 173 174 175 176 177 178 179 180 181 183 184 184 186 187 188 189 191 192 194 194 195 196 197 199 199 202 202 203 205 205 206 209 151 226 255 255 255 255 255 255 255 255 255 255
255 255 255 255 255 255 255 255 243 212 182 226 244 178 205 190 197 213 152 219 173 182 255 255 239 235 122 9 11 12 13 13 14 15 16 17 18 18 19 20 21 21 22 23 24 24 25 26 26 27 28 29 29 30 31 32 32 33 33 34 35 36 36 37 38 39 39 40 41 42 42 43 44 45 46 46 47 48 48 49 50 51 51 52 53 54 55 56 56 57 58 59 60 61 61 62 63 64 65 66 67 68 68 69 70 71 72 73 74 75 76 77 78 79 80 81 82 83 84 85 85 86 87 88 89 90 91 92 93 94 95 96 97 98 98 99 100 101 102 103 104 105 106 107 108 109 110 111 112 113 114 115 116 117 118 119 120 121 122 123 124 125 126 127 128 129 130 131 133 134 135 136 136 137 138 139 140 141 142 143 144 145 146 147 148 149 150 151 151 152 154 155 155 156 157 158 159 160 161 162 163 164 164 165 166 167 168 169 170 171 172 172 174 175 176 177 178 178 179 180 182 183 184 185 186 187 188 189 191 192 193 194 195 196 196 198 199 200 201 203 204 205 206 210 150 225 255 255 255 255 255 255 255 255 255 255
250 250 250 250 250 250 250 250 235 204 173 217 237 169 197 181 189 206 146 213 167 175 249 249 232 222 111 4 4 11 12 13 13 14 15 16 17 18 18 19 20 21 22 23 24 24 25 26 26 27 28 29 30 31 31 32 32 33 34 35 36 36 37 37 34 36 36 39 37 39 41 38 43 46 47 47 48 49 50 51 51 52 53 54 55 55 56 57 58 59 60 61 62 62 63 64 65 66 67 68 68 69 70 69 64 71 74 70 72 75 72 77 74 78 78 78 84 85 86 87 87 89 89 90 91 92 93 94 95 96 97 98 99 100 101 101 102 103 104 105 106 107 108 109 110 109 105 111 113 111 113 113 115 117 115 119 118 119 124 125 126 127 129 130 130 131 132 133 135 136 137 138 139 139 140 141 142 143 144 145 146 147 148 149 150 151 151 149 149 149 154 151 154 156 154 158 155 160 159 159 164 165 166 167 168 169 170 171 172 172 173 174 175 176 177 178 179 180 181 182 183 184 185 186 187 188 189 189 188 188 189 194 192 192 193 194 198 195 199 198 199 205 206 209 144 218 250 250 250 250 250 250 250 250 250 250
255 255 255 255 255 255 255 255 246 222 197 233 247 193 215 203 208 221 170 226 188 195 255 255 243 240 125 10 12 13 13 14 15 16 17 18 18 19 20 21 22 22 23 24 24 25 26 26 27 28 29 29 30 31 32 32 33 33 34 35 36 36 37 38 39 40 40 41 42 43 43 44 45 45 46 47 48 48 49 50 51 51 52 53 54 55 55 56 57 58 59 60 60 61 62 63 64 65 65 66 67 68 69 70 71 72 73 74 75 75 77 78 79 80 81 82 82 83 84 85 86 87 88 89 90 91 92 93 93 94 95 96 97 98 99 100 101 102 103 104 105 106 106 108 109 110 111 112 112 114 114 116 117 118 119 119 121 122 122 123 124 125 127 128 129 130 131 132 133 134 135 136 137 138 139 139 140 142 142 143 144 145 146 147 148 149 150 151 152 153 154 155 156 156 158 159 160 161 162 163 163 164 165 166 166 168 168 169 170 171 172 173 174 175 176 177 178 179 180 181 182 183 184 185 186 187 188 189 191 192 193 194 195 196 197 198 199 201 202 203 204 205 206 210 150 226 255 255 255 255 255 255 255 255 255 255
255 255 255 255 255 255 255 255 242 209 176 224 244 172 202 185 193 210 144 217 167 176 255 255 239 235 123 11 13 13 14 14 15 16 17 18 19 20 20 21 22 22 23 24 25 25 26 27 27 28 29 30 31 31 32 33 33 34 34 35 36 37 37 38 40 40 41 41 42 44 44 45 45 46 46 47 48 49 49 50 51 52 52 53 54 55 56 56 57 58 59 60 61 62 62 63 64 65 66 67 67 68 69 70 72 72 73 75 75 76 78 78 80 80 82 83 83 84 84 85 86 87 88 89 90 91 92 93 94 95 96 97 98 98 99 100 101 102 103 104 105 106 107 108 109 111 113 112 113 114 115 116 117 118 120 120 121 122 123 123 124 126 127 128 129 130 131 132 133 134 135 136 137 138 139 140 141 142 143 144 144 145 147 148 148 149 150 152 153 154 154 156 157 157 159 159 161 161 163 164 163 164 165 166 167 168 169 170 171 171 172 173 174 175 176 177 178 179 180 181 183 184 185 186 187 188 189 190 192 193 194 195 196 197 198 199 200 202 203 204 205 206 207 210 151 226 255 255 255 255 255 255 255 255 255 255
254 254 254 254 254 254 254 254 249 235 221 243 249 219 230 224 227 234 204 236 214 218 254 253 246 244 123 8 12 12 13 13 14 15 16 17 18 19 19 20 21 22 22 23 24 25 25 26 27 28 28 29 30 31 32 32 33 33 34 35 36 37 37 38 39 40 41 41 42 43 44 45 45 46 47 47 48 49 50 51 51 52 53 54 55 55 56 57 58 59 60 61 61 62 63 64 65 66 66 67 68 69 70 71 73 73 74 75 76 77 78 79 80 81 82 83 84 84 85 86 87 88 89 90 91 92 93 94 95 96 97 98 99 99 100 101 102 103 104 105 106 107 108 109 110 112 113 113 114 115 116 117 118 119 120 121 122 123 124 125 126 127 128 129 130 131 132 133 135 136 136 137 138 139 140 141 142 143 144 145 145 146 148 149 150 151 151 153 154 155 155 157 157 158 160 160 162 162 163 164 164 165 166 167 168 169 170 170 171 172 173 174 175 176 177 178 179 179 180 181 183 184 185 186 187 188 189 190 192 193 194 194 195 196 197 199 199 201 202 203 204 205 206 209 146 222 254 254 254 254 254 254 254 254 254 254
255 255 255 255 255 255 255 255 255 255 255 255 255 255 255 255 255 254 251 253 252 253 255 254 254 254 127 7 11 12 13 13 14 15 16 17 18 19 19 20 21 22 23 23 24 25 25 26 27 28 29 29 30 31 32 33 33 34 34 35 36 37 38 38 39 40 41 41 42 43 44 45 45 46 47 48 49 49 50 51 52 52 53 54 55 56 57 58 58 59 60 61 62 63 63 64 65 66 67 68 69 70 71 71 72 73 74 75 76 77 78 79 80 81 82 83 84 85 86 87 88 89 90 91 92 93 94 95 95 96 97 98 99 100 101 102 103 104 105 106 107 108 109 110 111 112 113 114 114 115 116 117 118 120 121 121 122 123 124 125 126 128 129 130 131 132 133 134 135 136 137 138 139 140 141 142 143 144 145 145 146 147 148 150 150 151 152 153 154 155 156 157 157 158 160 161 162 162 163 164 165 166 167 168 168 169 170 171 172 173 173 174 175 177 177 178 179 180 181 182 183 184 185 186 187 188 189 190 191 192 193 194 195 196 196 198 199 201 202 203 204 205 206 209 145 222 255 255 255 255 255 255 255 255 255 255
255 255 255 255 255 255 255 255 255 255 255 255 255 255 255 255 255 254 251 253 252 253 255 254 254 254 127 7 11 12 13 14 15 16 16 17 18 19 19 20 21 22 23 24 24 25 26 26 27 28 29 30 31 31 32 33 33 34 34 35 36 37 38 39 39 40 41 42 42 43 44 45 46 46 47 48 49 50 50 51 52 53 53 54 55 56 57 58 58 59 60 61 62 63 64 65 66 66 67 68 69 70 71 72 73 74 75 76 76 77 79 80 81 81 82 84 84 85 86 87 88 89 90 91 92 93 94 95 96 96 98 99 99 100 101 102 103 104 105 106 107 108 109 110 111 112 113 114 115 116 116 117 119 120 121 121 123 124 125 126 127 128 129 130 131 132 133 134 136 137 137 138 139 140 141 142 143 144 145 146 146 147 149 150 151 151 152 153 154 155 156 157 158 158 160 161 162 163 164 165 165 166 167 168 168 170 170 171 172 173 174 174 176 177 177 178 179 180 181 182 183 185 185 186 187 188 189 190 192 193 194 195 195 196 197 199 200 201 202 203 204 205 206 209 145 222 255 255 255 255 255 255 255 255 255 255
255 255 255 255 255 255 255 255 255 255 255 255 255 255 255 255 255 254 252 253 252 253 255 254 254 254 127 8 11 12 13 14 15 16 17 17 18 19 20 21 22 22 23 24 25 26 26 27 27 28 29 30 31 32 33 33 34 34 35 36 37 37 38 39 40 40 41 42 42 44 44 45 46 47 48 48 49 50 51 52 52 53 54 55 56 56 57 58 59 60 61 62 63 64 64 65 66 67 68 69 70 71 71 72 73 74 75 76 77 77 79 80 81 82 83 84 85 86 87 88 89 90 90 91 92 93 94 95 96 97 98 99 100 101 102 102 103 104 105 106 107 108 109 110 112 113 114 114 115 116 117 118 119 120 121 122 123 124 125 126 127 128 130 131 131 132 133 134 136 137 138 139 140 141 141 142 143 144 145 146 147 148 149 150 151 152 153 154 154 155 157 158 158 159 161 161 162 163 164 165 165 166 167 168 169 170 171 172 172 173 174 175 176 177 178 179 180 181 181 182 184 185 186 187 188 189 190 191 192 193 194 195 196 197 197 199 200 201 202 203 204 205 206 210 145 222 255 255 255 255 255 255 255 255 255 255
255 255 255 255 255 255 255 255 255 255 255 255 255 255 255 255 255 254 252 253 252 253 255 254 254 254 127 8 12 12 13 14 15 16 17 18 19 19 20 21 22 23 23 24 25 26 26 27 28 29 29 30 31 32 33 33 34 35 35 36 37 38 38 39 40 41 42 42 43 44 45 46 46 47 48 49 50 50 51 52 53 53 54 55 56 57 58 59 59 60 61 62 63 64 64 65 66 67 68 69 70 71 72 72 73 74 76 76 77 78 79 80 81 82 83 84 85 86 87 88 89 90 91 92 93 94 95 96 96 97 98 99 100 101 102 103 104 105 106 107 108 109 110 111 112 113 114 115 116 116 117 118 120 121 122 122 123 125 125 126 127 129 130 131 132 133 134 135 136 137 138 139 140 141 142 143 144 145 146 147 147 148 149 151 151 152 153 154 155 156 157 158 158 159 161 162 163 163 164 165 166 167 168 169 169 170 171 172 173 174 174 175 176 178 178 179 180 181 182 183 184 185 186 187 188 189 190 191 192 193 194 195 196 197 197 199 200 202 202 204 205 206 207 210 145 222 255 255 255 255 255 255 255 255 255 255
255 255 255 255 255 255 255 255 255 255 255 255 255 255 255 255 255 254 252 253 252 253 255 255 254 254 127 8 12 13 14 14 15 16 17 18 19 20 20 21 22 23 24 24 25 26 27 27 28 29 30 30 31 32 33 34 34 35 35 36 37 38 39 40 40 41 42 43 43 44 45 46 47 47 48 49 50 51 51 52 53 54 55 56 56 57 58 59 60 61 61 62 63 64 65 66 67 68 68 69 70 71 72 73 74 75 76 77 77 78 80 81 82 83 84 85 85 86 87 88 89 90 91 92 93 94 95 96 97 98 99 100 101 102 102 103 104 105 106 107 108 109 110 111 112 113 114 115 116 117 117 119 120 121 122 123 124 125 126 127 128 129 130 131 132 133 134 135 137 138 139 139 140 141 142 143 144 145 146 147 148 149 150 151 152 153 153 154 155 156 157 159 159 159 161 162 163 164 165 166 166 167 168 169 170 171 171 172 173 174 175 176 177 178 179 180 180 181 182 183 185 186 186 187 188 189 190 191 193 194 195 196 196 197 198 200 201 202 203 204 205 206 207 210 145 222 255 255 255 255 255 255 255 255 255 255
255 255 255 255 255 255 255 255 255 255 255 255 255 255 255 255 255 254 252 253 252 253 255 255 254 254 126 8 12 13 14 14 15 16 17 18 19 20 20 21 22 23 24 25 25 26 27 27 28 29 30 31 32 33 33 34 34 35 36 37 38 38 39 40 40 41 42 43 43 45 45 46 47 48 49 49 50 51 52 52 53 54 55 56 57 57 58 59 60 61 62 63 63 64 65 66 67 68 69 70 71 72 72 73 74 75 76 77 78 78 80 81 82 83 84 85 86 87 88 89 90 91 91 93 93 94 95 96 97 98 99 100 101 102 103 104 105 106 106 107 109 109 110 112 113 114 115 116 116 117 118 119 120 122 122 123 124 125 126 127 128 129 131 132 133 134 135 136 137 138 139 140 141 142 143 143 144 146 146 147 148 149 150 151 152 153 154 155 156 157 158 159 159 160 162 163 163 164 165 166 167 168 168 169 170 171 172 173 174 174 175 176 177 178 179 180 181 182 183 183 185 186 187 188 189 190 191 192 193 194 195 196 197 198 198 200 201 202 203 204 205 206 207 211 145 222 255 255 255 255 255 255 255 255 255 255
255 255 255 255 255 255 255 255 255 255 255 255 255 255 255 255 255 254 252 253 252 253 255 255 254 254 126 8 12 13 14 15 16 17 18 18 19 20 21 22 23 23 24 25 26 26 27 28 28 29 30 31 32 33 34 34 35 35 36 37 38 39 39 40 41 41 42 43 44 45 46 46 47 48 49 50 50 51 52 53 53 54 55 56 57 58 59 60 60 61 62 63 64 65 66 66 67 68 69 70 71 72 73 73 74 75 77 78 78 79 80 82 82 83 84 86 86 87 88 89 90 91 92 93 94 95 96 97 98 98 100 101 101 102 103 104 105 106 107 108 109 110 111 112 113 114 115 116 117 118 118 119 121 122 123 124 125 126 127 128 129 130 131 132 133 134 135 136 138 139 139 140 141 142 143 144 145 146 147 148 149 149 151 152 153 154 154 155 156 157 158 159 160 160 162 163 164 165 166 166 167 168 169 170 170 172 172 173 174 175 176 176 178 179 179 180 181 182 183 184 185 187 187 188 189 190 191 192 193 194 195 196 197 198 198 200 201 203 203 205 206 207 208 211 145 222 255 255 255 255 255 255 255 255 255 255
255 255 255 255 255 255 255 255 255 255 255 255 255 255 255 255 255 254 252 253 252 253 255 255 254 254 126 8 12 13 14 15 16 17 18 19 19 20 21 22 23 24 24 25 26 27 27 28 29 30 30 31 32 33 34 35 35 36 36 37 38 39 40 41 41 42 43 43 44 45 46 47 48 48 49 50 51 52 52 53 54 55 56 57 57 58 59 60 61 62 62 63 64 65 66 67 68 69 69 70 71 72 73 74 75 76 77 78 79 79 81 82 83 84 85 86 87 88 88 89 90 91 92 93 94 95 96 97 98 99 100 101 102 103 103 104 105 106 107 108 109 110 111 112 114 115 115 116 117 118 119 120 121 122 123 124 125 126 127 128 129 130 132 133 133 134 135 136 138 139 140 141 142 143 143 144 145 146 147 148 149 150 151 152 153 154 155 156 156 157 159 160 160 161 163 163 164 165 166 167 167 168 169 170 171 172 173 174 174 175 176 177 178 179 180 181 182 182 183 184 186 187 188 189 190 190 191 192 194 195 196 197 197 198 199 201 202 203 204 205 206 207 208 211 145 221 255 255 255 255 255 255 255 255 255 255
255 255 255 255 255 255 255 255 255 255 255 255 255 255 255 255 255 254 252 253 252 253 255 255 254 254 126 9 13 14 15 15 16 17 18 19 20 21 21 22 23 24 25 26 26 27 28 28 29 30 31 32 33 34 34 35 35 36 37 38 39 39 40 41 42 42 43 44 45 46 46 47 48 49 50 50 51 52 53 54 54 55 56 57 58 59 59 60 61 62 63 64 65 66 66 67 68 69 70 71 72 73 74 74 76 76 77 79 79 80 82 82 83 84 85 87 87 88 89 90 91 92 93 94 95 96 97 98 98 99 100 101 102 103 104 105 106 107 108 109 110 111 112 113 114 115 116 117 118 119 119 120 122 123 124 124 126 127 128 129 129 131 132 133 134 135 136 137 138 140 140 141 142 143 144 145 146 147 148 149 149 150 152 153 153 154 155 156 157 158 159 160 161 161 163 164 165 165 166 167 168 169 170 171 171 172 173 174 175 176 176 177 178 180 180 181 182 183 184 185 186 187 188 189 190 191 192 193 194 195 196 197 198 199 199 201 202 203 204 205 206 207 208 211 145 221 255 255 255 255 255 255 255 255 255 255
255 255 255 255 255 255 255 255 255 255 255 255 255 255 254 255 255 254 252 253 252 253 255 255 254 254 126 9 13 14 15 16 17 18 18 19 20 21 22 23 23 24 25 26 27 27 28 29 29 30 31 32 33 34 35 35 36 36 37 38 39 40 40 41 42 43 44 44 45 46 47 48 48 49 50 51 52 52 53 54 55 56 56 57 58 59 60 61 61 62 63 64 65 66 67 68 69 69 70 71 72 73 74 75 76 77 78 79 79 80 82 83 84 85 86 87 87 88 89 90 91 92 93 94 95 96 97 98 99 100 101 102 103 104 104 105 106 107 108 109 110 111 112 113 114 115 116 117 118 119 120 121 122 123 124 125 126 127 128 129 130 131 132 133 134 135 136 137 139 140 141 141 142 143 144 145 146 147 148 149 150 151 152 153 154 155 155 156 157 158 159 161 161 162 163 164 165 166 167 168 168 169 170 171 172 173 173 174 175 176 177 178 179 180 180 181 182 183 184 185 186 187 188 189 190 191 192 193 194 195 196 197 198 199 199 201 202 204 204 206 207 207 209 212 145 221 255 255 255 255 255 255 255 255 255 255
255 255 255 255 255 255 255 255 255 255 255 255 255 255 254 255 255 254 252 253 252 253 255 255 254 254 126 9 13 14 15 16 17 18 19 19 20 21 22 23 24 24 25 26 27 28 28 29 30 31 31 32 33 34 35 36 36 37 37 38 39 40 41 42 42 43 44 45 45 46 47 48 49 50 51 51 52 53 54 54 55 56 57 58 59 59 60 61 62 63 64 65 66 67 67 68 69 70 71 72 73 74 74 75 76 77 78 79 80 81 82 83 84 85 86 87 88 89 90 91 92 93 94 95 96 97 98 98 99 100 101 102 103 104 105 106 107 108 109 110 111 112 113 114 115 116 117 118 119 120 120 121 123 124 125 125 126 128 128 129 130 132 133 134 135 136 137 138 139 140 141 142 143 144 145 146 147 148 149 149 150 151 152 154 154 155 156 157 158 159 160 161 162 162 164 165 166 166 167 168 169 170 170 171 172 173 174 175 176 176 177 178 179 180 181 182 183 184 185 185 187 188 189 190 191 192 193 194 195 196 197 198 199 199 200 202 203 204 205 206 207 208 209 212 145 221 255 255 255 255 255 255 255 255 255 255
255 255 255 255 255 255 255 255 255 255 255 255 255 255 254 255 255 254 252 253 252 253 255 255 254 254 126 9 13 14 15 16 17 18 19 20 20 21 22 23 24 25 25 26 27 28 28 29 30 31 32 33 34 34 35 36 36 37 38 39 40 40 41 42 42 43 44 45 45 47 47 48 49 50 51 51 52 53 54 55 55 56 57 58 59 60 61 62 62 63 64 65 66 67 68 68 69 70 71 72 73 74 75 76 76 78 79 80 80 81 83 84 84 85 86 88 88 89 90 91 92 93 94 95 96 97 98 99 100 101 102 103 104 104 105 106 107 108 109 110 111 112 113 114 115 116 117 118 119 120 120 122 123 124 125 126 127 128 129 130 131 132 133 134 135 136 137 138 140 141 142 143 143 144 145 146 147 148 149 150 151 152 153 154 155 156 156 157 158 159 160 161 162 163 164 165 166 167 168 169 169 170 171 172 173 174 174 175 176 177 178 179 180 181 181 182 183 184 185 186 187 188 189 190 191 192 193 194 195 196 197 198 199 200 200 202 203 204 205 206 207 208 209 212 145 221 255 255 255 255 255 255 255 255 255 255
255 255 255 255 255 255 255 255 255 255 255 255 255 255 254 255 255 254 252 253 252 253 255 255 254 254 126 9 14 15 16 17 18 19 19 20 21 22 23 24 25 25 26 27 28 29 29 30 31 31 32 33 34 35 36 37 37 38 38 39 40 41 42 43 43 44 45 46 46 47 48 49 50 51 52 52 53 54 55 55 56 57 58 59 60 61 61 62 63 64 65 66 67 68 68 69 70 71 72 73 74 75 76 76 77 78 80 81 81 82 83 84 85 86 87 89 89 90 91 92 93 94 95 96 97 98 99 100 101 101 102 104 104 105 106 107 108 109 110 111 112 113 114 115 116 117 118 119 120 121 121 123 124 125 126 127 128 129 130 131 132 133 134 135 136 137 138 139 141 142 143 143 144 145 146 147 148 149 150 151 152 152 154 155 156 157 157 158 159 160 161 162 163 163 165 166 167 168 169 169 170 171 172 173 173 175 175 176 177 178 179 179 180 182 182 183 184 185 186 187 188 189 190 191 192 193 194 195 196 197 198 199 200 200 201 203 204 205 206 207 208 209 210 213 145 221 255 255 255 255 255 255 255 255 255 255
255 255 255 255 255 255 255 255 255 255 255 255 255 255 254 255 255 254 252 253 252 253 255 255 254 254 126 10 14 15 16 17 18 19 20 20 21 22 23 24 25 26 26 27 28 29 29 30 31 32 33 34 35 35 36 37 37 38 39 40 41 41 42 43 44 44 45 46 47 48 48 49 50 51 52 53 53 54 55 56 57 57 58 59 60 61 62 63 63 64 65 66 67 68 69 70 71 72 72 73 74 75 76 77 78 79 80 81 81 82 84 85 86 87 88 89 90 91 91 92 93 94 95 96 97 98 99 100 101 102 103 104 105 106 106 107 108 109 110 111 112 113 114 115 117 118 119 119 120 121 122 123 124 125 126 127 128 129 130 131 132 133 135 136 137 137 139 140 141 142 143 144 145 146 147 147 148 149 150 151 152 153 154 155 156 157 158 159 159 160 162 163 163 164 166 166 167 168 169 170 170 171 172 173 174 175 176 177 177 178 179 180 181 182 183 184 184 185 186 187 188 190 190 191 192 193 194 195 196 197 198 199 200 201 201 203 204 205 206 207 208 209 210 213 145 221 255 255 255 255 255 255 255 255 255 255
255 255 255 255 255 255 255 255 255 255 255 255 255 255 254 255 255 254 252 253 253 253 255 255 254 254 126 10 14 15 16 17 18 19 20 21 22 23 23 24 25 26 27 28 28 29 30 30 31 32 33 34 35 36 36 37 38 38 39 40 41 42 42 43 44 45 46 46 47 48 49 50 51 51 52 53 54 55 55 56 57 58 59 60 60 61 62 63 64 65 66 67 68 69 69 70 71 72 73 74 75 76 76 77 78 79 80 81 82 83 84 85 86 87 88 89 90 91 92 93 94 95 96 97 98 99 100 101 101 102 103 104 105 106 107 108 109 110 111 112 113 114 115 116 117 118 119 120 121 122 122 123 125 126 127 128 129 130 131 132 133 134 135 136 137 138 139 140 142 143 143 144 145 146 147 148 149 150 151 152 152 153 155 156 157 157 158 159 160 161 162 163 164 164 166 167 168 168 169 170 171 172 173 174 174 175 176 177 178 179 179 180 181 182 183 184 185 186 187 187 189 190 191 192 193 194 195 196 197 198 199 200 200 201 202 203 204 206 207 208 209 210 211 214 145 221 255 255 255 255 255 255 255 255 255 255
255 255 255 255 255 255 255 255 255 255 255 255 255 255 254 255 255 254 252 253 253 253 255 255 254 254 126 10 15 16 17 17 18 19 20 21 22 23 24 25 25 26 27 28 29 30 30 31 32 32 33 34 35 36 37 37 38 39 39 40 41 42 43 44 44 45 46 47 47 48 49 50 51 52 53 53 54 55 56 57 57 58 59 60 61 62 62 63 64 65 66 67 68 69 69 70 71 72 73 74 75 76 77 78 78 80 81 82 82 83 85 86 86 87 88 90 90 91 92 93 94 95 96 97 98 99 100 101 102 103 104 105 106 107 107 108 109 110 111 112 113 114 115 116 117 118 119 120 121 122 123 124 125 126 127 128 129 130 131 132 133 134 135 136 137 138 139 140 142 143 144 145 146 146 147 148 149 150 151 152 153 154 155 156 157 158 158 159 160 161 162 163 164 165 166 167 168 169 170 170 171 172 173 174 174 176 176 177 178 179 180 180 182 183 183 184 185 186 187 188 189 190 191 192 193 194 195 196 197 198 199 200 201 201 202 204 205 206 207 208 209 210 211 214 145 221 255 255 255 255 255 255 255 255 255 255
255 255 255 255 255 255 255 255 255 255 255 255 255 255 254 255 255 254 252 253 253 253 255 255 254 254 126 10 15 16 17 18 19 20 21 21 22 23 24 25 26 27 27 28 29 30 30 31 32 33 34 35 36 36 37 38 38 39 40 41 42 42 43 44 45 45 46 47 48 49 50 51 51 52 53 54 55 55 56 57 58 59 59 60 61 62 63 64 65 66 66 67 68 69 70 71 72 73 74 75 75 76 77 78 79 80 81 82 83 84 85 86 87 88 89 90 91 92 93 94 95 96 96 98 98 99 100 101 102 103 104 105 106 107 108 109 110 111 111 113 114 115 115 117 118 119 120 121 121 122 123 124 125 127 127 128 129 130 131 132 133 135 136 137 138 139 140 141 142 143 144 145 146 147 148 149 150 151 152 152 153 154 155 156 157 158 159 160 161 161 163 164 164 165 167 168 168 169 170 171 172 172 173 174 175 176 177 178 178 179 180 181 182 183 184 185 185 186 187 188 190 191 191 192 193 194 195 196 197 198 199 200 201 202 202 204 205 206 207 208 209 210 211 214 145 221 255 255 255 255 255 255 255 255 255 255
255 255 255 255 255 255 255 255 255 255 255 255 255 255 254 255 255 254 252 253 253 253 255 255 254 254 126 10 15 16 17 18 19 20 21 22 22 23 24 25 26 27 28 28 29 30 31 31 32 33 34 35 36 37 37 38 39 39 40 41 42 43 43 44 45 46 47 47 48 49 50 51 52 52 53 54 55 56 56 57 58 59 60 61 61 62 63 64 65 66 67 68 69 70 70 71 72 73 74 75 76 77 78 78 79 80 81 82 83 84 85 86 87 88 89 90 91 92 93 94 95 96 97 98 99 100 101 102 102 103 104 105 106 107 108 109 110 111 112 113 114 115 116 117 118 119 120 121 122 123 123 125 126 127 128 129 130 131 132 133 134 135 136 137 138 139 140 141 143 144 144 145 146 147 148 149 150 151 152 153 153 154 156 157 158 158 159 160 161 162 163 164 165 165 167 168 169 169 170 171 172 173 174 175 175 176 177 178 179 180 180 181 182 183 184 185 186 187 187 188 190 191 192 193 194 194 195 196 198 199 200 200 201 202 203 204 205 207 207 208 209 210 211 214 145 221 255 255 255 255 255 255 255 255 255 255
255 255 255 255 255 255 255 255 255 255 255 255 255 255 254 255 255 254 252 253 253 253 255 255 254 254 126 11 16 17 17 18 19 20 21 22 23 24 24 25 26 27 28 29 30 30 31 32 33 33 34 35 36 37 38 39 39 40 40 41 42 43 44 45 45 46 47 48 49 50 50 51 52 53 54 55 55 56 57 58 58 59 60 61 62 63 64 65 65 66 67 68 69 70 71 72 73 74 74 75 76 77 78 79 80 81 82 83 84 84 86 87 88 89 90 91 92 93 93 94 95 96 97 98 99 100 101 102 103 104 105 106 107 108 109 109 110 111 112 113 114 115 116 117 119 120 121 122 122 123 124 125 126 127 128 129 130 131 132 133 134 135 137 138 139 139 141 142 143 144 145 146 147 148 149 149 150 151 152 153 154 155 156 157 158 159 160 161 162 162 164 165 165 166 168 168 169 170 171 172 172 173 174 175 176 177 178 178 179 180 181 182 183 184 184 185 186 187 188 189 190 191 192 193 194 195 196 197 198 199 200 201 202 202 203 205 206 207 208 209 210 211 212 215 145 221 255 255 255 255 255 255 255 255 255 255
255 255 255 255 255 255 255 255 255 255 255 255 255 255 254 255 255 254 252 253 253 253 255 255 254 254 126 11 16 17 18 19 20 21 22 22 23 24 25 26 27 27 28 29 30 31 31 32 33 34 35 36 37 37 38 39 39 40 41 42 43 43 44 45 46 47 48 48 49 50 51 52 52 53 54 55 56 57 57 58 59 60 61 62 62 63 64 65 66 67 68 69 69 70 71 72 73 74 75 76 77 78 78 79 80 81 82 83 84 85 86 87 88 89 90 91 92 93 94 95 96 97 98 99 100 101 102 103 103 104 105 106 107 108 109 110 111 112 113 114 115 116 117 118 119 120 121 122 123 124 124 126 127 128 129 130 131 132 133 134 135 136 137 138 139 140 141 142 144 145 145 146 147 148 149 150 151 152 153 154 154 155 157 158 158 159 160 161 162 163 164 165 166 166 168 169 170 170 171 172 173 174 174 175 176 177 178 179 179 180 181 182 183 184 185 186 187 187 188 189 191 192 192 193 194 195 196 197 198 199 200 201 202 203 203 205 206 207 208 209 210 211 212 215 145 221 255 255 255 255 255 255 255 255 255 255
255 255 255 255 255 255 255 255 255 255 255 255 255 255 254 255 255 254 252 253 253 254 255 255 254 254 126 12 17 17 18 19 20 21 22 23 24 25 25 26 27 28 29 30 31 31 32 33 33 34 35 36 37 38 39 39 40 41 41 42 43 44 45 46 46 47 48 49 50 51 51 52 53 54 55 55 56 57 58 59 59 60 61 62 63 64 65 66 66 67 68 69 70 71 72 73 74 74 75 76 77 78 79 80 81 82 83 84 85 85 87 88 89 90 91 92 93 93 94 95 96 97 98 99 100 101 102 103 104 105 106 107 108 109 109 110 111 112 113 114 115 116 117 118 120 121 122 122 123 124 125 126 127 128 129 130 131 132 133 134 135 136 138 139 139 140 141 142 144 145 146 147 148 148 149 150 151 152 153 154 155 156 157 158 159 160 161 162 162 163 164 166 166 167 169 169 170 171 172 173 173 174 175 176 176 177 178 179 180 181 181 182 183 185 185 186 187 188 189 190 191 192 193 194 195 196 196 198 199 200 201 201 202 203 204 205 206 208 208 210 211 211 212 215 145 221 255 255 255 255 255 255 255 255 255 255
255 255 255 255 255 255 255 255 255 255 255 255 255 255 254 255 255 254 253 253 253 254 255 255 254 254 126 12 17 18 19 19 20 21 22 23 24 25 26 27 28 28 29 30 31 32 32 33 34 35 36 36 37 38 39 40 40 41 42 43 44 44 45 46 47 48 49 49 50 51 52 53 53 54 55 56 57 58 58 59 60 61 62 63 63 64 65 66 67 68 69 70 70 71 72 73 74 75 76 77 78 79 79 80 81 82 83 84 85 86 87 88 89 90 91 92 93 94 95 96 97 98 99 100 101 102 103 104 104 105 106 107 108 109 110 111 112 113 114 115 116 117 118 119 120 121 122 123 124 125 125 127 128 129 130 131 132 133 134 135 136 137 138 139 140 141 142 143 144 146 146 147 148 149 150 151 152 153 154 155 155 156 157 159 159 160 161 162 163 164 165 166 167 167 169 170 171 171 172 173 174 174 175 176 177 178 179 180 180 181 182 183 184 185 186 187 187 188 189 190 191 192 193 194 195 196 197 198 199 200 201 202 203 204 204 206 207 208 209 210 211 212 213 215 145 221 255 255 255 255 255 255 255 255 255 255
255 255 255 255 255 255 255 255 255 255 255 255 255 255 254 255 255 254 253 253 253 254 255 255 254 255 126 12 17 18 19 20 21 22 23 23 24 25 26 27 28 29 30 30 31 32 33 33 34 35 36 37 38 39 39 40 41 41 42 43 44 45 46 47 47 48 49 50 50 52 52 53 54 55 56 56 57 58 59 60 60 61 62 63 64 65 66 67 67 68 69 70 71 72 73 74 74 75 76 77 78 79 80 81 82 83 84 85 86 86 88 89 90 91 92 93 93 94 95 96 97 98 99 100 101 102 103 104 105 106 107 108 109 110 110 111 112 113 114 115 116 117 118 119 121 122 123 123 124 125 126 127 128 129 130 131 132 133 134 135 136 137 139 140 140 141 142 143 145 146 147 148 149 149 150 151 152 153 154 155 156 157 158 159 160 161 162 163 163 164 165 167 167 168 170 170 171 172 173 174 174 175 176 177 177 178 179 180 181 182 182 183 184 185 186 187 188 189 189 190 192 193 194 194 195 196 197 198 200 201 202 202 203 204 205 206 207 208 209 210 211 212 213 216 145 221 255 255 255 255 255 255 255 255 255 255
255 255 255 255 255 255 255 255 255 255 255 255 255 255 254 255 255 254 253 253 253 254 255 255 254 255 126 12 17 18 19 20 21 22 23 24 25 26 26 27 28 29 30 31 31 32 33 34 34 35 36 37 38 39 40 40 41 42 42 43 44 45 46 47 48 48 49 50 51 52 53 54 54 55 56 57 57 58 59 60 61 62 62 63 64 65 66 67 68 69 69 70 71 72 73 74 75 76 77 78 79 79 80 81 82 83 84 85 86 87 88 89 90 91 92 93 94 95 96 97 98 99 100 101 102 103 103 104 105 106 107 108 109 110 111 112 113 114 115 116 117 118 119 120 121 122 123 124 125 126 126 128 129 130 131 132 133 134 135 136 136 138 139 140 141 142 143 144 145 146 147 148 149 150 151 152 153 154 155 156 156 157 158 160 160 161 162 163 164 165 166 167 168 168 170 171 172 172 173 174 175 175 176 177 178 179 180 181 181 182 183 184 185 186 187 187 188 189 190 191 192 193 194 195 196 197 198 199 200 201 202 203 204 204 205 207 207 209 210 211 212 212 213 216 145 221 255 255 255 255 255 255 255 255 255 255
255 255 255 255 255 255 255 255 255 255 255 255 255 255 254 255 255 254 253 253 253 254 255 255 254 255 126 13 18 19 20 20 21 22 23 24 25 26 27 28 29 29 30 31 32 33 33 34 35 36 37 38 39 40 40 41 42 42 43 44 45 46 46 47 48 49 50 51 51 52 53 54 55 56 57 57 58 59 60 60 61 62 63 64 65 66 67 68 68 69 70 71 72 73 74 75 75 76 77 78 79 80 81 82 83 84 85 86 87 87 89 90 91 92 93 94 94 95 96 97 98 99 100 101 102 103 104 105 106 107 108 109 110 111 111 112 113 114 115 116 117 118 119 120 122 123 124 125 125 126 127 128 129 130 131 132 133 134 135 136 137 138 140 141 141 142 143 144 146 147 148 149 150 150 151 152 153 154 155 156 157 158 159 160 161 162 163 164 164 165 166 168 168 169 170 171 172 173 174 175 175 176 177 178 178 179 180 181 182 183 183 184 185 186 187 188 189 190 190 191 193 194 195 195 196 197 198 199 200 202 202 203 204 205 205 207 208 209 210 211 212 213 214 216 145 221 255 255 255 255 255 255 255 255 255 255
255 255 255 255 255 255 255 255 255 255 255 255 255 255 254 255 255 254 253 253 253 254 255 255 254 255 126 13 18 19 20 21 22 23 24 24 25 26 27 28 29 30 31 32 32 33 34 35 35 36 37 38 39 40 41 41 42 43 43 44 45 46 47 48 48 49 50 51 52 53 53 54 55 56 57 58 58 59 60 61 62 63 63 64 65 66 67 68 69 70 70 71 72 73 74 75 76 77 78 79 80 80 81 82 83 84 85 86 87 88 89 90 91 92 93 94 95 96 97 98 99 100 101 102 103 103 104 105 106 107 108 109 110 111 112 113 114 115 116 117 118 119 120 121 122 123 124 125 126 127 127 129 130 131 132 132 133 135 135 136 137 139 140 141 142 143 144 145 146 147 148 149 150 151 152 153 154 155 156 156 157 158 159 160 161 162 163 164 165 166 167 168 168 169 171 171 172 173 174 175 175 176 177 178 179 180 180 181 182 183 184 184 186 187 187 188 189 190 191 192 193 194 195 196 197 198 198 199 201 202 203 203 204 205 206 207 208 209 210 211 212 213 214 217 145 221 255 255 255 255 255 255 255 255 255 255
255 255 255 255 255 255 255 255 255 255 255 255 255 255 254 255 255 254 253 253 253 254 255 255 255 255 125 13 18 19 20 21 22 23 24 25 26 27 27 28 29 30 31 32 33 34 34 35 36 37 38 38 39 40 41 42 42 43 44 45 46 46 47 48 49 50 51 51 52 53 54 55 56 57 57 58 59 60 61 61 62 63 64 65 66 67 67 68 69 70 71 72 73 74 75 75 76 77 78 79 80 81 82 83 84 85 86 87 88 88 90 91 92 93 94 95 95 96 97 98 99 100 101 102 103 104 105 106 107 108 109 110 111 112 112 113 114 115 116 117 118 119 120 121 123 124 125 125 126 127 128 129 130 131 132 133 134 135 136 137 138 139 141 142 142 143 144 145 147 148 149 150 151 151 152 153 154 155 156 157 158 159 160 161 162 163 164 164 165 166 167 168 169 170 171 172 173 174 175 175 176 177 178 179 179 180 181 182 183 183 184 185 186 187 188 189 190 190 191 192 194 195 195 196 197 198 199 200 201 202 203 204 205 206 206 208 209 210 211 212 213 213 214 217 145 221 255 255 255 255 255 255 255 255 255 255
255 255 255 255 255 255 255 255 255 255 255 255 255 255 254 255 255 254 253 253 253 254 255 255 255 255 125 13 19 20 20 21 22 23 24 25 26 27 28 29 30 30 31 32 33 34 34 35 36 37 38 39 40 41 41 42 43 43 44 45 46 47 48 48 49 50 51 52 52 53 54 55 56 57 58 58 59 60 61 62 62 63 64 65 66 67 68 69 69 70 71 72 73 74 75 76 77 78 78 79 80 81 82 83 84 85 86 87 88 89 90 91 92 93 94 95 96 97 98 99 100 101 101 102 103 104 105 106 107 108 109 110 111 112 113 114 115 116 116 117 119 120 120 122 123 124 125 126 126 127 128 129 130 132 133 133 134 135 136 137 138 140 141 142 143 144 145 146 147 148 149 150 151 152 153 153 154 156 156 157 158 159 160 161 162 163 164 165 166 166 168 169 169 170 172 172 173 174 175 176 176 177 178 179 180 181 181 182 183 184 184 185 186 188 188 189 190 191 192 192 194 195 196 196 197 198 199 200 201 202 203 204 205 206 206 208 209 210 211 212 213 214 215 217 145 221 255 255 255 255 255 255 255 255 255 255
255 255 255 255 255 255 255 255 255 255 255 255 255 255 254 255 255 254 253 253 253 254 255 255 255 255 125 14 19 20 21 22 23 24 25 25 26 27 28 29 30 31 32 33 33 34 35 36 36 37 38 39 40 41 42 43 43 44 44 45 46 47 48 49 50 51 52 52 53 54 55 56 56 57 58 59 60 61 61 62 63 64 65 66 66 67 68 69 70 71 72 73 74 75 75 76 77 78 79 80 81 82 83 84 85 86 87 88 89 89 91 92 93 94 95 96 96 97 98 99 100 101 102 103 104 105 106 107 108 109 110 111 112 112 113 114 115 116 117 118 119 120 121 122 124 125 126 126 127 128 129 130 131 132 133 134 135 136 137 138 139 140 141 142 143 144 145 146 148 149 150 150 151 152 153 154 155 156 157 158 159 159 161 162 163 164 164 165 166 167 168 169 170 171 172 173 174 174 176 176 177 178 178 179 180 181 182 183 183 184 185 186 187 188 189 190 190 191 192 193 194 195 196 197 198 199 200 201 202 203 204 205 205 206 207 208 209 211 211 212 213 214 215 218 145 221 255 255 255 255 255 255 255 255 255 255
255 255 255 255 255 255 255 255 255 255 255 255 255 255 254 255 255 254 253 253 253 254 255 255 255 255 126 14 20 20 21 22 23 24 25 26 27 28 29 30 31 31 32 33 34 35 35 36 37 38 39 40 41 42 42 43 44 44 45 46 47 48 49 49 50 51 52 53 54 55 55 56 57 58 59 59 60 61 62 63 63 64 65 66 67 68 69 70 70 71 72 73 74 75 76 77 78 79 79 80 81 82 83 84 85 86 87 88 89 90 91 92 93 94 95 96 97 98 99 100 101 102 102 103 104 105 106 107 108 109 110 111 112 113 114 114 115 117 117 118 120 121 121 123 124 125 126 127 127 129 129 130 132 133 134 134 135 137 137 138 139 140 142 143 144 145 146 147 148 149 150 151 152 153 154 154 155 156 157 158 159 160 161 162 163 164 165 166 167 167 168 170 170 171 173 173 174 175 176 177 177 178 179 180 180 181 182 183 184 185 185 186 187 188 189 190 191 191 192 193 195 196 196 197 198 199 200 201 202 203 204 205 206 206 207 209 209 211 212 213 214 214 215 218 145 221 255 255 255 255 255 255 255 255 255 255
254 254 254 254 254 254 254 254 249 237 226 243 249 224 233 228 231 237 214 239 222 225 254 254 247 246 122 15 20 21 22 23 24 25 26 26 27 28 29 30 31 32 33 34 34 35 36 37 37 38 39 40 41 42 43 43 44 45 45 46 47 48 49 50 51 52 53 53 55 56 56 57 58 58 59 60 61 62 62 63 64 65 66 67 67 68 69 70 71 72 73 74 75 76 76 77 78 79 80 81 82 83 84 85 87 87 88 89 90 91 92 93 94 95 96 97 97 98 99 100 101 102 103 104 105 106 107 108 109 109 110 112 112 113 114 115 116 117 118 119 120 121 122 123 124 126 127 127 128 129 130 132 132 133 135 135 136 137 138 139 140 141 142 143 144 145 146 147 149 150 150 151 152 153 154 155 156 157 158 159 159 160 161 163 163 164 165 167 167 168 169 171 171 172 173 174 175 176 177 177 177 178 179 180 181 182 183 183 184 185 186 187 188 189 189 190 191 192 193 194 195 196 197 198 199 200 200 202 203 204 205 205 207 207 208 210 210 212 212 214 214 215 216 218 145 220 254 254 254 254 254 254 254 254 254 254
255 255 255 255 255 255 255 255 232 185 140 204 236 135 178 154 166 192 104 201 135 146 254 253 231 226 115 18 22 21 22 23 24 25 26 27 28 29 29 31 32 32 33 34 35 36 36 37 38 39 40 40 41 42 43 44 44 45 46 47 48 49 49 51 52 53 54 54 56 56 57 58 58 59 59 60 61 62 62 63 64 65 66 67 68 68 69 70 71 72 73 74 75 76 76 77 78 79 80 81 82 83 84 85 87 87 88 89 90 92 93 93 95 95 97 97 97 98 99 100 101 102 103 104 105 106 107 108 108 109 110 111 112 113 114 115 116 117 118 119 120 121 122 123 124 126 128 128 128 130 131 132 133 133 135 136 137 138 138 139 140 141 142 143 144 145 146 147 148 149 150 151 152 153 154 155 156 157 158 159 159 160 161 163 163 164 165 167 168 169 169 171 172 173 174 174 176 176 177 178 178 179 179 180 181 182 183 184 185 186 186 187 188 189 190 191 192 193 194 195 196 197 198 199 200 201 202 203 205 206 207 207 208 210 211 212 212 214 214 216 217 217 218 220 149 223 255 255 255 255 255 255 255 255 255 255
255 255 255 255 255 255 255 255 236 193 153 210 239 149 187 165 176 199 120 207 148 158 255 255 234 228 116 17 21 22 23 24 25 26 27 28 29 30 30 31 32 33 34 35 36 36 37 38 39 39 40 41 42 43 44 45 45 46 47 48 49 49 50 51 51 52 53 54 55 56 57 57 58 59 60 61 62 63 63 64 65 66 67 68 68 69 70 71 72 73 74 75 76 76 77 78 79 80 81 82 82 84 84 85 85 87 88 88 90 92 91 93 93 95 96 97 98 99 100 101 102 103 104 105 106 107 107 108 109 110 111 112 113 114 115 116 117 118 119 120 121 122 122 124 125 126 126 128 128 129 131 132 132 133 134 136 136 137 139 139 140 142 143 144 145 146 147 148 149 150 151 152 153 154 155 156 156 158 158 159 160 161 162 163 164 165 166 167 167 168 170 170 172 173 173 174 175 176 177 177 179 179 180 181 182 183 184 185 186 186 187 188 189 190 191 192 193 194 194 195 197 198 199 200 201 202 202 203 205 206 206 207 208 209 210 211 212 213 214 215 216 217 218 221 150 224 255 255 255 255 255 255 255 255 255 255
251 251 251 251 251 251 251 251 230 189 150 205 234 147 183 162 173 196 121 204 148 157 250 249 229 218 107 12 15 21 22 23 24 25 26 27 28 29 30 31 32 33 33 35 35 36 37 38 38 39 40 41 42 43 44 45 45 46 47 48 49 50 51 51 48 50 50 53 52 53 56 53 58 60 61 62 63 64 64 65 66 67 68 69 70 71 71 72 73 74 75 76 77 78 79 79 81 81 82 83 84 85 86 85 81 87 90 86 89 91 88 93 90 95 94 94 100 101 102 103 104 105 105 106 107 108 109 110 111 112 113 114 115 116 117 118 119 120 121 122 123 124 124 126 127 126 122 128 130 127 130 130 132 133 131 136 135 136 141 142 143 144 145 146 147 148 149 150 151 152 153 154 155 156 157 158 158 160 160 161 162 163 164 165 166 167 167 166 166 166 170 167 171 173 170 174 171 176 175 175 180 181 182 183 184 185 185 186 187 188 189 189 190 192 192 193 194 195 196 197 198 199 200 200 201 202 203 203 202 203 203 207 206 206 208 208 211 208 212 212 212 217 218 221 144 217 251 251 251 251 251 251 251 251 251 251
255 255 255 255 255 255 255 255 237 195 155 212 240 151 188 167 178 201 122 208 149 160 255 255 235 230 118 19 23 23 24 25 26 27 28 29 30 31 31 32 33 34 35 36 37 37 38 39 39 40 41 42 43 44 45 45 46 47 47 48 49 50 51 52 53 54 55 55 57 57 58 59 59 60 61 62 62 63 64 65 66 67 67 68 69 70 71 72 73 74 74 75 76 77 78 79 80 80 81 82 83 84 85 86 87 88 89 90 91 93 93 94 95 96 97 98 99 100 101 102 102 103 104 105 106 107 108 109 110 111 112 113 114 115 115 116 117 118 119 120 121 122 123 124 126 127 128 129 129 130 132 133 133 134 136 137 138 138 139 140 141 142 144 145 145 146 147 148 150 151 152 153 154 154 155 156 157 158 159 160 161 162 163 164 165 166 167 168 169 170 170 172 173 174 175 175 176 177 178 179 179 180 181 182 182 184 184 185 186 187 188 188 190 191 191 192 193 194 195 196 197 198 199 200 201 202 203 204 206 207 208 208 209 210 212 212 213 215 215 216 217 218 219 222 151 225 255 255 255 255 255 255 255 255 255 255
255 255 255 255 255 255 255 255 232 182 136 202 236 132 176 151 164 190 99 199 131 143 255 254 230 225 115 19 23 23 24 25 26 27 28 29 30 31 31 32 33 34 35 36 37 37 38 39 39 40 41 42 43 44 45 46 46 47 48 49 50 50 51 52 54 55 56 56 58 58 59 60 60 60 61 62 63 64 64 65 66 67 68 69 69 70 71 72 73 74 75 76 77 78 78 79 80 81 82 83 84 85 86 87 89 89 90 91 92 94 94 95 96 97 98 99 99 100 101 102 103 104 105 106 107 108 109 110 110 111 112 113 114 115 116 117 118 119 120 121 122 123 124 125 126 128 130 129 130 132 133 134 134 135 137 138 139 139 140 141 142 143 144 145 146 147 148 149 150 151 152 153 154 155 156 157 157 159 160 160 161 162 163 164 165 166 167 169 170 171 171 173 174 175 176 176 177 178 179 180 180 180 181 182 183 184 185 186 186 187 188 189 190 191 192 193 194 195 195 196 198 199 200 200 201 202 203 205 207 208 209 209 210 211 213 213 213 215 216 217 218 218 219 222 150 223 255 255 255 255 255 255 255 255 255 255
253 253 253 253 253 253 253 253 243 224 205 232 245 203 220 210 216 226 189 229 202 207 252 252 242 240 118 17 23 23 24 25 26 27 28 29 30 31 31 32 33 34 35 36 37 38 38 39 40 41 42 43 44 45 45 46 47 48 48 49 50 51 52 53 54 55 56 56 58 59 59 60 61 61 62 63 64 65 66 66 67 68 69 70 71 72 73 74 74 75 76 77 78 79 80 81 82 82 83 84 85 86 87 88 90 90 91 92 93 95 96 96 98 98 99 100 101 102 103 104 104 105 106 107 108 109 110 111 112 113 114 115 116 117 117 118 119 120 121 122 123 124 125 126 128 129 131 131 131 133 134 135 136 137 138 139 140 141 141 142 143 144 146 147 147 148 149 150 152 153 154 155 155 156 157 158 159 160 161 162 163 163 165 166 166 167 168 170 171 172 172 174 174 175 177 177 178 179 180 180 180 181 182 183 184 185 185 186 187 188 189 189 190 192 192 193 194 195 196 196 198 199 199 200 201 202 203 204 206 207 208 208 209 210 211 212 212 214 215 216 217 217 218 220 145 219 253 253 253 253 253 253 253 253 253 253
255 255 255 255 255 255 255 255 255 255 255 255 255 255 254 255 255 255 253 253 253 254 255 255 255 255 126 17 23 24 25 26 27 28 29 30 31 32 32 33 34 35 36 37 38 39 39 40 41 42 43 44 45 46 46 47 48 48 49 50 51 52 53 54 54 55 56 57 58 59 60 61 61 62 63 64 65 65 66 67 68 69 70 71 71 72 73 74 75 76 77 78 79 80 80 81 82 83 84 85 86 87 88 89 90 91 92 93 94 94 96 97 98 99 100 101 101 102 103 104 105 106 107 108 109 110 111 112 113 114 115 116 117 117 118 119 120 121 122 123 124 125 126 127 128 129 130 131 132 133 134 135 136 137 138 139 140 141 142 143 144 145 146 147 148 149 150 151 153 154 154 155 156 157 158 159 160 161 162 163 163 164 165 167 167 168 169 170 171 172 173 174 174 175 177 177 178 179 180 181 181 182 183 184 184 186 186 187 188 189 189 190 191 192 193 194 195 195 196 197 198 199 200 201 202 203 204 205 206 207 208 208 209 210 211 212 213 214 215 216 217 217 218 221 146 221 255 255 255 255 255 255 255 255 255 255
255 255 255 255 255 255 255 255 255 255 255 255 255 255 254 255 255 255 253 254 254 254 255 255 255 255 126 17 24 25 26 26 27 28 29 30 31 32 33 34 35 36 37 38 38 39 40 41 41 42 43 44 45 46 47 48 48 49 50 51 52 53 53 54 55 56 57 57 58 59 60 61 62 63 64 64 65 66 67 68 68 69 70 71 72 73 74 75 76 77 78 78 79 80 81 82 83 84 85 86 87 88 88 89 90 91 92 93 94 95 96 97 98 99 100 101 102 103 104 105 106 107 108 109 110 111 112 112 113 114 115 116 117 118 119 120 121 122 123 124 125 126 127 128 129 130 131 132 133 134 134 136 137 138 139 140 140 142 142 143 144 146 147 148 149 150 151 152 153 154 155 156 157 158 159 159 160 161 162 163 164 165 166 167 168 169 170 171 171 172 173 174 175 176 177 178 179 179 180 181 182 183 183 184 185 186 187 188 188 189 190 191 192 193 193 194 195 196 197 198 199 200 201 201 202 203 204 205 206 207 208 209 209 210 211 212 213 214 215 216 217 218 219 221 146 221 255 255 255 255 255 255 255 255 255 255
255 255 255 255 255 255 255 255 255 255 255 255 255 255 254 255 255 255 254 254 254 254 255 255 255 255 126 18 24 25 26 27 28 29 30 31 31 33 33 34 35 36 37 38 39 40 40 41 42 43 44 45 46 47 47 48 49 49 50 51 52 53 54 55 55 56 57 58 59 60 61 61 62 63 64 65 66 67 67 68 69 70 71 72 73 73 74 75 76 77 78 79 80 81 81 82 83 84 85 86 87 88 89 90 91 92 93 94 95 95 97 98 99 100 101 102 102 103 104 105 106 107 108 109 110 111 112 113 114 115 116 117 118 118 119 120 121 122 123 124 125 126 127 128 129 130 131 132 133 134 135 136 137 138 139 140 141 142 143 144 145 146 147 148 149 150 151 152 154 155 155 156 157 158 159 160 161 162 163 164 164 165 166 167 168 169 170 171 172 172 174 175 175 176 178 178 179 180 181 181 182 183 184 185 185 186 187 188 189 189 190 191 192 193 194 195 195 196 197 198 199 200 201 202 203 203 204 205 207 207 208 209 210 211 211 213 213 215 215 216 217 218 219 221 146 221 255 255 255 255 255 255 255 255 255 255
255 255 255 255 255 255 255 255 255 255 255 255 255 255 254 255 255 255 253 254 254 254 255 255 255 255 126 18 24 25 26 27 28 29 30 31 32 33 34 35 36 37 37 38 39 40 41 42 42 43 44 45 46 47 48 49 49 50 51 52 53 54 54 55 56 57 58 59 59 60 61 62 63 64 65 65 66 67 68 69 70 70 71 72 73 74 75 76 77 78 79 80 80 81 82 83 84 85 86 87 88 89 90 90 91 92 93 94 95 96 97 98 99 100 101 102 103 104 105 106 107 108 109 110 111 112 113 114 114 115 116 117 118 119 120 121 122 123 124 125 126 127 128 129 130 131 132 133 134 135 136 137 138 139 140 141 142 143 143 144 145 147 148 149 150 151 152 153 154 155 156 157 158 159 160 160 161 162 163 164 165 166 167 168 169 170 171 171 172 173 174 175 176 177 178 179 180 180 181 182 183 184 184 185 186 187 188 189 189 190 191 192 193 194 194 195 196 197 198 198 200 201 201 202 203 204 205 206 207 208 209 209 210 211 212 213 214 215 216 217 218 219 219 222 146 221 255 255 255 255 255 255 255 255 255 255
255 255 255 255 255 255 255 255 255 255 255 255 255 255 254 255 255 255 254 254 254 254 255 255 255 255 126 19 25 26 27 28 29 30 31 32 33 34 34 35 36 37 38 39 40 41 41 42 43 44 45 46 47 48 49 49 50 51 51 52 53 54 55 56 57 57 58 59 60 61 62 63 63 64 65 66 67 68 69 69 70 71 72 73 74 75 76 77 77 78 79 80 81 82 83 84 85 86 86 87 88 89 90 91 92 93 94 95 96 97 98 99 100 101 102 103 104 105 106 107 107 108 109 110 111 112 113 114 115 116 117 118 119 120 120 121 122 123 124 125 126 127 128 129 131 132 133 134 134 135 136 137 138 139 140 141 142 143 144 145 146 147 149 150 150 151 152 153 155 156 157 157 158 159 160 161 162 163 164 165 165 166 168 169 169 170 171 172 173 174 175 176 176 177 179 179 180 181 182 183 183 184 185 186 186 187 188 189 190 191 191 192 193 194 195 196 196 197 198 199 200 201 202 203 204 204 205 206 207 208 209 210 211 211 212 213 214 215 216 217 218 219 220 222 146 221 255 255 255 255 255 255 255 255 255 255
255 255 255 255 255 255 255 255 255 255 255 255 255 255 254 255 255 255 254 254 254 254 255 255 255 255 126 19 25 27 28 28 29 30 31 32 33 34 35 36 37 38 39 40 40 41 42 43 44 44 45 46 47 48 49 50 50 51 52 53 54 55 56 57 57 58 59 60 61 62 62 63 64 65 66 67 68 68 69 70 71 72 73 74 74 75 76 77 78 79 80 81 82 83 83 84 85 86 87 88 89 90 91 92 93 94 95 96 96 97 98 100 100 101 102 104 104 105 106 107 108 109 110 111 112 113 114 115 116 116 117 118 119 120 121 122 123 124 125 126 127 128 129 130 131 132 133 134 135 136 137 138 139 140 141 142 143 144 145 146 147 148 149 150 151 152 153 154 155 156 157 158 159 160 161 162 162 164 164 165 166 167 168 169 170 171 172 173 173 174 175 176 177 178 179 180 181 181 182 183 184 185 185 186 187 188 189 190 190 191 192 193 194 195 195 196 197 198 198 199 201 202 202 203 204 205 206 207 208 209 210 210 211 212 213 214 215 216 217 218 218 219 220 222 146 221 255 255 255 255 255 255 255 255 255 255
255 255 255 255 255 255 255 255 255 255 255 255 255 255 254 255 255 255 254 254 254 254 255 255 255 255 126 19 26 27 28 29 30 31 32 33 34 35 35 36 37 38 39 40 41 42 42 43 44 45 46 47 48 49 49 50 51 52 52 53 54 55 56 57 58 58 59 60 61 62 63 64 65 65 66 67 68 69 70 70 71 72 73 74 75 76 77 78 78 79 80 81 82 83 84 85 86 87 87 88 89 90 91 92 93 94 95 96 97 98 99 100 101 102 103 104 105 106 107 108 109 110 110 111 112 113 114 115 116 117 118 119 120 121 122 122 123 124 125 126 127 128 129 130 132 133 134 135 135 136 137 138 139 140 141 142 143 144 145 146 147 148 150 151 151 152 153 154 156 157 158 158 159 160 161 162 163 164 165 166 166 167 169 170 170 171 172 173 174 175 176 177 177 178 180 180 181 182 183 184 184 185 186 187 187 188 189 190 191 191 192 193 194 195 196 197 197 198 199 200 201 202 203 204 204 205 206 207 208 209 210 211 211 212 213 214 215 216 217 218 219 220 220 223 146 221 255 255 255 255 255 255 255 255 255 255
255 255 255 255 255 255 255 255 255 255 255 255 255 255 254 255 255 255 254 254 254 254 255 255 255 255 126 20 27 28 29 29 30 31 32 33 34 35 36 37 38 39 40 41 41 42 43 44 45 45 46 47 48 49 50 51 52 52 53 54 55 56 57 58 58 59 60 61 62 63 64 65 65 66 67 68 69 70 70 71 72 73 74 75 76 76 77 78 79 80 81 82 83 84 85 86 86 87 88 89 90 91 92 93 94 95 96 97 98 99 100 101 102 103 104 105 105 106 107 108 109 110 111 112 113 114 115 116 117 118 119 120 121 121 122 123 124 125 126 127 128 129 130 131 132 133 135 135 136 137 138 139 140 141 142 143 144 145 146 147 148 149 150 151 152 153 154 155 156 157 158 159 160 161 162 163 164 165 165 166 167 168 169 170 171 172 173 174 175 175 176 177 178 179 180 181 182 183 183 184 185 186 186 187 188 189 190 191 191 192 193 194 195 196 196 197 198 199 199 200 202 203 203 204 205 206 207 208 209 210 211 211 212 213 214 215 216 217 218 219 219 220 221 223 147 221 255 255 255 255 255 255 255 255 255 255
255 255 255 255 255 255 255 255 255 255 255 255 255 255 254 255 255 255 254 254 254 254 255 255 255 255 126 20 27 28 29 30 31 32 33 34 34 36 36 37 38 39 40 41 42 43 43 44 45 46 47 48 49 50 51 51 52 53 53 54 55 56 57 58 59 60 61 61 62 63 64 65 66 67 68 68 69 70 71 72 72 73 74 75 76 77 78 79 80 81 81 82 83 84 85 86 87 88 89 90 91 92 92 93 94 95 96 97 98 99 100 101 102 103 104 105 106 107 108 109 110 111 112 113 114 115 115 116 117 118 119 120 121 122 123 124 125 126 127 128 129 130 130 132 133 134 135 136 137 138 138 140 141 142 143 143 144 145 146 147 148 149 151 152 153 153 154 155 157 158 159 160 161 161 162 163 164 165 166 167 168 168 170 171 172 172 173 174 175 176 177 178 179 179 181 182 182 183 184 185 185 186 187 188 188 189 190 191 192 193 193 194 195 196 197 198 198 199 200 201 202 203 204 205 205 206 207 208 209 210 211 212 212 213 214 215 216 217 218 219 220 220 221 224 147 221 255 255 255 255 255 255 255 255 255 255
255 255 255 255 255 255 255 255 255 255 255 255 255 255 254 255 255 255 254 254 254 254 255 255 255 255 126 21 27 28 29 30 31 32 33 34 35 36 37 38 39 40 41 42 42 43 44 45 46 46 47 48 49 50 51 52 53 53 54 55 56 57 58 59 60 60 61 62 63 64 65 66 66 67 68 69 70 71 71 72 73 74 75 76 77 78 78 80 80 81 82 83 84 85 86 87 88 89 89 90 91 92 93 94 95 96 97 98 99 100 101 102 103 104 105 106 107 108 109 109 110 111 112 113 114 115 116 117 118 119 120 121 122 123 123 124 125 126 127 128 129 130 131 132 134 135 136 137 137 138 139 140 141 142 143 144 145 146 147 148 149 150 151 152 153 154 155 156 158 159 159 160 161 162 163 164 165 166 167 167 168 169 170 171 172 173 174 175 176 176 178 179 179 180 181 182 183 184 185 185 186 187 188 188 189 190 191 192 192 193 194 195 196 197 197 198 199 200 200 201 203 204 204 205 206 207 208 209 210 211 212 212 213 214 215 216 216 218 218 219 220 221 222 224 147 221 255 255 255 255 255 255 255 255 255 255
255 255 255 255 255 255 255 255 255 255 255 255 255 255 254 255 255 255 254 254 254 255 255 255 255 255 126 21 28 29 30 31 32 33 34 34 35 36 37 38 39 40 41 42 43 44 44 45 46 47 48 49 50 51 52 52 53 54 54 55 56 57 58 59 60 61 62 62 63 64 65 66 67 68 69 69 70 71 72 73 74 74 75 76 77 78 79 80 81 82 83 84 85 85 86 87 88 89 90 91 92 93 94 95 96 97 98 99 99 100 102 102 104 104 105 107 107 108 109 110 111 112 113 114 115 116 117 118 118 119 120 121 122 123 124 125 126 127 128 129 130 131 132 133 134 135 136 137 138 139 140 141 142 143 144 145 146 147 148 149 149 151 152 153 154 155 156 157 158 159 160 161 162 163 163 164 165 166 167 168 169 170 171 172 173 174 174 175 176 177 178 179 180 181 182 183 184 184 185 186 186 187 188 189 190 191 191 192 193 194 194 195 196 197 198 199 199 200 201 202 203 204 205 206 206 207 208 209 210 211 212 213 213 214 215 216 217 218 219 220 221 221 222 224 147 221 255 255 255 255 255 255 255 255 255 255
255 255 255 255 255 255 255 255 255 255 255 255 255 255 254 255 255 255 254 254 254 255 255 255 255 255 126 22 28 29 30 31 32 33 34 35 36 37 38 39 40 41 42 43 44 44 45 46 47 48 49 50 51 52 52 53 54 54 55 56 57 58 59 60 61 61 62 63 64 65 66 67 68 68 69 70 71 72 73 74 74 75 76 77 78 79 80 81 82 83 83 84 85 86 87 88 89 90 91 92 93 94 94 95 96 97 98 99 100 101 102 103 104 105 106 107 108 109 110 111 112 113 114 115 115 116 117 118 119 120 121 122 123 124 125 126 126 128 128 129 131 132 132 134 135 136 137 138 138 140 140 142 142 144 145 145 146 147 148 149 150 151 153 154 154 155 156 157 159 160 161 161 162 163 164 165 166 167 168 169 169 170 172 173 173 174 175 176 177 178 179 180 180 181 183 183 184 185 186 186 187 188 189 189 190 191 192 193 193 194 195 196 197 198 198 199 200 201 201 202 204 205 205 206 207 208 209 210 211 212 212 213 214 215 215 217 217 219 219 220 221 222 223 225 147 221 255 255 255 255 255 255 255 255 255 255
255 255 255 255 255 255 255 255 255 255 255 255 255 255 254 255 255 255 254 254 254 255 255 255 255 255 126 22 29 30 31 32 33 34 35 36 36 38 38 39 40 41 42 43 44 45 45 46 47 48 49 50 51 52 53 54 54 55 56 57 58 59 59 60 61 62 63 64 65 66 66 67 68 69 70 71 72 72 73 74 75 76 77 78 78 79 80 81 82 83 84 85 86 87 88 89 89 90 91 92 93 94 95 96 97 98 99 100 101 102 103 104 105 106 107 108 109 109 110 111 112 113 114 115 116 117 118 119 120 121 122 123 124 125 125 126 127 128 129 130 131 132 133 134 136 137 138 138 139 140 141 142 143 144 145 146 147 148 149 150 151 152 153 154 155 156 157 158 160 161 161 162 163 164 165 166 167 168 169 169 170 171 172 173 174 175 176 177 178 178 179 180 181 182 183 184 185 186 186 187 188 188 189 190 191 192 193 193 194 195 196 196 197 198 199 200 201 201 202 203 204 205 206 207 208 208 209 210 211 212 213 214 214 215 216 217 218 219 220 221 222 222 223 225 147 221 255 255 255 255 255 255 255 255 255 255
255 255 255 255 255 255 255 255 255 255 255 255 255 255 254 255 255 255 254 254 254 255 255 255 255 255 126 22 29 30 31 32 33 34 35 36 37 38 39 40 41 42 43 44 45 45 46 47 48 49 50 51 52 53 53 54 55 55 56 57 58 59 60 61 62 63 64 64 65 66 67 68 69 70 71 71 72 73 74 75 75 76 77 78 79 80 81 82 83 84 85 86 87 87 88 89 90 91 92 93 94 95 96 97 98 99 100 101 102 103 104 105 106 107 107 109 109 110 111 112 113 114 115 116 117 118 119 120 120 121 122 123 124 125 126 127 128 129 130 131 132 133 134 135 136 137 138 139 140 141 142 143 144 145 146 147 148 149 149 150 151 153 154 155 156 157 158 159 160 161 162 163 164 164 165 166 167 168 169 170 171 172 173 174 175 176 176 177 178 179 180 181 182 183 184 185 185 186 187 188 188 189 190 191 191 192 193 194 195 195 196 197 198 199 199 200 201 202 203 203 205 206 206 207 208 209 210 211 212 213 214 214 215 216 217 218 218 220 220 221 222 223 223 226 147 221 255 255 255 255 255 255 255 255 255 255
255 255 255 255 255 255 255 255 255 255 255 255 255 255 254 255 255 255 254 254 254 255 255 255 255 255 126 23 30 31 32 33 34 35 36 37 38 39 39 40 41 42 43 44 45 46 47 47 48 49 50 51 52 53 54 55 55 56 57 58 59 60 61 61 62 63 64 65 66 67 68 69 69 70 71 72 73 74 74 75 76 77 78 79 80 81 81 82 83 84 85 86 87 88 89 90 91 92 92 93 94 95 96 97 98 99 100 101 102 103 104 105 106 107 108 109 110 111 112 113 113 114 115 116 117 118 119 120 121 122 123 124 125 126 126 127 128 129 130 131 132 133 134 135 137 138 139 140 140 141 142 143 144 145 146 147 148 149 150 151 152 153 154 155 156 157 158 159 161 162 162 163 164 165 166 167 168 169 169 170 171 172 173 174 175 176 177 178 179 179 180 181 182 183 184 185 186 186 187 188 189 189 190 191 192 193 193 194 195 196 196 197 198 199 200 201 201 202 203 204 205 206 207 207 208 209 210 211 212 213 214 214 215 216 217 218 219 220 221 222 222 223 224 226 147 221 255 255 255 255 255 255 255 255 255 255
255 255 255 255 255 255 255 255 255 255 255 255 255 255 254 255 255 255 254 254 254 255 255 255 255 255 126 23 30 31 32 33 34 35 36 37 38 39 40 41 42 43 44 45 46 47 47 48 49 50 51 52 53 54 54 55 56 57 57 58 59 60 61 62 63 64 65 65 67 68 68 69 70 71 72 72 73 74 75 76 77 78 78 80 80 81 82 83 84 85 86 87 88 89 89 90 91 92 93 94 95 96 97 98 99 100 101 102 103 104 105 106 107 108 109 110 110 111 112 113 114 115 116 117 118 119 120 121 121 122 123 124 125 126 127 128 129 130 131 132 133 134 135 136 137 138 139 140 141 142 143 144 145 146 147 148 149 150 151 151 152 154 155 156 157 158 159 160 161 162 163 164 165 165 166 167 168 169 170 171 172 173 174 175 176 176 177 178 179 180 181 182 183 183 185 185 186 187 188 189 189 190 191 192 192 193 194 195 195 196 197 198 199 200 200 201 202 203 203 204 206 206 207 208 209 210 210 211 213 213 214 215 216 216 217 218 219 220 221 222 223 223 224 226 147 221 255 255 255 255 255 255 255 255 255 255
255 255 255 255 255 255 255 255 255 255 255 255 255 255 254 254 255 255 254 254 254 255 255 255 255 255 126 23 31 32 33 34 35 36 37 37 38 40 40 41 42 43 44 45 46 47 48 48 49 50 51 52 53 54 55 56 56 57 58 59 60 61 62 63 63 64 65 66 67 68 69 70 70 71 72 73 74 75 75 76 77 78 79 80 81 82 83 84 84 85 86 87 88 89 90 91 92 93 94 95 95 96 97 98 100 100 101 102 103 104 105 106 107 108 109 110 111 112 113 114 115 116 116 118 118 119 120 121 122 123 124 125 126 127 128 128 129 130 131 132 134 135 135 136 138 139 140 141 141 143 143 145 145 147 148 148 149 150 151 152 153 154 156 157 157 158 159 160 162 163 164 164 165 166 167 168 169 170 171 172 172 173 174 175 176 177 178 179 180 181 182 183 183 184 185 186 187 188 189 189 190 191 191 192 193 194 195 195 196 197 198 198 199 200 201 202 203 203 204 205 206 207 208 209 209 210 211 212 213 214 215 215 216 217 218 219 220 221 222 223 223 224 225 227 147 221 255 255 255 255 255 255 255 255 255 255
255 255 255 255 255 255 255 255 255 255 255 255 255 255 254 254 255 255 254 254 254 255 255 255 255 255 126 24 31 32 33 34 35 36 37 38 39 40 41 42 43 44 45 46 47 48 48 49 50 51 52 53 54 55 56 56 57 58 58 59 61 61 62 63 64 65 66 67 68 69 69 70 71 72 73 74 75 75 76 77 78 79 80 81 82 82 83 84 85 86 87 88 89 90 91 92 93 93 94 95 96 97 98 99 100 101 102 103 104 105 106 107 108 109 110 111 112 112 113 114 115 116 117 118 119 120 121 122 123 124 125 126 127 128 128 129 130 131 132 133 134 135 136 137 139 140 141 141 142 143 144 145 146 147 148 149 150 151 152 153 154 155 156 157 158 159 160 161 162 163 164 165 166 167 168 168 169 171 171 172 173 174 175 176 177 178 179 180 180 181 182 183 184 185 186 187 187 188 189 190 190 191 192 193 193 194 195 196 197 197 198 199 200 201 202 202 203 204 205 205 207 208 208 209 210 211 211 212 214 215 215 216 217 217 218 219 220 221 222 223 224 224 225 227 147 221 255 255 255 255 255 255 255 255 255 255
255 255 255 255 255 255 255 255 255 255 255 255 255 255 254 254 255 255 254 254 254 255 255 255 255 255 126 24 32 32 33 34 35 37 37 38 39 40 41 42 43 44 45 46 47 48 48 49 50 51 52 53 54 55 56 57 57 58 59 60 61 62 63 64 65 65 66 67 68 69 70 71 71 72 73 74 75 76 77 77 78 79 80 81 82 83 84 85 86 87 87 88 89 90 91 92 93 94 95 96 97 98 99 100 101 102 103 104 105 106 107 107 109 110 111 112 112 113 114 115 116 117 118 119 120 121 122 123 123 124 125 126 127 128 129 130 131 132 133 134 135 136 137 138 139 140 142 142 143 144 145 146 147 148 149 150 151 152 152 153 154 156 157 158 159 159 161 161 163 164 165 166 167 167 168 169 170 171 172 173 174 174 176 177 177 178 179 180 181 182 183 184 185 186 187 187 188 189 190 191 191 192 193 193 194 195 196 197 197 198 199 199 200 202 202 203 204 204 205 206 207 208 209 210 210 211 212 213 214 215 216 216 217 218 219 220 221 222 223 224 224 225 226 227 147 221 255 255 255 255 255 255 255 255 255 255
255 255 255 255 255 255 255 255 255 255 255 255 255 255 254 254 255 255 254 254 254 255 255 255 255 255 126 25 32 33 34 35 36 37 38 39 40 41 42 43 44 45 46 47 48 49 49 50 51 52 53 54 55 56 57 57 58 59 59 61 62 63 63 64 65 66 67 68 69 70 71 72 72 73 74 75 76 77 77 78 79 80 81 82 83 84 85 86 86 87 88 89 90 91 92 93 94 95 96 97 97 98 99 100 101 102 103 104 105 106 107 108 109 110 111 112 113 114 115 116 117 118 118 119 120 121 122 123 124 125 126 127 128 129 130 130 131 132 133 134 135 136 137 138 140 141 142 143 143 144 145 147 147 148 150 150 151 152 153 154 155 156 157 158 159 160 161 162 164 165 165 166 167 168 169 170 171 172 173 173 174 175 176 177 178 179 180 181 182 182 183 184 185 186 187 188 189 189 190 191 191 192 193 194 195 195 196 197 198 199 199 200 201 202 203 203 204 205 206 206 208 209 209 210 211 212 212 213 215 216 216 217 218 218 219 220 221 222 223 224 224 225 226 228 147 221 255 255 255 255 255 255 255 255 255 255
255 255 255 255 255 255 255 255 255 255 255 255 255 255 254 254 255 255 255 254 254 255 255 255 255 255 126 25 33 34 35 36 37 38 39 40 41 42 42 44 44 45 46 47 48 49 50 51 51 52 53 54 55 56 57 58 59 59 60 61 62 63 64 65 66 67 68 68 70 70 71 72 73 74 75 75 76 77 78 79 80 81 82 83 83 84 85 86 87 88 89 90 91 92 93 94 94 95 96 97 98 99 100 101 102 103 104 105 106 107 108 109 110 111 112 113 114 114 115 116 117 118 119 120 121 122 123 124 125 126 127 128 129 130 130 131 132 133 134 135 136 137 138 139 141 142 143 143 144 145 146 147 148 149 150 151 152 153 154 155 156 157 158 159 160 161 162 163 164 165 166 167 168 169 170 170 171 172 173 174 175 176 177 178 179 180 180 181 182 183 184 185 186 187 188 189 189 190 191 192 192 193 194 195 195 196 197 198 198 199 200 201 202 203 203 204 205 206 206 207 208 209 210 211 212 212 213 214 215 216 217 217 218 219 220 221 221 223 223 224 225 226 226 228 147 221 255 255 255 255 255 255 255 255 255 255
255 255 255 255 255 255 255 255 255 255 255 255 255 255 254 254 255 255 255 254 254 255 255 255 255 255 126 25 33 34 35 36 37 38 39 40 41 42 43 44 45 46 47 48 49 50 50 51 52 53 54 55 56 57 58 59 59 60 61 62 63 64 65 66 66 67 68 69 70 71 72 73 73 74 75 76 77 78 79 80 80 81 82 83 84 85 86 87 88 89 90 91 91 92 93 94 95 96 97 98 99 100 101 102 103 104 105 106 107 108 108 109 110 111 112 113 114 115 116 117 118 119 120 121 122 123 124 125 125 126 127 128 129 130 131 132 133 134 135 136 137 138 139 140 141 142 143 144 145 146 147 148 149 150 151 152 152 153 154 155 156 158 159 160 161 161 162 163 165 166 167 168 168 169 170 171 172 173 174 175 175 176 178 179 179 180 181 182 183 183 185 185 186 187 188 189 190 191 191 192 193 193 194 195 196 197 197 198 199 200 200 201 202 203 204 205 205 206 207 208 209 210 210 211 212 213 214 215 216 216 217 218 219 219 220 221 222 223 224 225 225 226 227 229 147 221 255 255 255 255 255 255 255 255 255 255
255 255 255 255 255 255 255 255 255 255 255 255 255 255 254 254 255 255 255 254 254 255 255 255 255 255 126 26 33 34 35 36 37 38 39 40 41 42 43 44 45 46 47 48 49 50 51 51 52 53 54 55 56 57 58 59 60 60 61 62 63 64 65 66 67 68 69 69 71 71 72 73 74 75 76 76 77 78 79 80 81 82 83 84 84 85 86 87 88 89 90 91 92 93 94 95 96 96 97 98 99 100 101 102 103 104 105 106 107 108 109 110 111 112 113 114 115 116 117 118 118 119 120 121 122 123 124 125 126 127 128 129 130 131 131 132 133 134 135 136 137 138 139 140 142 143 144 145 145 146 147 148 149 150 151 152 153 154 155 156 157 158 159 160 161 162 163 164 165 166 167 168 169 170 171 172 172 174 174 175 176 177 178 179 180 181 182 183 183 184 185 186 187 188 189 190 190 191 192 193 193 194 195 196 196 197 198 199 199 200 201 202 203 204 204 205 206 207 207 208 209 210 211 212 212 213 214 215 216 217 218 218 219 220 221 222 222 223 224 225 226 226 227 229 147 221 255 255 255 255 255 255 255 255 255 255
255 255 255 255 255 255 255 255 255 255 255 255 255 255 254 254 255 255 255 254 255 255 255 255 255 255 126 26 34 35 36 37 38 40 40 41 42 43 44 45 46 47 48 49 50 51 52 53 53 54 55 56 57 58 59 60 61 61 62 63 64 65 66 67 68 69 70 71 72 73 74 74 75 76 77 78 79 79 80 81 82 83 84 85 86 87 88 89 89 90 91 92 93 94 95 96 97 98 99 100 101 102 102 104 105 105 106 108 108 110 110 111 112 113 114 115 116 117 118 119 120 121 122 123 123 124 125 126 127 128 129 130 131 132 133 133 135 136 136 137 139 140 140 142 143 144 145 146 147 148 149 150 151 152 153 153 154 155 156 157 158 159 161 162 162 163 164 165 167 168 168 169 170 171 172 173 174 175 176 177 177 178 179 180 181 182 183 184 185 185 186 187 188 189 190 191 192 192 193 194 194 195 196 197 198 198 199 200 201 201 202 203 204 205 205 206 207 208 208 209 210 211 212 213 214 214 215 216 217 218 219 219 220 221 222 223 223 225 225 226 227 227 228 230 147 221 255 255 255 255 255 255 255 255 255 255
255 255 255 255 255 255 255 255 255 255 255 255 255 255 254 254 255 255 255 254 255 255 255 255 255 255 126 27 35 36 37 38 39 40 41 42 43 44 45 46 47 48 49 50 51 52 53 53 54 55 56 57 58 59 60 61 62 62 63 64 65 66 67 68 69 70 71 72 73 74 74 76 76 77 78 79 80 80 81 82 83 84 85 86 87 88 89 90 90 91 92 93 94 95 96 97 98 99 100 101 102 102 103 105 106 107 107 109 110 111 112 112 114 114 115 116 117 118 119 120 121 122 123 124 124 125 126 127 128 129 130 131 132 133 134 134 136 137 137 138 140 141 141 143 144 145 146 147 148 149 150 151 152 153 154 155 156 157 157 158 159 160 162 163 163 164 165 166 168 169 169 170 171 172 173 174 175 176 177 177 178 179 180 181 182 183 184 185 186 187 187 188 189 190 191 192 193 193 194 195 195 196 197 198 198 199 200 201 202 202 203 204 205 206 206 207 208 209 209 210 211 212 213 214 214 215 216 217 218 219 220 220 221 222 223 224 224 225 226 227 228 228 229 231 147 221 255 255 255 255 255 255 255 255 255 255
255 255 255 255 255 255 255 255 255 255 255 255 255 255 254 254 255 255 255 254 255 255 255 255 255 255 126 28 36 37 38 39 40 41 42 43 44 45 46 47 48 49 50 51 52 52 53 54 55 56 57 58 59 60 61 62 62 63 64 65 66 67 68 69 70 70 71 72 73 74 75 76 77 78 79 79 80 81 82 83 84 85 86 87 87 88 89 90 91 92 93 94 95 96 97 98 99 99 100 101 102 103 104 105 106 107 108 109 110 111 112 113 114 115 116 117 118 119 120 121 121 122 123 124 125 126 127 128 129 130 131 132 133 134 134 135 136 137 138 139 140 141 142 143 145 146 147 148 148 149 150 151 152 153 154 155 156 157 158 159 160 161 162 163 164 165 166 167 168 169 170 171 172 173 174 174 175 176 177 178 179 180 181 182 183 184 184 185 186 187 188 189 190 191 192 192 193 194 195 195 196 197 197 198 199 200 201 201 202 203 203 204 205 206 207 208 208 209 210 211 212 213 213 214 215 216 216 217 219 219 220 221 221 222 223 224 224 226 226 227 228 228 229 231 148 221 255 255 255 255 255 255 255 255 255 255
255 255 255 255 255 255 255 255 255 255 255 255 255 255 254 254 255 255 255 254 255 255 255 255 255 255 126 28 36 37 38 39 40 41 42 43 44 45 46 47 48 49 50 51 52 53 54 55 55 56 57 58 59 60 61 62 63 64 64 65 66 67 68 69 70 71 72 73 74 75 76 77 77 78 79 80 81 82 82 83 84 85 86 87 88 89 90 91 92 93 94 95 95 96 97 98 99 100 101 102 103 104 105 106 107 108 109 110 111 112 113 114 115 116 117 118 118 119 120 121 122 123 124 125 126 127 128 128 129 130 131 132 133 134 135 136 137 138 139 140 141 142 143 144 145 146 147 148 149 150 151 152 153 154 155 156 157 158 158 159 160 161 163 164 164 165 166 167 169 170 171 171 172 173 174 175 176 177 178 179 179 180 181 182 183 184 185 186 187 188 188 189 190 191 192 193 194 194 195 196 196 197 198 199 199 200 201 202 202 203 204 205 206 207 207 208 209 209 210 211 212 213 214 214 215 216 217 218 219 220 221 221 222 223 224 224 225 226 227 228 228 229 229 231 148 221 255 255 255 255 255 255 255 255 255 255
255 255 255 255 255 255 255 255 255 255 255 255 255 255 254 254 255 255 255 254 255 255 255 255 255 255 126 29 37 38 39 40 41 42 43 44 45 46 47 48 49 50 51 52 53 54 54 55 56 57 58 59 60 61 62 63 63 64 65 66 67 68 69 70 71 72 73 73 75 76 76 77 78 79 80 81 81 82 83 84 85 86 87 88 89 90 90 91 92 93 94 95 96 97 98 99 100 101 102 103 103 104 105 106 108 108 109 110 111 113 113 114 115 116 117 118 119 120 121 122 123 124 124 125 126 127 128 129 130 131 132 133 134 135 135 136 137 138 139 140 141 142 143 144 146 147 148 149 149 151 152 153 153 154 156 156 157 158 159 160 161 162 163 164 165 166 167 168 169 170 171 172 173 174 175 175 176 178 178 179 180 181 182 183 184 185 185 187 187 188 189 190 191 192 193 193 194 195 196 196 197 198 199 199 200 201 202 202 203 204 204 205 206 207 208 209 209 210 211 212 213 214 214 215 216 217 217 218 220 220 221 221 222 223 224 225 225 227 227 228 229 229 230 232 148 221 255 255 255 255 255 255 255 255 255 255
255 255 255 255 255 255 255 255 255 255 255 255 255 255 254 254 255 255 255 254 255 255 255 255 255 255 126 29 38 38 39 40 41 43 43 44 45 46 47 48 49 50 51 52 53 54 55 56 57 57 59 59 61 62 62 63 64 65 65 66 68 68 69 70 72 72 73 74 75 76 77 78 78 79 80 81 82 83 84 85 85 86 87 88 89 90 91 92 93 94 95 96 97 98 98 99 100 101 102 103 104 105 106 107 108 109 110 111 112 113 114 115 116 117 118 119 119 120 121 122 123 124 125 126 127 128 129 130 130 131 132 133 134 135 136 137 138 139 140 141 142 143 144 145 146 147 149 149 150 151 152 153 154 155 156 157 158 159 159 160 161 163 164 165 166 166 167 168 170 171 172 172 173 174 175 176 177 178 179 180 180 181 182 183 184 185 186 187 188 189 189 191 191 192 193 194 195 195 196 197 197 198 199 200 200 201 202 203 203 204 205 206 207 208 208 209 210 210 211 212 213 214 215 215 216 217 218 219 220 221 221 222 223 223 224 225 226 227 228 228 229 229 230 232 148 221 255 255 255 255 255 255 255 255 255 255
255 255 255 255 255 255 255 255 255 255 255 255 255 255 254 254 255 255 255 254 255 255 255 255 255 255 126 30 38 39 40 41 42 43 44 45 46 47 48 49 50 51 52 53 54 55 56 56 57 58 59 60 61 62 63 64 65 65 66 67 68 69 70 71 72 73 74 75 76 77 78 79 79 80 81 82 83 84 84 85 86 87 88 89 90 91 92 93 94 95 95 96 97 98 99 100 101 102 103 104 105 106 107 108 109 110 111 112 113 114 115 115 117 118 118 120 120 121 122 123 124 125 126 127 128 129 129 130 131 132 133 134 135 136 137 138 139 140 140 141 143 144 144 146 147 148 149 150 151 152 153 154 155 156 157 157 158 159 160 161 162 163 165 166 166 167 168 169 171 172 172 173 174 175 176 177 177 179 179 180 181 182 183 184 185 186 186 188 188 189 190 191 192 193 194 194 195 196 197 198 198 199 199 200 201 202 203 203 204 205 205 206 207 208 209 210 210 211 212 212 214 214 215 216 217 217 218 219 220 221 222 222 223 224 225 226 226 227 228 229 229 230 231 232 148 221 255 255 255 255 255 255 255 255 255 255
255 255 255 255 255 255 255 255 247 230 216 236 249 215 228 220 225 234 206 236 216 220 255 255 247 246 122 31 39 40 41 42 43 44 45 46 47 48 49 50 51 52 52 54 54 55 56 57 58 59 60 61 62 63 64 65 65 66 67 68 69 70 71 72 73 74 75 75 77 78 79 80 80 81 82 83 83 84 85 86 87 88 89 90 90 91 92 93 94 95 96 97 98 99 100 101 102 103 103 104 105 106 107 109 110 110 111 113 114 115 116 116 118 118 119 120 121 122 123 124 124 125 126 127 128 129 130 131 132 133 134 135 136 136 137 138 139 140 141 142 143 144 145 146 147 149 150 151 151 153 154 155 155 156 158 158 159 160 161 162 163 164 165 166 167 168 169 170 171 172 173 174 174 175 176 177 178 179 180 181 181 182 183 184 185 186 187 188 189 190 190 192 193 194 195 195 196 197 198 198 198 199 200 201 201 202 203 204 205 205 206 207 208 209 209 210 211 211 212 213 214 215 216 216 217 218 219 220 221 222 223 223 224 225 226 226 227 228 229 230 230 231 231 233 148 221 255 255 255 255 255 255 255 255 255 255
255 255 255 255 255 255 255 255 234 188 146 205 238 143 183 160 173 198 116 206 145 156 255 255 234 230 118 35 41 41 42 43 44 45 46 47 48 49 50 51 52 53 53 55 56 56 57 58 59 60 61 62 63 64 64 65 66 67 68 69 70 71 72 73 75 76 77 77 79 80 80 81 81 81 82 83 84 85 86 87 87 88 89 90 91 92 93 94 95 96 97 97 98 99 100 101 102 103 104 105 105 106 108 109 112 111 112 113 115 116 117 117 119 119 121 121 121 122 123 124 124 126 126 127 128 129 130 131 132 133 134 135 136 136 137 138 139 140 141 142 143 144 145 146 148 150 152 151 151 153 155 156 156 157 159 159 160 161 161 162 163 164 165 166 167 168 169 170 171 172 173 174 175 175 176 177 178 179 180 181 182 182 184 185 185 186 187 189 190 191 191 193 194 195 196 195 197 198 199 199 199 199 200 201 202 203 203 204 205 206 206 207 208 209 210 211 212 212 213 214 215 216 217 217 218 219 220 221 224 224 225 224 226 227 229 229 228 231 231 232 233 232 233 235 153 223 255 255 255 255 255 255 255 255 255 255
255 255 255 255 255 255 255 255 236 194 155 209 240 152 189 168 180 203 127 210 154 164 255 255 237 231 118 34 40 42 43 44 45 46 47 48 49 50 50 52 53 53 54 55 56 57 58 59 60 61 62 62 64 65 65 66 67 68 68 69 71 72 72 73 74 75 76 77 78 79 80 80 81 82 83 84 85 86 86 87 88 89 90 91 92 93 94 95 95 97 97 98 99 100 101 102 103 104 105 106 106 107 108 109 110 111 112 113 114 116 116 117 118 119 120 121 122 123 124 125 125 127 127 128 129 130 131 132 133 134 135 136 137 137 138 139 140 141 142 143 144 145 146 147 148 150 150 151 152 153 154 155 156 157 158 159 160 160 162 163 164 165 166 167 168 169 170 170 172 173 174 175 176 176 177 178 179 180 181 182 183 183 185 186 186 187 188 189 190 190 191 192 194 195 195 196 196 198 198 199 200 200 201 202 203 204 204 205 206 207 207 208 209 210 211 212 213 213 214 215 216 217 218 218 219 220 221 222 223 224 224 225 226 227 228 228 229 230 231 232 232 233 234 236 153 224 255 255 255 255 255 255 255 255 255 255
252 252 252 252 252 252 252 252 230 189 152 204 234 150 186 165 177 200 129 207 154 163 250 250 231 221 108 29 34 41 42 43 44 45 46 47 48 49 50 51 52 53 54 55 56 57 58 59 60 61 62 63 64 65 66 67 67 68 69 70 71 72 73 74 71 73 73 76 76 76 79 76 81 84 85 86 86 87 88 89 90 91 92 93 94 95 95 96 97 98 99 100 101 102 103 104 105 106 107 108 108 109 110 110 105 111 114 110 113 116 112 117 114 119 119 118 124 125 126 127 128 129 130 130 132 133 133 134 135 136 137 138 139 140 141 141 142 144 144 146 147 148 148 149 150 150 146 152 154 151 154 154 155 157 155 160 158 159 164 165 166 167 169 169 170 171 172 173 174 175 176 177 178 179 179 180 181 182 183 184 185 186 187 188 189 189 190 188 188 188 192 189 193 195 191 196 193 198 197 196 202 202 203 204 205 206 206 207 208 209 209 210 211 212 213 213 214 215 215 216 217 218 219 219 220 221 222 221 221 221 221 225 223 223 226 225 228 224 229 228 228 233 234 235 146 217 252 252 252 252 252 252 252 252 252 252
255 255 255 255 255 255 255 255 241 205 173 218 244 170 201 183 193 213 149 218 172 180 255 255 241 237 121 35 42 43 44 45 46 47 48 49 50 51 52 53 54 55 56 57 58 58 59 60 61 62 63 64 65 66 67 68 68 69 70 71 72 73 74 75 76 77 78 78 80 81 81 82 83 84 84 85 86 87 88 89 89 90 91 92 93 94 95 96 97 98 99 100 101 101 102 103 104 105 106 107 108 109 110 111 112 113 114 115 116 118 118 118 120 121 122 123 123 124 125 126 127 128 128 129 130 131 132 133 134 135 136 137 138 139 139 140 141 142 143 144 145 146 147 148 150 151 152 153 153 155 156 157 157 158 160 161 162 162 163 164 165 166 167 168 169 170 171 172 173 174 175 176 177 177 178 179 180 181 182 183 184 184 186 187 187 188 189 191 191 192 193 194 195 196 197 197 198 199 200 200 201 201 202 203 204 205 205 206 207 208 208 209 210 211 212 213 213 214 215 215 217 218 218 219 220 221 221 223 224 225 226 226 227 228 229 229 230 231 232 233 233 234 234 236 154 225 255 255 255 255 255 255 255 255 255 255
255 255 255 255 255 255 255 255 232 184 141 202 237 137 180 155 169 195 110 203 140 151 255 254 233 228 117 36 43 43 44 45 46 47 48 49 50 51 52 53 54 55 56 57 58 59 59 60 61 62 63 64 65 66 67 68 68 69 70 71 72 73 74 75 78 78 79 79 82 82 82 84 83 84 85 86 87 88 88 89 90 91 92 93 94 95 96 97 97 99 99 100 101 102 103 104 105 106 106 108 108 109 110 112 114 114 114 116 118 119 119 119 121 122 123 124 124 125 126 127 127 128 129 130 131 132 133 134 135 136 137 138 139 139 140 141 142 143 144 145 146 147 148 149 150 152 154 154 154 156 158 159 159 159 161 162 163 163 164 164 165 167 168 169 170 170 171 172 174 175 176 177 177 178 179 180 181 182 183 183 184 185 186 187 188 189 190 192 193 194 193 195 197 198 198 198 200 200 201 202 201 202 203 204 204 205 206 207 207 208 209 210 211 212 212 213 214 215 215 216 217 218 219 220 220 221 222 223 226 226 227 226 228 229 231 230 230 233 233 234 234 234 235 236 152 223 255 255 255 255 255 255 255 255 255 255
254 254 254 254 254 254 254 254 242 219 199 227 244 198 217 206 213 225 187 228 200 205 253 253 243 241 119 34 42 43 44 45 46 47 48 49 50 51 52 53 54 55 56 57 58 59 60 61 61 62 63 64 65 66 67 68 69 70 70 72 73 74 75 76 77 78 79 79 82 82 83 84 84 85 86 87 87 88 89 90 91 92 93 94 95 96 96 98 98 99 100 101 102 103 104 105 106 107 108 109 109 110 111 113 115 115 115 117 118 120 120 120 122 123 124 125 125 126 127 128 128 130 130 131 132 133 134 135 136 137 138 139 140 140 141 142 143 144 145 146 147 148 149 150 151 153 155 155 155 157 158 159 160 160 162 163 164 164 165 166 167 168 169 170 171 172 172 173 175 176 177 178 178 179 180 181 182 183 184 184 185 186 187 188 189 190 191 192 193 194 194 196 197 198 198 199 200 201 201 202 202 203 203 204 205 206 206 207 208 209 209 210 211 212 213 213 214 215 215 216 217 218 219 219 220 221 222 223 225 225 226 226 227 228 229 229 229 231 231 232 233 233 234 235 148 219 254 254 254 254 254 254 254 254 254 254
255 255 255 255 255 255 255 255 255 255 254 255 255 254 254 254 255 255 255 254 255 255 255 255 255 255 127 34 43 44 45 46 47 48 49 50 51 52 53 54 55 56 57 58 59 60 61 61 62 63 64 65 66 67 68 69 70 71 71 72 74 75 75 76 78 78 79 80 81 82 83 84 85 86 87 87 88 89 90 91 92 93 94 95 95 96 97 98 99 100 101 102 103 104 105 106 107 108 108 109 110 111 112 113 115 115 116 117 118 119 120 121 122 123 124 125 126 127 128 128 129 130 131 132 133 134 135 136 137 138 139 140 140 141 142 143 144 145 146 147 148 149 150 151 152 153 155 155 156 157 158 159 160 161 162 163 164 165 165 166 167 169 170 171 171 172 173 174 176 177 177 178 179 180 181 182 183 184 184 185 186 187 188 189 190 191 191 193 193 194 195 196 197 198 199 199 200 201 202 202 203 203 204 205 206 207 207 208 209 209 210 211 212 213 213 214 215 215 216 217 218 219 219 220 221 221 222 223 224 225 226 226 227 228 229 229 230 231 232 232 233 233 234 235 149 221 255 255 255 255 255 255 255 255 255 255
255 255 255 255 255 255 255 255 255 255 254 255 255 254 254 254 255 255 255 254 255 255 255 255 255 255 127 34 43 44 45 47 48 49 50 51 52 53 54 55 56 57 58 59 59 60 61 62 63 64 65 66 67 68 69 70 71 71 72 73 74 75 76 77 78 79 80 81 82 83 84 85 85 86 87 88 89 90 91 91 92 93 94 95 96 97 98 99 100 101 102 103 104 105 105 106 107 108 109 110 111 112 113 114 115 116 117 118 119 120 121 122 123 124 125 126 126 127 128 129 130 131 132 133 134 135 135 136 137 138 139 140 141 142 143 144 145 146 146 147 149 150 150 152 153 154 155 156 156 158 159 160 160 162 163 163 164 165 166 167 168 169 170 171 172 173 174 175 176 177 178 179 180 180 181 182 183 184 185 186 187 187 189 190 190 191 192 193 194 195 195 196 197 198 199 200 201 201 202 203 203 204 205 205 206 207 208 208 209 210 210 211 212 213 214 214 215 216 216 217 218 219 220 220 221 222 223 224 225 226 226 226 227 228 229 230 230 231 232 233 233 234 234 236 149 222 255 255 255 255 255 255 255 255 255 255
255 255 255 255 255 255 255 255 255 255 254 255 255 254 254 254 255 255 255 254 255 255 255 255 255 255 127 35 44 45 46 47 48 49 50 51 52 53 54 55 56 57 58 59 60 61 62 63 64 65 66 67 68 69 70 70 71 72 73 74 75 76 77 78 79 80 81 81 83 84 85 86 86 87 88 89 90 90 91 92 93 94 95 96 97 98 99 100 101 102 102 103 104 105 106 107 108 109 110 111 112 113 114 115 116 117 118 119 120 121 122 122 124 125 125 127 127 128 129 130 131 132 132 133 134 135 136 137 138 139 140 141 142 143 143 144 145 146 147 148 149 150 151 152 154 155 156 157 157 158 160 161 161 162 164 164 165 166 167 168 169 170 171 172 173 174 175 176 177 178 179 180 180 181 182 183 184 185 186 187 187 188 189 190 191 192 193 194 195 195 196 197 198 199 200 200 201 202 203 203 204 205 205 206 207 208 208 209 210 210 211 212 213 214 214 215 216 216 217 218 219 220 220 221 222 222 223 224 225 226 227 227 228 229 230 230 231 232 232 233 234 234 235 236 149 222 255 255 255 255 255 255 255 255 255 255
255 255 255 255 255 255 255 255 255 254 254 254 255 254 254 254 255 255 255 254 255 255 255 255 255 255 127 35 44 45 47 48 49 50 51 52 53 54 55 56 57 58 59 60 61 62 62 63 64 65 66 67 68 69 70 71 72 73 73 74 75 76 77 78 79 80 81 82 83 84 85 86 87 88 89 89 90 91 92 93 94 95 96 97 97 98 99 100 101 102 103 104 105 106 107 108 109 110 110 111 112 113 114 115 116 117 118 119 120 121 122 123 124 125 126 127 128 129 130 130 131 132 133 134 135 136 137 138 139 140 140 141 142 143 144 145 146 147 148 149 150 151 152 153 154 155 156 157 158 159 160 161 162 163 164 165 166 167 167 168 169 170 172 173 173 174 175 176 178 179 179 180 181 182 183 184 184 186 186 187 188 189 190 191 192 192 193 194 195 196 197 198 199 199 200 201 202 203 203 204 204 205 206 207 207 208 209 210 210 211 212 212 213 214 215 216 216 217 218 218 219 220 221 222 222 223 224 225 226 226 227 228 228 229 230 231 231 232 233 234 234 235 235 237 149 222 255 255 255 255 255 255 255 255 255 255
255 255 255 255 255 255 255 255 255 254 254 254 255 254 254 254 255 255 255 254 255 255 255 255 255 255 127 36 45 46 47 48 49 50 51 52 53 55 55 57 57 58 59 61 61 62 63 64 65 66 67 68 69 70 71 72 73 73 74 75 76 77 78 79 80 81 82 83 84 85 86 87 87 88 89 90 91 92 93 94 94 95 96 97 98 99 100 101 102 103 104 105 106 107 108 108 109 110 111 112 113 114 115 116 117 118 119 120 121 122 123 124 125 126 127 128 128 129 130 131 132 133 134 135 136 137 138 139 139 140 141 142 143 144 145 146 147 148 149 150 151 152 152 154 155 156 157 158 159 160 161 162 163 164 165 166 166 167 168 169 170 171 172 173 174 175 176 177 178 179 180 181 182 183 183 184 185 186 187 188 189 189 190 192 192 193 194 195 196 197 197 198 199 200 201 202 202 203 204 205 205 206 207 207 208 209 209 210 211 212 212 213 214 215 215 216 217 217 218 219 220 221 221 222 223 223 224 225 226 227 228 228 229 230 231 231 232 233 233 234 235 235 236 237 150 222 255 255 255 255 255 255 255 255 255 255
255 255 255 255 255 255 255 255 255 254 254 254 255 254 254 254 255 255 255 254 255 255 255 255 255 255 127 36 46 47 48 49 50 51 52 53 54 55 56 57 58 59 60 61 62 63 64 65 66 66 68 69 70 71 72 72 73 74 75 76 77 78 79 80 81 82 83 83 85 86 87 88 88 89 90 91 92 93 93 94 95 96 97 98 99 100 101 102 103 104 105 106 106 107 108 109 110 111 112 113 114 115 116 117 118 119 120 121 122 123 124 124 126 127 128 129 129 130 131 132 133 134 135 136 136 137 138 139 140 141 142 143 144 145 145 146 147 148 149 150 151 152 153 154 156 157 158 159 159 161 162 163 163 164 166 166 167 168 169 170 171 172 173 174 175 176 177 177 179 180 181 181 182 183 184 185 186 187 188 188 189 190 191 192 193 194 195 196 197 197 198 199 200 201 202 202 203 204 205 205 206 206 207 208 208 209 210 211 211 212 213 214 214 215 216 217 217 218 219 219 220 221 222 223 223 224 225 226 227 228 228 228 229 230 231 232 232 233 234 235 235 235 236 237 150 221 255 255 255 255 255 255 255 255 255 255
255 255 255 255 255 255 255 255 255 254 254 254 255 254 254 254 255 255 255 254 255 255 255 255 255 255 128 37 47 48 49 50 51 52 53 54 55 56 57 58 59 60 61 62 63 64 65 66 66 67 68 69 71 72 72 73 74 75 76 77 78 79 80 81 82 83 84 84 86 87 87 88 89 90 91 92 93 93 94 95 96 97 98 99 100 101 102 103 104 105 105 106 107 108 109 110 111 112 113 114 115 116 117 118 119 120 121 122 123 124 125 125 127 127 128 129 130 131 132 133 134 135 135 136 137 138 139 140 141 142 143 144 145 146 146 147 148 149 150 151 152 153 154 155 156 158 159 159 160 161 162 163 164 165 166 167 168 169 169 170 171 173 174 175 175 176 177 178 180 181 181 182 183 184 185 186 186 188 188 189 190 191 192 193 194 194 195 196 197 198 199 200 201 201 202 203 204 204 205 206 206 207 208 208 209 210 211 211 212 213 213 214 215 216 216 217 218 219 219 220 221 222 222 223 224 224 225 226 227 228 229 229 230 231 232 232 233 234 234 235 236 236 237 238 150 222 255 255 255 255 255 255 255 255 255 255
255 255 255 255 255 255 255 255 255 254 254 254 255 254 254 254 255 255 255 254 255 255 255 255 255 255 128 38 47 48 49 50 51 53 54 55 56 57 58 59 60 61 62 63 64 65 65 66 67 68 69 70 71 72 73 74 75 75 76 77 78 79 80 81 83 83 84 85 87 87 88 89 90 91 92 92 93 94 95 96 97 98 99 100 100 101 102 103 104 105 106 107 108 109 110 111 112 113 114 115 115 116 117 119 120 120 121 122 123 125 125 126 127 128 129 130 131 132 133 133 134 135 136 137 138 139 140 141 141 142 143 144 145 146 147 148 149 150 151 152 153 154 155 156 157 158 160 160 161 162 163 164 165 166 167 168 169 169 170 171 172 173 174 175 176 177 178 179 180 181 182 183 184 184 185 186 187 188 189 190 190 191 192 193 194 195 196 197 198 198 199 200 201 202 203 203 204 205 206 206 207 207 208 209 210 211 211 212 213 213 214 215 216 216 217 218 218 219 220 220 222 222 223 224 224 225 226 227 228 229 229 229 230 231 232 232 233 234 235 236 236 236 237 238 150 222 255 255 255 255 255 255 255 255 255 255
255 255 255 255 255 255 255 255 255 254 254 254 255 254 254 254 255 255 255 255 255 255 255 255 255 255 128 38 48 49 50 51 52 53 54 55 56 57 58 59 60 61 62 63 64 65 66 67 68 69 70 71 72 73 74 75 75 76 77 78 79 80 81 82 83 84 85 86 87 88 89 90 90 91 92 93 94 95 96 97 97 98 99 100 101 102 103 104 105 106 107 108 109 110 111 112 112 113 114 115 116 117 118 119 121 121 122 123 124 125 126 127 128 129 130 131 131 132 133 134 135 136 137 138 139 140 141 142 142 143 144 145 146 147 148 149 150 151 151 152 154 155 155 157 158 159 160 161 161 163 164 165 165 166 168 168 169 170 171 172 173 174 175 176 177 178 179 180 181 182 183 184 184 185 186 187 188 189 190 190 191 192 193 194 195 196 197 198 199 199 200 201 202 203 204 204 205 206 207 207 207 208 209 210 210 211 212 213 213 214 215 215 216 217 218 218 219 220 220 221 222 223 223 224 225 226 226 227 228 229 230 230 231 232 233 233 234 235 235 236 237 237 237 239 150 222 255 255 255 255 255 255 255 255 255 255
255 255 255 255 255 255 255 255 255 254 254 254 255 254 254 254 255 255 255 255 255 255 255 255 255 255 128 39 49 50 51 52 53 54 55 56 57 58 59 60 61 62 63 64 65 66 67 68 68 69 71 72 73 74 75 75 76 77 78 79 80 81 82 83 84 85 86 87 88 89 90 91 91 92 93 94 95 96 96 97 98 99 100 101 102 103 104 105 106 107 108 109 110 111 111 112 113 114 115 116 117 118 119 120 121 122 123 124 125 126 127 128 129 130 131 132 132 133 134 135 136 137 138 139 139 140 141 142 143 144 145 146 147 148 148 149 150 151 152 153 154 155 156 157 159 160 161 162 162 163 165 166 166 167 168 169 170 171 172 173 173 175 176 177 177 178 179 180 182 183 183 184 185 186 187 188 188 189 190 191 192 193 194 195 195 196 197 198 199 200 200 202 202 203 204 205 206 206 207 208 208 209 210 210 211 212 212 213 214 215 215 216 217 218 218 219 220 220 221 222 223 223 224 225 225 226 227 228 229 230 230 230 231 232 233 234 234 235 236 237 237 237 238 239 150 222 255 255 255 255 255 255 255 255 255 255
255 255 255 255 255 255 255 255 255 254 254 254 255 254 253 254 255 255 255 255 255 255 255 255 255 255 128 40 50 51 52 53 54 55 56 57 58 59 60 61 62 63 64 65 66 67 68 69 69 70 72 72 74 75 75 76 77 78 79 80 81 82 83 84 85 86 87 87 89 90 91 92 92 93 94 95 96 97 97 98 99 100 101 102 103 104 105 106 107 108 109 110 110 111 112 113 114 115 116 117 118 119 120 121 122 123 124 125 126 127 128 128 130 131 132 133 133 134 135 136 137 138 138 139 140 141 142 143 144 145 146 147 148 149 149 150 151 152 153 154 155 156 157 158 159 161 162 162 163 164 165 166 167 168 169 170 171 172 172 173 174 175 177 178 178 179 180 181 182 183 184 185 186 187 187 188 189 190 191 192 193 193 194 195 196 197 198 199 200 201 201 202 203 204 205 205 206 207 208 208 209 209 210 211 212 212 213 214 214 215 216 216 217 218 219 220 220 221 221 222 223 224 225 225 226 227 227 228 229 230 231 231 232 233 234 234 234 236 236 237 237 238 238 239 150 222 255 255 255 255 255 255 255 255 255 255
255 255 255 255 255 255 255 255 255 254 254 253 255 254 253 253 255 255 255 255 255 255 255 255 255 255 128 41 51 52 53 54 55 56 57 58 59 60 61 62 63 64 65 66 67 68 69 70 71 72 73 74 75 76 77 78 79 79 80 81 82 83 84 85 87 87 88 89 91 91 92 93 94 95 96 96 97 98 99 100 101 102 103 104 105 106 106 108 108 109 110 111 112 113 114 115 116 117 118 119 120 120 121 123 124 125 125 127 128 129 130 130 131 132 133 134 135 136 137 138 138 139 140 141 142 143 144 145 146 146 147 148 149 150 151 152 153 154 155 156 157 158 159 160 161 162 164 164 165 166 167 168 169 170 171 172 173 173 174 175 176 177 178 179 180 181 182 183 184 185 186 187 187 188 189 190 191 192 193 193 194 195 196 197 198 199 200 201 201 202 203 204 205 206 207 207 208 209 209 210 210 211 212 212 213 214 215 215 216 217 217 218 219 220 220 221 222 222 223 224 225 225 226 227 227 228 229 230 231 231 232 232 233 234 235 235 236 237 237 238 239 239 239 240 150 221 255 255 255 255 255 255 255 255 255 255
255 255 255 255 255 255 255 255 255 254 253 253 255 254 253 253 255 255 255 255 255 255 255 255 255 255 128 42 52 53 54 55 56 57 58 59 60 61 62 63 64 65 66 67 68 69 70 71 72 73 74 75 76 77 78 79 80 80 81 82 83 84 85 86 88 88 89 90 92 92 93 94 95 96 97 98 98 99 100 101 102 103 104 105 106 107 108 109 110 111 111 112 113 114 115 116 117 118 119 120 121 122 123 124 125 126 127 128 129 130 130 131 132 133 134 135 136 137 138 139 139 140 141 142 143 144 145 146 147 148 148 149 150 151 152 153 154 155 156 157 158 159 160 161 162 163 164 165 166 167 168 169 170 171 172 173 174 174 175 176 177 178 179 180 181 182 183 184 185 186 187 188 188 189 190 191 192 193 194 194 195 196 197 198 199 200 200 202 202 203 204 205 206 207 207 208 209 209 210 211 211 212 213 213 214 215 215 216 217 218 218 219 220 221 221 222 222 223 224 224 225 226 227 227 228 229 229 230 231 232 233 233 234 234 236 236 236 237 238 239 239 239 240 241 151 221 255 255 255 255 255 255 255 255 255 255
255 255 255 255 255 255 255 255 255 254 253 253 255 254 253 253 255 255 255 255 255 255 255 255 255 255 128 42 52 53 54 55 57 58 59 60 61 62 63 64 65 66 67 68 69 70 71 72 72 73 75 75 77 78 79 79 80 81 82 83 84 85 86 87 88 89 90 91 92 93 94 95 95 96 97 98 99 100 101 102 102 103 104 105 106 107 108 109 110 111 112 113 114 115 116 117 118 118 119 120 121 122 123 124 126 126 127 128 129 130 131 132 133 134 135 136 136 137 138 139 140 141 142 143 144 145 145 146 147 148 149 150 151 152 153 153 154 155 156 157 158 159 160 161 163 164 165 166 166 167 169 170 170 171 172 173 174 175 176 176 177 179 180 181 181 182 183 184 186 187 187 188 189 190 191 191 192 193 194 195 196 196 197 198 199 200 201 202 203 203 204 205 206 207 208 208 209 210 211 211 211 212 213 214 214 215 216 217 217 218 218 219 220 221 221 222 223 223 224 225 226 227 227 228 228 229 230 231 232 232 233 233 234 235 236 236 237 238 238 239 239 240 240 241 151 221 255 255 255 255 255 255 255 255 255 255
255 255 255 255 255 255 255 255 255 254 253 253 255 254 253 253 255 255 255 255 255 255 255 255 255 255 128 43 53 54 55 56 57 58 59 60 61 63 64 65 66 67 68 69 70 71 71 72 73 74 75 76 77 79 79 80 81 82 83 84 85 86 87 88 89 90 91 91 93 94 95 95 96 97 98 99 100 101 101 102 103 104 105 106 107 108 109 110 111 112 113 114 115 116 116 117 118 119 120 121 122 123 124 125 126 127 128 129 130 131 132 132 134 135 135 136 137 138 139 140 141 142 142 143 144 145 146 147 148 149 150 151 152 152 153 154 155 156 157 158 159 160 161 162 163 164 165 166 167 168 169 170 171 172 173 174 175 175 176 177 178 179 180 181 182 183 184 185 186 187 188 189 189 190 191 192 193 194 195 195 196 197 198 199 200 201 201 202 203 204 205 205 206 207 208 209 209 210 211 211 212 213 214 214 215 216 216 217 218 218 219 220 220 221 222 223 223 224 224 225 226 227 227 228 229 229 230 231 232 233 233 234 234 235 236 236 237 238 239 239 240 240 241 242 151 222 255 255 255 255 255 255 255 255 255 255
255 255 255 255 255 255 255 255 255 254 253 253 255 254 253 253 255 255 255 255 255 255 255 255 255 255 128 43 54 55 56 57 58 59 60 61 62 63 64 65 66 67 68 69 70 71 72 73 74 75 76 77 78 79 80 81 82 82 83 84 85 86 87 89 90 90 91 92 94 94 95 96 97 98 99 100 100 101 102 103 104 105 106 107 108 109 110 111 112 113 113 114 115 116 117 118 119 120 121 122 123 124 125 126 127 128 129 130 131 132 132 133 134 135 136 137 138 139 140 141 141 142 143 144 145 146 147 148 148 149 150 151 152 153 154 155 156 157 158 159 160 161 161 163 164 165 166 167 168 169 170 171 171 172 174 174 175 176 177 178 179 180 181 182 183 183 184 185 187 188 188 189 190 191 192 193 193 194 195 196 197 198 199 200 200 201 202 203 204 204 205 206 207 208 209 209 210 211 212 212 213 213 214 215 215 216 217 218 218 219 220 220 221 222 222 223 224 224 225 226 227 227 228 229 229 230 231 232 233 233 234 234 235 236 237 237 237 238 239 240 240 240 241 242 151 222 255 255 255 255 255 255 255 255 255 255
255 255 255 255 255 255 255 255 255 253 253 253 255 254 253 253 255 255 255 255 255 255 255 255 255 255 129 44 55 56 57 58 59 60 61 62 63 64 65 66 67 68 69 70 71 72 73 74 75 76 77 78 79 80 81 82 83 83 84 85 86 87 88 89 91 91 92 93 95 95 96 97 98 99 100 100 101 102 103 104 105 106 107 108 109 110 111 112 112 113 114 115 116 117 118 119 120 121 122 123 124 124 125 127 128 128 129 130 132 133 133 134 135 136 137 138 138 139 140 141 142 143 144 145 146 147 148 149 149 150 151 152 153 154 155 155 156 157 158 159 161 161 162 163 165 166 167 168 168 169 171 172 172 173 174 175 176 177 178 178 179 181 182 183 183 184 185 186 187 188 189 190 191 192 192 193 194 195 196 197 197 198 199 200 201 202 203 204 205 205 206 207 208 209 209 210 211 212 212 213 213 214 215 215 216 217 217 218 219 220 220 221 222 223 223 224 224 225 226 226 227 228 229 229 230 230 231 232 233 234 234 235 235 236 237 237 238 239 239 240 241 241 241 242 151 222 255 255 255 255 255 255 255 255 255 255
255 255 255 255 255 255 255 255 255 253 253 253 255 254 253 253 255 255 255 255 255 255 255 255 255 255 129 45 55 56 57 59 60 61 62 63 64 65 66 67 68 69 70 71 72 73 74 75 76 77 78 79 80 81 82 83 83 84 85 86 87 88 89 90 91 92 93 94 95 96 97 98 98 99 100 101 102 103 104 105 105 106 107 108 109 110 111 112 113 114 115 116 117 118 119 120 121 122 122 123 124 125 126 127 128 129 130 131 132 133 134 135 136 137 138 139 139 140 141 142 143 144 145 146 147 148 148 149 150 151 152 153 154 155 155 156 157 158 159 160 161 162 163 164 165 166 168 168 169 170 171 172 173 174 175 176 177 177 178 179 180 181 182 183 184 185 186 187 188 189 190 191 191 192 193 194 195 196 196 197 198 199 200 201 202 202 203 204 205 206 206 207 208 209 210 211 211 212 213 213 214 214 215 216 217 217 218 219 219 220 221 221 222 223 224 224 225 225 226 227 228 228 229 230 230 231 232 232 233 234 235 235 236 236 237 238 238 239 240 240 241 241 242 243 152 222 255 255 255 255 255 255 255 255 255 255
255 255 255 255 255 255 255 255 255 253 253 253 255 254 253 253 255 255 255 255 255 255 255 255 255 255 129 46 56 57 58 59 60 61 62 63 64 66 67 68 69 70 71 72 73 74 75 75 76 77 78 79 81 82 82 83 84 85 86 87 88 89 90 91 92 93 94 95 96 97 98 99 99 100 101 102 103 104 105 106 106 107 108 109 110 111 112 113 114 115 116 117 118 119 119 120 121 122 123 124 125 126 127 128 129 130 131 132 133 134 135 135 137 138 138 139 140 141 142 143 144 145 145 146 147 148 149 150 151 152 153 154 154 155 156 157 158 159 160 161 162 163 164 165 166 167 168 169 170 171 172 173 173 174 176 176 177 178 179 180 181 182 183 184 185 186 186 187 189 190 190 191 192 193 194 194 195 196 197 198 199 199 201 202 202 203 204 205 206 206 207 208 209 210 211 211 212 213 213 214 214 215 216 217 217 218 219 219 220 221 221 222 223 224 224 225 225 226 227 227 228 229 229 230 231 231 232 233 234 235 235 235 236 237 238 238 239 240 240 241 241 242 242 243 152 222 255 255 255 255 255 255 255 255 255 255
255 255 255 255 255 255 255 255 255 253 253 253 255 254 253 253 255 255 255 255 255 255 255 255 255 255 129 46 57 58 59 60 61 62 63 64 65 66 67 68 69 70 71 72 73 74 75 76 77 78 79 80 81 82 83 84 85 85 86 87 88 89 90 91 93 93 94 95 97 97 98 99 100 101 102 103 103 104 105 106 107 108 109 110 111 112 113 114 115 116 116 117 118 119 120 121 122 123 124 125 126 127 128 129 130 131 132 133 134 135 135 136 137 138 139 140 141 142 143 143 144 145 146 147 148 149 150 151 151 152 153 154 155 156 157 158 159 160 160 161 163 164 164 165 167 168 169 170 170 171 173 174 174 175 176 177 178 179 179 180 181 182 184 185 185 186 187 188 189 190 191 192 193 193 194 195 196 197 198 199 199 200 201 202 203 204 204 206 206 207 208 209 210 211 211 212 213 213 214 214 215 216 216 217 218 219 219 220 220 221 222 222 223 224 225 225 226 227 227 228 229 230 230 231 231 232 233 233 235 235 236 236 237 237 238 239 239 240 241 241 242 242 243 243 152 222 255 255 255 255 255 255 255 255 255 255
255 255 255 255 255 255 255 255 255 253 253 253 255 254 253 253 255 255 255 255 255 255 255 255 255 255 129 47 57 59 60 61 62 63 64 65 66 67 68 69 70 71 72 73 74 75 76 77 78 79 80 81 82 83 84 85 86 86 87 88 89 90 91 92 94 94 95 96 98 98 99 100 101 102 103 104 104 105 106 107 108 109 110 111 112 113 114 115 116 117 117 118 119 120 121 122 123 124 125 126 127 128 129 130 131 132 132 133 135 136 136 137 138 139 140 141 141 142 143 144 145 146 147 148 149 150 151 151 152 153 154 155 156 157 158 158 159 160 161 162 163 164 165 166 168 169 170 171 171 172 173 174 175 176 177 178 179 180 180 181 182 183 184 185 186 187 188 189 190 191 192 193 193 194 195 196 197 198 198 199 200 201 202 203 203 204 205 206 207 208 208 209 210 211 212 212 213 214 215 215 216 216 217 218 218 219 220 220 221 222 222 223 224 225 225 226 226 227 228 228 229 230 231 231 232 232 233 234 235 236 236 236 237 238 239 239 240 240 241 242 242 242 243 244 152 222 255 255 255 255 255 255 255 255 255 255
255 255 255 255 255 255 255 255 255 253 253 253 255 254 253 253 255 255 255 255 255 255 255 255 255 255 129 48 58 59 60 62 63 64 65 66 67 68 69 70 71 72 73 74 75 76 77 78 79 80 81 82 83 84 85 86 86 87 88 89 90 91 92 93 94 95 96 97 98 99 100 101 102 103 104 104 105 106 107 108 109 110 111 112 113 114 114 116 116 117 118 119 120 121 122 123 124 125 126 127 127 128 129 131 131 132 133 134 135 137 137 138 139 140 141 142 142 143 144 145 146 147 148 149 150 151 151 152 153 154 155 156 157 158 158 159 160 161 162 163 164 165 166 167 168 169 170 171 172 173 174 175 176 177 178 179 179 180 181 182 183 184 185 186 187 188 189 189 191 192 192 193 194 195 196 196 197 198 199 200 201 201 203 204 204 205 206 207 208 208 209 210 211 212 212 213 214 215 215 216 216 217 218 218 219 220 220 221 222 222 223 224 224 225 226 226 227 228 228 229 230 231 231 232 232 233 234 234 235 236 237 237 238 238 239 240 240 241 242 242 242 243 243 244 152 222 255 255 255 255 255 255 255 255 255 255
255 255 255 255 255 255 255 255 255 253 253 253 255 254 253 253 255 255 255 255 255 255 255 255 255 255 130 48 59 60 61 62 63 64 65 66 67 69 70 71 72 73 74 75 76 77 78 79 79 80 82 82 84 85 86 86 87 88 89 90 91 92 93 94 95 96 97 98 99 100 101 102 102 103 104 105 106 107 108 109 109 110 111 112 113 114 115 116 117 118 119 120 121 122 123 124 125 125 126 127 128 129 130 131 132 133 134 135 136 137 138 139 140 141 142 142 143 144 145 146 147 148 148 149 150 151 152 153 154 155 156 156 157 158 159 160 161 162 163 164 165 166 167 168 169 170 171 172 172 174 175 176 176 177 178 179 180 181 182 183 183 185 186 187 187 188 189 190 191 192 193 194 195 195 196 197 198 199 200 201 201 202 203 204 205 206 206 207 208 209 209 210 211 212 213 214 214 215 216 216 217 217 218 219 219 220 221 222 222 223 223 224 225 226 226 227 227 228 229 229 230 231 232 232 233 233 234 235 236 236 237 237 238 239 240 240 240 241 242 243 243 243 244 245 153 222 255 255 255 255 255 255 255 255 255 255
255 255 255 255 255 255 255 255 255 253 253 252 255 254 253 253 255 255 255 255 255 255 255 255 255 255 130 49 60 61 62 63 64 65 66 67 68 69 70 71 72 73 74 75 76 77 78 79 80 81 82 83 84 85 86 87 88 89 89 91 92 93 94 95 96 97 98 98 100 101 102 103 103 104 105 106 107 108 108 109 110 111 112 113 114 115 116 117 118 119 120 121 122 123 123 124 125 126 127 128 129 130 131 132 133 134 135 136 137 138 139 139 140 141 142 143 144 145 146 147 147 148 149 150 151 152 153 154 154 155 156 157 158 159 160 160 162 162 163 164 166 166 167 168 170 171 172 173 173 174 175 176 177 178 179 180 181 182 182 183 184 185 186 187 188 189 190 191 192 193 194 195 195 196 197 198 199 200 200 201 202 203 204 205 205 206 207 208 209 209 210 211 212 213 214 214 215 216 216 217 217 218 219 219 220 221 221 222 223 223 224 225 225 226 227 227 228 229 229 230 231 232 232 233 233 234 235 235 236 237 238 238 239 239 240 240 241 242 242 243 243 244 244 245 153 222 255 255 255 255 255 255 255 255 255 255
255 255 255 255 255 255 255 255 255 253 253 252 255 254 253 253 255 255 255 255 255 255 255 255 255 255 130 50 61 62 63 64 65 66 67 68 69 70 71 72 73 74 75 76 77 78 79 80 81 82 83 84 85 86 87 88 89 90 90 91 93 94 95 96 97 98 99 99 101 102 103 103 104 105 106 107 108 109 109 110 111 112 113 114 115 116 117 118 119 120 121 122 123 123 124 125 126 127 128 129 130 131 132 133 134 135 136 137 138 139 139 140 141 142 143 144 145 146 147 147 148 149 150 151 152 153 154 154 155 156 157 158 159 160 161 161 162 163 164 165 166 167 168 169 170 172 173 173 174 175 176 177 178 179 180 181 182 182 183 184 185 186 187 188 189 190 191 191 193 194 194 195 196 197 198 198 199 200 201 202 203 203 204 205 206 207 208 209 209 210 211 212 213 214 214 215 216 216 217 217 218 219 219 220 221 221 222 223 223 224 225 225 226 227 227 228 229 229 230 230 231 232 233 233 234 234 235 236 237 238 238 238 239 240 241 241 241 242 243 243 244 244 245 245 153 222 255 255 255 255 255 255 255 255 255 255
255 255 255 255 255 255 255 255 255 253 253 252 255 254 253 253 255 255 255 255 255 255 255 255 255 255 130 50 61 62 63 65 66 67 68 69 70 71 72 73 74 75 76 77 78 79 80 81 82 83 84 85 86 87 88 89 90 90 91 92 93 94 95 96 98 98 99 100 102 102 103 104 105 106 107 107 108 109 110 111 112 113 114 115 116 117 118 119 119 120 121 122 123 124 125 126 127 128 129 130 130 131 132 134 135 135 136 137 138 140 140 141 142 143 144 145 145 146 147 148 149 150 151 152 152 153 154 155 156 157 158 159 159 160 161 162 163 164 165 166 167 168 169 170 171 172 173 174 174 176 177 178 178 179 180 181 182 183 184 184 185 186 188 189 189 190 191 192 193 194 195 196 196 197 198 199 200 201 201 202 203 204 205 206 206 207 208 209 210 211 211 212 213 214 215 215 216 217 217 218 218 219 220 220 221 222 222 223 224 224 225 226 226 227 228 228 229 230 230 231 232 232 233 233 234 235 235 236 237 238 238 239 239 240 241 241 242 243 243 244 244 244 245 245 153 222 255 255 255 255 255 255 255 255 255 255
255 255 255 255 255 255 255 255 255 253 253 252 255 254 253 253 255 255 255 255 255 255 255 255 255 255 131 51 62 63 64 66 67 68 69 70 71 72 73 74 75 76 77 78 79 80 81 82 83 84 85 86 87 88 89 90 90 91 92 93 94 95 96 97 99 99 100 101 103 103 104 105 106 107 108 108 109 110 111 112 113 114 115 116 117 118 118 120 120 121 122 123 124 125 126 127 128 129 130 130 131 132 133 134 136 136 137 138 139 140 141 142 143 144 145 146 146 147 148 149 150 151 151 152 153 154 155 156 157 158 158 159 160 161 162 163 164 165 166 167 168 169 169 170 172 173 174 175 175 176 178 179 179 180 181 182 183 184 184 185 186 187 188 189 190 191 192 193 194 195 196 196 197 198 199 200 200 202 202 203 204 205 206 207 207 208 209 210 211 211 212 213 214 215 215 216 217 217 218 218 219 220 220 221 222 222 223 224 224 225 226 226 227 228 228 229 230 230 231 231 232 233 233 234 235 235 236 237 238 238 239 239 240 240 241 242 242 243 244 244 244 245 245 246 153 222 255 255 255 255 255 255 255 255 255 255
255 255 255 255 255 255 255 255 255 253 253 252 255 254 253 253 255 255 255 255 255 255 255 255 255 255 130 52 63 64 65 66 67 68 69 70 71 73 74 75 76 77 78 79 80 81 82 83 83 84 85 86 88 89 90 90 91 92 93 94 95 96 97 98 99 100 101 102 103 104 105 106 106 107 108 109 110 111 112 113 114 114 115 116 117 118 119 120 121 122 123 124 125 126 127 128 129 129 130 131 132 133 134 135 136 137 138 139 140 141 142 142 143 144 145 146 147 148 149 150 150 151 152 153 154 155 156 157 157 158 159 160 161 162 163 163 164 165 166 167 168 169 170 171 172 174 175 175 176 177 178 179 180 181 182 183 183 184 185 186 187 188 189 190 191 192 192 193 195 196 196 197 198 199 200 200 201 202 203 204 204 205 206 207 208 209 209 210 211 212 212 213 214 215 216 216 217 218 218 219 220 220 221 222 222 223 224 224 225 226 226 227 228 228 229 230 230 231 231 232 233 234 234 235 235 236 236 237 238 239 239 240 240 241 242 242 242 243 244 244 245 245 246 246 154 222 255 255 255 255 255 255 255 255 255 255
255 255 255 255 255 255 255 255 255 253 253 252 255 254 253 253 255 255 255 255 255 255 255 255 255 255 131 53 64 65 66 67 68 69 70 71 72 73 74 75 76 77 78 80 80 81 82 83 84 85 86 87 88 89 90 91 92 93 94 95 96 97 98 99 100 101 102 103 104 105 106 107 107 108 109 110 111 112 113 114 114 115 116 117 118 119 120 121 122 123 124 125 126 127 127 128 129 130 131 132 133 134 135 136 137 138 139 140 141 142 142 143 144 145 146 147 148 149 150 150 151 152 153 154 155 156 156 157 158 159 160 161 162 163 163 164 165 166 167 168 169 170 171 172 173 174 175 176 177 178 179 180 180 181 183 183 184 185 186 187 188 189 190 191 191 192 193 194 195 196 197 198 199 199 200 201 202 203 204 204 205 206 207 208 208 209 210 211 212 212 213 214 215 216 216 217 218 219 219 220 220 221 222 222 223 224 224 225 225 226 227 227 228 229 229 230 231 231 232 232 233 234 234 235 236 236 237 238 239 239 240 240 241 241 242 242 243 244 244 245 245 246 246 247 154 222 255 255 255 255 255 255 255 255 255 255
255 255 255 255 255 255 255 255 255 253 253 252 255 254 253 253 255 255 255 255 255 255 255 255 255 255 131 53 64 66 67 68 69 70 71 72 73 74 75 76 77 78 79 80 81 82 83 84 85 86 87 88 89 90 91 92 93 94 94 95 97 98 99 100 101 102 103 103 105 106 107 107 108 109 110 111 112 113 113 114 115 116 117 118 119 120 121 122 123 124 125 126 126 127 128 129 130 131 132 133 134 135 136 137 138 139 140 140 142 143 143 144 145 146 147 148 148 149 150 151 152 153 154 155 156 157 157 158 159 160 161 162 163 163 164 165 166 167 168 169 170 171 172 173 174 175 176 177 177 179 180 181 181 182 183 184 185 186 186 187 188 189 191 191 192 193 194 195 196 197 198 198 199 200 201 202 202 203 204 205 206 206 207 208 209 210 211 212 212 213 214 215 216 217 217 218 218 219 220 220 221 221 222 223 223 224 225 225 226 227 227 228 229 229 230 231 231 232 232 233 234 235 235 236 236 237 237 238 239 240 240 240 241 242 243 243 243 244 245 245 246 246 246 247 154 222 255 255 255 255 255 255 255 255 255 255
254 254 254 254 254 254 254 254 243 224 209 230 246 209 224 215 221 232 203 234 213 217 254 253 246 245 125 54 65 66 67 68 69 70 71 72 73 75 76 77 78 79 80 81 82 83 84 85 86 87 88 89 90 91 92 93 93 94 95 96 97 98 99 101 102 103 104 104 106 107 108 109 109 110 111 112 112 113 114 115 116 117 118 119 120 121 122 123 124 125 125 126 127 128 129 130 131 132 133 134 134 135 136 138 139 140 140 142 143 144 144 145 146 147 148 149 149 150 151 152 153 154 154 155 156 157 158 159 160 160 161 162 163 164 165 166 167 168 168 169 171 172 172 173 175 176 178 178 178 180 181 182 182 183 185 185 186 187 187 188 189 190 191 192 193 194 194 195 197 198 198 199 200 201 201 202 203 204 205 206 206 207 208 209 210 210 211 213 213 214 214 216 217 218 218 218 219 220 221 221 221 222 223 223 224 225 225 226 227 227 228 228 229 230 230 231 232 232 233 233 234 235 235 236 237 237 238 239 240 241 241 241 242 243 244 244 244 245 245 246 246 246 247 247 153 220 254 254 254 254 254 254 254 254 254 254
254 254 254 254 254 254 254 254 228 180 139 196 234 136 178 154 168 195 114 202 142 153 252 252 231 227 119 57 67 67 68 69 70 71 72 73 75 76 77 78 79 80 81 82 83 84 85 86 86 88 89 90 91 92 93 94 94 95 96 97 98 99 100 102 104 105 106 105 108 109 109 110 110 111 112 113 113 114 115 116 117 118 119 120 120 121 122 123 124 125 126 127 128 129 130 130 131 132 133 134 135 136 137 139 141 141 141 143 144 146 146 146 148 148 150 150 150 151 152 153 153 154 155 156 157 158 158 159 160 161 162 163 164 164 165 166 167 168 169 170 171 172 173 174 175 177 179 179 178 181 182 183 183 184 186 186 187 187 188 188 189 190 192 192 193 194 195 195 197 198 198 199 200 201 202 202 203 204 205 206 207 207 208 209 210 211 212 214 214 215 215 217 218 219 219 219 220 221 222 222 222 222 223 224 224 225 226 226 227 228 228 229 230 230 231 232 232 233 233 234 235 236 236 237 237 238 239 240 242 242 243 242 243 245 246 245 245 247 247 248 248 247 248 248 155 220 254 254 254 254 254 254 254 254 254 254
254 254 254 254 254 254 254 254 232 192 157 205 237 155 190 170 182 204 138 210 161 170 252 252 235 229 119 56 65 68 69 70 71 72 73 74 76 77 78 79 80 81 82 83 84 85 86 87 88 89 90 91 92 93 94 95 95 96 97 98 99 101 102 102 103 104 104 106 107 108 109 109 110 112 113 114 114 115 116 117 118 119 120 121 122 123 124 125 126 127 127 128 129 130 131 132 133 134 135 136 136 137 138 139 138 141 142 141 144 146 144 146 146 148 149 149 151 152 153 154 155 156 156 157 158 159 160 161 161 162 163 164 165 166 167 167 168 169 170 171 172 173 174 175 176 177 176 179 179 180 182 182 183 184 184 186 186 187 189 190 191 192 193 194 194 195 196 197 198 199 200 201 201 202 203 204 204 206 206 207 208 208 209 210 211 212 212 213 213 214 215 215 217 219 217 219 219 221 221 221 223 223 224 225 225 226 227 227 228 229 229 230 231 231 232 233 233 234 234 235 236 237 237 238 238 239 239 240 241 241 241 242 242 243 245 244 245 244 246 246 246 248 248 249 155 220 254 254 254 254 254 254 254 254 254 254
252 252 252 252 252 252 252 252 229 187 150 200 234 148 185 164 176 200 131 207 155 164 251 250 232 223 114 54 63 68 70 71 72 73 74 75 76 77 78 79 80 81 82 84 84 85 86 87 88 89 90 91 93 94 94 96 96 97 98 99 100 102 102 103 101 103 103 105 106 106 109 106 111 113 114 115 116 117 117 118 119 120 121 122 123 124 125 126 127 128 129 130 131 132 132 133 134 135 136 137 138 139 140 139 136 141 143 140 143 146 142 146 144 148 148 148 152 154 154 155 156 157 158 159 160 161 161 162 163 164 165 166 167 167 168 169 170 171 172 173 174 175 175 177 177 177 174 179 181 179 181 182 183 184 183 187 186 186 190 191 192 193 195 195 196 197 198 198 200 201 201 202 203 204 204 205 206 207 208 209 209 210 211 212 213 214 214 213 213 213 216 214 217 219 216 219 217 221 220 220 224 225 226 226 227 228 228 229 230 230 231 231 232 233 233 234 235 235 236 236 237 238 238 239 239 240 241 241 240 240 240 243 242 242 244 243 245 242 246 245 245 249 249 250 153 218 252 252 252 252 252 252 252 252 252 252
255 255 255 255 255 255 255 255 235 190 150 205 240 148 187 165 178 203 126 209 153 163 255 255 237 232 124 61 70 71 72 73 74 75 76 77 78 79 80 81 82 83 84 85 86 87 88 89 89 91 92 93 94 95 95 96 97 98 99 100 101 102 103 104 106 107 108 108 110 111 111 112 112 113 114 115 116 117 117 118 119 120 121 122 123 124 125 126 127 128 128 129 130 131 132 133 134 135 135 137 137 138 139 141 142 142 143 144 146 147 147 147 149 150 151 152 152 153 154 155 155 156 157 158 159 160 160 161 162 163 164 165 166 166 167 168 169 170 171 172 173 174 175 176 177 179 180 180 180 182 184 184 184 185 187 188 188 189 189 190 191 192 193 194 195 196 196 197 199 200 200 201 202 203 203 204 205 206 207 208 208 209 210 211 212 213 213 215 216 216 216 218 219 220 220 220 222 222 223 223 223 224 225 225 226 227 228 228 229 230 230 231 232 232 233 234 234 235 235 236 237 238 238 239 239 240 241 242 243 244 244 244 245 246 248 247 247 248 249 249 250 250 250 251 160 225 255 255 255 255 255 255 255 255 255 255
253 253 253 253 253 253 253 253 226 176 132 192 232 129 173 148 163 191 106 199 136 147 251 251 229 225 118 61 71 71 72 73 74 75 76 77 78 80 80 82 83 84 85 86 87 88 89 90 90 92 93 94 95 96 97 98 98 99 100 101 102 103 104 106 108 109 110 110 113 113 113 114 114 115 116 117 117 118 119 120 121 122 123 124 125 126 127 128 128 130 130 131 132 133 134 135 136 136 137 138 139 140 141 143 145 145 145 147 148 150 150 150 152 153 154 154 154 155 156 157 157 158 159 160 161 162 162 163 164 165 166 167 168 168 169 170 171 172 173 174 175 176 176 177 179 181 183 182 182 184 186 187 187 187 189 190 191 191 191 192 193 194 195 196 197 197 198 199 200 201 202 203 203 204 205 206 207 208 208 209 210 211 212 212 213 214 215 217 218 218 218 220 221 222 222 222 224 224 225 225 225 225 226 227 227 228 229 229 230 231 231 232 232 233 234 235 235 236 236 237 238 238 239 239 240 241 241 242 244 245 245 244 246 247 249 248 247 249 249 250 250 249 250 250 155 219 253 253 253 253 253 253 253 253 253 253
253 253 253 253 253 253 253 253 243 226 212 230 246 212 226 218 224 234 209 235 217 221 252 252 246 245 126 60 71 72 73 74 75 76 77 78 79 81 82 83 84 85 86 87 88 89 90 91 92 93 94 95 96 97 98 99 100 101 101 102 104 105 106 107 109 109 110 111 113 113 114 115 115 116 117 118 119 120 121 122 122 123 124 125 126 127 128 129 130 131 132 133 134 135 136 136 137 138 139 140 141 142 143 144 146 146 147 148 149 151 151 151 153 154 154 155 155 156 157 158 159 160 161 161 162 163 164 165 166 166 167 168 169 170 171 172 173 173 174 175 176 177 178 179 180 182 183 184 184 185 187 188 188 189 190 191 192 192 193 194 194 196 197 198 198 199 200 201 202 203 204 204 205 206 207 207 208 209 210 211 211 212 213 214 215 215 216 218 218 219 219 220 222 223 223 223 224 225 225 226 226 226 227 228 228 229 230 230 231 232 232 233 233 234 235 235 236 236 237 237 238 239 239 240 240 241 241 242 244 244 245 244 245 246 247 247 247 248 248 249 249 249 249 250 154 219 253 253 253 253 253 253 253 253 253 253
255 255 255 255 255 255 255 255 254 252 252 251 255 254 253 253 255 255 255 255 255 255 255 255 255 255 133 60 72 73 74 75 76 78 79 80 81 82 83 84 85 86 87 88 89 90 91 92 93 94 95 96 97 98 99 100 101 101 102 103 104 105 106 108 109 109 110 111 113 113 114 115 116 117 118 119 119 120 121 122 123 124 125 126 127 128 129 130 131 132 132 133 134 135 136 137 138 139 140 141 141 142 143 144 145 146 147 148 149 150 151 151 152 154 154 155 156 157 158 159 159 160 161 162 163 164 164 165 166 167 168 169 170 170 171 172 173 174 175 176 177 178 179 180 181 182 183 184 184 185 186 187 188 189 190 191 192 192 193 194 195 196 197 198 199 199 200 201 202 203 204 205 206 206 207 208 209 210 210 211 212 213 214 214 215 216 217 218 218 219 219 220 221 222 223 223 224 225 225 226 226 227 228 228 229 230 230 231 231 232 232 233 234 235 235 236 236 237 237 238 239 239 240 240 241 241 242 243 243 244 244 245 245 246 247 247 247 248 249 249 249 250 250 250 156 222 255 255 255 255 255 255 255 255 255 255
255 255 255 255 255 255 255 255 254 252 252 251 255 254 253 253 255 255 255 255 255 255 255 255 255 255 133 61 73 74 75 76 77 78 79 80 81 83 84 85 86 87 88 89 90 91 92 93 94 95 96 97 98 99 100 101 102 102 103 104 105 106 107 108 109 110 111 112 113 114 115 116 117 118 119 120 120 121 122 123 124 125 126 127 128 129 130 131 131 132 133 134 135 136 137 138 139 140 140 141 142 143 144 145 146 147 148 149 150 151 151 152 153 154 155 156 157 158 159 159 160 161 162 163 164 165 165 166 167 168 169 170 170 171 172 173 174 175 176 177 178 179 179 180 182 183 184 184 185 186 187 188 189 190 191 192 192 193 194 195 196 197 198 199 199 200 201 202 203 204 205 205 206 207 208 208 209 210 211 212 212 213 214 215 216 217 217 218 219 219 220 221 222 223 223 224 224 225 226 226 227 228 228 229 229 230 231 231 232 233 233 234 234 235 236 236 237 237 238 238 239 240 240 241 241 242 242 243 244 244 245 245 246 246 247 247 248 248 249 250 250 250 251 251 156 222 255 255 255 255 255 255 255 255 255 255
255 255 255 255 255 255 255 255 254 252 252 251 255 254 253 253 255 255 255 255 255 255 255 255 255 255 133 62 74 75 76 77 78 79 80 81 82 84 84 86 87 88 89 90 91 92 93 94 94 95 97 97 99 100 101 101 102 103 104 105 106 107 108 109 110 111 112 113 114 115 116 117 117 118 119 120 121 122 123 124 125 126 127 128 128 129 130 131 132 133 134 135 136 137 138 138 139 140 141 142 143 144 145 146 147 148 149 149 151 152 152 153 154 155 156 156 157 158 159 160 161 162 162 163 164 165 166 167 167 168 169 170 171 172 173 173 174 175 176 177 178 179 180 181 182 183 184 185 186 186 188 189 189 190 191 192 193 193 194 195 196 197 198 199 200 201 201 202 204 204 205 206 207 207 208 209 210 211 211 212 213 214 215 216 216 217 218 218 219 220 220 221 222 223 224 224 225 226 226 226 227 228 229 229 230 230 231 232 232 233 233 234 235 235 236 236 237 237 238 239 239 240 240 241 241 242 243 243 244 245 245 245 246 246 247 247 248 249 249 250 250 250 251 251 156 222 255 255 255 255 255 255 255 255 255 255
255 255 255 255 255 255 255 255 254 252 252 251 255 253 253 253 255 255 255 255 255 255 255 255 255 255 134 63 75 76 77 78 79 80 81 82 83 84 85 87 87 88 89 91 92 93 93 94 95 96 97 98 100 101 101 102 103 104 105 106 107 108 109 110 111 112 113 114 115 116 117 118 118 119 120 121 122 123 124 125 125 126 127 128 129 130 131 132 133 134 135 136 137 138 138 139 140 141 142 143 144 145 146 147 148 149 149 150 152 153 153 154 155 156 157 157 158 159 160 161 162 163 163 164 165 166 167 168 168 169 170 171 172 173 173 174 175 176 177 178 179 180 181 182 183 184 185 186 186 187 188 189 190 191 192 193 194 194 195 196 197 198 199 200 200 201 202 203 204 205 206 207 207 208 209 210 210 211 212 213 213 214 215 216 217 218 218 219 220 220 221 222 223 224 224 225 225 226 227 227 228 228 229 230 230 231 232 232 233 233 234 234 235 236 236 237 237 238 238 239 240 241 241 241 242 243 243 244 245 245 246 246 246 247 248 248 248 249 250 250 250 251 251 251 157 222 255 255 255 255 255 255 255 255 255 255
255 255 255 255 255 255 255 255 254 252 252 251 255 253 253 253 255 255 255 255 255 255 255 255 255 255 134 63 75 77 78 79 80 81 82 83 84 85 86 87 88 89 90 91 92 93 94 95 96 97 98 99 100 101 102 103 104 105 106 107 108 109 110 111 112 113 114 114 116 117 118 119 119 120 121 122 123 124 125 125 126 127 128 129 130 131 132 133 134 135 136 137 137 138 139 140 141 142 143 144 145 145 146 148 149 149 150 151 152 153 154 155 156 157 157 158 159 160 161 162 162 163 164 165 166 167 167 168 169 170 171 172 172 173 174 175 176 177 178 178 180 181 181 182 184 185 186 186 187 188 189 190 191 191 193 193 194 195 196 197 197 198 200 200 201 202 203 204 205 206 206 207 208 209 209 210 211 212 213 213 214 215 216 217 217 218 219 220 220 221 222 222 223 224 225 225 226 227 227 228 228 229 230 230 231 231 232 233 233 234 234 235 236 236 237 237 238 238 239 240 240 241 241 242 242 243 243 244 245 246 246 246 247 247 248 248 249 249 250 251 251 251 251 251 157 222 255 255 255 255 255 255 255 255 255 255
255 255 255 255 255 255 255 255 254 252 252 251 255 253 253 253 255 255 255 255 255 255 255 255 255 255 134 64 76 77 79 80 81 82 83 84 85 86 87 88 89 90 91 92 93 94 95 96 97 98 99 100 101 102 103 104 105 106 106 108 109 110 111 112 113 114 115 115 117 118 119 119 120 121 122 123 124 125 125 126 127 128 129 130 131 132 133 134 135 136 136 137 138 139 140 141 142 143 144 145 145 146 147 148 149 150 151 152 153 154 154 155 156 157 158 159 160 160 161 162 163 164 165 166 166 167 168 169 170 170 171 172 173 174 175 175 176 177 178 179 180 181 182 183 184 185 186 187 188 189 190 191 191 192 193 194 195 196 196 197 198 199 200 201 202 202 203 204 205 206 207 208 208 209 210 211 212 213 213 214 215 215 216 217 218 219 219 220 221 222 222 223 224 225 225 226 226 227 228 228 229 229 230 231 231 232 232 233 234 234 235 235 236 237 237 238 238 239 239 240 241 241 242 242 243 243 244 245 245 246 246 247 247 248 249 249 249 250 250 251 251 251 252 252 157 222 255 255 255 255 255 255 255 255 255 255
255 255 255 255 255 255 255 255 254 252 252 251 255 253 253 253 255 255 255 255 255 255 255 255 255 255 134 65 77 78 79 81 82 83 84 85 86 87 88 89 90 91 92 93 94 95 96 97 98 99 100 101 102 103 104 105 106 106 107 108 109 111 111 113 114 114 115 116 118 118 119 120 121 122 123 124 124 125 126 127 128 129 130 131 132 133 134 135 135 136 137 138 139 140 141 142 143 144 144 145 146 147 148 149 150 151 152 153 154 155 155 156 157 158 159 160 160 161 162 163 164 165 165 166 167 168 169 170 170 171 172 173 174 175 175 176 177 178 179 180 181 182 183 184 185 186 187 188 188 189 190 191 192 193 194 195 196 196 197 198 199 200 201 202 202 203 204 205 206 207 208 208 209 210 211 211 212 213 214 215 215 216 217 218 218 219 220 221 222 222 223 224 225 225 226 226 227 228 228 229 229 230 231 231 232 232 233 234 234 235 235 236 237 237 238 238 239 239 240 240 241 242 242 243 243 244 244 245 246 246 247 247 248 248 249 249 249 250 251 251 251 252 252 252 157 222 255 255 255 255 255 255 255 255 255 255
255 255 255 255 255 255 255 255 254 252 252 251 255 253 253 253 255 255 255 255 255 255 255 255 255 255 135 66 78 79 80 82 83 84 85 86 87 88 89 90 91 92 93 94 95 96 97 98 99 100 101 102 103 104 105 106 107 107 108 109 110 112 112 114 115 115 116 117 119 119 120 121 122 123 124 125 125 126 127 128 129 130 131 132 133 134 135 136 136 137 138 139 140 141 142 143 144 144 145 146 147 148 149 150 151 152 153 154 155 156 156 157 158 159 160 161 161 162 163 164 165 166 166 167 168 169 170 170 171 172 173 174 175 176 176 177 178 179 180 181 182 183 183 184 186 187 188 189 189 190 191 192 193 194 195 195 196 197 198 199 199 200 202 202 203 204 205 205 207 208 208 209 210 210 211 212 213 214 214 215 216 217 218 218 219 220 221 222 222 223 223 224 225 226 226 227 228 228 229 229 230 230 231 232 232 233 234 234 235 235 236 236 237 238 238 239 239 240 240 241 242 242 243 243 244 244 245 245 246 247 247 247 248 249 249 249 250 251 251 252 252 252 252 252 158 222 255 255 255 255 255 255 255 255 255 255
255 255 255 255 255 255 255 255 254 252 252 250 255 253 253 253 255 255 255 255 255 255 255 255 255 255 135 67 79 80 81 82 84 85 86 87 88 89 90 91 92 93 94 95 96 97 98 99 100 101 102 103 104 105 106 107 108 108 109 110 111 112 113 114 115 116 117 118 119 120 121 122 123 124 125 125 126 127 128 129 130 131 132 133 133 134 135 136 137 138 139 140 141 142 143 143 144 145 146 147 148 149 150 151 152 153 153 154 155 157 157 158 159 160 160 161 162 163 164 165 165 166 167 168 169 170 170 171 172 173 174 175 175 176 177 178 179 180 180 181 182 183 184 185 186 187 188 189 190 191 192 193 193 194 195 196 197 198 198 199 200 201 202 203 204 204 205 206 207 208 209 210 210 211 212 213 213 214 215 216 216 217 218 219 220 220 221 222 223 223 224 225 226 226 227 228 228 229 229 230 230 231 232 232 233 233 234 235 235 236 236 237 238 238 239 239 240 240 241 241 242 243 243 244 244 245 245 246 247 247 247 248 248 249 250 250 250 251 251 252 252 252 253 253 158 222 255 255 255 255 255 255 255 255 255 255
255 255 255 255 255 255 255 255 254 252 252 250 255 253 253 253 255 255 255 255 255 255 255 255 255 255 135 68 80 81 82 83 84 86 87 88 89 90 91 92 93 94 95 96 97 98 99 100 101 102 103 104 105 106 107 108 109 109 110 111 112 113 114 115 116 117 118 119 120 121 122 123 123 125 126 126 127 128 129 130 131 132 133 133 134 135 136 137 138 139 140 141 142 143 143 144 145 146 147 148 149 150 151 152 152 153 154 155 156 157 158 158 159 160 161 162 163 164 165 165 166 167 168 169 169 170 171 172 173 173 174 175 176 177 178 178 179 180 181 182 183 184 185 186 187 188 189 190 190 191 192 193 194 195 196 197 197 198 199 200 201 202 203 204 204 205 206 207 208 209 209 210 211 212 212 213 214 215 216 216 217 218 219 220 220 221 222 222 223 224 224 225 226 227 227 228 228 229 230 230 231 231 232 233 233 234 234 235 236 236 237 237 238 239 239 240 240 241 241 242 243 243 243 244 244 245 245 246 247 247 248 248 249 249 250 250 250 251 252 252 252 253 253 253 158 222 255 255 255 255 255 255 255 255 255 255
255 255 255 255 255 255 255 255 254 252 252 250 255 253 253 253 255 255 255 255 255 255 255 255 255 255 135 68 80 82 83 84 85 86 87 88 89 90 91 92 93 94 95 97 97 98 99 100 101 102 103 104 105 106 107 108 109 110 111 112 113 114 115 116 117 118 119 119 121 122 123 123 124 125 126 127 128 129 130 130 131 132 133 134 135 136 137 138 139 140 141 141 142 143 144 145 146 147 148 149 149 150 151 152 153 154 155 156 157 158 158 159 160 161 162 163 163 164 165 166 167 168 168 169 170 171 172 173 173 174 175 176 177 178 178 179 180 181 182 183 184 185 185 186 188 189 190 190 191 192 193 194 195 195 196 197 198 199 200 200 201 202 203 204 205 206 206 207 209 209 210 211 212 212 213 214 215 216 216 217 218 218 219 220 221 222 222 223 224 224 225 226 227 228 228 229 229 230 230 231 231 232 233 233 234 234 235 236 236 237 237 238 238 239 240 240 241 241 242 242 243 244 244 244 245 245 246 247 247 248 248 248 249 249 250 250 251 251 252 252 252 253 253 253 158 222 255 255 255 255 255 255 255 255 255 255
255 255 255 255 255 255 255 255 254 252 252 250 255 254 253 253 255 255 255 255 255 255 255 255 255 255 136 69 81 83 84 85 86 87 88 89 90 91 92 93 94 95 96 97 98 99 100 101 102 103 104 105 106 107 108 109 110 111 111 113 114 115 116 117 118 119 120 120 122 123 124 124 125 126 127 128 129 130 130 131 132 133 134 135 136 137 138 139 140 141 141 142 143 144 145 146 147 148 148 149 150 151 152 153 154 155 156 156 158 159 159 160 161 162 163 163 164 165 166 167 168 168 169 170 171 172 172 173 174 175 176 177 177 178 179 180 181 182 182 183 184 185 186 187 188 189 190 191 192 193 194 195 195 196 197 198 199 199 200 201 202 203 204 205 205 206 207 208 209 210 211 211 212 213 213 214 215 216 217 217 218 219 220 221 221 222 223 223 224 225 225 226 227 228 228 229 229 230 231 231 232 232 233 234 234 235 235 236 236 237 238 238 239 240 240 241 241 242 242 243 243 244 244 245 245 246 246 247 248 248 248 249 249 250 251 251 251 252 252 253 253 253 253 253 159 222 255 255 255 255 255 255 255 255 255 255
255 255 255 255 255 255 255 255 254 251 252 250 255 254 253 253 255 255 255 255 255 255 255 255 255 255 136 70 82 84 85 86 87 88 89 90 91 92 93 94 95 96 97 98 99 100 101 102 103 104 105 106 107 108 109 110 111 112 112 113 115 116 117 118 119 120 120 121 123 123 124 125 126 127 128 129 129 130 131 132 133 134 135 136 137 138 139 140 140 141 142 143 144 145 146 147 147 148 149 150 151 152 153 154 155 156 156 157 158 160 160 161 162 163 163 164 165 166 167 168 168 169 170 171 172 172 173 174 175 176 176 177 178 179 180 180 181 182 183 184 185 186 187 188 189 190 191 192 192 193 194 195 196 197 198 199 199 200 201 202 202 203 205 205 206 207 208 208 210 210 211 212 213 213 214 215 216 217 217 218 219 219 220 221 222 222 223 224 225 225 226 226 227 228 229 229 230 231 231 232 232 233 233 234 235 235 236 236 237 238 238 239 239 240 240 241 241 242 242 243 244 244 245 245 245 246 246 247 248 248 249 249 249 250 251 251 251 252 252 253 253 253 254 254 159 222 255 255 255 255 255 255 255 255 255 255
255 255 255 255 255 255 255 255 254 251 252 250 255 254 253 253 255 255 255 255 255 255 255 255 255 255 136 71 83 84 86 87 88 89 90 91 92 93 94 95 96 97 98 99 100 101 102 103 104 105 106 107 108 109 110 111 112 112 113 114 115 117 117 118 119 120 121 122 123 124 125 126 127 128 129 129 130 131 132 133 134 135 136 137 137 138 139 140 141 142 143 144 145 146 146 147 148 149 150 151 152 153 154 155 155 156 157 158 159 160 160 161 162 163 164 165 166 166 167 168 169 170 171 171 172 173 174 175 175 176 177 178 179 180 180 181 182 183 184 185 186 187 187 188 190 190 191 192 193 194 195 196 196 197 198 199 200 200 201 202 203 204 205 206 206 207 208 209 210 211 212 212 213 214 215 215 216 217 218 218 219 220 221 222 222 223 224 224 225 226 226 227 228 229 229 230 230 231 232 232 233 233 234 235 235 236 236 237 237 238 238 239 240 240 241 241 242 242 243 243 244 245 245 245 246 246 247 248 248 249 249 249 250 250 251 251 251 252 253 253 253 254 254 254 159 222 255 255 255 255 255 255 255 255 255 255
255 255 255 255 255 255 255 255 253 251 252 250 255 254 253 253 255 255 255 255 255 255 255 255 255 255 136 71 84 85 86 88 89 90 91 92 93 94 95 96 97 98 99 100 101 102 103 104 105 106 107 108 109 110 111 112 113 113 114 115 116 117 118 119 120 121 122 123 124 125 126 127 127 128 129 130 131 132 133 134 134 135 136 137 138 139 140 141 142 143 144 145 146 146 147 148 149 150 151 152 152 153 154 155 156 157 158 159 160 161 161 162 163 164 165 165 166 167 168 169 170 171 171 172 173 174 174 175 176 177 178 179 179 180 181 182 183 184 184 185 186 187 188 189 190 191 192 193 194 194 195 196 197 198 199 200 200 201 202 203 204 205 206 207 207 208 209 209 211 212 212 213 214 214 215 216 217 218 218 219 220 220 221 222 223 223 224 225 226 226 227 227 228 229 230 230 231 232 232 232 233 234 234 235 235 236 237 237 238 238 239 239 240 241 241 242 242 243 243 244 244 245 245 246 246 247 247 248 248 249 249 250 250 250 251 251 252 252 253 253 253 254 254 254 159 222 255 255 255 255 255 255 255 255 255 255
255 255 255 255 255 255 255 255 253 251 252 250 255 254 253 253 255 255 255 255 255 255 255 255 255 255 137 72 85 86 87 88 89 91 92 93 94 95 96 97 98 99 100 101 102 103 104 105 106 107 108 109 110 111 112 113 113 114 115 116 117 118 119 120 121 122 123 124 125 126 127 127 128 129 130 131 132 133 134 135 135 136 137 138 139 140 141 142 143 144 145 146 146 147 148 149 150 151 152 152 153 154 155 156 157 158 159 159 160 162 162 163 164 165 165 166 167 168 169 170 170 171 172 173 174 175 175 176 177 178 178 179 180 181 182 182 183 184 185 186 187 188 189 190 191 192 192 194 194 195 196 197 197 198 199 200 201 202 203 203 204 205 206 207 208 208 209 210 211 212 213 214 214 215 216 216 217 218 219 220 220 221 222 223 223 224 225 225 226 227 227 228 229 230 230 231 231 232 232 233 234 234 235 235 236 237 237 238 238 239 239 240 240 241 242 242 243 243 243 244 245 245 246 246 247 247 248 248 249 249 249 250 250 251 252 252 252 252 253 254 254 254 254 254 160 222 255 255 255 255 255 255 255 255 255 255
255 255 255 255 255 255 255 255 253 251 252 250 255 254 253 253 255 255 255 254 255 255 255 255 255 255 137 73 86 87 88 89 90 91 92 93 94 96 97 98 99 100 101 102 103 104 105 106 106 107 109 109 111 112 113 113 114 115 116 117 118 119 120 121 122 123 124 124 126 127 128 128 129 130 131 132 133 134 135 135 136 137 138 139 140 141 142 143 144 145 145 146 147 148 149 150 151 152 152 153 154 155 156 157 158 159 160 160 161 162 163 164 164 166 166 167 168 169 170 170 171 172 173 174 174 175 176 177 177 178 179 180 181 182 182 183 184 185 186 187 188 189 189 190 192 192 193 194 195 196 197 198 198 199 200 201 202 202 203 204 205 206 207 208 208 209 210 211 212 213 213 214 215 216 216 217 218 219 219 220 221 221 222 223 224 225 225 226 227 227 228 228 229 230 231 231 232 233 233 233 234 235 235 236 236 237 238 238 239 239 240 240 241 242 242 243 243 243 244 244 245 246 246 246 247 247 248 249 249 250 250 250 251 251 252 252 252 253 254 254 254 254 255 255 160 222 255 255 255 255 255 255 255 255 255 255
255 255 255 255 255 255 255 255 253 251 252 250 255 254 253 253 255 255 255 254 255 255 255 255 255 255 137 74 87 88 89 90 91 92 93 94 95 97 98 99 100 101 102 103 104 105 106 107 107 108 109 110 112 113 113 114 115 116 117 118 119 120 121 122 123 124 125 125 127 128 129 129 130 131 132 133 134 135 135 136 137 138 139 140 141 142 143 144 144 145 146 147 148 149 150 151 152 152 153 154 155 156 157 158 158 159 160 161 162 163 163 164 165 166 167 168 169 169 170 171 172 173 174 174 175 176 177 178 178 179 180 181 182 182 183 184 185 186 186 187 189 189 190 191 192 193 194 195 196 196 197 198 199 200 201 202 202 203 204 205 205 206 208 208 209 210 210 211 213 213 214 215 215 216 217 218 218 219 220 221 221 222 223 224 224 225 226 226 227 228 228 229 230 231 231 232 232 233 234 234 235 235 236 236 237 238 238 239 239 240 240 241 241 242 242 243 243 244 244 245 246 246 246 247 247 248 248 249 250 250 250 251 251 251 252 252 253 253 254 254 254 255 255 255 160 222 255 255 255 255 255 255 255 255 255 255
255 255 255 255 255 255 255 255 253 251 252 250 255 254 253 253 255 255 255 254 255 255 255 255 255 255 138 75 87 89 90 91 92 93 94 95 96 97 98 99 100 101 102 103 104 105 106 107 108 109 110 111 112 113 114 115 116 117 117 118 120 121 122 123 124 124 125 126 127 128 129 130 131 132 133 134 134 135 136 137 138 139 140 141 141 142 143 144 145 146 147 148 149 150 150 151 152 153 154 155 155 156 157 158 159 160 161 162 163 164 164 165 166 167 168 168 169 170 171 172 172 173 174 175 176 177 177 178 179 180 180 181 182 183 184 184 185 186 187 188 189 190 190 192 193 194 194 195 196 197 198 199 199 200 201 202 203 203 204 205 206 207 208 209 209 210 211 212 213 214 214 215 216 217 217 218 219 220 220 221 222 222 223 224 225 225 226 227 227 228 229 229 230 231 231 232 232 233 234 234 235 235 236 237 237 238 238 239 239 240 240 241 242 242 243 243 244 244 244 245 246 246 247 247 247 248 248 249 250 250 250 251 251 252 252 252 253 253 254 254 254 255 255 255 161 223 255 255 255 255 255 255 255 255 255 255
255 255 255 255 255 255 255 255 253 251 252 250 255 254 253 253 255 255 255 254 255 255 255 255 255 255 138 76 88 90 91 92 93 94 95 96 97 98 99 100 101 102 103 104 105 106 107 108 109 110 111 112 113 114 115 116 117 118 118 119 121 122 123 124 124 125 126 127 128 129 130 131 132 133 134 134 135 136 137 138 139 140 140 141 142 143 144 145 146 147 148 149 149 150 151 152 153 154 155 156 156 157 158 159 160 161 162 162 163 165 165 166 167 168 168 169 170 171 172 173 173 174 175 176 176 177 178 179 179 180 181 182 183 184 184 185 186 187 188 189 190 191 191 192 193 194 195 196 197 197 198 199 200 201 202 203 203 204 205 206 207 208 209 209 210 211 212 212 214 214 215 216 216 217 218 219 219 220 221 222 222 223 224 225 225 226 227 227 228 228 229 230 231 232 232 233 233 234 234 235 235 236 237 237 238 238 239 239 240 240 241 241 242 243 243 244 244 245 245 246 246 247 247 247 248 248 249 250 250 250 251 251 252 252 253 253 253 254 254 255 255 255 255 255 161 223 255 255 255 255 255 255 255 255 255 255
255 255 255 255 255 255 255 255 253 251 252 249 254 254 253 253 255 255 255 254 255 255 255 255 255 255 138 76 89 91 92 93 94 95 96 97 98 99 100 101 102 103 104 105 106 107 108 109 110 111 112 113 114 115 116 117 118 118 119 120 121 122 123 124 125 126 127 128 129 130 131 132 132 133 134 135 136 137 138 139 139 140 141 142 143 144 145 146 147 148 149 149 150 151 152 153 154 155 155 156 157 158 159 160 160 162 162 163 164 165 166 166 167 168 169 170 171 171 172 173 174 175 176 176 177 178 179 180 180 181 182 183 184 184 185 186 187 188 188 189 190 191 192 193 194 195 196 197 197 198 199 200 201 202 202 203 204 205 206 206 207 208 209 210 211 211 212 213 214 215 216 216 217 218 218 219 220 221 221 222 223 223 224 225 226 227 227 228 229 229 230 230 231 232 232 233 233 234 235 235 236 236 237 238 238 239 239 240 240 241 241 242 242 243 244 244 245 245 245 246 247 247 247 248 248 249 249 250 250 251 251 252 252 252 253 253 254 254 255 255 255 255 255 255 161 222 255 255 255 255 255 255 255 255 255 255
255 255 255 255 255 255 255 255 253 251 252 249 254 254 253 253 255 255 255 254 255 255 255 255 255 255 138 77 90 92 93 94 95 96 97 98 99 100 101 102 103 104 105 106 107 108 109 110 111 112 113 114 115 116 117 118 119 119 120 121 122 123 124 125 126 127 128 129 130 131 132 132 133 134 135 136 137 138 139 140 140 141 142 143 144 145 146 147 148 149 149 150 151 152 153 154 155 156 156 157 158 159 160 161 161 162 163 164 165 166 166 167 168 169 170 171 171 172 173 174 175 176 176 177 178 179 179 180 181 182 183 183 184 185 186 186 187 188 189 190 191 192 193 194 195 196 196 197 198 199 200 201 201 202 203 204 205 205 206 207 208 209 210 211 211 212 213 214 215 216 216 217 218 218 219 220 220 221 222 223 223 224 225 226 226 227 228 228 229 229 230 231 232 233 233 234 234 235 235 235 236 237 238 238 239 239 240 240 241 241 242 242 243 244 244 245 245 245 246 246 247 247 248 248 249 249 250 250 251 251 251 252 252 253 253 253 254 254 255 255 255 255 255 255 161 222 255 255 255 255 255 255 255 255 255 255
255 255 255 255 255 255 255 255 253 251 252 249 254 254 253 253 255 255 255 254 255 255 255 255 255 255 139 79 91 93 94 95 96 97 98 99 100 101 102 103 104 105 106 107 108 109 110 111 112 113 114 115 116 117 118 119 120 121 121 122 124 125 126 127 127 128 129 130 131 132 133 134 135 136 137 137 138 139 140 141 142 143 143 144 145 146 147 148 149 150 151 152 152 153 154 155 156 157 158 158 159 160 161 162 162 164 165 165 166 167 167 168 169 170 171 172 173 173 174 175 176 177 177 178 179 180 181 181 182 183 184 185 185 186 187 188 188 189 190 191 192 193 194 195 196 197 197 198 199 200 201 202 202 203 204 205 206 206 207 208 209 210 211 212 212 213 214 214 216 216 217 218 218 219 220 221 221 222 223 224 224 225 226 227 227 228 229 229 230 230 231 232 233 233 234 234 235 236 236 236 237 238 238 239 239 240 240 241 241 242 242 243 244 244 245 245 246 246 246 247 248 248 248 249 249 250 250 251 251 252 252 252 253 253 254 254 254 255 255 255 255 255 255 255 162 223 255 255 255 255 255 255 255 255 255 255
255 255 255 255 255 255 255 255 253 251 252 249 254 254 253 253 255 255 255 254 255 255 255 255 255 255 139 80 93 95 96 97 98 99 100 101 102 103 104 105 106 107 108 110 110 111 112 113 114 115 116 117 118 119 120 121 122 123 123 125 126 127 128 129 130 130 131 132 133 134 135 136 137 138 139 140 140 141 142 143 144 145 146 146 147 148 149 150 151 152 153 154 154 155 156 157 158 159 160 160 161 162 163 164 164 166 167 167 168 169 169 170 171 172 173 174 175 175 176 177 178 179 179 180 181 182 182 183 184 185 186 186 187 188 189 189 190 191 192 193 194 195 196 196 198 198 199 200 201 202 203 203 204 205 206 207 207 208 209 210 211 211 213 213 214 215 215 216 217 218 219 219 220 221 222 222 223 224 224 225 226 227 227 228 229 229 230 231 231 232 233 233 234 235 235 236 236 237 237 238 238 239 240 240 241 241 242 242 243 243 244 244 245 246 246 247 247 247 248 248 249 249 250 250 250 251 251 252 252 253 253 253 254 254 255 255 255 255 255 255 255 255 255 255 162 223 255 255 255 255 255 255 255 255 255 255
255 255 255 255 255 255 255 255 253 251 252 249 254 254 253 253 255 255 255 254 255 255 255 255 255 255 140 81 94 96 97 98 99 100 101 102 103 104 105 106 107 108 109 110 111 112 113 114 115 116 117 118 119 120 121 122 123 124 124 125 127 128 129 129 130 131 132 133 134 135 136 136 137 139 140 140 141 142 143 144 144 145 146 147 148 149 150 151 152 153 153 154 155 156 157 158 159 159 160 161 162 163 164 165 165 166 167 168 169 170 170 171 172 173 173 174 175 176 177 178 178 179 180 181 182 182 183 184 184 185 186 187 188 189 189 190 191 192 192 193 194 195 196 197 198 199 199 201 201 202 203 204 204 205 206 207 208 208 209 210 211 212 213 214 214 215 216 216 218 218 219 220 220 221 222 222 223 224 225 225 226 227 228 228 229 230 230 231 231 232 233 233 234 235 235 236 236 237 238 238 239 239 240 240 241 242 242 243 243 244 244 245 245 246 246 247 247 247 248 248 249 249 250 250 251 251 251 252 252 253 253 254 254 254 255 255 255 255 255 255 255 255 255 255 163 223 255 255 255 255 255 255 255 255 255 255
255 255 255 255 255 255 255 255 253 251 252 249 254 254 253 253 255 255 255 254 255 255 255 255 255 255 140 82 95 97 98 99 100 101 102 103 104 105 106 107 108 109 110 111 112 113 114 115 116 117 118 119 120 121 122 123 124 124 125 126 127 128 129 130 131 132 133 134 135 136 137 137 138 139 140 141 142 143 144 144 145 146 147 148 149 150 151 152 152 153 154 155 156 157 158 158 159 160 161 162 163 163 164 165 166 167 168 168 169 171 171 172 172 174 174 175 176 177 177 178 179 180 180 181 182 183 184 184 185 186 187 187 188 189 190 190 191 192 193 194 195 196 196 197 199 199 200 201 202 202 203 204 205 206 207 208 208 209 210 211 211 212 213 214 215 215 216 217 218 219 219 220 221 222 222 223 224 225 225 226 226 227 228 229 229 230 231 231 232 232 233 234 234 235 236 236 237 238 238 238 239 240 240 241 241 242 242 243 243 244 244 245 245 246 246 247 247 248 248 249 249 250 250 250 251 251 252 252 253 253 253 254 254 254 255 255 255 255 255 255 255 255 255 255 163 223 255 255 255 255 255 255 255 255 255 255
255 255 255 255 255 255 255 255 253 251 252 249 254 254 253 253 255 255 255 254 255 255 255 255 255 255 141 84 96 98 99 100 101 102 103 104 105 106 107 108 109 110 111 112 113 114 115 116 117 118 119 120 121 122 123 124 125 125 126 127 128 129 130 131 132 133 134 135 136 137 138 138 139 140 141 142 143 144 145 145 146 147 148 149 150 151 152 153 153 154 155 156 157 158 158 159 160 161 162 163 163 164 165 166 166 168 169 169 170 171 171 172 173 174 175 176 177 177 178 179 180 181 181 182 183 184 184 185 186 187 187 188 189 190 191 191 192 193 194 195 196 197 197 198 199 200 201 202 202 203 204 205 205 206 207 208 209 209 210 211 212 213 214 215 215 216 217 217 219 219 220 221 221 222 223 223 224 225 226 226 227 228 228 229 230 231 231 232 232 233 233 234 235 236 236 237 237 238 238 238 239 240 241 241 242 242 243 243 244 244 245 245 246 246 247 247 248 248 248 249 250 250 250 251 251 251 252 252 253 253 253 254 254 255 255 255 255 255 255 255 255 255 255 255 163 223 255 255 255 255 255 255 255 255 255 255
255 255 255 255 255 255 255 255 252 251 252 249 254 254 253 253 255 255 255 254 255 255 255 255 255 255 141 85 97 99 100 101 102 103 104 105 106 107 108 109 110 111 112 113 114 115 116 117 118 119 120 121 122 123 124 125 126 126 127 128 129 130 131 132 133 134 135 136 137 138 139 139 140 141 142 143 144 145 145 146 147 148 149 150 151 152 153 154 154 155 156 157 158 159 159 160 161 162 163 164 164 165 166 167 167 169 170 170 171 172 172 173 174 175 176 176 177 178 179 180 181 181 182 183 184 185 185 186 187 187 188 189 190 191 191 192 193 194 194 195 196 197 198 199 200 201 201 202 203 204 205 205 206 207 208 209 209 210 211 212 213 214 215 215 216 217 217 218 219 220 221 221 222 223 223 224 225 226 226 227 227 228 229 230 230 231 232 232 233 233 234 234 235 236 236 237 237 238 239 239 240 240 241 242 242 243 243 244 244 245 245 246 246 247 247 248 248 248 249 249 250 250 251 251 251 252 252 253 253 253 254 254 254 255 255 255 255 255 255 255 255 255 255 255 164 223 255 255 255 255 255 255 255 255 255 255
255 255 255 255 255 255 255 255 252 251 252 249 254 254 253 253 255 255 255 254 255 255 255 255 255 255 142 86 98 100 101 102 103 104 105 106 107 108 109 110 111 112 113 114 115 116 117 118 119 120 121 122 123 124 125 126 127 127 128 129 130 131 132 133 134 135 136 136 138 139 140 140 141 142 143 144 145 146 146 147 148 149 150 151 152 152 153 154 155 156 157 158 159 159 160 161 162 163 164 164 165 166 167 168 168 169 170 171 172 173 173 174 175 176 176 177 178 179 180 181 181 182 183 184 184 185 186 187 187 188 189 190 190 191 192 193 193 194 195 196 197 198 198 199 201 201 202 203 204 204 205 206 207 208 208 209 210 211 212 212 213 214 215 216 216 217 218 219 220 221 221 222 222 223 224 224 225 226 227 227 228 229 229 230 231 232 232 233 233 234 234 235 236 237 237 238 238 239 239 239 240 241 241 242 242 243 243 244 244 245 245 246 246 247 247 248 248 249 249 250 250 251 251 251 252 252 252 253 253 254 254 254 255 255 255 255 255 255 255 255 255 255 255 255 164 223 255 255 255 255 255 255 255 255 255 255
254 254 254 254 254 254 254 254 251 247 246 246 253 248 249 248 251 253 253 251 252 253 254 254 255 254 141 86 99 101 102 103 104 105 106 107 108 109 110 111 112 113 114 115 116 117 118 119 120 121 122 123 124 125 126 127 128 128 129 130 131 132 133 134 135 136 137 137 138 139 141 141 142 143 144 145 146 146 147 148 149 150 151 152 152 153 154 155 156 157 158 159 159 160 161 162 163 164 164 165 166 167 168 169 169 170 171 172 173 174 174 175 175 177 177 178 179 180 181 182 182 183 184 184 185 186 187 187 188 189 190 190 191 192 193 193 194 195 196 197 198 199 199 200 201 202 202 204 204 205 206 207 207 208 209 210 211 211 212 213 214 215 216 217 217 218 219 219 220 221 222 222 223 224 224 225 226 227 227 228 229 229 230 231 231 232 233 233 234 234 235 235 236 237 237 238 238 239 240 240 241 241 242 242 243 244 244 245 245 246 246 246 247 248 248 248 249 249 250 250 251 251 251 252 252 253 253 253 254 254 254 255 255 255 255 255 255 255 255 255 255 255 255 255 164 223 254 254 254 254 254 254 254 254 254 254
251 251 251 251 251 251 251 251 228 187 152 199 234 151 187 166 179 202 135 207 158 167 250 249 233 228 130 89 101 101 102 103 104 105 106 107 108 110 111 112 113 114 115 116 117 117 119 120 120 121 122 123 124 125 126 127 128 129 130 131 132 133 134 135 137 137 138 138 141 141 142 143 143 144 145 146 146 147 148 149 150 150 151 152 153 154 155 156 157 158 158 159 160 161 162 162 163 164 165 166 166 167 168 170 171 171 172 173 174 176 175 176 177 178 179 179 179 180 181 182 183 183 184 185 186 187 187 188 188 189 190 191 192 192 193 194 195 195 196 197 198 199 200 200 202 203 204 205 205 206 208 208 208 209 210 211 212 212 213 213 214 215 216 217 217 218 219 219 221 221 222 223 223 224 225 225 226 227 227 228 229 229 230 231 232 232 233 234 235 235 235 236 238 239 238 239 240 240 241 241 241 241 242 243 243 244 244 245 245 246 246 247 247 248 248 249 249 250 250 250 251 252 252 252 253 253 253 254 255 255 255 255 255 255 255 255 255 255 255 255 255 255 255 255 164 220 251 251 251 251 251 251 251 251 251 251
254 254 254 254 254 254 254 254 234 198 167 208 239 166 197 179 191 211 152 216 172 181 253 253 238 234 135 91 102 103 104 105 106 107 108 109 110 112 112 113 114 115 116 117 118 119 120 121 122 123 124 125 126 127 128 129 129 130 131 132 133 134 135 136 138 138 139 139 141 142 143 144 144 145 146 147 147 148 149 150 150 151 152 153 154 155 156 157 157 158 159 160 161 162 162 163 164 165 166 167 167 168 169 170 171 172 172 173 175 176 176 176 177 178 179 180 180 181 182 183 183 184 185 185 186 187 187 188 189 190 190 191 192 193 194 194 195 196 197 198 199 199 200 201 202 203 204 205 205 206 208 208 209 209 211 211 212 212 213 214 214 215 216 217 218 218 219 220 221 222 222 223 223 224 225 225 226 227 228 228 229 230 230 231 232 232 233 234 235 235 236 236 238 239 238 239 240 240 241 241 241 242 242 243 243 244 244 245 245 246 246 247 247 248 249 249 249 250 250 251 251 252 252 252 253 253 254 255 255 255 255 255 255 255 255 255 255 255 255 255 255 255 255 255 167 224 254 254 254 254 254 254 254 254 254 254
248 248 248 248 248 248 248 248 225 183 148 195 230 148 183 163 176 199 134 205 157 165 247 246 229 219 124 86 96 102 104 105 106 107 108 109 110 111 112 113 114 115 116 118 118 119 120 121 122 123 124 125 126 127 128 129 130 131 132 133 134 135 136 136 134 136 136 138 138 139 142 139 144 146 147 148 149 150 150 151 152 153 154 155 156 157 157 158 159 160 161 162 163 163 164 165 166 167 168 169 169 170 171 170 166 172 174 170 173 176 172 176 173 178 177 177 182 183 184 185 185 186 187 187 188 189 190 190 191 192 193 194 194 195 196 196 197 198 199 200 201 202 202 203 204 203 199 205 207 204 207 207 208 209 207 212 210 211 215 216 217 218 219 219 220 221 221 222 223 224 224 225 226 226 227 228 228 229 230 231 231 232 233 233 234 235 235 233 233 233 236 233 237 239 235 238 236 240 239 238 243 244 244 245 245 246 246 247 247 248 248 249 249 250 250 251 251 251 252 252 253 253 254 254 254 255 255 254 253 253 252 255 254 254 255 254 255 253 255 255 255 255 255 255 162 217 248 248 248 248 248 248 248 248 248 248
254 254 254 254 254 254 254 254 234 197 167 208 239 167 197 179 191 211 154 216 173 181 253 252 237 232 134 91 102 105 106 107 108 109 110 111 112 113 114 115 116 117 118 119 120 121 122 123 124 125 126 127 128 129 130 131 131 132 133 134 135 136 137 138 137 139 139 140 141 142 144 143 145 147 148 149 149 150 151 152 152 153 154 155 156 157 158 159 159 160 161 162 163 164 164 165 166 167 168 169 169 170 171 171 170 173 174 173 175 177 175 177 177 179 179 179 182 183 184 184 185 186 186 187 188 189 189 190 191 192 192 193 194 195 195 196 197 198 199 199 200 201 202 203 204 204 203 206 207 206 208 208 209 210 210 212 212 212 215 215 216 217 218 219 219 220 221 221 223 223 224 225 225 226 226 227 228 229 229 230 231 231 232 233 233 234 234 234 235 235 236 236 238 239 237 239 239 241 240 240 243 243 244 244 245 245 246 246 247 247 248 248 249 249 250 250 251 251 252 252 253 253 253 254 254 255 255 255 255 255 255 255 255 255 255 255 255 255 255 255 255 255 255 255 167 223 254 254 254 254 254 254 254 254 254 254
255 255 255 255 255 255 255 255 234 196 164 207 239 163 195 177 189 209 148 214 169 178 254 253 238 234 137 94 106 106 108 109 109 110 111 112 113 115 115 116 117 118 119 120 121 122 123 124 125 126 127 128 129 130 130 131 132 133 134 135 136 137 138 139 140 141 142 142 144 145 145 146 146 147 148 149 150 151 151 152 153 154 155 156 156 157 158 159 160 161 162 162 163 164 165 165 166 167 168 169 169 170 171 173 173 174 175 175 177 178 178 178 179 181 181 182 182 183 184 185 185 186 187 187 188 189 190 190 191 192 192 193 194 195 195 196 197 198 199 199 201 201 202 203 204 205 206 207 207 208 209 210 210 211 212 213 214 214 215 215 216 217 218 219 219 220 220 221 222 223 224 224 225 226 226 227 228 229 229 230 230 231 232 233 233 234 235 236 236 237 237 238 239 240 240 240 241 242 242 242 242 243 243 244 244 245 246 246 247 247 247 248 249 249 250 250 251 251 251 252 252 253 253 253 254 254 255 255 255 255 255 255 255 255 255 255 255 255 255 255 255 255 255 255 169 225 255 255 255 255 255 255 255 255 255 255
248 248 248 248 248 248 248 248 223 179 142 192 229 141 179 157 171 195 125 202 149 159 246 246 228 224 128 93 105 106 107 108 109 110 111 112 113 114 115 116 117 118 119 120 121 122 123 124 125 126 127 128 129 130 131 132 133 133 134 135 136 138 138 140 141 142 143 143 145 146 147 147 147 148 149 150 151 152 152 153 154 155 156 157 158 159 159 160 161 162 163 164 165 165 166 167 168 168 169 170 171 172 173 174 175 176 176 177 179 180 180 180 181 182 183 183 184 185 185 186 187 188 188 189 190 190 191 192 192 193 194 195 196 196 197 198 198 199 200 201 202 203 203 204 205 207 208 208 208 210 211 212 212 213 214 215 215 216 216 217 217 218 219 220 221 221 222 223 224 224 225 226 226 227 227 228 229 230 230 231 232 232 233 234 234 235 236 237 238 238 238 239 240 241 241 241 242 243 243 243 243 244 244 245 245 246 246 247 247 248 248 249 249 250 250 251 251 251 252 252 253 253 253 254 254 255 255 255 255 255 255 255 255 255 255 255 255 255 255 255 255 255 255 255 163 217 248 248 248 248 248 248 248 248 248 248
253 253 253 253 253 253 253 253 250 246 245 245 252 247 248 247 250 253 253 251 252 253 253 254 254 253 143 93 106 108 109 110 111 112 113 114 115 116 117 118 119 120 121 122 123 124 125 126 126 127 128 129 130 131 132 133 134 135 136 137 138 139 140 140 141 142 143 144 144 146 147 147 148 149 150 151 152 153 153 154 155 156 157 158 159 159 160 161 162 163 164 165 165 166 167 168 169 169 170 171 172 173 173 174 174 176 177 177 178 179 179 180 181 182 182 183 184 185 186 187 187 188 189 190 190 191 192 192 193 194 195 195 196 197 198 198 199 200 201 202 203 203 204 205 206 206 207 208 209 209 210 211 212 213 213 214 215 215 217 217 218 219 220 221 221 222 223 223 224 225 226 226 227 228 228 229 230 230 231 232 232 233 234 234 235 236 236 236 237 237 238 238 239 240 240 241 241 242 242 243 244 244 245 245 246 246 247 247 248 248 249 249 250 250 251 251 251 252 252 252 253 253 254 254 254 255 255 255 255 255 255 255 255 255 255 255 255 255 255 255 255 255 255 255 166 223 253 253 253 253 253 253 253 253 253 253
254 254 254 254 254 254 254 254 252 250 252 248 253 254 253 253 255 255 255 254 255 255 254 254 255 255 145 94 107 109 110 111 112 113 114 115 116 117 118 119 120 121 122 123 124 125 126 127 128 129 130 131 132 133 133 134 135 136 137 138 139 140 141 141 142 143 144 145 145 146 148 148 149 150 151 152 153 154 154 155 156 157 158 159 160 160 161 162 163 164 165 166 166 167 168 169 170 170 171 172 173 173 174 175 175 177 178 178 179 180 180 181 181 183 183 184 185 186 187 188 188 189 190 190 191 192 193 193 194 195 195 196 197 198 198 199 200 201 201 202 203 204 205 206 207 207 207 209 210 210 211 211 212 213 214 215 215 216 217 218 219 220 221 221 222 222 223 224 225 226 226 227 228 228 229 229 230 231 232 232 233 233 234 235 235 236 237 237 237 238 239 239 240 241 241 242 241 243 243 243 244 245 245 246 246 247 247 248 248 249 249 250 250 251 251 251 252 252 252 253 253 254 254 254 255 255 255 255 255 255 255 255 255 255 255 255 255 255 255 255 255 255 255 255 167 223 254 254 254 254 254 254 254 254 254 254
254 254 254 254 254 254 254 254 252 250 252 248 253 254 253 253 255 255 255 254 255 255 254 254 255 255 145 95 108 110 111 112 113 114 115 116 117 118 119 120 121 122 123 124 125 126 127 128 129 130 131 132 133 134 135 135 136 137 138 139 140 141 142 143 143 144 145 146 146 148 149 149 150 151 152 153 154 155 155 156 157 158 159 160 160 161 162 163 164 165 166 166 167 168 169 170 170 171 172 173 174 174 175 176 176 177 179 179 180 181 181 182 182 184 184 185 186 187 188 188 189 190 190 191 192 193 193 194 195 195 196 197 198 198 199 200 201 201 202 203 204 205 205 206 207 208 208 210 210 211 211 212 213 214 214 216 216 217 218 219 219 220 221 222 222 223 224 224 226 226 227 228 228 229 229 230 231 232 232 233 233 234 235 235 236 237 237 237 238 238 239 239 240 241 241 242 242 243 243 244 245 245 246 246 247 247 248 248 249 249 249 250 250 251 251 252 252 252 253 253 254 254 254 255 255 255 255 255 255 255 255 255 255 255 255 255 255 255 255 255 255 255 255 255 167 223 254 254 254 254 254 254 254 254 254 254
254 254 254 254 254 254 254 254 252 250 252 248 253 254 253 253 255 255 255 254 255 255 254 254 255 255 146 96 109 111 112 114 114 116 116 117 118 119 120 121 122 123 124 125 126 127 128 129 130 131 132 133 134 135 136 136 137 138 139 140 141 142 143 144 144 145 146 147 147 149 150 150 151 152 153 154 155 156 156 157 158 159 160 161 161 162 163 164 165 166 167 167 168 169 170 171 171 172 173 174 175 175 176 177 177 178 179 179 181 182 181 183 183 184 185 185 187 188 189 189 190 191 191 192 193 194 194 195 195 196 197 198 199 199 200 201 201 202 203 204 205 206 206 207 208 209 209 210 211 211 212 213 214 215 215 216 217 217 219 219 220 221 222 223 223 224 224 225 226 227 227 228 229 229 230 231 231 232 233 233 234 235 235 236 237 237 238 238 238 239 240 240 241 241 241 243 242 244 244 244 245 246 246 247 247 248 248 249 249 250 250 250 251 251 252 252 252 253 253 254 254 255 255 255 255 255 255 255 255 255 255 255 255 255 255 255 255 255 255 255 255 255 255 255 168 223 254 254 254 254 254 254 254 254 254 254
254 254 254 254 254 254 254 254 251 250 252 248 253 254 253 253 255 255 255 254 255 255 254 254 255 255 146 97 110 112 114 115 116 117 117 118 119 120 121 122 123 124 125 126 127 128 129 130 131 132 133 134 135 136 137 137 138 139 140 141 142 143 144 145 145 146 146 148 148 149 151 151 152 153 154 155 156 157 157 158 159 160 161 162 162 163 164 165 166 167 167 168 169 170 171 171 172 173 174 175 175 176 177 178 177 179 180 180 181 182 182 184 184 185 186 186 187 188 189 190 191 191 192 193 193 194 195 196 196 197 198 198 199 200 201 201 202 203 203 204 205 206 207 208 209 209 209 211 212 212 212 213 214 215 215 217 217 218 219 220 220 221 222 223 223 224 225 226 227 227 228 229 229 230 230 231 232 233 233 234 234 235 236 236 237 238 238 238 239 239 240 240 241 242 242 243 243 244 244 244 245 246 247 247 247 248 248 249 249 250 250 251 251 252 252 252 253 253 253 254 254 255 255 255 255 255 255 255 255 255 255 255 255 255 255 255 255 255 255 255 255 255 255 255 168 223 254 254 254 254 254 254 254 254 254 254
254 254 254 254 254 254 254 254 251 250 252 248 253 254 253 253 255 255 255 254 255 255 254 254 255 255 147 98 111 113 115 116 117 118 118 119 120 122 122 123 124 125 126 127 128 129 130 131 132 133 134 135 136 137 138 138 139 140 141 142 143 144 145 145 146 147 147 148 149 150 151 152 153 154 155 156 157 158 158 159 160 161 162 162 163 164 165 166 167 168 168 169 170 171 171 172 173 174 175 175 176 177 178 178 178 180 181 181 182 183 183 184 184 186 186 187 188 189 190 191 191 192 193 194 194 195 196 196 197 198 198 199 200 201 201 202 203 203 204 205 206 207 207 208 209 210 210 211 212 212 213 214 215 216 216 217 218 218 220 220 221 222 223 224 224 225 225 226 227 228 228 229 230 230 231 232 232 233 234 234 235 235 236 237 237 238 238 239 239 239 240 240 241 242 242 243 243 244 244 245 246 246 247 247 248 248 249 249 250 250 250 251 251 252 252 253 253 253 254 254 255 255 255 255 255 255 255 255 255 255 255 255 255 255 255 255 255 255 255 255 255 255 255 255 169 223 254 254 254 254 254 254 254 254 254 254
253 253 253 253 253 253 253 253 251 250 252 248 253 254 253 253 255 255 255 254 255 255 253 254 255 255 147 99 112 114 115 117 117 119 119 120 121 122 123 124 125 126 127 128 129 130 131 132 133 134 135 136 137 138 138 139 140 141 142 143 144 145 146 146 147 148 148 149 150 151 152 152 154 155 156 157 157 158 159 160 161 161 162 163 164 165 166 167 167 168 169 170 171 171 172 173 174 175 175 176 177 178 178 179 179 181 182 182 183 184 184 185 185 187 187 188 189 190 191 191 192 193 193 194 195 196 196 197 197 198 199 200 201 201 202 202 203 204 205 206 207 207 208 209 210 210 210 212 213 213 214 214 215 216 217 218 218 219 220 221 222 222 223 224 225 225 226 227 228 228 229 230 230 231 231 232 233 234 234 235 235 236 237 237 238 238 239 239 240 240 241 241 242 242 243 244 243 245 245 245 246 247 247 248 248 249 249 250 250 251 251 251 252 252 253 253 253 254 254 254 255 255 255 255 255 255 255 255 255 255 255 255 255 255 255 255 255 255 255 255 255 255 255 255 169 223 253 253 253 253 253 253 253 253 253 253
253 253 253 253 253 253 253 253 251 250 252 248 253 254 253 253 255 255 255 254 255 255 253 254 255 255 147 100 113 116 117 118 119 120 121 121 122 124 124 125 126 127 128 129 130 131 132 133 134 135 136 137 138 139 139 140 141 142 143 144 145 146 147 147 148 149 149 150 151 152 153 153 155 156 157 158 158 159 160 161 162 162 163 164 165 166 167 168 168 169 170 171 172 172 173 174 175 176 176 177 178 179 179 180 180 181 183 182 183 184 184 186 186 187 188 188 190 191 191 192 193 194 194 195 196 196 197 198 198 199 200 200 201 202 203 203 204 205 206 206 207 208 209 210 211 211 211 213 213 213 214 215 216 217 217 218 219 219 221 221 222 223 224 225 225 226 226 227 228 229 229 230 231 231 232 233 233 234 235 235 236 236 237 238 238 239 239 239 240 240 241 241 242 243 243 244 244 245 245 245 247 247 248 248 249 249 249 250 250 251 251 252 252 253 253 253 254 254 254 255 255 255 255 255 255 255 255 255 255 255 255 255 255 255 255 255 255 255 255 255 255 255 255 255 169 223 253 253 253 253 253 253 253 253 253 253
253 253 253 253 253 253 253 253 251 250 252 248 253 254 253 253 255 255 255 254 255 255 253 253 255 255 148 101 115 117 118 119 120 121 122 123 124 125 126 127 127 128 129 130 131 132 133 134 135 136 137 138 139 140 141 141 142 143 144 145 146 147 148 148 149 150 150 151 152 153 154 154 156 157 158 159 159 160 161 162 162 163 164 165 166 167 168 169 169 170 171 172 172 173 174 175 176 176 177 178 179 179 180 181 180 182 183 183 184 185 185 187 187 188 189 189 191 191 192 193 194 194 195 196 196 197 198 198 199 200 200 201 202 203 203 204 205 205 206 207 208 209 209 210 211 212 212 213 214 214 215 216 216 217 218 219 219 220 221 222 223 224 224 225 226 226 227 228 229 229 230 231 231 232 232 233 234 234 235 236 236 237 237 238 239 239 240 240 240 241 242 242 243 243 243 244 244 245 245 246 247 247 248 248 249 249 250 250 251 251 251 252 252 253 253 254 254 254 254 255 255 255 255 255 255 255 255 255 255 255 255 255 255 255 255 255 255 255 255 255 255 255 255 255 170 223 253 253 253 253 253 253 253 253 253 253
253 253 253 253 253 253 253 253 251 250 252 247 253 254 253 253 255 255 255 254 255 255 253 253 255 254 148 102 116 118 119 120 121 122 123 124 125 126 127 128 128 129 130 131 132 133 134 135 136 137 138 139 140 141 142 142 143 144 145 146 147 148 149 149 150 150 151 152 153 154 155 155 157 158 159 160 160 161 162 163 163 164 165 166 167 168 169 169 170 171 172 173 173 174 175 176 177 177 178 179 180 180 181 182 181 183 184 184 185 186 186 187 187 189 189 190 191 192 193 194 194 195 196 196 197 198 198 199 200 200 201 202 203 203 204 205 205 206 207 208 209 209 210 211 212 212 212 214 215 215 215 216 217 218 218 220 220 220 222 223 223 224 225 226 226 227 228 228 229 230 230 231 232 232 233 234 234 235 235 236 237 237 238 239 239 240 240 240 241 241 242 242 243 244 244 245 244 246 246 246 247 248 248 249 249 250 250 251 251 252 252 252 253 253 254 254 254 255 255 255 255 255 255 255 255 255 255 255 255 255 255 255 255 255 255 255 255 255 255 255 255 255 255 255 170 224 253 253 253 253 253 253 253 253 253 253
253 253 253 253 253 253 253 253 251 250 252 247 253 254 253 253 255 255 255 254 255 255 253 253 255 254 149 104 117 119 120 122 122 123 124 125 126 127 128 129 130 131 132 133 134 135 136 137 137 138 139 140 141 142 143 144 145 145 146 147 148 149 150 151 151 152 153 154 154 155 157 157 158 159 160 161 162 163 163 164 165 166 167 167 168 169 170 171 172 172 173 174 175 176 176 177 178 179 179 180 181 182 182 183 183 184 185 185 186 187 187 189 189 190 191 191 193 193 194 195 196 196 197 198 198 199 200 200 201 202 202 203 204 204 205 206 207 207 208 209 210 211 211 212 213 213 213 215 216 216 216 217 218 219 219 221 221 221 223 224 224 225 226 227 227 228 228 229 230 231 231 232 233 233 234 234 235 236 236 237 237 238 239 239 240 241 241 241 242 242 243 243 244 244 244 246 245 247 247 247 248 249 249 250 250 250 251 251 252 252 252 253 253 254 254 255 255 255 255 255 255 255 255 255 255 255 255 255 255 255 255 255 255 255 255 255 255 255 255 255 255 255 255 255 171 224 253 253 253 253 253 253 253 253 253 253
253 253 253 253 253 253 253 253 251 250 252 247 252 254 253 253 255 255 255 253 255 255 253 253 255 254 150 106 120 122 123 124 125 126 127 128 129 130 131 132 133 134 135 136 137 138 138 139 140 141 142 143 144 145 146 147 147 148 149 150 151 152 153 153 153 154 155 156 157 158 159 159 161 162 163 164 164 165 166 167 167 168 169 170 171 172 172 173 174 175 176 176 177 178 179 179 180 181 182 183 183 184 185 185 185 187 188 187 189 189 189 191 191 192 193 193 195 196 196 197 198 199 199 200 200 201 202 202 203 204 204 205 206 207 207 208 209 209 210 211 212 213 213 214 215 215 215 217 218 217 218 219 220 221 221 222 222 223 225 225 226 227 228 229 229 230 230 231 232 233 233 234 234 235 235 236 237 237 238 239 239 240 240 241 242 242 242 242 243 243 244 244 245 246 245 247 246 248 248 248 249 250 250 251 251 252 252 253 253 253 254 254 255 255 255 255 255 255 255 255 255 255 255 255 255 255 255 255 255 255 255 255 255 255 255 255 255 255 255 255 255 255 255 255 172 224 253 253 253 253 253 253 253 253 253 253
253 253 253 253 253 253 253 253 251 250 252 247 252 254 253 253 255 255 255 253 255 255 253 253 255 254 150 108 121 123 124 125 126 127 128 129 130 131 132 133 134 135 136 137 138 139 139 140 141 142 143 144 145 146 147 148 148 149 150 151 152 153 154 154 154 155 156 157 157 159 160 160 162 163 164 165 165 166 167 168 168 169 170 171 172 172 173 174 175 176 176 177 178 179 179 180 181 182 183 183 184 185 185 186 185 187 189 188 189 190 190 192 191 193 193 194 195 196 197 198 198 199 200 200 201 202 202 203 204 204 205 206 206 207 208 208 209 210 211 211 212 213 214 214 215 216 215 217 218 218 219 219 220 221 221 223 223 224 225 226 227 227 228 229 229 230 231 231 232 233 233 234 235 235 236 236 237 238 238 239 239 240 241 241 242 242 243 243 243 243 245 244 245 246 246 247 246 248 248 248 250 250 251 251 251 252 252 253 253 254 254 254 255 255 255 255 255 255 255 255 255 255 255 255 255 255 255 255 255 255 255 255 255 255 255 255 255 255 255 255 255 255 255 255 172 224 253 253 253 253 253 253 253 253 253 253
253 253 253 253 253 253 253 253 251 250 252 247 252 254 253 253 255 255 255 253 255 255 253 253 254 254 151 109 122 124 125 127 127 128 129 130 131 132 133 134 135 136 137 138 139 140 141 141 142 143 144 145 146 147 148 149 149 150 151 152 153 154 155 155 155 156 157 158 158 160 161 161 163 164 165 165 166 167 168 168 169 170 171 172 172 173 174 175 176 177 177 178 179 180 180 181 182 183 183 184 185 185 186 187 186 188 189 189 190 191 191 192 192 194 194 194 196 197 198 199 199 200 200 201 202 203 203 204 204 205 206 206 207 208 208 209 210 210 211 212 213 214 214 215 216 216 216 218 219 218 219 220 221 222 222 223 223 224 226 226 227 228 229 229 230 230 231 232 233 233 234 234 235 236 236 237 237 238 239 239 240 240 241 242 242 243 243 243 243 244 245 244 245 246 246 247 247 248 248 248 250 250 251 251 252 252 253 253 253 254 254 255 255 255 255 255 255 255 255 255 255 255 255 255 255 255 255 255 255 255 255 255 255 255 255 255 255 255 255 255 255 255 255 255 173 224 253 253 253 253 253 253 253 253 253 253
253 253 253 253 253 253 253 252 250 250 252 247 252 254 253 253 255 255 255 253 255 255 253 253 254 254 152 110 123 126 127 128 129 130 130 131 132 133 134 135 136 137 138 139 140 141 142 142 143 144 145 146 147 148 149 150 150 151 152 153 154 155 156 156 156 157 158 159 159 161 162 162 164 165 166 166 167 168 169 169 170 171 172 173 173 174 175 176 177 178 178 179 180 180 181 182 183 184 184 185 186 186 187 188 187 189 190 190 191 192 192 193 193 195 195 195 197 198 199 199 200 201 201 202 202 203 204 204 205 206 206 207 208 208 209 210 210 211 212 213 214 214 215 216 217 217 216 218 219 219 220 220 221 222 222 224 224 225 226 227 228 228 229 230 230 231 232 232 233 234 234 235 235 236 237 237 238 239 239 240 240 241 241 242 243 243 244 243 244 244 245 245 246 246 247 248 247 249 249 249 250 251 251 252 252 253 253 253 254 254 254 255 255 255 255 255 255 255 255 255 255 255 255 255 255 255 255 255 255 255 255 255 255 255 255 255 255 255 255 255 255 255 255 255 173 224 253 253 253 253 253 253 253 253 253 253
252 252 252 252 252 252 252 252 250 250 252 247 252 254 253 253 255 255 255 253 255 255 252 253 254 254 152 111 125 127 128 129 130 131 132 133 133 135 136 136 137 138 139 140 141 142 143 144 144 145 146 147 148 149 150 151 152 152 153 154 155 156 157 158 158 159 159 160 160 162 163 163 165 166 167 168 168 169 170 170 171 172 173 174 174 175 176 177 178 179 179 180 181 181 182 183 184 184 185 186 187 187 188 189 188 190 191 191 192 192 192 194 194 195 196 196 198 199 199 200 201 201 202 203 203 204 204 205 206 206 207 208 209 209 210 210 211 212 213 213 214 215 216 216 217 217 217 219 220 220 220 221 222 223 223 225 225 225 227 228 228 229 230 230 231 231 232 233 234 234 235 235 236 237 237 238 238 239 240 240 241 241 242 243 243 244 244 244 244 245 246 245 246 247 247 248 248 249 249 249 251 251 252 252 252 253 253 254 254 254 255 255 255 255 255 255 255 255 255 255 255 255 255 255 255 255 255 255 255 255 255 255 255 255 255 255 255 255 255 255 255 255 255 255 173 224 252 252 252 252 252 252 252 252 252 252
252 252 252 252 252 252 252 252 250 250 252 247 252 255 253 253 255 255 255 253 255 255 252 253 254 254 153 112 126 128 129 130 131 132 133 134 135 136 137 138 138 139 140 141 142 143 144 145 146 146 147 148 149 150 151 152 153 153 154 155 156 157 158 159 159 160 160 161 161 163 164 164 166 167 168 169 169 170 171 171 172 173 174 175 175 176 177 178 179 179 180 181 182 182 183 184 185 185 186 187 188 188 189 189 189 191 192 192 193 193 193 195 195 196 197 197 199 199 200 201 201 202 203 203 204 205 205 206 206 207 208 209 209 210 211 211 212 213 213 214 215 216 216 217 218 218 218 220 221 221 221 222 223 224 224 225 225 226 227 228 229 230 230 231 231 232 233 233 234 235 235 236 237 237 238 238 239 240 240 241 241 242 242 243 244 244 244 244 245 245 246 246 247 247 247 249 248 250 249 250 251 252 252 252 253 253 254 254 254 255 255 255 255 255 255 255 255 255 255 255 255 255 255 255 255 255 255 255 255 255 255 255 255 255 255 255 255 255 255 255 255 255 255 255 174 224 252 252 252 252 252 252 252 252 252 252
252 252 252 252 252 252 252 252 250 250 252 247 252 255 253 253 255 255 255 253 255 255 252 252 254 254 153 114 127 129 130 132 132 133 134 135 136 137 138 139 140 141 142 143 143 144 145 146 147 148 149 150 151 152 152 153 154 155 155 156 157 158 159 160 160 161 161 163 163 164 165 165 167 168 169 170 170 171 172 173 173 174 175 176 177 177 178 179 180 181 181 182 183 184 184 185 186 186 187 188 189 189 190 190 190 192 193 193 194 194 194 196 196 197 198 198 200 200 201 202 202 203 204 204 205 206 206 207 207 208 209 210 210 211 211 212 213 213 214 215 216 217 217 218 219 219 219 221 221 221 222 222 224 225 225 226 226 227 228 229 230 230 231 232 232 233 233 234 235 236 236 237 237 238 238 239 239 240 241 241 242 242 243 244 244 245 245 245 245 246 247 246 247 248 248 249 249 250 250 250 252 252 253 253 253 254 254 254 255 255 255 255 255 255 255 255 255 255 255 255 255 255 255 255 255 255 255 255 255 255 255 255 255 255 255 255 255 255 255 255 255 255 255 255 174 224 252 252 252 252 252 252 252 252 252 252
252 252 252 252 252 252 252 252 250 249 252 247 252 255 253 253 255 255 255 253 255 255 252 252 254 254 154 115 128 131 132 133 134 135 135 136 137 138 139 140 141 142 143 144 145 145 146 147 148 149 150 151 152 153 153 154 155 156 156 157 158 159 160 161 161 162 162 164 164 165 166 166 168 169 170 171 171 172 173 174 174 175 176 177 178 178 179 180 181 182 182 183 184 184 185 186 187 187 188 189 190 190 191 191 191 193 194 194 194 195 195 197 197 198 198 199 200 201 202 203 203 204 205 205 206 207 207 208 208 209 210 210 211 212 212 213 214 214 215 216 217 217 218 219 219 220 219 221 222 222 222 223 224 225 225 227 227 227 229 230 230 231 232 232 233 233 234 235 236 236 237 237 238 238 239 239 240 241 241 242 242 243 244 244 245 245 245 245 246 246 247 247 248 248 248 250 249 250 250 250 252 252 253 253 254 254 254 255 255 255 255 255 255 255 255 255 255 255 255 255 255 255 255 255 255 255 255 255 255 255 255 255 255 255 255 255 255 255 255 255 255 255 255 255 175 224 252 252 252 252 252 252 252 252 252 252
252 252 252 252 252 252 252 252 250 249 252 247 252 255 253 253 255 255 255 253 255 255 252 252 254 254 154 116 130 132 133 134 135 136 137 137 138 139 140 141 142 143 144 145 146 147 148 148 149 150 151 152 153 154 155 155 156 157 158 159 160 160 161 162 162 163 164 165 165 166 168 168 169 170 171 172 173 173 174 175 175 176 177 178 179 179 180 181 182 183 183 184 185 186 186 187 188 188 189 190 191 191 192 192 192 194 195 195 195 196 196 198 198 199 199 200 201 202 203 204 204 205 205 206 207 207 208 209 209 210 210 211 212 212 213 214 214 215 216 216 217 218 219 219 220 220 220 222 223 223 223 224 225 226 226 227 227 228 230 230 231 232 232 233 233 234 235 235 236 237 237 238 238 239 239 240 241 241 242 242 243 243 244 245 245 246 246 246 246 247 248 247 248 249 249 250 250 251 251 251 252 253 253 254 254 255 255 255 255 255 255 255 255 255 255 255 255 255 255 255 255 255 255 255 255 255 255 255 255 255 255 255 255 255 255 255 255 255 255 255 255 255 255 255 175 224 252 252 252 252 252 252 252 252 252 252
252 252 252 252 252 252 252 252 250 249 252 246 252 255 253 253 255 255 255 253 255 255 252 252 254 253 155 117 131 133 134 135 136 137 138 139 140 141 142 142 143 144 145 146 147 148 149 150 150 151 152 153 154 155 156 157 157 158 159 160 161 162 162 163 163 164 165 166 166 167 169 169 170 171 172 173 174 174 175 176 176 177 178 179 180 180 181 182 183 184 184 185 186 187 187 188 189 189 190 191 191 192 193 193 193 195 196 196 196 197 197 199 199 200 200 201 202 203 204 205 205 206 206 207 208 208 209 209 210 211 211 212 213 213 214 214 215 216 217 217 218 219 219 220 221 221 221 223 224 224 224 225 226 227 227 228 228 229 230 231 232 232 233 234 234 235 235 236 237 237 238 239 239 240 240 241 241 242 242 243 244 244 245 245 246 246 247 247 247 247 248 248 249 249 249 251 250 251 251 252 253 253 254 254 255 255 255 255 255 255 255 255 255 255 255 255 255 255 255 255 255 255 255 255 255 255 255 255 255 255 255 255 255 255 255 255 255 255 255 255 255 255 255 255 176 224 252 252 252 252 252 252 252 252 252 252
252 252 252 252 252 252 252 252 250 249 252 246 251 255 253 253 255 255 255 253 255 255 252 252 254 253 155 119 132 134 135 136 137 138 139 140 141 142 143 144 144 145 146 147 148 149 150 151 152 152 153 154 155 156 157 158 159 159 160 161 162 163 164 164 164 165 166 167 167 169 170 170 171 172 173 174 175 175 176 177 178 178 179 180 181 182 182 183 184 185 185 186 187 188 188 189 190 190 191 192 193 193 194 194 194 196 197 197 197 198 198 200 200 201 201 202 203 204 205 205 206 207 207 208 208 209 210 210 211 212 212 213 214 214 215 215 216 217 217 218 219 220 220 221 222 222 222 224 224 224 225 225 227 227 228 229 229 230 231 232 232 233 234 234 235 235 236 237 238 238 239 239 240 240 241 241 242 243 243 244 244 245 245 246 246 247 247 247 248 248 249 249 249 250 250 251 251 252 252 252 253 254 254 255 255 255 255 255 255 255 255 255 255 255 255 255 255 255 255 255 255 255 255 255 255 255 255 255 255 255 255 255 255 255 255 255 255 255 255 255 255 255 255 255 176 224 252 252 252 252 252 252 252 252 252 252
251 251 251 251 251 251 251 251 250 249 253 246 251 255 253 253 255 255 255 253 255 255 251 252 254 253 156 120 133 135 137 138 138 139 140 141 142 143 144 145 146 147 147 148 149 150 151 152 153 154 155 155 156 157 158 159 160 160 161 162 163 164 165 165 166 166 167 168 168 170 171 171 172 174 174 175 176 177 177 178 179 179 180 181 182 183 183 184 185 186 186 187 188 189 189 190 191 192 192 193 194 194 195 195 195 197 198 198 198 199 199 201 201 202 202 203 204 205 206 206 207 208 208 209 209 210 211 211 212 212 213 214 214 215 216 216 217 218 218 219 220 221 221 222 223 223 223 224 225 225 226 226 227 228 228 230 230 230 232 232 233 234 235 235 236 236 237 237 238 239 239 240 240 241 241 242 243 243 244 244 245 245 246 247 247 248 248 248 248 248 250 249 250 250 251 252 251 253 253 253 254 254 255 255 255 255 255 255 255 255 255 255 255 255 255 255 255 255 255 255 255 255 255 255 255 255 255 255 255 255 255 255 255 255 255 255 255 255 255 255 255 255 255 255 176 224 251 251 251 251 251 251 251 251 251 251
251 251 251 251 251 251 251 251 249 249 253 246 251 255 252 253 255 255 255 253 255 255 251 251 254 253 156 121 135 137 138 139 140 141 142 142 143 144 145 146 147 148 149 150 151 152 152 153 154 155 156 157 158 159 159 160 161 162 162 163 164 165 166 167 167 168 168 169 169 171 172 172 174 175 176 176 177 178 179 179 180 181 182 182 183 184 185 186 186 187 188 188 189 190 191 191 192 193 193 194 195 195 196 197 196 198 199 199 200 200 200 202 202 203 203 204 205 206 207 208 208 209 209 210 211 211 212 212 213 213 214 215 215 216 217 217 218 219 219 220 221 222 222 223 224 224 224 225 226 226 226 227 228 229 229 231 231 231 233 233 234 235 235 236 236 237 238 238 239 240 240 241 241 242 242 243 243 244 245 245 246 246 247 247 248 248 249 249 249 249 250 250 251 251 251 253 252 253 253 253 255 255 255 255 255 255 255 255 255 255 255 255 255 255 255 255 255 255 255 255 255 255 255 255 255 255 255 255 255 255 255 255 255 255 255 255 255 255 255 255 255 255 255 255 176 224 251 251 251 251 251 251 251 251 251 251
251 251 251 251 251 251 251 251 249 249 253 246 251 255 252 253 255 255 255 253 255 255 251 251 253 253 157 123 136 139 140 141 141 142 143 144 145 146 147 148 149 150 150 151 152 153 154 155 156 156 157 158 159 160 161 162 163 163 164 165 166 167 168 168 168 169 170 171 171 173 174 174 175 176 177 178 179 179 180 181 181 182 183 184 185 185 186 187 188 188 189 190 191 191 192 193 193 194 195 195 196 197 197 198 197 199 200 200 201 201 202 203 203 204 205 205 207 207 208 209 209 210 210 211 212 212 213 213 214 215 215 216 217 217 218 218 219 220 220 221 222 223 223 224 225 225 225 226 227 227 228 228 229 230 230 232 232 232 234 234 235 236 236 237 237 238 238 239 240 241 241 242 242 243 243 244 244 245 245 246 246 247 247 248 248 249 249 249 250 250 251 251 251 252 252 253 253 254 254 254 255 255 255 255 255 255 255 255 255 255 255 255 255 255 255 255 255 255 255 255 255 255 255 255 255 255 255 255 255 255 255 255 255 255 255 255 255 255 255 255 255 255 255 255 177 224 251 251 251 251 251 251 251 251 251 251
246 246 246 246 246 246 246 246 248 252 255 250 248 255 253 255 255 252 255 249 255 255 246 246 248 248 168 122 131 133 134 134 135 136 136 137 138 138 139 140 140 141 141 142 143 143 144 144 145 145 146 147 147 148 149 149 150 150 151 151 152 153 153 153 153 153 154 155 153 156 157 157 158 159 160 161 161 162 162 163 163 164 164 165 165 166 167 167 168 168 169 169 170 171 171 172 172 173 173 174 174 175 175 175 174 176 177 177 177 176 178 180 179 180 180 181 183 183 184 185 185 186 186 187 187 188 188 189 189 190 190 191 191 192 192 193 193 194 194 195 196 196 197 197 198 197 197 199 200 199 198 199 201 202 202 203 203 204 205 206 206 207 208 208 209 209 210 210 211 212 212 212 213 213 214 214 215 215 216 216 217 217 218 218 219 219 219 219 219 219 221 220 220 220 221 223 222 223 223 224 225 226 226 227 227 227 228 228 228 229 229 229 230 230 230 231 231 231 232 232 233 233 233 233 234 234 234 234 234 234 234 236 235 235 233 236 237 236 237 237 237 239 239 239 182 225 246 246 246 246 246 246 246 246 246 246
241 241 241 241 241 241 241 241 250 255 255 255 247 255 255 255 255 247 248 245 247 249 242 241 241 234 219 156 150 157 157 156 156 156 156 156 156 155 155 155 155 154 154 154 154 153 153 153 153 152 152 152 152 152 151 151 151 151 150 150 150 150 149 148 140 142 141 144 135 140 143 139 146 148 148 147 148 147 147 147 147 147 147 147 147 147 147 146 146 146 146 146 146 146 146 146 146 146 146 146 147 147 146 141 134 142 146 140 138 135 139 145 138 142 141 141 148 148 148 148 148 148 149 149 149 149 149 150 150 150 150 150 150 150 150 151 151 151 151 151 151 151 151 151 151 147 139 147 150 144 140 141 147 149 144 147 145 147 153 153 153 154 154 154 155 155 155 155 156 156 156 156 156 156 157 157 157 157 158 158 158 158 158 159 159 159 158 153 152 152 158 153 152 150 153 159 153 157 156 157 163 163 164 164 164 165 165 165 165 166 166 166 167 167 168 168 168 169 169 170 170 171 172 172 173 173 174 171 167 167 168 175 171 169 164 171 177 171 175 174 176 183 184 187 220 240 241 241 241 241 241 241 241 241 241 241
254 254 254 254 254 254 254 254 255 255 255 255 255 255 255 255 255 254 251 252 251 253 254 254 253 241 235 237 239 251 252 252 252 252 252 252 252 252 252 252 252 252 252 252 252 252 252 253 253 253 253 253 253 253 253 253 253 253 253 253 253 253 253 251 241 244 242 247 238 243 247 240 251 254 254 254 254 254 254 254 254 254 254 254 254 254 254 254 254 254 254 254 254 255 255 255 255 255 255 255 255 255 254 248 237 249 253 244 244 243 241 251 241 248 245 244 255 255 255 255 255 255 255 255 255 255 255 255 255 255 255 255 255 255 255 255 255 255 255 255 255 255 255 255 254 249 237 249 254 245 242 241 248 250 242 249 245 246 255 255 255 255 255 255 255 255 255 255 255 255 255 255 255 255 255 255 255 255 255 255 255 255 255 255 255 255 253 246 245 244 252 244 244 243 242 250 242 249 245 245 255 255 255 255 255 255 255 255 255 255 255 255 255 255 255 255 255 255 255 255 254 254 254 254 254 254 254 250 244 243 243 252 245 242 238 243 250 239 246 242 243 253 253 252 247 252 254 254 254 254 254 254 254 254 254 254
255 255 255 255 255 255 255 255 255 255 255 255 255 255 255 255 255 254 250 252 250 253 255 255 253 245 238 240 243 252 252 252 252 252 252 252 253 253 253 253 253 253 253 253 253 253 253 253 253 253 253 253 253 253 253 253 253 254 254 254 254 254 254 252 245 247 245 249 241 246 249 244 252 254 254 254 254 254 254 254 254 254 254 254 255 255 255 255 255 255 255 255 255 255 255 255 255 255 255 255 255 255 254 250 241 250 254 247 246 244 245 252 245 249 248 247 255 255 255 255 255 255 255 255 255 255 255 255 255 255 255 255 255 255 255 255 255 255 255 255 255 255 255 255 255 250 242 251 254 247 244 244 250 252 246 251 247 249 255 255 255 255 255 255 255 255 255 255 255 255 255 255 255 255 255 255 255 255 255 255 255 255 255 255 255 255 254 249 248 247 253 247 246 245 246 252 245 250 248 248 255 255 255 255 255 255 255 255 255 255 255 255 255 255 255 255 255 255 254 254 254 254 254 254 254 254 254 251 246 245 245 253 247 245 240 245 251 243 248 245 246 253 253 252 247 253 255 255 255 255 255 255 255 255 255 255
255 255 255 255 255 255 255 255 255 255 255 255 255 255 255 255 255 254 248 252 249 253 255 255 255 255 246 249 255 254 254 254 254 254 254 254 254 254 254 254 254 254 254 254 254 254 254 254 255 255 255 255 255 255 255 255 255 255 255 255 255 255 255 255 255 254 255 255 250 254 254 255 255 255 255 255 255 255 255 255 255 255 255 255 255 255 255 255 255 255 255 255 255 255 255 255 255 255 255 255 255 255 255 255 255 255 255 255 253 250 255 255 255 255 255 255 255 255 255 255 255 255 255 255 255 255 255 255 255 255 255 255 255 255 255 255 255 255 255 255 255 255 255 255 255 255 255 255 255 255 251 252 255 255 255 255 255 255 255 255 255 255 255 255 255 255 255 255 255 255 255 255 255 255 255 255 255 255 255 255 255 255 255 255 255 255 255 255 255 255 255 255 252 249 255 255 255 254 255 255 255 255 255 255 255 255 255 255 255 255 255 255 254 254 254 254 254 254 254 254 254 254 254 254 254 254 254 253 253 253 254 253 253 252 247 253 253 254 252 252 254 253 253 252 249 254 255 255 255 255 255 255 255 255 255 255
255 255 255 255 255 255 255 255 255 255 255 255 255 255 255 255 255 254 249 252 249 253 255 255 255 252 244 246 252 254 254 254 254 254 254 254 254 254 254 254 254 254 254 254 254 254 255 255 255 255 255 255 255 255 255 255 255 255 255 255 255 255 255 254 252 252 252 253 247 252 253 252 255 255 255 255 255 255 255 255 255 255 255 255 255 255 255 255 255 255 255 255 255 255 255 255 255 255 255 255 255 255 255 253 251 253 255 253 251 248 252 255 252 253 252 253 255 255 255 255 255 255 255 255 255 255 255 255 255 255 255 255 255 255 255 255 255 255 255 255 255 255 255 255 255 253 251 253 255 252 248 249 253 254 252 253 252 253 255 255 255 255 255 255 255 255 255 255 255 255 255 255 255 255 255 255 255 255 255 255 255 255 255 255 255 255 254 252 252 252 254 252 250 247 252 254 252 252 252 253 255 255 255 255 255 255 254 254 254 254 254 254 254 254 254 254 254 254 254 254 254 254 254 254 254 254 253 252 250 250 250 253 251 249 244 250 252 249 250 249 250 252 252 252 249 254 255 255 255 255 255 255 255 255 255 255
255 255 255 255 255 255 255 255 255 255 255 255 255 255 255 255 255 253 255 255 255 253 255 254 240 145 192 185 157 249 254 254 254 254 254 254 254 254 254 254 254 254 254 254 254 254 254 254 254 254 254 254 254 254 254 254 254 254 254 254 254 254 254 236 164 188 168 211 165 177 207 147 227 253 253 253 253 253 253 253 253 253 253 253 253 253 253 253 253 253 253 253 253 253 253 253 253 253 253 253 253 253 247 208 114 207 243 163 182 198 144 219 142 203 180 165 250 253 253 253 253 253 253 253 253 253 253 253 253 253 253 253 253 253 253 252 252 252 252 252 252 252 252 252 246 206 114 207 241 170 180 168 193 210 148 211 171 178 251 252 252 252 252 252 252 252 252 252 252 252 252 252 252 252 252 252 252 252 252 252 252 252 252 252 252 252 236 187 177 161 226 155 185 197 145 209 145 205 176 168 249 252 252 252 252 252 251 251 251 251 251 251 251 251 251 251 251 251 251 251 251 251 251 251 251 251 251 226 181 171 164 239 188 172 173 172 220 139 205 171 171 249 251 251 253 255 255 255 255 255 255 255 255 255 255 255
255 255 255 255 255 255 255 255 255 255 254 255 255 253 255 254 252 252 254 255 255 251 255 255 238 130 182 176 144 249 255 255 255 255 255 255 255 255 255 255 255 255 255 255 255 255 255 255 255 255 255 255 255 255 255 255 255 255 255 255 255 255 255 236 154 182 159 207 157 169 203 135 226 255 255 255 255 255 255 255 255 255 255 255 255 255 255 255 255 255 255 255 255 255 255 255 255 255 255 255 255 255 250 205 99 205 246 155 176 195 133 218 130 200 174 157 254 255 255 255 255 255 255 255 255 255 255 255 255 255 255 255 255 255 255 255 255 255 255 255 255 255 255 255 249 204 99 206 244 164 175 162 190 209 139 210 164 173 255 255 255 255 255 255 255 255 255 255 255 255 255 255 255 255 255 255 255 255 255 255 255 255 255 255 255 255 239 184 173 154 228 147 181 196 135 209 135 205 171 162 254 255 255 255 255 255 255 255 255 255 255 255 255 255 255 255 255 255 255 255 255 255 255 255 255 255 255 228 177 166 158 243 184 167 169 166 222 129 204 166 165 254 255 255 252 255 255 255 255 255 255 255 255 255 255 255
255 255 255 255 255 255 255 255 255 255 254 255 255 253 255 254 252 252 255 255 255 251 255 255 237 121 178 171 135 249 255 255 255 255 255 255 255 255 255 255 255 255 255 255 255 255 255 255 255 255 255 255 255 255 255 255 255 255 255 255 255 255 255 235 147 176 151 204 150 162 200 126 224 255 255 255 255 255 255 255 255 255 255 255 255 255 255 255 255 255 255 255 255 255 255 255 255 255 255 255 255 255 249 202 87 201 245 147 170 191 124 215 121 196 168 149 253 255 255 255 255 255 255 255 255 255 255 255 255 255 255 255 255 255 255 255 255 255 255 255 255 255 255 255 249 200 88 202 243 157 170 156 185 205 130 207 158 166 255 255 255 255 255 255 255 255 255 255 255 255 255 255 255 255 255 255 255 255 255 255 255 255 255 255 255 255 238 179 167 147 226 139 176 192 126 205 126 201 165 155 254 255 255 255 255 255 255 255 255 255 255 255 255 255 255 255 255 255 255 255 255 255 255 255 255 255 255 226 172 160 151 242 179 160 163 160 219 120 200 159 158 254 255 255 253 255 255 255 255 255 255 255 255 255 255 255
255 255 255 255 255 255 255 255 255 255 253 254 255 253 255 254 252 252 253 255 255 250 255 255 239 137 186 181 151 250 255 255 255 255 255 255 255 255 255 255 255 255 255 255 255 255 255 255 255 255 255 255 255 255 255 255 255 255 255 255 255 255 255 238 161 187 165 211 163 174 207 143 228 255 255 255 255 255 255 255 255 255 255 255 255 255 255 255 255 255 255 255 255 255 255 255 255 255 255 255 255 255 250 209 108 208 247 161 181 199 141 220 138 204 179 163 254 255 255 255 255 255 255 255 255 255 255 255 255 255 255 255 255 255 255 255 255 255 255 255 255 255 255 255 250 208 109 209 245 170 180 168 194 212 146 213 170 178 255 255 255 255 255 255 255 255 255 255 255 255 255 255 255 255 255 255 255 255 255 255 255 255 255 255 255 255 240 189 178 160 230 154 186 199 142 212 143 208 177 168 254 255 255 255 255 255 255 255 255 255 255 255 255 255 255 255 255 255 255 255 255 255 255 255 255 255 255 230 182 171 164 244 188 172 173 171 224 136 207 171 170 254 255 255 252 255 255 255 255 255 255 255 255 255 255 255
255 255 255 255 255 255 255 255 255 255 254 255 255 254 255 254 253 252 255 255 255 251 255 255 238 130 183 177 144 249 255 255 255 255 255 255 255 255 255 255 255 255 255 255 255 255 255 255 255 255 255 255 255 255 255 255 255 255 255 255 255 255 255 236 154 182 158 207 157 168 203 135 226 255 255 255 255 255 255 255 255 255 255 255 255 255 255 255 255 255 255 255 255 255 255 255 255 255 255 255 255 255 249 205 98 204 245 154 176 195 133 217 130 200 173 156 253 255 255 255 255 255 255 255 255 255 255 255 255 255 255 255 255 255 255 255 255 255 255 255 255 255 255 255 248 203 99 205 243 163 175 162 189 208 138 209 164 172 255 255 255 255 255 255 255 255 255 255 255 255 255 255 255 255 255 255 255 255 255 255 255 255 255 255 255 255 238 183 172 153 227 146 181 195 134 208 135 204 171 161 253 255 255 255 255 255 255 255 255 255 255 255 255 255 255 255 255 255 255 255 255 255 255 255 255 255 255 227 176 165 157 242 183 166 168 165 221 128 203 165 164 253 255 255 252 255 255 255 255 255 255 255 255 255 255 255
255 255 255 255 255 255 255 255 255 255 255 255 255 255 255 255 255 253 255 255 255 253 255 255 240 145 195 187 158 250 255 255 255 255 255 255 255 254 254 254 254 254 254 254 254 254 254 254 254 254 254 254 254 254 254 253 253 253 253 253 253 253 253 236 163 188 167 210 164 176 206 146 226 253 252 252 252 252 252 252 252 252 252 252 252 252 252 252 252 252 252 252 252 252 252 252 252 251 251 251 251 251 245 206 112 206 242 162 180 196 143 217 140 201 178 163 248 251 251 251 251 251 251 251 251 251 251 250 250 250 250 250 250 250 250 250 250 250 250 250 250 250 250 250 243 203 111 205 238 168 177 165 191 207 145 208 168 175 249 249 249 249 249 249 249 249 249 249 249 249 249 249 249 249 249 249 249 249 249 249 249 249 249 249 249 249 233 184 174 158 223 152 181 193 141 206 141 202 173 165 246 249 249 249 248 248 248 248 248 248 248 248 248 248 248 248 248 248 248 248 248 248 248 248 248 248 248 223 178 169 162 237 185 169 170 169 218 136 202 168 168 247 248 249 255 255 255 255 255 255 255 255 255 255 255 255
255 255 255 255 255 255 255 255 255 255 255 255 255 255 255 255 255 254 249 252 249 253 255 255 255 252 244 246 251 254 254 254 254 254 254 254 254 254 254 254 254 254 254 254 254 254 254 255 255 255 255 255 255 255 255 255 255 255 255 255 255 255 255 254 251 252 252 253 247 252 253 252 254 255 255 255 255 255 255 255 255 255 255 255 255 255 255 255 255 255 255 255 255 255 255 255 255 255 255 255 255 255 255 253 250 253 255 253 251 248 252 254 252 253 252 253 255 255 255 255 255 255 255 255 255 255 255 255 255 255 255 255 255 255 255 255 255 255 255 255 255 255 255 255 255 253 250 253 255 252 248 248 253 254 252 253 252 253 255 255 255 255 255 255 255 255 255 255 255 255 255 255 255 255 255 255 255 255 255 255 255 255 255 255 255 255 254 252 251 252 254 252 250 247 252 254 251 252 252 252 255 255 254 254 254 254 254 254 254 254 254 254 254 254 254 254 254 254 254 254 254 254 254 253 253 253 253 252 250 249 250 253 251 249 244 249 252 249 250 249 250 252 252 252 249 254 255 255 255 255 255 255 255 255 255 255
255 255 255 255 255 255 255 255 255 255 255 255 255 255 255 255 255 254 248 252 249 253 255 255 255 255 246 249 255 254 254 254 254 254 254 254 254 254 254 254 254 254 254 254 254 255 255 255 255 255 255 255 255 255 255 255 255 255 255 255 255 255 255 255 255 255 255 255 250 255 255 255 255 255 255 255 255 255 255 255 255 255 255 255 255 255 255 255 255 255 255 255 255 255 255 255 255 255 255 255 255 255 255 255 255 255 255 255 254 250 255 255 255 255 255 255 255 255 255 255 255 255 255 255 255 255 255 255 255 255 255 255 255 255 255 255 255 255 255 255 255 255 255 255 255 255 255 255 255 255 252 252 255 255 255 255 255 255 255 255 255 255 255 255 255 255 255 255 255 255 255 255 255 255 255 255 255 255 255 255 255 255 255 255 255 255 255 255 255 255 255 255 253 250 255 255 255 255 255 255 255 255 255 255 255 255 255 255 255 255 255 254 254 254 254 254 254 254 254 254 254 254 254 254 254 254 254 253 253 253 254 253 254 253 247 253 254 255 252 253 254 253 252 252 249 254 255 255 255 255 255 255 255 255 255 255
255 255 255 255 255 255 255 255 255 255 255 255 255 255 255 255 255 254 248 252 249 253 255 255 255 255 246 249 255 254 254 254 254 254 254 254 254 254 254 254 254 254 254 254 254 255 255 255 255 255 255 255 255 255 255 255 255 255 255 255 255 255 255 255 255 255 255 255 250 255 255 255 255 255 255 255 255 255 255 255 255 255 255 255 255 255 255 255 255 255 255 255 255 255 255 255 255 255 255 255 255 255 255 255 255 255 255 255 254 250 255 255 255 255 255 255 255 255 255 255 255 255 255 255 255 255 255 255 255 255 255 255 255 255 255 255 255 255 255 255 255 255 255 255 255 255 255 255 255 255 252 252 255 255 255 255 255 255 255 255 255 255 255 255 255 255 255 255 255 255 255 255 255 255 255 255 255 255 255 255 255 255 255 255 255 255 255 255 255 255 255 255 253 250 255 255 255 255 255 255 255 255 255 255 255 255 255 255 255 255 255 254 254 254 254 254 254 254 254 254 254 254 254 254 254 254 254 253 253 253 254 253 254 253 247 253 254 255 252 253 254 253 252 252 249 254 255 255 255 255 255 255 255 255 255 255
255 255 255 255 255 255 255 255 255 255 255 255 255 255 255 255 255 254 248 252 249 253 255 255 255 255 246 249 255 254 254 254 254 254 254 254 254 254 254 254 254 254 254 254 254 255 255 255 255 255 255 255 255 255 255 255 255 255 255 255 255 255 255 255 255 255 255 255 250 255 255 255 255 255 255 255 255 255 255 255 255 255 255 255 255 255 255 255 255 255 255 255 255 255 255 255 255 255 255 255 255 255 255 255 255 255 255 255 254 250 255 255 255 255 255 255 255 255 255 255 255 255 255 255 255 255 255 255 255 255 255 255 255 255 255 255 255 255 255 255 255 255 255 255 255 255 255 255 255 255 252 252 255 255 255 255 255 255 255 255 255 255 255 255 255 255 255 255 255 255 255 255 255 255 255 255 255 255 255 255 255 255 255 255 255 255 255 255 255 255 255 255 253 250 255 255 255 255 255 255 255 255 255 255 255 255 255 255 255 255 255 254 254 254 254 254 254 254 254 254 254 254 254 254 254 254 254 253 253 253 254 253 254 253 247 253 254 255 252 253 254 253 252 252 249 254 255 255 255 255 255 255 255 255 255 255
255 255 255 255 255 255 255 255 255 255 255 255 255 255 255 255 255 254 248 252 249 253 255 255 255 255 246 249 255 254 254 254 254 254 254 254 254 254 254 254 254 254 254 254 254 255 255 255 255 255 255 255 255 255 255 255 255 255 255 255 255 255 255 255 255 255 255 255 250 255 255 255 255 255 255 255 255 255 255 255 255 255 255 255 255 255 255 255 255 255 255 255 255 255 255 255 255 255 255 255 255 255 255 255 255 255 255 255 254 250 255 255 255 255 255 255 255 255 255 255 255 255 255 255 255 255 255 255 255 255 255 255 255 255 255 255 255 255 255 255 255 255 255 255 255 255 255 255 255 255 252 252 255 255 255 255 255 255 255 255 255 255 255 255 255 255 255 255 255 255 255 255 255 255 255 255 255 255 255 255 255 255 255 255 255 255 255 255 255 255 255 255 253 250 255 255 255 255 255 255 255 255 255 255 255 255 255 255 255 255 255 254 254 254 254 254 254 254 254 254 254 254 254 254 254 254 254 253 253 253 254 253 254 253 247 253 254 255 252 253 254 253 252 252 249 254 255 255 255 255 255 255 255 255 255 255
255 255 255 255 255 255 255 255 255 255 255 255 255 255 255 255 255 254 248 252 249 253 255 255 255 255 246 249 255 254 254 254 254 254 254 254 254 254 254 254 254 254 254 254 254 255 255 255 255 255 255 255 255 255 255 255 255 255 255 255 255 255 255 255 255 255 255 255 250 255 255 255 255 255 255 255 255 255 255 255 255 255 255 255 255 255 255 255 255 255 255 255 255 255 255 255 255 255 255 255 255 255 255 255 255 255 255 255 254 250 255 255 255 255 255 255 255 255 255 255 255 255 255 255 255 255 255 255 255 255 255 255 255 255 255 255 255 255 255 255 255 255 255 255 255 255 255 255 255 255 252 252 255 255 255 255 255 255 255 255 255 255 255 255 255 255 255 255 255 255 255 255 255 255 255 255 255 255 255 255 255 255 255 255 255 255 255 255 255 255 255 255 253 250 255 255 255 255 255 255 255 255 255 255 255 255 255 255 255 255 255 254 254 254 254 254 254 254 254 254 254 254 254 254 254 254 254 253 253 253 254 253 254 253 247 253 254 255 252 253 254 253 252 252 249 254 255 255 255 255 255 255 255 255 255 255
255 255 255 255 255 255 255 255 255 255 255 255 255 255 255 255 255 254 248 252 249 253 255 255 255 255 246 249 255 254 254 254 254 254 254 254 254 254 254 254 254 254 254 254 254 255 255 255 255 255 255 255 255 255 255 255 255 255 255 255 255 255 255 255 255 255 255 255 250 255 255 255 255 255 255 255 255 255 255 255 255 255 255 255 255 255 255 255 255 255 255 255 255 255 255 255 255 255 255 255 255 255 255 255 255 255 255 255 254 250 255 255 255 255 255 255 255 255 255 255 255 255 255 255 255 255 255 255 255 255 255 255 255 255 255 255 255 255 255 255 255 255 255 255 255 255 255 255 255 255 252 252 255 255 255 255 255 255 255 255 255 255 255 255 255 255 255 255 255 255 255 255 255 255 255 255 255 255 255 255 255 255 255 255 255 255 255 255 255 255 255 255 253 250 255 255 255 255 255 255 255 255 255 255 255 255 255 255 255 255 255 254 254 254 254 254 254 254 254 254 254 254 254 254 254 254 254 253 253 253 254 253 254 253 247 253 254 255 252 253 254 253 252 252 249 254 255 255 255 255 255 255 255 255 255 255
255 255 255 255 255 255 255 255 255 255 255 255 255 255 255 255 255 254 248 252 249 253 255 255 255 255 246 249 255 254 254 254 254 254 254 254 254 254 254 254 254 254 254 254 254 255 255 255 255 255 255 255 255 255 255 255 255 255 255 255 255 255 255 255 255 255 255 255 250 255 255 255 255 255 255 255 255 255 255 255 255 255 255 255 255 255 255 255 255 255 255 255 255 255 255 255 255 255 255 255 255 255 255 255 255 255 255 255 254 250 255 255 255 255 255 255 255 255 255 255 255 255 255 255 255 255 255 255 255 255 255 255 255 255 255 255 255 255 255 255 255 255 255 255 255 255 255 255 255 255 252 252 255 255 255 255 255 255 255 255 255 255 255 255 255 255 255 255 255 255 255 255 255 255 255 255 255 255 255 255 255 255 255 255 255 255 255 255 255 255 255 255 253 250 255 255 255 255 255 255 255 255 255 255 255 255 255 255 255 255 255 254 254 254 254 254 254 254 254 254 254 254 254 254 254 254 254 253 253 253 254 253 254 253 247 253 254 255 252 253 254 253 252 252 249 254 255 255 255 255 255 255 255 255 255 255
255 255 255 255 255 255 255 255 255 255 255 255 255 255 255 255 255 254 248 252 249 253 255 255 255 255 246 249 255 254 254 254 254 254 254 254 254 254 254 254 254 254 254 254 254 255 255 255 255 255 255 255 255 255 255 255 255 255 255 255 255 255 255 255 255 255 255 255 250 255 255 255 255 255 255 255 255 255 255 255 255 255 255 255 255 255 255 255 255 255 255 255 255 255 255 255 255 255 255 255 255 255 255 255 255 255 255 255 254 250 255 255 255 255 255 255 255 255 255 255 255 255 255 255 255 255 255 255 255 255 255 255 255 255 255 255 255 255 255 255 255 255 255 255 255 255 255 255 255 255 252 252 255 255 255 255 255 255 255 255 255 255 255 255 255 255 255 255 255 255 255 255 255 255 255 255 255 255 255 255 255 255 255 255 255 255 255 255 255 255 255 255 253 250 255 255 255 255 255 255 255 255 255 255 255 255 255 255 255 255 255 254 254 254 254 254 254 254 254 254 254 254 254 254 254 254 254 253 253 253 254 253 254 253 247 253 254 255 252 253 254 253 252 252 249 254 255 255 255 255 255 255 255 255 255 255
255 255 255 255 255 255 255 255 255 255 255 255 255 255 255 255 255 254 248 252 249 253 255 255 255 255 246 249 255 254 254 254 254 254 254 254 254 254 254 254 254 254 254 254 254 255 255 255 255 255 255 255 255 255 255 255 255 255 255 255 255 255 255 255 255 255 255 255 250 255 255 255 255 255 255 255 255 255 255 255 255 255 255 255 255 255 255 255 255 255 255 255 255 255 255 255 255 255 255 255 255 255 255 255 255 255 255 255 254 250 255 255 255 255 255 255 255 255 255 255 255 255 255 255 255 255 255 255 255 255 255 255 255 255 255 255 255 255 255 255 255 255 255 255 255 255 255 255 255 255 252 252 255 255 255 255 255 255 255 255 255 255 255 255 255 255 255 255 255 255 255 255 255 255 255 255 255 255 255 255 255 255 255 255 255 255 255 255 255 255 255 255 253 250 255 255 255 255 255 255 255 255 255 255 255 255 255 255 255 255 255 254 254 254 254 254 254 254 254 254 254 254 254 254 254 254 254 253 253 253 254 253 254 253 247 253 254 255 252 253 254 253 252 252 249 254 255 255 255 255 255 255 255 255 255 255
255 255 255 255 255 255 255 255 255 255 255 255 255 255 255 255 255 254 248 252 249 253 255 255 255 255 246 249 255 254 254 254 254 254 254 254 254 254 254 254 254 254 254 254 254 255 255 255 255 255 255 255 255 255 255 255 255 255 255 255 255 255 255 255 255 255 255 255 250 255 255 255 255 255 255 255 255 255 255 255 255 255 255 255 255 255 255 255 255 255 255 255 255 255 255 255 255 255 255 255 255 255 255 255 255 255 255 255 254 250 255 255 255 255 255 255 255 255 255 255 255 255 255 255 255 255 255 255 255 255 255 255 255 255 255 255 255 255 255 255 255 255 255 255 255 255 255 255 255 255 252 252 255 255 255 255 255 255 255 255 255 255 255 255 255 255 255 255 255 255 255 255 255 255 255 255 255 255 255 255 255 255 255 255 255 255 255 255 255 255 255 255 253 250 255 255 255 255 255 255 255 255 255 255 255 255 255 255 255 255 255 254 254 254 254 254 254 254 254 254 254 254 254 254 254 254 254 253 253 253 254 253 254 253 247 253 254 255 252 253 254 253 252 252 249 254 255 255 255 255 255 255 255 255 255 255
255 255 255 255 255 255 255 255 255 255 255 255 255 255 255 255 255 254 248 252 249 253 255 255 255 255 246 249 255 254 254 254 254 254 254 254 254 254 254 254 254 254 254 254 254 255 255 255 255 255 255 255 255 255 255 255 255 255 255 255 255 255 255 255 255 255 255 255 250 255 255 255 255 255 255 255 255 255 255 255 255 255 255 255 255 255 255 255 255 255 255 255 255 255 255 255 255 255 255 255 255 255 255 255 255 255 255 255 254 250 255 255 255 255 255 255 255 255 255 255 255 255 255 255 255 255 255 255 255 255 255 255 255 255 255 255 255 255 255 255 255 255 255 255 255 255 255 255 255 255 252 252 255 255 255 255 255 255 255 255 255 255 255 255 255 255 255 255 255 255 255 255 255 255 255 255 255 255 255 255 255 255 255 255 255 255 255 255 255 255 255 255 253 250 255 255 255 255 255 255 255 255 255 255 255 255 255 255 255 255 255 254 254 254 254 254 254 254 254 254 254 254 254 254 254 254 254 253 253 253 254 253 254 253 247 253 254 255 252 253 254 253 252 252 249 254 255 255 255 255 255 255 255 255 255 255
255 255 255 255 255 255 255 255 255 255 255 255 255 255 255 255 255 254 248 252 249 253 255 255 255 255 246 249 255 254 254 254 254 254 254 254 254 254 254 254 254 254 254 254 254 255 255 255 255 255 255 255 255 255 255 255 255 255 255 255 255 255 255 255 255 255 255 255 250 255 255 255 255 255 255 255 255 255 255 255 255 255 255 255 255 255 255 255 255 255 255 255 255 255 255 255 255 255 255 255 255 255 255 255 255 255 255 255 254 250 255 255 255 255 255 255 255 255 255 255 255 255 255 255 255 255 255 255 255 255 255 255 255 255 255 255 255 255 255 255 255 255 255 255 255 255 255 255 255 255 252 252 255 255 255 255 255 255 255 255 255 255 255 255 255 255 255 255 255 255 255 255 255 255 255 255 255 255 255 255 255 255 255 255 255 255 255 255 255 255 255 255 253 250 255 255 255 255 255 255 255 255 255 255 255 255 255 255 255 255 255 254 254 254 254 254 254 254 254 254 254 254 254 254 254 254 254 253 253 253 254 253 254 253 247 253 254 255 252 253 254 253 252 252 249 254 255 255 255 255 255 255 255 255 255 255
255 255 255 255 255 255 255 255 255 255 255 255 255 255 255 255 255 254 248 252 249 253 255 255 255 255 246 249 255 254 254 254 254 254 254 254 254 254 254 254 254 254 254 254 254 255 255 255 255 255 255 255 255 255 255 255 255 255 255 255 255 255 255 255 255 255 255 255 250 255 255 255 255 255 255 255 255 255 255 255 255 255 255 255 255 255 255 255 255 255 255 255 255 255 255 255 255 255 255 255 255 255 255 255 255 255 255 255 254 250 255 255 255 255 255 255 255 255 255 255 255 255 255 255 255 255 255 255 255 255 255 255 255 255 255 255 255 255 255 255 255 255 255 255 255 255 255 255 255 255 252 252 255 255 255 255 255 255 255 255 255 255 255 255 255 255 255 255 255 255 255 255 255 255 255 255 255 255 255 255 255 255 255 255 255 255 255 255 255 255 255 255 253 250 255 255 255 255 255 255 255 255 255 255 255 255 255 255 255 255 255 254 254 254 254 254 254 254 254 254 254 254 254 254 254 254 254 253 253 253 254 253 254 253 247 253 254 255 252 253 254 253 252 252 249 254 255 255 255 255 255 255 255 255 255 255
255 255 255 255 255 255 255 255 255 255 255 255 255 255 255 255 255 254 248 252 249 253 255 255 255 255 246 249 255 254 254 254 254 254 254 254 254 254 254 254 254 254 254 254 254 255 255 255 255 255 255 255 255 255 255 255 255 255 255 255 255 255 255 255 255 255 255 255 250 255 255 255 255 255 255 255 255 255 255 255 255 255 255 255 255 255 255 255 255 255 255 255 255 255 255 255 255 255 255 255 255 255 255 255 255 255 255 255 254 250 255 255 255 255 255 255 255 255 255 255 255 255 255 255 255 255 255 255 255 255 255 255 255 255 255 255 255 255 255 255 255 255 255 255 255 255 255 255 255 255 252 252 255 255 255 255 255 255 255 255 255 255 255 255 255 255 255 255 255 255 255 255 255 255 255 255 255 255 255 255 255 255 255 255 255 255 255 255 255 255 255 255 253 250 255 255 255 255 255 255 255 255 255 255 255 255 255 255 255 255 255 254 254 254 254 254 254 254 254 254 254 254 254 254 254 254 254 253 253 253 254 253 254 253 247 253 254 255 252 253 254 253 252 252 249 254 255 255 255 255 255 255 255 255 255 255
