P2
256 256
255
251 252 253 253 255 253 249 246 251 254 253 255 255 255 255 255 255 255 255 254 254 254 255 255 254 253 252 252 251 250 249 249 249 252 252 251 250 249 249 250 251 251 251 252 255 255 255 255 255 255 255 255 255 255 254 253 254 254 253 254 254 255 255 255 255 255 253 252 252 253 254 254 253 251 251 251 251 250 249 249 252 252 252 252 251 250 250 250 251 252 252 252 251 251 252 253 252 250 248 253 254 254 255 255 255 254 254 253 253 254 254 255 255 254 255 255 255 254 255 255 255 252 250 250 252 252 251 250 251 250 250 250 253 255 255 255 255 255 255 255 255 254 254 255 255 255 255 255 255 255 255 255 255 255 254 254 255 255 255 255 254 251 252 253 253 255 255 255 254 255 255 254 255 255 255 253 254 255 254 255 255 255 254 255 255 255 253 254 254 252 252 252 251 251 252 252 253 254 251 250 250 253 253 252 251 248 249 252 253 254 255 254 252 252 252 253 253 253 251 250 252 253 255 255 255 255 254 252 250 249 248 252 255 255 255 255 254 254 254 253 253 253 253 253 253 254 254 255 255 255 255 254 254 255 255 255
248 251 250 244 251 253 252 250 252 251 247 251 252 253 253 254 254 253 253 253 254 254 255 255 255 254 254 254 253 253 252 252 252 254 253 253 253 252 252 252 252 253 254 254 254 254 254 254 254 254 254 254 254 254 254 254 254 255 255 255 255 255 255 255 255 255 253 253 254 254 255 255 255 254 252 253 254 253 252 253 253 254 254 254 253 253 253 253 253 254 254 254 253 253 254 255 254 252 251 254 255 255 255 255 255 255 255 254 253 254 255 255 255 254 255 255 255 255 255 255 255 253 253 253 253 253 253 253 253 253 253 253 253 254 253 254 254 254 254 254 254 254 254 253 252 252 252 253 253 253 253 253 253 254 253 253 254 255 254 253 251 252 251 252 253 254 253 251 251 252 252 251 253 252 251 250 252 253 254 254 255 254 253 254 254 253 252 255 255 254 254 253 253 253 254 254 254 255 253 253 253 254 254 254 252 252 253 254 254 255 255 255 254 254 254 254 254 254 253 253 254 255 255 255 255 255 255 254 254 253 251 252 252 253 253 253 253 254 253 253 253 253 252 251 252 252 252 253 254 254 255 255 254 255 255 255
249 250 233 195 201 202 201 200 200 197 195 198 200 200 201 201 201 201 202 202 203 203 204 204 206 206 207 207 208 210 210 210 210 211 210 209 210 210 210 210 209 211 211 210 211 212 212 211 212 212 212 212 212 212 212 212 212 212 212 211 211 211 211 211 211 211 208 209 209 209 210 211 211 210 208 209 210 209 210 210 210 211 210 210 210 210 210 210 209 210 210 210 208 208 210 211 209 207 206 206 206 206 206 206 206 206 207 206 206 207 208 209 208 207 208 208 209 209 209 209 209 208 209 209 210 210 210 210 210 210 210 210 211 211 210 211 211 211 211 211 210 210 211 212 212 212 212 213 213 213 214 214 215 215 213 212 212 213 212 210 208 209 210 211 212 213 213 211 211 211 211 211 213 212 210 209 210 212 212 212 211 211 210 211 211 210 209 210 210 209 209 208 207 208 208 209 209 210 210 210 209 210 210 209 208 208 209 209 208 207 207 207 206 207 207 208 208 208 208 209 209 208 207 207 206 207 207 208 209 209 206 207 207 207 209 210 211 212 212 214 214 214 213 212 213 214 215 216 218 220 221 222 223 245 254 254
255 250 197 88 78 68 62 62 65 69 71 69 69 70 69 69 69 70 71 72 73 74 74 76 78 81 84 86 87 91 93 95 94 95 95 95 94 92 93 93 93 96 96 96 102 103 103 102 104 103 103 104 103 102 102 103 103 101 100 100 100 100 98 97 97 97 92 92 92 92 93 93 93 92 92 92 92 93 94 93 96 94 95 95 95 94 94 93 92 93 94 93 91 90 91 93 93 90 83 80 78 78 81 81 80 79 83 83 83 83 87 88 88 88 89 89 90 90 91 91 91 93 92 91 93 94 93 92 93 93 93 94 100 102 102 103 101 101 102 102 103 102 101 114 117 116 116 117 117 117 117 118 119 117 109 109 108 102 103 102 101 98 102 105 108 114 117 116 113 114 115 115 115 115 114 111 106 105 104 102 101 102 103 100 101 101 100 95 92 89 89 89 88 87 88 90 91 91 93 94 94 96 94 92 91 87 87 89 88 84 84 84 82 83 84 87 89 89 89 87 86 86 85 85 84 85 85 85 86 88 89 91 93 96 99 101 104 106 111 114 115 116 116 116 116 118 120 124 128 133 137 139 141 219 255 255
249 248 189 61 62 60 59 65 66 67 70 68 67 66 65 63 63 65 68 69 69 68 66 69 73 77 79 81 85 90 94 96 96 98 99 100 98 97 97 97 98 99 99 100 101 101 101 102 102 101 102 103 102 102 102 102 101 101 100 99 98 97 96 96 95 94 93 94 95 95 96 96 97 97 96 96 94 97 99 98 99 97 99 101 99 97 98 97 95 96 97 96 94 93 94 97 95 91 86 80 79 79 80 81 82 83 84 85 85 86 88 90 90 91 90 91 92 94 93 92 94 98 96 95 96 97 97 97 96 97 98 96 101 102 102 102 103 103 102 103 103 103 103 107 107 107 106 108 109 109 109 109 109 109 109 110 110 107 104 102 100 101 103 107 112 107 107 106 103 103 104 105 106 106 104 101 102 104 106 104 103 103 103 102 102 102 102 98 96 93 93 93 93 93 93 94 94 95 97 99 101 101 96 94 94 90 88 89 91 86 84 83 82 83 86 90 92 92 92 92 88 87 88 85 82 81 82 86 87 88 90 87 86 88 91 94 98 101 104 108 109 110 110 111 112 113 116 120 124 129 133 136 138 216 252 252
248 250 188 55 64 65 64 67 62 59 61 62 62 61 59 58 58 59 62 64 64 64 61 62 65 69 73 77 81 87 90 93 95 97 98 99 97 97 97 97 97 98 98 98 96 95 95 96 95 95 96 97 97 97 98 100 100 99 98 97 95 94 94 93 91 90 92 93 94 94 95 95 96 96 96 96 95 97 99 99 100 99 100 102 100 99 99 99 95 96 97 96 92 92 93 97 94 90 85 79 78 78 79 80 82 83 85 85 85 86 88 90 90 90 90 91 92 93 93 93 95 96 97 97 97 97 97 98 98 98 98 98 99 99 99 99 101 101 101 102 102 102 103 106 107 107 107 107 108 109 109 109 109 109 108 108 108 104 101 99 96 100 103 106 110 107 106 105 103 102 102 104 105 104 102 101 101 101 101 100 100 100 99 99 98 98 98 98 97 96 95 94 94 95 95 96 96 97 99 100 102 101 97 94 92 90 88 88 89 84 82 81 81 82 86 90 92 92 92 92 90 88 86 82 79 78 78 80 82 84 86 86 86 88 91 94 98 101 103 107 108 110 110 109 110 112 115 118 122 127 132 135 137 217 254 254
251 252 192 61 73 73 69 66 56 49 51 55 56 55 54 53 53 54 55 58 59 61 57 55 57 60 67 72 76 81 85 88 91 93 94 94 92 92 91 91 92 94 94 93 89 87 87 87 88 88 89 89 89 90 92 96 97 96 95 94 92 90 91 88 87 87 87 89 89 90 91 92 92 92 91 92 92 93 94 95 98 97 97 97 95 95 96 95 92 91 92 93 88 87 89 93 90 85 81 75 74 74 75 76 77 79 82 81 81 84 86 86 85 84 87 88 89 89 91 92 93 90 92 94 95 94 93 94 96 95 95 98 95 94 95 96 98 98 98 98 99 99 99 108 111 111 111 111 110 111 112 112 113 113 108 106 104 98 97 94 91 95 100 103 104 110 109 106 107 106 106 107 108 106 104 105 100 97 95 95 95 95 95 93 93 94 94 95 95 94 93 92 92 92 94 95 95 96 96 96 96 95 95 92 86 86 85 84 83 78 77 77 76 77 81 85 88 89 88 87 89 86 80 76 75 75 73 73 74 78 80 85 88 90 92 94 97 100 104 107 108 110 109 109 109 111 113 117 120 125 130 133 136 219 255 255
250 252 189 50 58 58 57 62 58 57 60 61 59 56 53 51 51 53 57 59 60 60 56 57 60 63 68 71 76 82 85 88 90 92 92 92 91 91 90 90 92 92 92 93 90 91 92 93 93 93 94 95 96 96 97 101 101 101 99 100 97 95 95 93 92 91 88 88 88 89 90 91 92 93 93 92 91 94 95 95 96 96 96 97 96 95 95 95 92 92 93 92 89 88 88 91 89 85 80 77 76 76 77 78 80 81 82 83 84 85 84 86 87 88 88 89 90 92 92 92 93 94 93 93 94 95 95 96 97 98 98 98 102 103 105 105 106 106 107 108 108 108 109 107 107 107 106 108 109 109 109 109 108 109 112 111 110 108 105 102 100 102 105 109 114 106 104 103 100 101 103 103 102 102 101 98 100 102 104 104 102 101 101 102 101 100 101 99 98 97 95 95 96 96 95 97 97 96 98 98 99 98 95 92 89 84 82 82 84 79 77 76 76 78 82 86 88 89 89 88 86 84 83 80 76 73 72 74 75 76 79 79 78 78 81 83 87 91 93 97 98 100 101 102 102 105 108 111 115 120 124 128 130 216 255 255
252 252 190 55 60 59 57 60 56 54 56 57 57 55 52 50 50 51 54 56 58 59 56 57 59 62 66 70 75 80 83 86 89 90 88 88 88 88 87 86 88 88 88 88 87 87 88 89 89 89 90 92 92 92 92 93 93 93 91 92 90 88 88 86 86 85 85 86 87 88 89 90 91 91 91 91 91 92 93 93 94 94 94 94 94 93 93 92 89 91 92 91 88 87 87 88 87 83 79 74 74 74 75 76 77 78 80 81 81 81 83 84 84 85 86 87 88 90 91 91 92 92 92 92 93 94 94 95 96 97 97 97 99 101 102 103 104 104 105 106 106 106 106 108 108 108 108 109 109 109 110 110 110 110 108 107 106 104 101 99 96 98 101 105 108 106 105 104 102 102 103 104 104 103 102 100 100 100 100 100 99 98 99 98 97 97 97 97 97 97 96 96 95 94 96 97 96 97 97 97 97 96 94 91 87 84 82 82 83 77 75 74 74 76 80 83 85 86 86 85 83 82 80 77 75 73 72 74 75 76 78 81 82 84 87 89 92 95 98 100 101 103 103 103 103 105 107 111 115 120 125 128 130 216 255 255
253 251 190 59 62 61 58 60 55 51 51 54 54 53 51 50 49 50 51 54 57 59 57 57 58 60 65 69 73 78 80 83 85 86 85 84 85 83 83 83 84 85 85 85 84 83 83 85 85 85 86 88 88 88 87 88 89 88 87 87 85 83 83 82 82 82 84 84 85 87 88 89 90 90 89 90 91 90 92 93 93 93 93 92 92 93 93 91 89 90 91 89 87 86 86 87 86 83 78 72 72 72 73 74 74 75 78 78 77 78 81 83 83 84 85 86 86 89 90 91 91 90 91 91 91 93 94 95 96 97 97 96 97 99 99 100 100 101 102 102 105 105 103 107 109 109 110 110 110 110 111 111 112 111 105 103 102 99 97 95 92 94 97 101 104 106 106 104 103 102 102 104 104 103 101 101 98 96 95 95 95 95 95 94 93 93 92 95 96 97 97 96 94 94 97 97 96 97 96 95 95 95 94 91 86 83 82 82 82 77 73 72 73 75 78 81 82 83 84 83 82 80 78 76 75 74 73 75 76 78 79 82 85 87 90 93 96 98 101 103 104 105 104 103 103 104 106 110 114 119 124 128 130 216 255 255
251 250 187 56 54 53 53 56 55 54 53 53 53 52 50 48 48 49 51 54 55 56 55 56 58 61 63 67 71 76 77 80 82 85 84 83 83 82 82 82 83 84 84 86 85 86 86 87 88 88 89 91 92 92 92 93 93 93 91 93 91 89 88 88 89 89 85 84 85 87 88 89 90 91 91 91 91 90 92 93 92 93 93 92 92 92 92 91 89 91 92 90 88 87 87 88 87 83 77 72 71 71 72 73 73 73 75 76 76 76 79 81 82 84 85 85 86 89 90 90 90 92 92 92 91 94 95 97 97 99 99 97 100 103 104 104 104 104 106 107 108 109 108 107 106 107 109 110 109 109 110 110 110 109 106 104 102 102 101 99 96 96 98 101 106 104 104 103 102 101 101 103 104 102 100 98 98 98 98 98 97 97 97 97 96 95 95 97 97 97 97 97 96 95 96 96 96 97 96 95 96 96 94 90 86 84 83 83 83 77 74 71 72 75 78 80 81 82 83 82 80 78 78 77 75 74 75 77 80 81 81 79 79 80 83 85 89 91 94 96 97 99 97 96 96 97 100 104 108 114 119 122 125 213 253 253
254 252 190 61 56 53 51 51 51 51 51 51 51 51 51 50 51 51 52 54 54 54 52 53 54 57 60 66 71 76 77 78 78 82 81 81 81 81 81 82 82 83 84 84 84 85 85 86 87 88 89 91 92 92 92 92 92 92 91 91 88 87 86 85 84 83 82 82 83 85 87 88 89 90 91 91 91 90 91 92 91 91 91 90 91 91 91 91 90 90 91 89 87 87 87 86 84 80 75 73 72 72 73 74 75 76 77 78 78 79 80 82 83 84 83 83 83 86 90 93 95 95 94 94 92 94 95 95 96 97 98 97 98 99 100 101 102 104 105 105 106 106 106 107 107 108 109 110 110 109 110 109 109 108 106 105 102 102 98 95 93 96 99 103 107 106 105 104 103 103 103 102 102 102 102 101 100 99 99 98 97 96 96 96 95 94 94 95 97 98 97 97 97 97 96 96 95 95 96 95 94 93 90 87 84 82 82 82 81 76 71 66 66 69 73 77 78 79 80 81 80 79 78 77 76 76 76 77 79 79 79 77 76 77 80 82 86 90 92 95 96 98 95 94 94 95 98 102 108 114 119 122 124 214 255 255
255 253 192 64 58 54 51 49 50 50 51 50 50 51 52 52 52 52 52 53 54 54 50 51 52 54 60 66 72 77 77 77 77 81 81 80 80 81 81 82 82 82 82 83 84 85 85 86 87 88 89 90 92 92 92 92 91 90 90 90 88 86 84 83 82 81 81 81 83 84 86 88 89 90 91 91 90 90 90 90 90 90 90 90 90 90 90 90 90 90 90 88 87 87 87 86 82 78 74 73 72 72 73 74 76 77 78 79 79 80 81 82 83 83 82 81 81 84 89 94 97 96 95 95 93 93 94 95 95 96 97 97 96 97 98 100 102 103 104 104 105 105 105 107 107 108 109 110 109 109 109 108 108 107 106 105 103 101 97 93 92 95 99 104 108 106 105 104 103 104 104 103 102 102 102 102 100 100 99 99 97 96 96 96 94 93 94 95 97 99 98 97 98 98 96 95 95 94 96 95 93 91 89 86 84 81 81 81 80 76 70 64 62 66 71 75 77 78 79 80 79 78 77 76 75 75 76 76 77 77 78 76 75 75 79 81 85 89 91 94 95 97 94 93 92 94 97 101 107 114 119 122 124 214 255 255
255 253 192 64 58 54 51 49 50 51 51 50 51 51 52 52 52 52 52 53 54 53 50 50 51 54 59 65 70 75 76 76 76 80 80 80 80 81 81 81 82 82 82 82 83 84 84 84 86 88 89 90 91 91 92 92 91 91 90 89 87 85 83 82 81 81 80 81 83 84 86 88 89 90 91 91 91 90 90 90 90 90 90 90 90 90 90 90 90 89 89 88 87 87 87 86 82 78 75 73 72 72 73 74 76 77 78 79 79 80 81 82 83 83 82 82 82 85 89 93 96 95 94 94 93 93 93 94 95 96 96 97 97 97 98 100 102 103 104 105 105 104 105 106 106 107 108 108 108 108 108 107 107 106 105 105 103 101 97 94 92 95 99 103 106 105 104 104 103 103 103 102 101 101 101 101 100 99 99 99 97 97 96 95 94 93 94 94 96 98 97 96 97 98 96 95 94 93 95 94 92 90 88 86 84 82 81 81 80 76 71 65 63 67 72 76 77 77 78 79 78 77 76 75 74 74 75 75 76 76 76 75 74 75 78 80 84 88 90 93 94 96 93 92 91 93 96 101 107 113 119 122 124 214 255 255
255 253 192 64 57 53 51 49 51 52 52 50 51 51 51 52 52 52 52 52 53 52 49 49 50 53 58 64 69 74 75 75 75 79 79 79 79 80 80 80 81 81 81 81 83 84 84 84 86 87 88 88 90 90 91 92 91 90 89 88 86 85 83 82 81 80 80 81 83 84 86 88 89 90 91 91 91 90 90 90 90 90 90 90 90 90 90 91 89 88 88 87 86 86 87 85 82 79 76 73 72 72 73 74 76 77 78 79 79 80 80 81 83 83 84 84 84 85 88 91 93 94 93 94 92 92 92 93 94 95 95 96 97 97 98 100 101 103 104 105 105 105 105 105 105 106 107 108 108 108 107 106 106 105 105 104 103 101 97 94 92 94 98 102 105 103 103 103 102 102 102 101 100 100 100 99 99 98 98 97 96 96 95 95 94 94 94 94 95 97 96 96 97 97 95 94 94 93 94 93 91 89 87 85 83 81 80 80 80 78 72 66 64 68 73 76 75 75 75 77 76 75 74 72 72 72 73 73 74 74 75 74 73 74 77 79 83 86 89 92 93 95 92 90 90 91 94 99 105 112 118 121 123 214 255 255
255 253 192 64 57 54 52 50 51 52 52 51 51 51 51 51 51 51 51 51 52 52 48 48 49 52 57 63 68 73 74 74 74 77 78 78 78 79 79 79 80 80 80 80 82 83 83 83 85 86 87 88 89 89 90 90 90 90 89 88 86 85 83 82 81 80 80 81 83 84 86 88 89 90 91 91 91 90 90 90 90 90 90 90 90 90 90 90 88 87 87 86 86 86 87 85 82 79 76 73 72 72 73 74 76 78 78 79 79 80 81 81 82 83 84 85 86 86 88 90 91 92 92 93 92 91 91 92 93 94 94 95 96 97 98 100 101 103 104 104 104 105 106 106 106 107 108 108 108 108 108 107 107 106 104 103 101 100 96 93 91 94 97 100 104 102 102 102 101 101 101 100 100 99 99 98 98 97 97 96 96 96 95 94 94 94 94 94 94 95 95 96 96 96 94 93 93 92 92 92 90 88 86 84 82 81 80 80 80 78 73 67 65 69 73 76 74 73 73 74 73 72 71 70 70 70 70 70 71 71 72 72 72 73 76 78 82 85 88 91 92 94 91 89 88 89 92 98 104 111 117 120 122 213 255 255
255 253 192 64 57 54 52 50 51 52 52 51 51 51 51 51 51 51 51 51 52 52 48 48 49 51 56 62 68 72 73 74 74 77 78 78 78 79 79 79 80 80 80 80 82 83 83 83 85 86 87 87 89 89 90 91 90 90 89 88 86 85 83 82 81 80 80 81 83 84 86 88 89 90 91 91 91 90 90 90 90 90 90 90 90 90 90 90 88 87 87 86 86 86 87 85 82 79 76 73 72 72 73 74 76 78 78 79 79 80 81 81 82 83 84 85 86 86 88 89 90 91 92 93 92 91 91 92 93 94 94 95 96 97 98 100 101 103 104 104 104 105 106 106 106 107 108 108 108 108 108 107 107 106 104 103 102 100 96 93 92 94 96 99 102 101 101 102 100 100 100 100 99 99 99 98 98 97 96 96 96 96 95 94 94 94 94 94 94 95 95 96 96 96 94 93 93 92 92 91 89 87 86 84 82 81 80 80 80 78 73 67 65 69 73 76 74 72 72 72 72 71 70 69 68 68 68 69 70 70 71 71 72 73 76 78 81 84 87 90 91 93 90 88 87 88 91 96 103 110 115 119 121 213 255 255
255 254 193 64 58 55 53 51 53 54 53 51 51 51 51 51 51 51 50 50 50 50 46 46 47 50 55 61 66 71 72 73 73 75 77 77 77 78 78 78 79 79 79 79 81 81 81 82 83 85 86 87 88 88 90 90 90 89 88 86 85 84 82 81 81 80 79 81 84 84 86 88 89 90 91 91 91 90 90 90 90 90 90 90 91 90 90 90 88 86 86 85 86 86 86 85 81 78 76 73 72 72 73 74 76 78 78 79 79 80 82 82 82 82 84 85 87 87 89 89 89 91 91 91 91 90 90 91 92 93 93 95 95 95 96 98 99 101 102 103 103 103 104 106 107 108 109 109 109 109 109 108 108 107 104 103 101 99 96 93 91 92 94 97 100 100 100 100 99 99 99 98 98 97 96 96 97 96 95 95 95 96 95 94 94 95 94 93 93 94 94 94 94 94 93 92 92 91 90 89 88 86 84 82 81 80 80 80 80 77 72 66 65 69 73 76 74 71 70 70 70 69 68 67 66 66 66 67 68 68 69 69 70 71 74 76 80 83 86 89 90 92 89 87 86 87 89 94 101 108 113 117 119 212 255 255
255 253 192 64 58 55 54 51 53 54 53 51 51 50 50 50 50 50 50 49 49 48 46 45 46 49 54 60 65 70 71 72 72 74 76 76 76 77 77 77 78 78 78 78 80 80 80 81 82 84 85 86 87 87 88 89 89 89 89 86 85 84 81 80 80 79 79 81 83 84 86 88 89 90 91 91 91 90 90 90 90 90 90 90 91 90 90 90 88 85 84 84 85 85 86 84 82 79 76 73 72 72 73 74 76 78 77 79 79 80 83 83 83 82 83 84 86 87 89 89 89 90 90 89 90 89 89 90 91 92 92 94 93 93 95 97 98 99 100 101 101 101 102 104 106 107 108 108 108 108 108 107 107 106 103 102 101 99 96 93 91 91 93 96 98 99 99 98 98 98 98 97 97 96 95 95 96 95 94 94 94 95 94 93 94 95 94 93 92 92 93 93 94 93 92 91 91 90 89 88 87 85 83 81 80 79 79 79 80 76 71 66 65 69 74 77 75 72 70 69 69 68 67 66 65 65 65 66 67 67 68 68 69 70 73 75 79 82 85 88 89 91 88 86 85 86 88 93 99 105 111 114 117 211 255 255
255 253 192 63 58 55 54 51 53 54 54 51 51 50 50 50 50 51 50 49 49 48 45 45 45 48 53 59 64 69 70 72 72 74 76 76 76 77 77 77 78 78 78 78 80 80 80 81 82 84 85 86 87 87 88 89 89 89 89 86 84 84 81 80 80 79 80 81 83 84 86 88 89 90 91 91 91 90 90 90 90 90 90 90 90 90 90 90 87 85 85 84 85 86 86 84 82 79 76 73 72 72 73 74 76 77 77 79 79 80 85 85 83 81 81 83 86 88 89 89 89 90 90 89 90 89 89 90 91 92 92 93 91 91 92 95 96 97 98 99 99 99 100 103 105 106 106 107 107 107 106 105 105 105 102 102 101 99 96 93 91 91 92 94 96 98 98 97 97 97 97 96 96 95 94 95 96 95 94 93 94 95 94 93 94 95 94 93 92 93 93 93 94 93 92 91 90 90 88 87 86 84 83 81 80 79 79 79 79 75 70 66 65 69 74 77 75 72 70 69 68 68 67 66 65 65 65 66 67 67 68 68 69 70 72 74 78 81 84 87 88 90 87 85 84 85 88 92 97 104 109 113 115 211 255 255
255 253 192 63 58 56 55 52 54 55 54 52 51 50 50 50 50 50 50 48 48 46 44 44 44 47 52 58 63 68 69 71 71 73 75 75 75 76 76 76 78 77 77 78 80 80 80 81 82 83 84 85 87 86 87 89 89 88 88 85 84 84 80 80 80 79 80 81 83 84 86 88 89 90 91 91 91 90 90 90 89 90 90 90 90 90 89 90 87 84 84 83 85 85 86 84 82 79 76 73 72 72 73 74 76 77 77 79 79 80 86 86 83 80 80 82 85 87 89 89 89 91 89 88 89 88 88 89 90 91 91 92 91 90 91 93 94 95 97 98 98 98 99 100 102 103 104 104 104 104 104 103 103 102 101 102 101 99 96 93 91 90 91 93 95 97 97 96 96 96 96 95 95 94 94 93 95 94 94 93 94 94 94 93 94 94 94 93 92 92 93 94 93 92 91 90 90 89 87 86 85 83 82 81 80 79 79 79 79 74 69 65 64 69 74 77 75 73 71 69 68 68 67 66 65 65 65 66 67 67 67 67 68 69 71 74 77 80 83 86 87 89 86 84 84 84 87 91 96 102 107 111 113 210 255 255
255 253 192 64 58 56 55 52 55 56 55 52 51 51 50 50 50 50 50 48 47 46 44 43 44 46 51 57 62 67 69 70 70 73 75 75 75 75 75 76 77 77 77 77 78 79 79 80 81 82 83 85 86 86 87 89 89 88 88 85 84 84 81 80 79 78 81 82 83 84 86 88 88 90 91 91 91 90 90 89 89 90 90 90 90 90 89 89 86 83 83 83 85 86 86 84 82 79 76 73 72 72 73 74 76 77 77 80 80 81 88 87 83 80 79 81 84 87 89 90 89 91 89 87 89 88 88 89 90 91 91 92 90 88 89 92 92 93 95 97 96 96 97 99 100 101 102 102 102 102 102 101 101 100 100 101 100 99 95 93 92 89 90 92 94 96 96 95 95 96 96 95 94 94 94 93 94 93 93 93 94 95 94 93 94 94 94 92 91 91 92 93 92 92 91 90 89 88 86 86 85 83 82 80 79 79 79 79 79 72 67 64 64 69 74 77 75 73 71 69 68 67 67 66 65 65 65 66 67 67 67 66 67 68 71 73 76 79 83 85 87 88 86 84 83 84 86 90 95 101 106 110 112 210 255 255
254 253 192 61 58 56 56 54 55 55 53 52 51 51 51 50 50 50 50 49 48 46 43 43 44 47 52 57 62 67 68 69 68 72 74 75 76 76 77 78 78 78 77 77 78 79 79 81 81 83 84 86 87 87 87 89 89 89 89 87 85 84 80 80 80 78 83 83 83 84 87 90 92 93 94 93 91 91 90 88 87 89 90 90 91 90 90 89 87 87 88 88 87 86 84 82 83 84 86 82 77 71 68 71 75 79 82 83 80 78 86 88 86 82 79 79 81 85 88 90 90 89 87 85 87 87 88 88 88 87 88 90 88 87 89 92 92 92 94 95 96 97 98 99 99 99 100 100 100 100 100 99 99 99 99 100 100 97 94 91 90 86 88 90 93 96 96 95 94 94 94 93 93 93 93 93 93 93 93 93 95 94 92 92 93 93 93 92 91 90 91 91 91 91 90 90 90 89 87 86 85 83 82 80 79 78 78 78 77 71 66 63 63 67 72 76 75 74 72 70 70 69 67 64 63 63 64 66 66 65 63 65 66 68 71 73 76 79 83 85 86 88 86 84 84 85 86 89 93 98 103 107 111 209 255 255
254 253 191 58 57 57 56 56 55 54 52 51 51 51 51 51 51 51 51 49 48 46 43 43 45 48 53 58 63 68 68 67 66 71 73 75 77 78 79 80 79 79 78 77 79 79 80 82 82 84 86 89 90 89 89 89 90 90 91 90 87 84 80 80 81 80 86 85 84 84 87 91 95 96 95 94 92 93 91 89 88 91 93 93 95 94 92 89 89 92 95 97 94 91 89 87 89 94 100 97 88 78 70 73 78 85 90 88 82 77 83 88 91 90 83 79 78 80 84 87 89 86 85 84 85 86 87 87 85 85 85 89 86 85 87 91 91 90 92 93 95 97 99 99 98 97 98 98 98 98 98 97 97 97 98 99 98 95 92 88 87 83 85 88 91 95 96 94 92 92 92 91 92 92 91 93 93 93 93 93 94 93 91 92 92 92 91 91 90 88 90 89 89 89 90 90 90 90 88 86 85 83 81 79 78 76 76 76 75 68 64 62 62 65 69 74 76 75 73 71 73 72 68 62 60 61 64 66 65 62 59 63 65 67 69 72 75 78 81 84 85 86 85 84 84 85 86 88 90 95 100 104 108 209 255 255
255 253 192 60 57 57 57 54 55 55 53 51 51 50 50 50 50 50 50 48 47 45 41 42 45 47 52 58 63 67 68 68 68 71 72 74 77 77 78 80 78 78 78 78 79 79 79 81 82 84 85 87 88 89 90 88 89 89 90 89 85 81 78 79 80 81 89 87 83 80 82 86 91 94 91 90 90 96 98 99 99 103 106 107 106 103 99 95 95 97 102 106 108 109 108 107 110 113 117 113 107 101 94 93 94 96 96 94 90 86 81 87 95 102 95 86 76 72 77 81 84 85 87 88 87 86 86 85 85 88 90 93 86 84 86 88 89 89 90 92 93 95 97 97 96 96 97 98 98 97 97 96 97 97 99 99 96 94 90 87 86 84 85 87 90 94 95 93 93 91 90 90 91 90 90 93 92 91 92 92 91 91 91 92 90 90 90 89 88 88 90 89 88 88 89 89 89 90 87 85 85 82 80 78 78 76 75 75 75 67 63 62 62 64 68 72 76 76 74 71 73 71 68 63 61 61 64 67 65 62 59 63 65 66 69 71 74 77 80 82 84 86 84 83 84 85 85 86 87 92 97 101 105 208 255 255
255 253 192 62 58 57 57 53 55 54 53 51 50 50 50 49 49 49 48 47 47 46 41 42 44 46 51 58 63 67 67 67 68 71 72 73 76 76 77 79 78 78 78 78 78 79 79 81 82 84 85 87 88 88 89 91 92 92 92 91 87 83 82 82 83 86 92 90 86 82 83 87 91 95 93 92 91 94 98 102 105 110 114 117 117 114 110 106 109 113 118 124 128 132 134 135 135 135 135 134 131 128 123 119 116 113 111 110 109 107 97 99 104 109 102 93 84 81 82 81 80 81 84 85 85 84 83 81 81 84 86 88 82 82 84 85 88 87 87 88 90 93 94 95 95 95 97 97 97 97 96 96 96 96 98 98 95 93 90 86 84 83 85 87 88 92 93 92 92 90 89 89 89 90 90 91 91 91 91 91 90 90 90 90 89 88 88 87 86 88 89 87 87 88 89 88 88 89 86 84 84 82 80 78 77 76 74 73 74 66 62 61 61 63 67 71 75 75 74 71 73 71 67 63 61 61 63 65 64 61 58 63 65 66 69 71 74 76 79 82 83 85 83 83 83 85 84 85 86 89 93 97 102 207 255 255
255 253 193 64 59 58 57 53 55 55 53 51 50 50 49 48 48 47 46 47 47 47 42 43 44 46 51 58 63 66 66 67 67 71 72 73 74 75 76 77 78 78 78 78 79 79 80 81 82 84 85 87 88 88 90 93 94 94 93 91 88 85 83 83 85 87 92 91 88 86 86 87 91 95 95 95 93 93 96 102 109 116 122 127 129 128 126 124 129 133 139 144 149 154 157 158 156 154 152 152 152 152 149 144 139 134 130 130 130 132 125 121 118 113 107 104 103 103 99 92 83 83 85 85 83 82 81 78 77 80 81 80 79 80 83 84 87 86 85 86 89 91 92 93 93 95 96 97 97 97 97 96 95 95 96 95 93 92 89 85 83 83 85 87 88 91 92 91 89 88 88 88 87 88 89 89 90 90 90 89 88 89 89 88 87 86 86 86 86 88 87 85 86 86 87 86 86 86 84 84 83 82 81 79 76 76 74 72 72 65 61 60 60 63 67 71 75 75 74 71 73 71 66 63 61 62 63 65 63 61 58 63 65 66 69 70 74 76 79 82 83 85 83 82 83 85 84 85 85 87 92 96 100 206 255 255
255 254 194 65 60 58 57 53 54 54 52 51 50 50 49 47 47 46 45 46 47 47 43 42 43 45 50 56 62 66 66 67 67 71 73 73 72 74 75 76 78 78 78 79 79 80 81 82 83 84 85 87 88 88 89 93 94 94 93 90 87 85 83 84 85 86 87 88 89 90 90 90 90 94 97 98 97 94 96 101 113 122 130 137 142 144 146 147 154 158 161 165 169 173 177 177 174 169 166 169 170 170 169 165 160 155 151 151 154 158 161 152 136 118 113 119 130 137 128 113 95 92 89 86 83 81 79 77 78 78 75 70 76 79 82 84 86 85 83 84 87 90 91 91 92 93 95 96 96 96 96 95 95 94 94 94 93 92 89 84 82 83 84 86 87 90 91 90 87 87 87 87 86 87 88 87 89 90 89 87 88 88 87 85 85 85 85 85 86 87 85 85 85 86 85 84 84 83 83 83 82 81 81 79 77 76 74 72 71 64 60 59 59 63 67 72 74 74 73 71 72 70 66 63 62 62 62 63 62 62 59 63 64 64 67 69 72 76 79 82 83 85 81 80 82 84 85 86 86 88 92 95 99 206 255 255
255 254 194 67 61 59 56 52 52 52 50 51 50 50 48 45 45 43 44 44 45 45 42 41 42 44 49 54 60 65 68 69 69 72 72 72 72 75 75 76 78 79 80 81 81 82 83 84 85 86 87 89 90 89 89 91 91 91 90 88 85 82 80 81 81 82 80 84 88 93 94 92 89 91 97 102 104 104 107 112 122 132 141 149 156 161 165 168 174 175 175 177 180 183 185 185 183 180 177 180 180 180 179 176 174 172 169 169 170 172 186 176 158 138 136 147 163 173 161 143 122 113 106 99 89 80 76 79 84 85 81 76 79 79 80 83 84 84 82 84 86 87 88 89 90 91 93 94 95 96 95 94 93 93 92 92 91 90 86 82 81 81 82 84 87 90 90 89 88 87 87 86 86 87 87 87 88 89 89 87 87 87 85 83 83 84 83 84 85 85 83 83 83 83 82 82 82 81 81 81 81 80 80 78 77 75 72 70 69 62 58 57 57 61 66 71 74 74 72 70 71 69 66 63 62 61 62 61 61 61 59 63 64 64 66 68 71 75 78 81 81 82 79 79 81 84 85 86 88 90 95 98 102 207 255 255
254 254 194 67 62 59 56 51 52 51 50 51 51 49 47 45 44 43 43 44 44 45 42 41 42 44 49 54 59 65 68 70 69 72 71 71 73 74 75 76 79 80 81 82 83 84 84 85 86 87 87 89 90 90 90 91 92 92 92 91 88 85 83 83 82 83 80 84 90 97 97 95 92 93 100 107 114 115 119 123 130 139 147 154 161 167 172 176 180 181 180 182 185 187 188 188 187 186 186 189 189 187 185 183 183 183 181 180 179 178 195 190 177 164 165 174 188 195 185 169 151 137 127 116 99 83 75 78 86 89 87 81 79 79 80 83 83 83 82 83 84 86 88 87 88 90 92 94 95 96 95 94 92 91 91 91 90 88 85 82 80 80 82 84 87 90 90 89 88 87 87 86 87 86 86 88 88 89 89 88 87 86 85 83 83 83 83 84 84 84 83 82 82 82 81 80 80 80 80 80 80 80 79 78 78 75 72 70 69 61 57 56 57 61 66 71 74 74 72 70 70 69 66 63 61 61 61 60 61 61 60 62 64 65 67 69 72 74 77 79 79 80 78 77 80 83 85 87 88 91 96 100 103 207 255 255
254 254 195 69 63 60 56 50 51 51 50 53 51 49 46 44 43 42 43 43 43 44 41 40 42 44 48 53 58 64 68 70 71 73 72 72 75 75 76 78 80 82 84 85 86 87 87 88 88 88 89 90 91 91 92 93 95 96 97 96 93 89 88 87 86 86 84 89 94 98 98 97 96 97 104 112 121 123 128 132 136 142 147 153 158 165 170 174 178 179 180 182 184 185 185 187 189 190 191 194 194 192 188 187 188 189 188 185 183 180 195 197 193 190 192 198 204 208 201 191 178 161 150 137 115 91 78 77 84 88 88 85 78 77 79 81 80 81 80 82 81 83 86 86 87 89 91 92 94 95 95 93 91 90 89 89 89 87 84 81 79 78 81 84 87 89 91 90 89 87 87 87 87 87 87 88 89 89 89 89 87 86 85 85 83 83 83 83 83 83 82 81 81 80 80 79 79 79 79 79 79 80 78 77 78 74 71 69 68 60 56 56 56 59 64 70 74 73 71 69 69 68 67 64 62 61 60 59 60 60 62 62 64 66 68 70 72 73 75 76 76 78 77 77 79 82 84 86 88 91 96 100 103 207 255 255
253 254 196 70 64 61 56 49 50 51 50 52 51 48 45 43 42 41 41 42 42 44 40 40 41 42 47 52 58 64 68 70 71 74 75 75 75 76 77 79 81 84 86 87 88 89 89 90 90 90 91 92 92 93 95 94 97 99 101 101 98 95 91 89 88 88 91 93 93 93 91 93 95 99 106 113 121 124 130 134 137 139 142 145 148 154 158 163 166 170 174 178 179 180 179 182 185 188 191 193 193 192 190 190 190 190 190 187 185 183 192 198 201 204 205 207 208 211 208 202 194 180 172 161 141 113 92 81 81 81 80 76 74 75 77 79 78 79 79 78 78 81 83 83 85 88 90 92 94 95 94 93 90 88 88 88 87 84 82 81 78 77 80 84 87 89 91 91 89 89 89 88 88 88 88 89 89 90 90 91 88 86 86 85 83 82 83 83 82 81 81 80 80 79 78 77 77 77 77 77 78 79 78 78 77 74 71 68 66 59 55 54 55 59 64 70 73 73 71 69 69 68 67 64 62 60 59 58 59 59 62 63 64 66 69 70 71 72 72 73 74 76 76 77 79 81 84 85 87 89 93 96 99 205 255 255
253 253 196 71 65 62 57 48 50 51 51 52 49 47 45 43 42 40 39 40 42 43 41 40 40 41 46 51 57 63 68 71 72 75 77 76 76 77 78 80 82 85 87 88 89 90 90 91 92 91 92 93 94 94 95 90 92 94 98 98 96 92 88 85 83 83 93 92 86 80 79 81 86 94 101 107 113 123 129 133 136 138 140 142 143 148 152 156 158 162 168 174 176 176 174 176 180 184 187 190 189 190 192 191 190 188 189 188 187 187 195 199 201 203 201 202 205 211 211 207 203 195 191 185 170 141 115 94 84 77 70 63 70 73 75 78 76 77 77 75 77 80 80 82 83 87 90 92 93 94 94 92 89 87 87 87 85 84 82 80 78 78 80 83 85 90 92 91 89 89 89 88 88 90 90 90 91 92 92 91 88 87 86 84 83 83 82 82 82 81 80 79 79 78 77 76 76 75 76 77 78 78 79 79 76 74 70 67 64 58 54 53 54 58 63 69 72 71 71 69 68 67 67 65 63 60 57 57 58 59 62 65 66 67 69 70 71 72 72 72 73 74 75 76 79 81 83 84 85 87 90 93 95 204 254 254
252 253 196 71 66 63 58 51 51 52 52 51 49 48 46 44 43 42 40 41 42 44 41 40 40 41 46 51 57 63 68 71 72 75 76 77 76 76 77 81 83 85 87 88 90 91 92 92 93 93 93 94 95 96 97 91 91 92 95 93 92 88 84 80 77 76 88 87 81 77 80 84 91 99 104 109 114 123 128 131 134 137 140 142 144 148 150 152 155 159 164 169 172 174 174 175 177 179 181 183 185 187 190 191 191 190 192 191 191 192 197 198 198 199 198 200 202 207 207 207 208 206 205 201 193 172 150 129 111 91 72 57 68 73 74 78 75 74 71 72 75 78 77 79 82 87 91 92 93 93 93 93 90 88 87 87 86 83 81 79 77 78 80 83 85 89 91 90 90 89 89 88 88 90 90 89 91 92 92 90 88 87 87 83 83 83 82 82 82 81 80 79 79 78 77 76 76 75 75 76 77 77 78 77 75 73 70 67 65 58 53 50 52 58 64 70 72 71 71 70 68 66 66 65 63 60 57 57 58 58 60 65 66 65 67 68 69 71 72 72 72 73 74 75 79 81 83 84 85 86 88 91 93 203 255 255
252 253 197 73 68 64 60 56 55 53 52 51 50 49 48 46 45 44 44 44 44 44 40 40 42 42 47 52 59 63 68 72 74 74 75 76 76 74 76 80 82 85 88 89 89 92 94 94 94 93 93 93 97 99 102 100 96 93 93 88 87 86 81 77 74 72 79 81 82 90 100 108 114 118 120 123 128 128 127 128 131 136 141 147 152 153 152 151 160 161 160 164 169 174 177 179 177 176 175 174 178 183 186 192 194 195 197 195 194 194 196 195 193 194 199 202 201 195 197 203 210 216 213 207 203 202 199 190 167 128 91 63 71 74 75 78 75 69 63 69 73 75 75 76 82 89 94 93 92 91 93 94 93 90 87 87 87 81 79 76 75 75 79 83 86 86 88 90 92 92 90 88 89 90 89 88 92 92 90 87 88 88 86 81 83 85 82 82 82 80 79 79 80 78 77 77 77 76 75 74 74 73 73 74 76 72 69 67 65 56 49 46 48 57 65 72 71 71 72 72 67 64 65 63 62 61 59 55 56 56 59 62 64 64 64 64 66 68 72 73 72 73 73 74 78 80 83 84 85 87 89 92 94 204 255 255
253 254 197 72 66 64 60 56 55 54 53 52 51 50 49 46 46 45 45 45 44 43 41 40 40 40 45 51 58 64 69 71 72 76 76 76 75 75 77 80 83 86 88 89 91 93 95 96 97 97 96 96 98 99 102 105 102 98 94 88 84 82 82 86 91 95 106 109 110 115 124 130 132 131 132 133 135 136 137 138 143 144 145 147 149 149 148 148 154 158 161 165 167 170 172 175 177 179 182 181 182 184 185 187 189 190 192 194 196 198 198 197 194 193 197 199 197 195 198 203 210 218 217 213 208 211 212 208 191 164 136 113 104 90 78 76 76 74 70 71 72 71 69 72 78 85 89 89 90 92 95 94 89 83 86 87 85 82 79 76 74 76 79 82 86 87 89 90 91 90 89 88 87 88 89 91 92 92 90 88 88 87 86 84 83 83 82 82 81 80 79 79 79 77 76 76 77 74 75 75 74 73 73 73 74 72 69 66 64 55 49 48 49 57 65 71 71 70 71 72 66 64 65 64 62 60 57 55 56 57 59 59 61 63 64 65 67 68 71 72 72 73 74 75 78 80 82 83 84 86 88 91 93 203 255 255
253 254 196 71 67 65 61 55 55 54 53 52 51 50 49 47 46 45 45 44 44 42 41 39 39 39 44 50 58 64 69 71 72 77 76 76 76 77 78 81 84 87 89 91 92 93 95 98 97 98 97 97 98 99 102 106 101 96 89 87 86 86 90 95 100 104 117 120 121 124 132 135 136 133 132 133 134 137 140 144 149 150 150 149 149 149 149 150 153 158 163 168 168 169 170 172 177 181 187 187 186 187 186 185 186 188 190 193 195 197 200 198 195 193 195 196 194 194 198 203 211 217 216 213 210 214 217 219 210 195 177 161 148 124 100 86 83 77 70 66 69 72 73 74 78 83 85 86 88 91 94 92 87 80 86 87 85 82 79 76 74 76 79 82 85 88 90 90 91 90 89 88 86 88 90 92 91 91 90 90 88 87 86 85 83 82 82 81 81 80 80 79 78 77 76 75 75 75 75 75 74 73 73 73 73 72 69 66 63 55 50 47 50 57 64 70 70 70 71 72 65 63 65 65 62 60 57 55 56 57 59 59 60 62 64 65 67 68 70 71 72 72 73 75 77 79 81 82 83 84 87 89 91 203 255 255
254 255 197 72 68 66 62 54 55 54 54 53 52 51 49 47 46 45 44 44 43 42 39 37 37 38 44 49 56 62 68 71 72 77 77 77 77 79 80 82 84 87 90 92 93 94 96 98 98 99 98 97 98 98 101 103 98 90 82 84 89 95 102 105 106 108 121 123 123 123 128 130 131 127 127 128 131 133 139 145 152 154 154 153 151 151 153 155 155 159 165 171 172 171 170 172 177 183 191 189 188 188 189 187 187 188 189 191 192 193 201 199 196 195 193 192 192 193 198 203 209 213 212 210 208 213 217 222 222 217 209 201 192 166 135 112 100 87 71 60 67 75 81 79 81 83 83 84 86 89 91 89 85 81 86 87 85 82 78 76 74 76 78 81 84 86 89 90 90 89 88 88 86 88 91 93 90 89 89 90 87 85 85 85 83 82 82 80 80 80 80 78 76 75 75 74 73 75 75 74 72 72 73 73 73 72 69 66 62 57 51 47 50 57 63 68 70 70 71 71 64 62 64 64 61 59 56 55 57 56 57 59 60 61 62 64 66 67 69 70 70 70 72 74 77 79 81 81 82 83 85 88 90 203 255 255
254 255 198 73 69 67 62 54 55 55 54 53 52 51 50 48 46 45 43 43 43 43 38 37 37 39 45 50 56 60 65 69 73 76 77 77 78 80 82 84 87 90 93 94 95 96 96 97 96 96 95 96 97 98 99 101 98 92 86 86 92 100 109 115 119 123 126 125 123 120 120 121 122 121 122 126 132 132 138 144 151 154 154 154 149 149 152 155 158 163 168 174 174 174 173 175 179 183 186 187 188 189 192 194 195 194 192 189 187 186 199 199 196 196 193 192 192 194 198 203 206 210 209 207 206 209 212 216 219 220 220 220 217 202 182 162 142 116 86 67 70 77 82 88 90 87 85 83 83 83 86 87 88 86 86 86 85 83 80 77 75 74 76 79 83 85 88 90 90 89 88 87 86 87 89 91 88 88 88 88 86 85 85 85 83 83 81 81 80 80 79 78 76 76 75 73 72 73 75 74 72 72 73 73 73 71 68 65 61 57 53 49 51 56 61 66 69 69 69 69 63 62 63 62 60 58 55 54 55 56 57 58 59 59 61 62 64 65 67 68 69 70 71 73 75 78 79 80 80 81 83 85 87 202 255 255
255 255 198 73 69 68 63 55 56 55 54 54 53 51 50 48 46 44 43 43 43 42 38 37 38 39 45 50 57 62 66 70 73 76 78 78 79 80 83 86 89 91 93 94 96 97 97 98 97 97 99 101 103 104 104 104 103 101 99 98 100 105 114 126 137 142 126 117 110 103 101 100 101 103 109 116 125 133 139 143 149 152 152 147 138 138 142 148 152 157 162 167 171 174 176 178 180 182 183 185 187 189 192 194 195 194 191 187 185 184 193 195 196 196 193 192 192 194 197 200 202 208 209 209 209 210 211 213 216 219 222 224 216 212 209 207 192 163 130 109 97 86 75 89 92 89 86 84 83 82 83 85 88 89 86 86 85 83 81 78 74 73 75 78 82 85 87 88 90 89 88 87 86 87 88 89 87 87 87 86 86 86 85 84 83 83 83 82 81 81 80 79 77 76 75 74 73 72 73 73 72 71 72 72 73 71 68 65 62 56 53 52 51 54 59 66 69 69 68 67 63 61 62 61 59 57 54 53 54 55 56 57 58 58 61 61 63 64 66 67 68 69 71 72 74 77 78 79 80 81 83 85 87 202 255 255
255 255 197 73 69 67 63 56 56 54 54 54 53 51 50 48 46 44 43 43 43 42 39 38 39 40 45 50 57 63 67 70 72 75 78 79 80 82 84 87 91 92 94 94 97 97 98 99 100 102 105 107 109 109 108 104 104 105 107 109 112 117 125 132 138 138 109 95 85 78 76 77 79 85 94 105 116 129 135 137 143 148 147 141 130 129 132 139 144 147 151 156 163 169 175 179 180 180 180 184 187 188 189 190 190 189 188 186 185 185 187 190 193 193 192 191 190 193 195 197 198 205 208 210 210 211 211 210 212 216 220 222 212 214 223 233 224 202 176 158 135 109 81 89 89 87 86 85 85 84 84 85 87 89 86 85 85 83 81 77 74 74 75 77 79 84 87 87 90 89 88 87 86 87 88 89 88 87 87 86 86 86 85 83 83 83 83 83 83 82 81 80 78 77 75 74 74 73 72 73 73 71 72 72 73 71 68 65 63 55 54 55 52 53 57 64 69 69 67 65 63 61 62 61 59 57 54 53 55 54 56 56 56 57 59 60 62 63 65 66 67 68 70 72 74 77 78 79 80 81 84 87 89 202 255 255
255 254 197 74 69 67 63 56 57 56 55 54 53 52 50 48 46 45 43 41 41 41 40 39 40 41 45 51 58 65 68 71 73 76 78 79 81 84 86 89 91 93 94 95 98 98 99 100 105 109 114 114 114 113 111 100 96 97 102 116 130 141 143 130 115 97 71 56 48 44 47 51 57 67 81 95 107 121 124 124 130 138 140 135 126 125 127 133 135 135 138 143 152 161 169 175 177 178 178 184 186 185 182 181 180 179 182 184 186 187 182 184 188 189 189 187 187 191 192 194 194 200 204 207 210 211 210 209 210 212 215 218 210 213 222 233 230 222 213 205 181 148 108 90 83 81 82 85 87 88 85 83 84 85 86 85 85 83 79 76 75 74 75 75 77 85 88 87 89 88 87 87 85 86 87 89 88 87 86 85 85 85 84 84 83 83 83 84 84 83 82 81 79 78 76 75 74 74 73 72 73 71 72 72 72 70 67 64 62 56 55 56 53 53 55 61 67 69 68 63 61 60 61 60 58 56 53 52 53 52 55 56 55 56 57 59 61 62 64 65 66 66 69 71 74 76 78 79 80 82 85 89 91 203 255 255
255 255 198 74 70 67 64 57 58 57 55 54 53 52 50 49 47 45 42 40 41 41 41 39 41 42 47 52 60 66 69 72 75 78 78 80 82 85 88 90 92 95 96 96 98 100 103 105 111 115 117 114 109 105 100 91 88 92 100 117 131 138 127 99 71 47 43 39 37 40 48 55 63 74 85 96 106 114 113 112 116 126 131 130 126 125 127 132 131 131 134 139 145 152 158 164 170 175 177 178 179 178 176 175 174 175 177 181 183 182 177 179 182 183 180 178 179 184 189 191 190 193 196 199 204 206 205 205 207 208 210 212 216 214 213 216 215 216 217 219 208 188 158 114 93 84 77 79 83 87 86 84 83 83 85 84 84 83 80 77 75 73 74 75 77 82 86 88 89 88 87 87 85 86 88 89 87 85 85 84 84 84 84 85 83 83 82 85 85 84 83 82 80 79 77 76 75 75 74 72 70 70 71 72 72 69 67 64 61 58 56 55 54 53 54 59 67 69 68 62 60 59 60 59 57 55 53 51 51 51 54 55 55 55 57 58 60 61 63 64 65 65 68 70 73 76 79 80 81 83 87 90 92 204 255 255
254 255 198 74 70 67 63 57 58 56 55 54 54 52 50 48 46 44 42 41 41 42 42 41 42 42 48 53 60 66 70 73 74 78 78 80 82 85 88 92 93 95 97 97 100 103 106 111 117 119 118 110 101 91 83 84 90 100 112 119 118 110 89 64 43 27 30 32 35 40 51 60 68 75 81 88 96 110 109 108 110 118 124 126 122 120 123 129 130 133 136 139 142 144 147 154 163 170 175 170 169 170 171 172 173 175 175 176 176 175 172 173 176 177 172 170 172 179 185 188 187 190 193 196 200 202 203 204 204 206 207 209 215 211 206 208 212 215 216 221 219 210 194 141 110 90 73 73 77 84 86 85 83 82 84 84 85 83 80 77 75 73 74 75 76 82 86 88 89 88 87 86 85 86 88 89 86 85 85 85 84 84 84 85 83 82 83 86 87 86 84 83 81 79 77 76 75 75 74 72 70 70 71 72 72 69 67 64 61 57 56 55 54 53 54 58 66 69 68 63 60 59 60 59 57 55 52 51 52 52 54 54 55 55 57 58 60 61 63 64 65 65 67 70 73 76 79 81 82 85 89 92 94 204 255 255
254 255 199 76 70 67 64 58 58 57 54 56 55 53 50 48 46 43 42 42 42 41 43 42 43 44 49 55 61 68 72 75 74 77 79 81 85 87 90 93 94 95 96 99 101 105 110 116 119 117 112 101 89 78 71 82 99 116 129 119 97 68 42 31 27 27 30 35 41 47 58 67 74 77 77 78 82 105 109 107 108 114 120 122 117 114 116 123 131 136 139 142 140 138 139 145 153 161 168 160 159 162 167 170 173 175 175 172 170 169 167 169 171 169 164 163 166 174 181 185 184 189 192 195 198 200 200 202 202 205 206 207 211 206 200 205 213 215 213 216 218 219 216 169 133 103 74 67 71 80 86 86 84 80 82 84 86 83 81 77 73 72 73 74 75 82 86 86 89 89 87 85 85 86 87 88 86 85 85 85 84 84 84 84 83 82 84 86 87 87 85 84 82 80 78 78 77 74 74 73 72 70 70 71 71 69 67 64 61 56 56 57 54 53 54 58 65 68 67 62 60 57 58 59 57 55 51 50 52 52 53 53 54 55 57 57 59 60 63 64 64 65 67 69 71 74 77 80 82 86 89 91 93 204 255 255
251 253 198 77 72 68 65 60 60 59 57 57 55 54 52 50 49 46 44 42 41 40 42 42 43 45 51 58 65 71 74 77 78 79 81 84 88 92 94 95 94 95 98 101 99 106 113 117 108 96 83 75 75 78 83 95 114 128 133 103 69 38 25 22 20 20 38 46 53 63 74 84 92 96 92 85 81 88 99 108 106 104 111 120 122 118 114 116 129 135 139 142 140 136 132 131 133 134 135 143 148 153 158 163 165 166 168 170 171 171 164 161 159 155 154 156 161 168 175 181 185 189 190 191 193 193 193 194 197 201 204 206 206 202 197 201 206 209 210 208 213 219 222 197 164 127 87 73 72 81 87 84 79 73 78 81 83 81 77 73 71 69 70 73 76 84 86 84 86 87 87 85 86 85 84 85 86 85 84 81 83 84 83 81 84 85 85 84 84 85 84 83 83 82 80 78 76 77 76 76 74 72 71 71 70 70 68 65 63 58 56 56 54 54 56 60 63 65 64 61 58 56 55 54 54 54 53 52 53 53 53 54 55 57 57 58 59 60 62 62 62 62 64 66 68 72 74 77 80 83 86 88 89 203 255 255
250 253 199 78 73 69 66 61 61 60 59 56 55 54 52 51 50 47 45 43 42 41 42 43 44 46 52 59 66 72 75 79 81 80 83 86 89 93 94 94 96 98 100 101 102 104 105 103 94 83 73 70 75 82 92 110 118 115 104 71 46 30 28 31 32 34 55 69 82 97 110 118 121 119 113 107 102 102 108 111 103 97 100 108 110 105 102 104 116 126 134 142 143 141 139 139 138 136 132 139 144 148 152 155 157 160 163 166 168 170 164 160 157 153 153 156 160 167 173 178 181 188 191 192 193 193 193 194 196 199 203 206 202 200 198 200 206 209 210 207 210 214 218 202 175 141 104 85 78 79 82 81 79 76 79 82 83 81 78 73 69 68 69 73 77 83 85 85 86 87 88 87 86 86 85 83 85 86 85 84 84 83 83 83 85 85 86 85 85 85 85 84 83 82 79 77 76 75 76 76 73 71 70 70 69 68 66 64 62 59 57 56 54 55 57 61 63 64 63 62 59 56 55 54 54 53 52 51 51 51 52 53 54 56 57 58 59 61 62 62 62 63 65 67 68 71 73 76 79 82 84 85 87 202 255 255
250 253 199 79 73 69 65 61 62 60 59 55 54 54 53 51 50 47 45 44 43 43 42 43 44 46 52 59 66 71 76 80 82 83 85 87 88 91 93 95 98 101 102 103 108 106 99 89 79 71 66 71 84 96 109 124 116 95 70 42 31 31 39 47 50 53 72 87 103 121 137 144 144 135 129 125 122 123 119 112 99 91 90 92 94 93 93 95 107 120 131 144 147 148 148 149 147 142 136 142 146 148 149 150 153 157 159 162 166 169 164 160 158 155 156 158 161 168 172 175 177 187 191 192 194 194 195 196 198 200 202 205 200 199 199 199 206 210 212 209 208 208 209 201 179 149 117 96 83 78 77 78 79 80 81 82 82 81 79 74 69 67 69 73 78 82 84 85 85 87 88 88 85 85 86 83 85 86 85 85 84 84 83 84 85 85 87 87 87 87 85 84 83 82 79 77 75 74 75 75 72 70 69 69 69 67 66 64 61 60 58 56 54 55 57 60 62 63 63 63 60 58 56 56 55 53 52 51 50 50 51 52 54 55 57 58 60 62 62 63 63 64 66 67 69 71 73 76 79 81 83 85 86 202 255 255
250 253 199 80 72 68 65 61 63 61 59 56 55 54 53 51 50 48 46 45 44 43 43 43 44 47 52 59 67 73 78 81 82 86 86 87 89 90 93 97 100 102 104 108 118 113 99 80 65 58 59 73 99 122 141 136 112 78 42 25 23 35 52 63 69 73 84 93 105 123 141 149 149 138 131 128 130 140 127 109 94 87 81 79 81 87 90 93 108 121 134 147 151 153 153 153 151 146 142 148 152 153 153 153 152 155 159 163 167 169 165 161 159 157 158 160 164 169 171 173 175 184 189 192 195 196 197 198 199 201 203 205 199 198 198 199 205 210 214 211 207 203 201 200 181 152 121 101 87 80 77 78 80 82 83 82 82 82 78 74 70 69 70 73 77 82 85 86 87 88 88 88 87 86 86 86 87 87 86 86 85 84 85 86 86 85 88 88 89 88 87 86 84 82 79 76 74 74 74 73 71 69 68 68 68 67 65 63 61 59 57 56 55 56 57 59 61 63 64 63 60 59 59 58 56 54 53 52 50 49 47 53 55 55 56 58 59 60 63 64 63 63 65 67 69 71 74 77 79 81 83 84 85 201 255 255
250 253 199 80 72 68 66 62 64 62 58 57 56 56 55 52 51 49 47 46 45 44 43 44 45 48 54 61 68 75 79 82 84 88 88 88 89 89 93 97 101 104 104 105 114 105 89 70 63 67 79 98 117 130 137 114 91 67 44 43 48 59 72 83 92 100 104 104 106 118 136 149 155 151 145 143 145 149 127 104 91 89 82 78 85 97 105 107 116 126 137 146 149 151 152 153 153 152 151 156 158 158 160 160 159 158 159 163 166 167 166 163 162 160 161 164 167 170 171 172 173 180 185 190 194 197 199 200 202 203 205 206 201 198 197 199 204 209 214 213 209 204 200 198 177 144 109 92 85 84 85 83 81 78 83 83 84 83 78 73 70 69 71 73 76 83 85 87 87 88 88 89 88 87 87 88 89 88 87 86 85 85 87 87 87 86 88 89 90 89 88 86 84 81 78 75 72 72 73 72 69 68 67 67 67 66 64 62 60 59 58 57 55 56 57 60 62 63 64 62 60 60 60 58 57 56 55 53 52 52 50 55 56 56 57 58 59 59 62 63 63 62 65 67 69 72 74 77 79 81 82 83 83 200 255 255
250 253 199 79 72 68 66 62 63 62 59 57 56 55 54 53 51 50 48 47 46 45 44 44 45 48 54 62 70 76 81 84 87 89 90 90 90 89 93 98 104 105 102 98 99 87 72 58 64 81 103 121 125 122 115 92 76 65 58 69 80 90 98 104 112 118 115 110 110 119 136 151 160 160 157 157 158 154 128 103 90 91 85 79 88 104 115 117 119 127 136 145 147 149 152 155 157 158 159 159 160 161 164 164 164 162 162 164 166 167 167 166 165 164 165 168 170 172 172 172 172 177 182 188 194 197 200 201 203 205 206 207 204 201 198 198 202 208 214 215 212 208 203 197 174 140 105 89 85 86 88 84 80 76 83 84 85 83 79 74 70 68 71 73 76 83 85 86 88 88 88 89 89 89 89 89 89 89 88 86 86 87 88 87 88 88 88 91 92 90 88 86 84 81 78 75 72 71 72 71 69 67 66 66 66 66 64 62 60 59 58 57 55 56 57 60 62 63 63 62 61 61 60 59 59 58 57 56 55 55 54 56 56 56 57 58 59 59 62 63 63 62 65 67 69 72 74 77 79 81 81 81 81 200 255 255
249 253 199 78 73 70 67 63 64 63 61 58 55 55 54 53 52 51 49 49 48 47 44 45 46 50 56 63 71 76 81 85 88 89 92 93 90 90 94 99 106 105 98 87 78 64 54 49 70 97 124 136 125 106 87 79 74 73 80 99 114 123 124 123 125 126 114 112 115 124 139 152 160 162 163 167 170 155 129 105 93 93 88 83 92 108 119 121 117 123 133 143 147 150 153 159 163 163 163 159 160 162 166 167 168 168 166 166 167 170 170 169 169 169 170 173 174 176 175 173 172 177 181 186 192 197 200 202 204 206 207 209 206 204 202 198 201 206 213 217 216 214 209 197 173 142 110 94 87 86 87 83 79 76 83 85 86 83 80 75 70 67 70 73 76 84 86 86 88 89 90 90 90 90 90 89 90 90 89 87 88 89 88 87 89 90 89 92 93 91 88 87 85 82 78 76 73 71 71 70 68 65 65 65 66 65 64 62 60 59 59 57 56 57 58 61 62 62 62 62 62 61 61 59 60 60 59 59 59 59 60 56 55 56 57 58 59 61 62 63 63 63 66 68 70 72 75 78 79 80 80 80 79 199 255 255
249 253 199 79 74 71 67 65 65 64 62 57 55 55 54 52 52 52 50 49 49 49 46 47 48 50 57 64 72 79 84 87 89 90 93 94 93 91 96 102 108 101 90 76 59 55 57 65 83 100 114 119 116 108 103 112 109 106 110 125 137 143 138 127 118 109 95 100 113 128 138 144 147 148 154 161 165 149 129 110 97 92 86 82 89 102 112 115 117 125 135 148 153 156 156 160 160 159 156 158 161 166 170 172 175 176 177 177 177 179 175 173 173 173 175 177 179 180 179 177 175 177 180 185 191 195 198 200 202 204 205 206 207 207 206 202 202 204 210 217 219 219 215 200 180 156 130 110 95 84 79 78 79 82 84 86 88 85 80 75 71 67 70 73 77 84 86 86 89 90 90 91 92 92 92 90 92 92 91 90 90 90 89 88 91 92 93 92 93 93 89 88 86 84 79 76 73 72 71 70 68 66 65 66 67 66 65 63 61 59 59 58 56 57 58 60 62 62 61 60 60 60 60 60 60 61 60 60 60 61 62 56 54 55 57 58 59 61 62 63 63 64 66 68 70 73 75 78 79 78 78 78 77 198 255 255
249 253 200 80 75 71 68 66 66 65 62 58 57 56 55 54 54 53 51 49 49 49 46 47 48 51 58 65 73 81 86 88 89 91 94 96 97 94 99 105 107 97 83 66 50 55 67 82 95 103 110 116 123 128 135 148 146 141 141 146 150 148 138 122 109 98 96 104 116 129 134 138 142 149 155 158 157 137 124 113 99 87 81 80 86 95 104 112 120 130 140 151 156 157 157 158 158 157 155 163 168 172 176 178 180 180 181 183 185 184 179 177 177 177 179 181 184 184 183 181 181 180 183 187 192 194 196 197 199 201 202 203 207 209 209 207 203 204 209 216 217 218 216 206 189 168 143 121 102 87 78 78 81 85 86 87 89 86 81 75 71 67 70 73 77 83 86 87 89 90 91 92 93 93 92 91 93 94 92 90 90 90 90 90 92 92 93 92 92 92 89 88 86 84 80 77 74 73 72 70 69 67 66 67 68 67 66 64 63 61 60 59 56 56 58 59 61 61 61 59 61 61 60 60 60 59 59 59 58 59 59 55 54 56 57 58 59 60 62 63 63 64 66 68 71 73 76 78 79 78 77 77 76 198 255 255
249 253 200 80 74 70 67 66 66 65 61 58 57 57 56 54 54 53 52 50 49 48 46 47 48 50 58 66 74 82 87 89 89 91 94 97 98 96 100 105 107 94 76 57 46 55 72 91 104 113 121 128 139 148 158 171 173 170 167 164 157 146 132 117 104 97 108 115 120 123 123 129 140 154 158 155 146 123 118 115 99 82 76 78 84 91 100 112 123 134 143 151 154 155 156 159 161 161 161 171 176 177 180 180 181 181 181 185 188 188 183 181 181 179 181 184 187 188 187 186 186 184 186 189 192 194 195 195 196 197 198 199 206 209 211 211 206 205 207 214 215 216 215 213 197 174 148 126 108 93 83 80 81 84 86 87 88 87 81 76 71 68 70 73 76 83 86 88 89 90 91 92 94 93 92 92 94 93 92 91 91 91 91 91 92 92 93 92 92 91 89 88 86 83 80 77 75 74 72 70 69 67 66 67 68 67 66 64 63 62 60 58 56 57 58 59 61 61 61 60 61 61 61 60 59 58 57 56 56 56 55 55 55 57 57 58 59 59 62 64 64 63 66 68 71 74 76 79 80 78 77 76 74 198 255 255
249 253 200 80 74 71 67 65 66 66 63 58 57 57 56 55 54 54 53 52 51 49 46 47 48 51 59 66 74 82 87 90 90 91 95 99 100 100 102 105 108 92 71 50 47 52 63 81 108 133 155 164 163 159 155 168 177 183 186 175 160 141 125 116 111 110 127 127 118 106 103 114 136 161 161 150 131 108 111 113 96 76 71 77 87 92 102 118 124 132 141 146 145 147 153 163 169 174 176 179 181 180 180 178 177 176 175 178 181 185 184 183 183 182 183 186 188 190 190 190 189 188 191 192 194 194 194 193 192 192 193 196 204 210 213 214 210 207 205 211 213 214 213 220 203 174 144 124 110 101 93 86 80 77 86 87 87 86 81 76 72 68 70 73 75 83 87 88 90 91 93 94 93 92 92 93 93 93 93 92 91 91 91 92 93 93 93 93 92 89 89 88 86 83 80 78 77 75 73 71 70 68 66 67 68 68 67 65 64 62 60 57 57 58 58 59 61 61 61 60 60 61 61 59 57 56 55 54 53 52 50 54 57 57 56 57 58 59 63 64 63 62 66 68 72 74 77 79 80 78 76 75 73 197 255 255
253 253 201 86 78 71 67 69 68 67 64 63 62 61 59 56 54 53 53 52 52 50 47 47 47 50 59 67 74 82 89 92 93 87 92 99 105 109 110 106 95 73 56 45 46 61 79 98 125 146 161 167 174 177 175 181 180 178 175 170 163 153 145 138 133 128 120 116 112 106 109 121 139 154 151 139 124 121 108 95 90 77 70 72 89 101 108 111 120 133 145 152 151 153 159 169 172 171 168 171 171 170 169 171 175 180 186 187 189 192 191 190 190 191 191 192 193 193 193 193 193 191 192 195 199 200 200 198 195 194 192 191 199 205 210 213 217 217 213 209 208 207 208 212 210 201 186 159 130 102 89 85 82 77 82 83 84 82 80 76 72 71 72 74 76 80 84 86 87 87 88 90 90 90 90 90 92 93 92 92 90 89 89 90 90 89 90 90 89 88 87 86 85 85 83 81 77 75 76 75 71 70 70 69 67 67 65 62 58 59 57 56 55 56 57 60 64 65 63 59 58 58 59 58 57 55 52 50 51 52 52 54 55 57 58 59 59 60 61 62 63 63 63 65 69 72 75 77 78 78 78 78 78 199 255 255
255 253 201 89 80 72 67 71 69 67 65 64 63 61 59 57 55 54 52 52 52 51 48 48 49 51 60 68 76 84 91 94 96 95 94 98 107 115 110 95 71 51 40 37 46 73 100 120 141 156 166 171 181 182 175 178 176 174 171 170 167 162 156 146 139 131 112 108 107 107 115 127 141 151 146 134 121 115 101 91 93 76 67 70 92 102 105 103 115 131 146 157 156 155 156 162 163 161 157 170 173 173 172 176 180 187 193 193 194 194 190 189 189 189 190 190 190 191 191 191 191 190 192 195 200 201 202 201 199 199 198 197 199 202 206 211 220 224 222 213 209 208 208 210 215 217 211 185 151 115 92 83 80 79 83 84 84 83 81 77 73 72 73 74 75 80 82 84 85 85 87 88 89 89 90 89 92 93 92 91 89 88 88 89 88 88 89 89 88 87 85 85 85 85 84 82 78 76 77 75 72 71 71 69 68 66 62 59 56 56 56 57 55 54 56 61 66 67 64 59 58 57 58 58 56 54 51 49 50 51 52 54 55 56 58 59 59 61 61 62 62 63 63 64 68 71 74 76 77 78 79 80 81 200 255 255
255 253 200 89 80 72 68 73 70 68 66 63 62 61 59 58 57 55 52 52 52 53 49 50 52 54 61 70 80 88 93 96 99 109 101 99 107 116 102 74 41 32 29 33 50 88 122 141 154 162 167 175 182 175 157 159 163 167 170 170 166 161 153 140 128 117 106 102 103 108 118 130 142 151 145 135 123 96 96 102 103 75 65 72 95 94 93 97 111 128 145 160 159 154 147 146 148 149 150 176 183 185 186 188 189 192 195 194 194 191 185 184 184 182 184 184 183 184 184 184 184 186 189 192 195 196 198 199 200 203 205 208 202 200 202 208 218 226 230 223 217 212 210 212 217 220 218 202 174 139 101 81 76 82 89 91 89 88 83 79 75 72 73 74 74 81 82 82 84 87 89 89 90 90 90 90 92 93 92 92 90 89 89 88 89 89 91 90 89 88 85 86 87 86 84 82 80 77 75 73 72 70 69 68 68 65 61 58 56 54 55 57 55 53 56 61 67 68 65 61 59 58 58 58 56 54 51 49 50 50 53 55 56 56 57 59 59 60 61 61 61 61 63 66 69 72 75 76 77 78 80 81 84 201 255 255
255 253 199 90 81 73 69 75 72 68 66 63 63 62 60 58 57 56 54 54 54 55 50 50 53 57 64 71 81 90 95 98 101 111 103 101 113 112 89 56 34 39 44 51 82 115 138 146 154 160 163 169 172 160 136 129 131 133 133 125 118 113 109 103 95 88 95 96 99 107 122 135 145 148 143 137 129 107 109 114 111 91 84 86 88 80 89 115 130 141 149 155 155 150 146 146 154 161 165 169 170 172 175 178 179 179 178 178 179 179 190 192 191 189 188 186 184 183 181 180 181 180 181 182 184 182 182 184 187 191 196 200 207 204 199 205 215 224 230 230 219 208 202 209 214 216 214 210 193 162 111 81 74 90 96 97 94 91 86 81 76 74 74 74 75 80 81 82 86 88 88 89 90 91 91 91 93 95 93 89 89 90 91 89 91 91 91 92 91 89 87 86 86 86 84 82 79 77 74 73 71 69 66 65 66 64 60 57 55 53 53 54 52 53 56 62 68 69 67 62 59 58 59 58 56 54 51 50 51 51 53 56 57 56 57 59 59 59 60 60 60 60 63 66 69 73 75 76 77 78 80 82 85 202 255 255
255 253 201 91 83 75 70 75 72 69 67 64 63 62 61 59 58 57 55 55 55 55 52 52 55 58 66 74 83 91 97 99 101 105 107 109 113 96 70 47 41 54 63 74 109 131 142 144 155 160 159 152 149 138 121 119 124 127 125 113 104 100 101 102 98 93 94 96 100 110 125 137 144 144 142 140 137 116 112 112 107 89 82 80 77 73 89 123 136 138 137 136 140 143 147 152 158 165 170 169 172 176 182 184 185 185 186 187 189 191 197 198 198 196 194 192 191 188 187 187 186 183 182 181 180 177 176 176 177 181 186 190 203 202 197 199 209 219 227 229 220 210 202 206 210 212 209 211 204 183 128 91 79 98 101 101 98 93 88 82 78 74 74 75 76 81 82 83 85 87 89 90 91 92 92 92 93 94 94 91 91 91 91 91 92 92 92 93 92 90 88 87 87 87 85 83 80 77 74 72 69 67 66 65 64 62 59 56 53 52 52 53 52 53 56 62 69 70 68 63 60 59 59 59 57 55 52 50 51 51 53 54 55 56 57 58 58 59 60 61 61 61 64 66 69 72 74 75 76 78 80 83 85 201 255 255
254 253 202 90 84 76 71 75 72 69 68 65 63 61 61 59 59 57 56 55 55 55 52 53 55 58 66 75 83 90 96 100 101 98 111 117 107 73 52 43 49 62 76 93 127 139 143 143 157 161 153 131 124 116 108 114 121 127 126 115 106 102 107 110 108 103 97 98 103 113 127 138 143 141 141 142 143 119 111 109 106 83 71 67 75 81 98 122 131 128 123 122 132 142 154 160 161 164 166 165 170 176 182 185 187 187 191 195 200 203 200 199 199 198 197 196 196 195 195 195 193 190 189 187 184 182 179 177 177 179 183 185 195 198 196 195 204 214 224 226 222 215 206 204 208 211 205 210 211 201 150 107 89 102 103 101 98 94 89 83 79 75 74 76 77 81 82 83 84 87 89 90 91 92 92 92 93 94 94 93 93 92 91 93 93 93 94 93 92 90 88 87 87 88 85 83 80 77 74 71 68 67 66 65 64 61 58 55 51 51 51 52 52 53 56 62 69 71 69 64 60 59 59 59 57 55 52 50 51 51 54 54 55 56 57 58 58 59 60 61 61 61 64 66 69 71 73 75 76 78 80 83 85 201 255 255
255 253 202 93 86 77 73 78 75 71 68 65 64 63 62 59 59 58 56 56 57 56 53 53 56 58 65 73 83 91 97 100 102 99 118 121 91 49 38 43 49 57 74 102 124 140 150 153 164 158 140 112 105 102 98 101 111 119 124 116 111 109 108 106 102 97 100 103 108 118 129 137 141 142 143 146 145 114 110 114 119 82 59 57 96 116 119 110 115 116 119 128 146 160 170 167 161 157 151 145 146 151 157 160 163 166 172 179 185 190 187 188 190 191 192 194 197 199 200 201 202 201 201 200 199 199 196 192 192 194 196 195 190 190 192 193 200 209 217 226 228 226 219 206 208 213 207 211 217 217 176 128 99 97 99 98 96 94 88 82 79 77 76 76 79 80 82 85 85 87 89 91 92 93 93 93 94 95 95 95 93 92 93 95 95 94 97 95 94 92 90 89 89 89 86 82 79 77 73 71 68 66 65 64 63 61 58 55 52 51 51 52 51 52 56 62 69 71 69 65 61 59 59 60 57 55 52 51 52 53 53 54 55 55 56 56 57 59 60 60 60 61 63 66 68 71 72 73 74 76 79 82 83 201 255 255
255 253 202 94 86 78 74 79 76 72 68 65 64 63 62 60 60 59 59 58 58 57 54 54 57 60 67 75 83 92 98 101 104 110 117 106 69 41 39 48 49 56 82 119 130 149 162 161 153 136 117 102 113 120 122 133 138 138 135 127 118 111 107 103 101 99 103 109 116 124 131 137 143 147 149 150 148 132 122 120 128 99 76 70 105 121 117 102 116 126 136 149 159 164 165 163 161 160 159 153 153 156 160 163 166 169 175 182 188 192 190 190 190 191 191 192 192 195 195 195 195 196 198 199 200 200 199 199 199 200 203 204 197 196 199 202 205 210 215 221 223 223 220 202 204 211 208 212 217 217 183 135 99 83 93 96 95 93 89 84 80 77 77 77 78 80 82 84 86 88 90 91 93 94 94 94 95 96 96 95 94 94 94 95 96 96 97 96 95 93 91 90 90 89 87 83 80 78 74 71 69 67 66 65 64 62 58 55 52 51 51 52 52 53 56 62 69 71 69 64 61 60 60 60 58 56 53 51 52 53 55 54 54 55 56 57 57 58 59 59 59 60 62 65 67 70 71 71 72 74 78 80 83 201 255 255
255 253 202 94 86 79 75 80 76 72 68 66 64 63 62 60 60 59 60 60 59 58 55 55 58 61 70 77 85 93 100 103 105 118 109 87 54 42 42 50 54 69 100 136 143 158 164 154 137 120 108 108 130 143 147 158 155 145 133 125 114 104 99 97 99 102 104 113 123 130 133 138 145 153 156 154 150 146 128 116 122 106 91 83 100 104 100 95 116 131 144 157 156 154 151 154 157 161 165 163 162 164 166 169 172 176 181 186 190 194 195 194 193 194 192 190 190 190 190 188 188 189 192 194 195 195 196 197 197 198 201 204 201 202 205 209 210 212 214 218 218 217 214 200 201 206 207 210 212 208 178 136 99 76 90 95 95 93 91 87 82 78 77 77 76 80 82 84 87 88 90 91 93 94 94 94 95 96 96 95 95 95 96 96 98 99 98 98 96 94 92 91 90 88 87 83 80 78 74 71 69 67 66 65 63 62 58 55 52 51 51 51 52 53 56 62 69 71 69 64 61 60 61 59 58 56 53 51 52 52 56 54 54 55 56 57 57 57 58 59 59 59 62 64 66 68 69 69 70 72 76 79 83 201 255 255
255 253 202 94 87 80 76 81 77 73 70 67 64 63 62 60 61 60 61 61 60 60 57 57 60 63 73 80 87 95 101 104 107 119 95 67 46 47 46 49 63 94 126 153 161 163 155 132 120 115 118 130 153 165 165 168 154 134 116 109 101 92 86 88 95 104 104 115 128 136 136 140 150 162 164 158 149 151 127 105 102 101 98 92 82 72 74 90 114 130 142 149 139 134 133 143 154 163 170 171 170 170 171 175 180 184 187 189 191 192 199 199 198 197 194 192 190 186 186 185 183 184 185 186 187 187 187 187 188 189 192 196 201 205 209 213 213 213 215 218 215 210 204 203 202 201 201 204 202 191 165 132 102 80 90 95 97 95 93 89 85 79 77 77 74 79 82 84 86 88 90 92 94 96 95 94 96 97 96 95 96 97 96 97 99 100 99 100 97 94 93 92 91 89 88 85 81 78 75 72 70 68 67 66 64 63 59 56 53 52 52 52 52 53 56 62 68 70 68 63 61 61 61 59 58 56 53 52 52 53 56 53 54 55 55 57 56 56 57 59 59 59 61 63 64 66 67 68 69 71 75 78 82 200 255 255
254 253 202 96 88 82 78 81 77 73 69 66 64 63 62 62 62 60 58 59 60 62 60 60 62 65 72 81 89 97 102 106 111 112 84 59 51 49 41 41 68 113 142 155 166 154 131 102 120 141 158 165 168 164 152 140 123 108 99 100 102 102 94 94 100 108 103 115 131 143 139 143 152 169 169 161 147 139 127 111 97 91 93 97 88 75 80 102 114 128 138 143 141 142 147 160 170 173 170 171 171 171 174 177 182 188 192 191 189 187 190 190 190 192 192 192 191 190 190 191 192 192 191 189 189 187 184 181 180 184 186 188 186 193 200 205 208 212 218 224 221 215 203 215 211 200 196 198 193 178 154 132 113 99 97 97 98 99 95 90 86 82 77 73 74 79 82 84 86 87 90 92 94 95 95 95 97 97 97 96 97 97 96 98 99 100 103 100 98 95 93 91 91 91 88 84 81 78 74 73 71 68 67 67 67 65 60 57 54 52 53 55 54 52 55 62 68 69 67 62 61 60 60 61 59 56 52 52 53 53 55 54 54 53 55 55 55 57 58 59 59 60 60 61 62 64 66 67 68 70 74 77 81 200 255 255
255 253 202 97 89 82 78 82 77 72 68 66 65 64 63 61 61 60 60 61 62 62 60 63 66 68 71 79 90 105 112 114 111 106 83 60 44 34 40 60 92 128 148 152 146 131 118 114 144 162 167 161 152 139 121 104 98 96 99 105 108 109 102 96 94 94 99 112 125 134 140 149 159 166 162 155 149 144 133 117 97 90 94 99 79 79 87 99 108 123 132 128 139 147 152 155 171 178 172 175 175 173 171 169 173 180 187 191 191 190 189 190 192 195 193 191 189 188 188 189 190 189 191 192 193 190 188 186 187 187 187 184 182 185 190 193 197 203 209 217 217 214 206 220 214 203 199 198 186 163 135 124 123 132 107 99 99 100 94 89 84 81 76 73 73 80 83 84 86 89 91 92 94 95 95 97 97 97 97 97 96 96 97 98 100 102 104 100 97 95 94 92 91 91 87 84 81 79 75 73 70 68 67 67 66 64 61 58 55 56 54 53 51 51 55 62 68 69 67 62 62 60 59 60 58 56 54 52 53 54 54 54 55 55 55 55 55 56 57 58 58 58 60 61 63 65 66 66 67 69 73 76 79 200 255 255
255 253 202 97 90 82 78 82 76 70 66 66 66 65 64 61 61 61 62 63 64 63 60 65 69 72 72 79 92 112 120 119 109 100 83 61 35 23 49 89 118 137 146 145 123 114 119 140 161 162 149 132 120 106 89 76 83 95 106 112 112 109 105 95 84 79 98 109 118 123 137 152 164 159 150 148 153 153 142 122 102 95 98 100 71 84 93 91 101 118 127 116 138 151 154 147 167 177 170 175 174 170 165 160 160 166 173 183 189 192 190 191 194 198 195 190 185 183 183 184 185 184 189 194 197 193 193 195 198 196 191 186 184 184 186 188 189 193 197 204 208 209 208 220 215 207 203 199 181 152 120 116 128 151 112 99 99 99 92 86 80 77 76 75 74 82 84 84 87 90 92 93 95 96 96 98 98 98 98 97 95 95 96 98 101 104 103 98 97 96 95 93 91 89 86 84 81 80 76 73 69 68 67 67 66 63 62 60 57 59 56 50 48 50 56 63 68 68 67 63 61 59 59 57 57 57 56 54 54 55 54 55 56 56 55 54 54 55 55 56 56 56 59 61 63 66 67 66 67 69 72 75 77 199 255 255
254 253 203 96 91 85 81 84 78 72 68 69 67 65 63 62 62 62 62 63 64 65 62 64 68 72 77 87 97 107 110 111 106 92 71 48 27 43 75 109 127 131 134 134 121 128 141 155 140 118 97 85 83 80 75 81 91 101 109 108 103 97 92 88 84 84 105 114 119 124 133 145 154 151 147 149 158 158 144 126 113 103 103 103 82 89 91 85 98 116 127 122 141 153 158 154 167 169 154 157 154 152 153 156 155 151 150 157 167 180 188 192 193 191 190 187 184 181 181 181 183 184 188 193 196 195 196 197 204 204 202 199 196 197 200 200 193 190 190 197 202 206 210 215 214 211 206 196 178 155 130 120 118 123 99 93 96 98 93 86 78 74 76 78 79 82 84 87 87 90 92 93 95 97 97 96 100 100 99 97 97 97 98 99 100 101 102 98 96 94 94 93 91 89 87 84 82 81 77 75 72 69 68 68 67 65 63 61 59 60 58 53 49 51 57 64 68 69 67 63 59 59 60 58 57 57 56 56 54 53 54 55 56 55 54 54 54 54 54 55 56 56 59 61 62 65 66 66 66 68 71 74 77 199 255 255
253 253 204 98 93 87 83 86 80 74 70 69 68 67 65 64 64 63 64 65 65 66 65 64 66 70 80 92 100 105 107 110 109 85 57 34 23 67 100 123 134 125 121 123 119 128 136 135 112 93 80 76 76 74 75 94 103 108 109 103 95 89 87 86 86 87 106 114 118 123 131 142 150 149 148 152 162 161 145 129 122 107 105 107 96 94 90 84 94 111 125 129 143 153 160 160 163 156 142 151 158 163 169 171 169 164 163 169 177 187 190 190 190 187 187 185 182 180 181 181 182 185 189 193 194 195 196 198 204 206 205 203 200 202 206 207 204 204 205 210 208 204 203 214 219 221 215 199 181 161 143 124 107 92 88 90 95 98 95 88 80 74 75 79 82 83 84 87 88 90 92 94 96 97 97 97 100 100 100 99 99 99 99 99 99 99 100 97 95 94 94 93 91 89 87 85 83 82 78 76 74 70 69 69 68 66 64 62 61 61 59 55 51 53 57 64 69 70 68 65 59 59 60 58 57 57 56 56 54 53 54 55 56 55 54 53 53 53 54 55 55 56 58 60 61 64 64 65 65 67 70 73 76 198 254 254
253 253 205 100 96 90 86 89 83 77 73 71 69 69 67 66 66 65 67 67 67 67 70 66 65 68 80 93 102 106 109 112 111 76 44 26 28 89 119 131 135 119 110 109 111 117 119 109 94 87 85 83 79 80 87 109 114 112 107 98 91 88 89 88 86 84 100 109 115 121 128 139 148 150 151 156 165 161 145 132 130 110 105 109 108 97 89 86 91 104 120 136 145 152 158 159 155 146 138 152 165 176 184 183 180 178 180 185 190 192 188 187 188 188 187 185 184 182 183 183 184 187 190 192 193 193 194 196 200 202 202 201 202 203 203 203 207 213 220 224 217 206 196 214 224 227 222 204 187 171 157 134 107 81 87 91 95 99 97 91 83 76 75 78 82 83 84 86 88 90 92 94 96 97 96 98 99 100 101 102 102 102 101 100 98 97 97 95 95 94 94 93 91 89 88 85 83 83 80 78 76 72 70 70 70 68 66 64 62 62 60 56 53 55 59 64 69 70 69 68 60 58 59 58 57 57 56 55 54 54 54 55 56 55 54 53 53 52 54 55 55 55 58 60 61 64 65 65 65 67 70 73 76 198 254 254
253 253 205 101 98 92 88 92 86 79 75 72 71 71 69 67 67 66 69 69 69 69 73 69 66 66 78 91 103 112 116 116 109 63 34 26 45 106 130 132 129 113 101 93 93 95 94 87 91 100 106 97 88 92 107 123 121 113 103 94 91 93 95 92 86 79 89 101 110 116 125 137 149 153 155 160 167 158 143 134 136 112 104 107 115 99 90 92 89 98 115 141 147 150 151 152 143 139 143 157 172 183 189 185 183 186 195 199 198 190 182 182 187 192 191 189 187 186 187 188 189 191 191 191 191 189 189 191 193 194 194 195 200 198 193 190 199 213 228 236 227 212 195 214 225 229 226 211 196 183 172 150 121 92 95 95 96 99 99 95 88 80 76 76 81 83 85 86 90 91 93 95 96 96 97 98 99 100 102 104 104 104 103 101 98 96 94 94 94 94 94 92 91 89 87 85 83 82 81 79 76 73 72 72 71 69 67 65 63 63 61 57 55 56 60 65 69 70 69 68 62 59 58 58 57 57 56 54 54 55 54 54 55 55 54 53 53 53 54 55 55 55 57 59 60 63 64 64 64 66 69 72 76 198 255 255
253 253 205 102 99 94 90 93 88 82 77 75 73 72 70 68 68 67 67 69 70 71 71 71 70 69 76 90 106 119 116 106 86 43 30 42 78 115 131 131 115 105 90 72 69 85 101 107 105 103 97 81 77 90 114 118 117 113 105 97 92 90 90 86 80 76 83 94 102 106 112 124 138 147 151 158 167 157 144 137 140 118 105 102 112 98 91 96 93 99 114 141 149 149 143 139 135 142 160 167 164 159 158 162 166 169 171 169 168 166 165 172 182 193 195 195 194 191 192 195 197 194 192 190 189 188 187 187 188 189 190 193 203 200 191 183 184 193 207 220 222 218 209 213 218 220 220 213 205 195 184 168 150 132 111 99 94 92 93 92 90 84 80 78 78 82 85 87 89 91 93 95 97 98 98 98 99 101 103 106 106 105 103 102 98 95 93 94 95 95 94 93 92 89 86 84 83 81 82 80 76 74 74 74 72 70 68 66 64 64 62 58 57 58 61 65 68 70 69 68 63 60 58 58 57 57 56 55 54 55 54 55 55 54 53 52 52 52 53 54 55 55 56 58 60 62 63 63 63 65 67 70 74 198 255 255
253 254 206 103 100 95 91 94 88 83 77 75 72 71 70 68 68 67 67 68 70 71 67 70 73 73 77 89 105 118 107 87 61 27 34 64 111 123 128 124 102 95 79 58 61 87 111 122 107 93 81 72 76 90 108 106 109 112 110 100 89 81 78 77 76 76 81 89 93 93 96 108 124 137 144 153 164 157 147 138 134 120 107 101 110 96 89 95 95 103 117 138 148 147 139 130 133 146 165 162 141 121 113 128 135 136 122 116 119 130 145 159 172 186 194 198 197 196 197 199 202 196 193 191 189 189 190 190 190 190 192 195 203 203 200 194 190 192 198 207 215 218 216 215 216 218 219 216 211 201 188 177 167 159 125 105 95 87 89 91 91 85 81 79 78 82 85 88 89 91 93 95 97 98 99 98 100 101 103 105 106 105 104 101 98 95 94 95 96 95 94 93 91 89 87 84 82 81 82 80 76 74 74 73 72 70 68 66 64 64 62 59 57 58 61 64 67 69 70 69 62 59 59 58 57 57 56 55 54 54 54 55 55 54 53 52 52 52 53 54 54 55 56 58 59 62 63 63 63 65 67 71 74 198 255 255
253 254 207 104 101 96 92 95 88 82 76 74 72 70 70 68 68 68 67 68 69 70 65 69 75 77 80 89 101 109 92 67 40 19 46 89 137 128 122 111 90 84 70 52 67 95 117 123 97 77 67 73 84 92 97 93 101 109 112 100 84 71 65 67 71 75 80 84 85 80 81 93 112 128 137 146 156 154 147 136 122 120 111 102 106 94 86 89 96 108 121 132 142 142 135 126 135 148 157 140 108 79 66 86 96 91 65 58 67 92 125 143 157 174 186 195 198 200 201 202 204 198 195 193 191 193 194 195 193 194 197 200 201 205 211 212 207 202 199 203 209 215 217 217 218 219 222 220 215 204 190 181 177 176 137 113 98 86 87 89 89 85 81 79 80 83 86 89 90 92 94 96 97 98 98 99 101 102 103 105 105 105 104 101 99 96 95 96 97 96 95 93 91 89 87 83 81 81 81 80 77 75 74 73 72 70 68 66 64 63 62 60 58 58 60 63 66 68 69 69 61 59 59 58 57 57 56 55 54 54 54 54 54 53 52 51 52 52 52 53 53 54 55 57 58 61 62 62 62 64 67 70 73 197 255 255
254 255 207 105 102 97 93 96 88 80 74 72 71 70 69 67 67 67 68 69 70 70 67 69 73 78 83 88 93 93 76 57 37 29 69 115 147 128 108 90 80 74 65 61 91 103 103 96 76 65 68 91 103 102 91 93 99 103 104 90 76 65 60 63 67 69 70 74 75 70 75 90 110 128 135 140 145 144 139 125 98 112 113 106 103 92 82 80 90 110 124 120 128 132 133 130 142 143 127 96 66 43 33 47 52 45 20 19 34 63 108 127 138 153 170 185 195 203 203 202 201 200 197 195 193 198 201 201 197 199 201 204 198 203 214 221 223 220 215 214 212 210 207 215 220 224 228 225 218 206 193 184 180 178 149 128 110 95 91 90 87 82 77 77 83 84 86 88 91 92 94 97 98 98 98 100 101 102 104 104 104 104 103 101 100 98 98 98 99 98 97 94 90 88 86 82 79 78 78 79 77 74 72 71 72 70 68 65 63 62 61 60 58 59 59 62 64 66 67 69 61 58 59 58 57 57 56 55 54 54 54 54 54 53 51 51 51 51 52 53 53 54 54 56 57 60 61 62 62 64 67 70 73 197 255 255
254 255 207 105 101 95 92 94 87 78 74 73 72 70 68 67 67 66 68 69 69 71 73 72 73 76 83 85 85 79 69 57 48 47 92 133 145 122 94 73 72 66 66 75 111 103 85 72 64 63 71 93 107 107 97 106 105 99 90 79 71 68 68 66 64 60 56 63 70 69 77 96 119 135 137 137 137 132 124 107 78 104 113 107 102 92 81 74 84 109 124 109 115 122 131 135 146 135 98 66 51 45 43 43 39 31 23 31 47 70 102 115 123 135 154 174 191 202 203 201 198 202 200 197 198 202 204 204 200 200 202 206 201 201 204 208 213 216 220 223 218 210 201 207 215 223 229 226 219 211 204 196 190 184 163 144 125 107 99 94 87 77 74 76 83 85 86 88 90 92 94 96 98 99 99 100 101 102 103 103 103 103 103 102 101 99 99 100 100 99 97 94 91 88 84 81 79 77 79 79 76 73 72 72 71 69 67 65 63 61 60 59 58 58 59 61 63 65 66 67 62 59 59 58 57 57 56 55 54 54 54 54 54 53 53 52 51 51 52 53 53 54 55 56 57 59 60 61 61 63 66 69 71 197 255 255
253 255 208 106 102 97 93 94 88 80 76 74 73 70 68 67 67 66 67 69 70 73 76 75 74 76 82 79 74 71 73 68 59 60 108 145 142 107 78 61 67 66 74 91 110 95 72 56 58 68 84 101 110 109 104 113 106 94 81 76 73 72 69 63 58 54 49 55 63 65 84 104 122 129 134 135 131 123 112 96 73 98 110 108 102 91 79 70 83 104 117 109 110 119 132 141 142 126 96 70 64 65 61 57 56 54 43 51 64 79 98 107 114 126 144 163 181 195 200 200 195 204 204 202 203 205 205 204 201 201 202 205 200 197 198 197 200 206 217 226 222 211 198 203 212 223 229 226 221 217 215 206 195 182 167 151 133 117 107 99 91 81 77 77 82 85 87 89 90 93 95 96 98 100 101 101 103 103 104 105 104 104 103 102 101 100 100 100 100 99 97 94 92 88 83 81 78 76 79 79 75 73 74 73 70 69 67 66 64 62 60 59 58 57 58 60 62 65 66 65 61 59 58 58 57 57 56 55 55 54 53 53 54 53 53 52 51 51 51 52 52 54 55 56 57 59 60 61 62 64 66 68 70 197 255 255
252 254 210 112 107 100 94 95 91 87 83 75 73 71 70 68 67 66 67 70 72 74 74 73 75 79 82 71 61 69 91 87 64 62 115 151 140 84 60 58 66 74 89 106 84 77 68 51 57 81 109 120 113 110 112 111 100 87 81 84 83 75 58 50 50 55 53 54 54 58 92 110 113 104 123 133 127 117 104 93 85 94 102 108 103 89 75 66 89 96 103 121 120 126 138 147 128 120 128 112 108 100 81 87 104 115 74 74 80 85 97 104 113 129 141 151 161 180 194 199 196 206 210 211 209 207 204 202 201 203 204 203 192 193 197 193 188 194 206 220 221 213 198 205 215 225 230 225 223 223 223 211 193 171 160 146 132 121 114 107 99 94 87 83 82 86 89 91 94 95 96 98 101 102 102 101 107 107 106 107 107 106 105 104 102 101 100 99 100 100 97 94 91 89 84 81 77 77 78 78 77 76 75 73 71 68 67 66 65 62 61 60 58 55 54 58 63 66 66 63 58 56 57 57 58 58 57 56 55 55 54 54 53 51 51 50 50 50 50 50 50 51 55 57 58 60 62 63 65 67 68 69 70 196 255 255
252 254 209 111 108 102 96 97 92 87 83 76 74 72 69 68 68 68 70 72 72 74 77 78 78 80 82 72 64 79 101 97 72 73 109 129 109 66 59 71 86 86 91 99 84 72 60 47 62 84 104 109 105 104 107 96 88 81 75 73 69 62 53 49 51 52 39 46 57 66 95 111 115 111 122 121 106 102 101 101 102 106 106 103 97 87 76 68 76 86 97 109 110 118 131 144 140 140 145 124 128 132 122 101 105 121 119 113 102 87 88 94 105 122 137 152 165 176 185 193 199 199 199 200 204 206 207 207 205 203 201 199 190 175 162 158 168 185 204 218 221 219 214 209 215 224 230 225 222 219 218 210 198 184 162 147 135 123 114 107 101 91 86 85 87 88 90 92 94 96 98 100 101 102 102 103 106 107 108 106 106 107 106 104 103 102 101 101 100 99 98 94 90 88 85 82 79 78 78 78 78 76 72 70 70 69 66 65 64 62 61 60 58 55 54 58 63 66 66 63 57 56 57 58 58 58 57 56 55 55 54 54 54 53 51 51 51 50 52 53 52 53 55 56 57 59 61 63 65 67 69 70 71 197 255 255
252 254 210 112 109 102 95 98 92 86 82 77 75 73 71 69 69 68 70 71 72 74 78 80 80 77 77 70 67 86 108 102 77 81 101 106 79 50 55 78 93 86 83 85 78 65 55 54 75 91 99 92 86 84 85 75 74 74 71 65 58 53 51 51 52 51 36 48 65 72 88 99 105 110 118 112 92 93 100 107 113 113 111 105 98 87 76 65 62 75 91 98 102 111 125 139 147 153 157 136 131 129 119 89 85 103 123 113 102 94 86 91 99 109 125 144 162 170 174 182 193 195 195 196 200 203 205 205 203 199 193 189 188 168 142 128 142 165 189 205 214 218 221 211 215 223 228 225 221 217 213 209 203 198 167 149 137 123 112 104 97 87 85 86 89 89 90 92 94 96 98 100 102 103 103 104 106 107 108 106 107 107 106 104 103 103 102 102 100 98 98 94 91 87 85 82 80 79 78 78 78 76 72 70 70 69 66 65 64 62 61 60 58 55 54 58 64 66 66 63 57 56 57 58 58 58 57 56 55 55 54 55 54 53 52 52 52 52 53 54 54 54 56 57 58 60 61 63 65 67 69 70 71 197 255 255
252 254 210 114 110 103 96 98 92 87 83 78 76 74 72 70 69 68 69 71 73 75 78 81 79 72 70 67 70 92 111 104 79 86 93 86 55 39 53 79 91 78 70 70 69 58 55 67 92 99 92 73 64 59 58 54 60 66 66 58 51 48 51 53 52 49 42 58 73 74 75 80 89 102 109 102 83 88 99 110 118 117 115 111 104 89 74 58 49 67 86 90 96 107 121 134 149 159 159 139 117 97 85 62 59 73 94 84 81 95 87 91 96 93 105 127 153 163 163 169 182 192 195 195 196 197 199 199 196 189 182 175 177 157 127 102 109 131 161 184 201 212 221 214 215 220 225 224 221 216 210 208 207 208 175 154 139 122 110 100 90 85 85 86 90 90 91 93 95 97 98 101 103 104 104 104 108 108 108 108 108 108 107 105 104 104 103 102 101 99 97 94 92 89 86 83 81 80 77 77 76 74 73 71 69 67 65 64 63 62 61 60 58 54 54 58 63 66 66 64 59 57 57 58 58 58 56 56 55 55 54 55 55 54 53 53 53 53 53 54 55 55 57 58 59 61 62 64 66 67 69 70 71 196 255 255
253 254 210 115 111 104 97 99 93 88 84 79 78 77 75 72 70 69 71 72 73 74 77 81 79 69 66 67 76 95 110 100 76 82 83 73 48 42 56 76 81 69 65 67 66 59 62 82 99 94 77 60 57 56 53 51 53 58 60 56 53 51 51 50 48 45 56 70 79 75 67 68 78 93 96 90 78 91 103 111 115 115 116 117 114 95 71 46 45 69 88 82 92 106 122 130 147 152 141 111 74 46 40 39 45 52 43 34 40 66 85 97 99 80 80 99 132 152 154 160 176 192 196 194 189 189 190 191 188 180 172 163 141 119 96 68 60 73 105 148 181 202 214 217 217 218 221 223 223 219 212 210 209 211 187 166 144 124 109 97 87 87 87 87 89 91 92 93 97 98 100 102 104 105 104 105 109 109 108 110 109 109 109 108 106 106 105 102 102 101 96 94 92 90 87 84 83 82 79 77 76 73 73 71 68 66 64 63 63 61 61 61 58 55 54 58 63 65 65 62 60 58 58 58 58 58 57 56 55 54 52 53 53 52 52 52 52 53 53 53 54 55 57 58 59 62 63 65 66 67 69 70 71 197 255 255
253 254 211 115 112 105 99 101 94 89 83 81 79 77 75 73 72 71 72 73 75 76 79 82 80 69 69 74 84 101 112 101 77 79 74 62 43 47 64 82 82 74 72 75 70 66 70 86 87 73 56 56 72 83 85 73 64 58 53 54 55 53 48 46 46 49 62 72 78 75 71 76 86 92 86 81 79 92 104 112 117 115 115 116 114 94 69 44 55 78 91 79 90 107 125 132 145 146 128 96 81 81 100 109 122 126 90 76 65 55 83 105 111 90 71 77 104 129 142 158 178 187 188 186 185 186 188 188 184 175 165 154 121 100 82 58 43 46 69 109 148 176 195 212 216 215 217 221 224 221 215 211 209 209 199 179 152 126 109 98 91 88 87 86 88 91 93 95 97 99 101 103 105 106 106 105 108 109 110 110 110 110 110 108 107 107 106 104 103 101 97 93 92 90 87 85 85 84 81 78 76 75 73 71 69 66 64 63 62 61 61 60 58 55 54 58 63 66 66 62 60 59 59 58 58 58 58 55 53 53 53 52 52 51 50 51 51 51 52 53 54 54 57 58 59 61 63 65 66 68 70 71 72 197 255 255
253 254 211 116 113 107 101 101 95 88 82 81 79 76 74 73 72 72 74 75 77 79 80 83 79 67 71 80 91 104 111 100 79 78 68 54 37 49 69 87 86 78 77 80 70 70 75 83 72 53 39 52 81 101 108 99 82 65 53 56 58 56 48 46 49 57 68 73 74 72 73 84 95 94 82 79 88 94 105 115 122 118 114 110 106 90 70 52 72 89 94 78 89 108 129 136 142 138 119 96 98 113 134 140 151 154 117 115 102 70 90 116 130 114 79 67 78 101 125 152 179 181 182 181 184 187 188 186 177 164 151 139 103 85 72 55 42 39 48 74 111 146 177 206 215 212 214 219 223 224 220 215 210 207 206 188 160 129 110 100 95 88 86 84 84 90 94 97 98 101 103 104 106 107 107 107 109 110 111 110 111 111 111 110 109 109 108 105 103 100 97 94 92 89 87 86 86 86 82 80 78 76 74 72 69 66 64 63 61 61 61 59 58 55 54 58 63 67 66 63 60 59 59 59 58 58 58 55 53 53 53 51 50 50 50 50 50 51 52 53 54 54 57 58 59 61 62 65 66 68 70 71 72 197 255 255
253 254 212 117 115 108 102 101 95 88 83 81 79 77 75 73 73 73 74 77 79 81 80 82 78 63 71 83 96 102 105 98 85 86 69 49 30 46 68 87 87 77 73 74 65 70 76 78 57 39 30 48 75 96 108 122 105 80 59 62 63 61 55 54 59 70 76 73 69 65 68 83 99 97 83 87 108 96 105 121 131 124 114 102 91 81 73 69 95 102 97 81 90 110 133 140 136 128 116 117 115 109 90 78 76 80 78 116 133 116 106 131 155 150 106 73 57 70 100 136 171 177 181 184 189 192 189 180 164 145 127 111 86 71 59 53 54 51 44 47 76 115 161 199 211 211 213 217 221 225 224 219 212 206 207 191 165 133 115 102 94 89 83 78 74 90 95 97 99 102 104 104 107 108 108 109 111 110 110 112 112 112 112 111 110 110 110 106 103 100 98 96 93 89 88 88 88 87 82 81 79 77 75 73 70 67 65 64 62 60 60 61 58 55 54 58 63 66 66 64 60 59 59 60 59 58 56 55 54 53 50 50 49 49 50 49 49 50 52 53 52 54 57 59 60 62 63 65 67 69 70 71 72 197 255 255
253 254 212 118 117 110 104 102 95 88 84 80 79 77 76 74 73 75 77 79 81 82 81 79 72 56 70 86 98 97 101 100 95 91 71 50 32 44 59 72 73 69 69 71 62 67 71 68 50 37 30 33 44 55 67 100 94 79 66 64 65 68 62 64 68 72 74 68 61 58 57 72 92 96 83 89 114 107 113 122 129 123 112 98 86 81 77 78 109 111 102 94 101 118 136 136 116 98 87 72 57 43 27 45 46 39 49 71 85 91 99 124 150 160 130 96 67 64 87 120 155 176 185 187 188 184 175 161 139 117 98 82 49 32 26 27 35 37 36 38 68 108 151 189 205 210 213 214 216 221 225 223 217 211 207 193 172 151 134 120 107 95 85 80 80 91 96 98 100 103 105 107 108 109 109 110 110 110 113 114 113 112 113 113 111 111 111 107 105 102 98 95 92 91 89 87 88 89 84 82 81 78 76 74 71 69 66 63 63 62 62 60 58 55 54 58 64 66 65 63 61 60 60 59 58 58 57 55 54 53 51 50 50 50 50 50 50 51 53 54 54 55 58 59 60 62 64 66 68 70 71 72 73 197 255 255
253 254 211 118 116 110 104 104 96 89 84 80 78 76 75 74 74 76 78 81 83 85 84 80 70 54 71 89 102 99 103 106 105 90 70 52 38 45 53 60 62 66 74 81 71 71 67 54 41 33 27 21 19 25 39 68 72 67 63 63 64 67 67 68 68 65 61 57 55 55 53 70 93 98 80 82 108 117 120 121 122 119 111 99 88 83 80 82 118 117 107 109 114 127 138 129 93 66 56 46 28 11 1 37 38 26 56 60 66 83 91 108 130 151 142 118 88 72 86 112 143 175 184 183 179 170 156 139 117 97 80 66 43 32 27 28 30 29 27 35 64 98 132 178 200 210 214 212 211 215 225 226 224 217 210 199 187 173 156 140 125 107 96 90 90 95 97 98 101 103 105 107 108 108 109 111 110 111 113 113 113 113 113 113 112 112 111 107 105 103 98 94 92 91 89 88 88 90 86 83 81 79 77 75 72 69 66 64 63 63 62 60 58 55 54 58 63 66 66 63 61 60 60 59 58 58 57 55 53 52 51 51 51 51 51 51 51 52 54 55 56 57 58 59 60 62 64 66 68 70 71 72 73 197 255 255
252 253 212 119 116 109 103 105 97 89 84 79 77 75 74 74 75 77 79 82 84 87 88 82 71 58 76 92 105 103 110 116 115 88 67 52 43 50 52 53 57 70 85 96 83 77 65 40 30 26 24 15 7 12 27 37 45 50 53 58 59 59 65 62 57 52 43 45 51 57 58 75 97 98 76 73 94 119 125 121 119 116 111 103 93 89 86 89 125 122 113 122 128 138 140 118 69 38 33 38 25 10 3 39 41 34 90 82 76 85 86 89 101 128 139 132 114 94 96 113 137 174 181 177 170 150 132 117 103 88 78 69 65 58 54 55 48 34 21 38 63 88 112 168 196 210 216 211 207 210 222 228 230 225 214 209 203 193 177 161 144 123 110 104 103 99 98 99 100 103 105 107 109 109 109 111 112 111 111 113 115 115 114 114 113 113 112 108 106 103 99 94 91 90 89 90 90 91 88 84 82 80 78 76 73 69 67 66 64 62 61 60 58 56 55 58 63 66 66 63 61 60 60 60 59 58 58 55 53 52 50 52 52 51 52 52 52 53 55 56 57 58 59 59 60 63 64 66 67 69 71 72 73 197 255 255
250 253 212 117 116 111 104 105 99 92 87 79 77 75 72 72 73 77 81 84 86 88 87 79 73 73 86 92 98 103 116 124 123 89 64 45 36 60 58 48 59 79 91 91 73 74 63 29 22 18 17 25 27 33 39 29 32 37 41 39 38 37 35 36 36 35 33 38 48 63 74 85 92 90 83 81 87 101 117 130 141 128 113 99 97 102 110 120 146 137 123 125 146 152 138 89 51 38 49 51 39 22 9 11 25 60 141 151 123 73 104 95 85 100 110 124 137 138 120 119 147 177 187 185 174 117 95 103 112 107 103 106 102 89 87 121 120 80 27 42 64 87 113 167 194 207 215 215 212 210 215 220 226 226 213 213 213 199 183 171 158 136 118 109 113 100 96 99 101 104 107 109 111 111 109 106 112 114 115 116 117 116 117 117 116 115 115 113 109 105 100 98 95 93 92 91 90 89 87 84 81 79 77 77 76 72 70 67 65 64 63 59 58 58 58 59 61 64 64 61 58 58 59 60 58 58 57 55 54 53 53 52 51 51 52 53 53 55 56 56 56 57 58 59 61 64 65 66 66 68 70 73 75 198 255 255
250 253 211 117 116 111 105 105 98 91 86 79 76 73 71 71 73 77 82 84 86 87 83 74 69 75 90 98 103 109 119 126 126 95 66 44 36 61 54 45 67 86 96 96 79 81 69 31 26 20 17 30 36 41 43 32 31 33 36 35 35 33 31 32 33 34 36 44 55 73 86 91 90 82 78 78 82 99 113 126 137 129 117 104 102 112 126 139 154 147 135 130 141 138 119 77 63 72 98 97 72 43 25 37 69 117 178 188 161 110 121 111 105 120 117 125 139 148 130 130 163 188 198 196 185 122 99 108 115 103 90 82 69 58 58 83 94 94 85 64 79 108 140 181 201 210 215 212 208 207 211 216 220 219 211 213 214 199 187 178 169 145 121 107 108 103 101 102 104 104 106 108 109 110 109 109 113 115 116 117 117 117 117 117 116 116 115 114 111 107 102 98 95 94 93 92 91 90 88 86 83 80 78 77 76 74 71 68 65 64 62 59 57 57 58 60 61 62 62 61 59 58 58 59 58 58 57 55 54 54 53 52 51 53 52 53 53 53 55 56 56 56 58 59 62 64 66 66 67 69 71 73 75 198 255 255
251 253 211 116 115 111 106 105 97 90 86 79 75 73 71 71 74 78 82 84 85 85 81 70 66 73 93 103 109 113 121 126 126 103 69 44 40 56 48 44 75 91 100 102 86 88 76 35 30 23 21 34 41 45 45 37 34 34 33 35 34 33 33 34 35 36 37 46 59 76 87 89 83 73 72 75 82 97 107 117 129 132 128 120 115 125 139 155 158 155 149 141 138 127 107 79 82 104 140 146 119 87 70 95 131 169 197 198 179 147 139 136 139 151 131 126 135 147 135 141 176 197 206 206 197 139 115 118 116 94 68 45 37 33 34 41 49 89 134 85 98 134 176 198 210 213 213 209 205 204 208 211 213 211 210 213 213 200 190 184 178 154 124 103 98 106 108 107 106 104 105 106 107 109 110 113 115 116 116 116 118 119 117 117 116 116 114 114 111 107 104 99 96 96 95 93 91 91 89 87 85 81 78 76 75 75 71 67 65 64 62 60 57 55 57 59 61 61 60 61 59 58 57 58 58 58 57 55 54 54 53 52 52 53 53 53 53 53 55 56 56 56 58 60 62 64 66 66 67 69 71 73 75 198 255 255
249 253 212 116 117 111 104 104 97 91 86 78 74 72 71 71 73 76 80 82 83 83 85 71 64 70 95 106 110 110 119 126 127 111 70 43 45 49 42 45 83 93 101 106 90 90 77 37 28 21 22 37 43 46 47 40 37 36 34 32 32 34 34 34 35 32 29 38 52 67 74 73 68 61 66 76 88 89 93 106 126 145 152 151 141 143 153 168 161 161 163 160 151 137 118 94 97 117 153 184 179 164 161 180 194 199 189 175 165 163 161 172 181 177 138 123 129 143 137 146 177 196 208 213 205 157 133 128 121 88 50 15 40 49 48 41 22 68 142 96 113 158 213 217 217 215 211 206 204 203 205 207 206 205 211 213 212 202 195 192 187 165 131 103 88 109 114 112 108 104 103 104 106 109 112 115 116 117 117 118 119 119 118 118 117 117 116 115 112 107 104 101 99 96 95 94 92 90 89 88 85 82 81 78 77 74 72 69 66 64 60 57 56 56 56 57 58 60 61 59 58 58 58 60 58 57 57 55 54 55 52 52 52 53 53 53 53 56 57 57 57 58 58 59 61 65 66 67 68 69 71 74 75 198 255 255
250 253 211 118 116 111 105 105 99 92 85 77 73 71 69 71 73 75 78 79 82 84 87 72 63 70 92 103 107 106 114 123 130 115 73 47 57 49 42 50 93 99 104 106 92 93 79 35 29 25 26 43 46 47 46 42 37 33 29 28 28 30 31 31 30 29 30 35 42 50 52 50 47 48 60 75 91 92 91 90 92 101 109 118 130 148 166 178 161 160 161 158 154 148 140 124 114 111 116 112 122 137 152 162 168 169 165 168 175 186 186 189 185 168 130 120 133 145 137 144 173 188 204 214 212 173 151 142 135 103 64 28 27 31 47 87 57 59 88 103 121 155 209 213 214 213 210 207 206 205 206 206 205 204 209 212 211 205 200 196 190 169 139 110 88 108 113 111 108 107 105 104 107 110 113 116 117 118 118 120 120 119 119 120 118 117 118 115 112 109 105 100 99 99 98 96 93 93 92 90 87 83 80 79 79 76 73 70 67 65 61 58 55 54 55 56 58 59 59 58 58 58 58 59 58 58 57 56 54 54 54 52 51 50 53 54 55 55 56 57 57 58 59 61 63 66 67 68 69 70 72 75 77 199 255 255
250 253 211 117 116 111 105 105 99 91 85 77 73 71 70 71 73 76 78 80 81 83 89 74 66 71 91 98 100 100 113 126 134 114 73 50 67 53 46 57 102 108 111 111 101 101 85 39 31 28 32 52 53 49 42 38 32 27 22 23 23 25 29 30 30 29 38 40 40 40 40 38 36 40 53 68 84 92 94 91 87 88 93 106 123 139 150 154 146 150 152 147 146 149 153 148 132 118 106 88 100 121 135 134 135 139 143 152 163 176 184 184 176 155 128 126 141 149 140 144 171 183 201 215 216 190 170 156 150 128 97 62 38 41 71 136 101 66 48 98 126 158 206 209 211 212 212 211 209 207 205 204 204 204 207 209 209 207 203 197 188 170 145 118 95 106 110 110 109 109 108 107 108 111 114 116 118 120 120 121 121 121 120 120 118 117 117 115 112 110 106 102 101 102 99 98 95 94 94 92 89 85 83 81 80 78 74 71 67 64 61 58 55 54 55 56 58 58 57 57 58 58 58 59 58 58 57 55 54 54 53 52 51 51 53 54 54 55 56 57 57 58 59 61 63 66 67 68 69 70 72 75 77 199 255 255
250 254 211 115 117 112 105 104 95 89 85 77 74 72 72 72 74 77 81 82 80 80 90 78 71 74 90 93 92 94 113 129 135 105 67 51 74 58 51 64 109 119 120 117 115 113 93 45 34 31 38 62 60 50 36 29 24 19 15 17 19 22 28 32 33 34 50 50 44 38 38 36 35 36 46 56 69 85 95 100 100 95 100 113 126 129 126 120 129 138 141 133 131 142 158 164 151 136 123 109 113 120 119 111 110 118 128 135 139 145 162 164 159 144 136 141 152 151 142 146 170 180 200 215 218 207 188 169 166 158 140 110 75 82 119 181 149 88 32 83 128 169 206 206 208 211 215 215 212 207 202 201 201 203 204 204 205 209 203 195 183 168 148 126 105 104 104 109 110 110 111 111 110 111 114 117 119 121 122 121 122 122 121 119 120 120 117 115 113 110 108 106 105 102 100 99 97 94 95 94 91 88 86 83 80 80 75 71 69 65 62 59 56 55 55 57 58 57 57 58 59 58 57 59 58 58 57 54 54 55 53 52 54 56 55 54 54 56 58 59 58 58 60 62 63 67 68 69 70 71 72 75 77 199 255 255
250 253 211 118 115 110 106 104 99 92 85 78 75 73 71 73 75 78 80 80 80 81 91 81 74 77 87 89 90 95 110 122 123 82 53 48 75 54 50 65 106 124 126 117 130 127 99 39 32 32 41 63 59 46 28 17 13 11 9 14 18 25 31 34 37 42 53 53 46 40 41 41 41 41 44 47 50 60 68 74 75 76 90 118 157 177 182 171 148 147 150 145 139 145 158 171 166 157 148 146 142 138 136 138 143 147 148 147 145 146 155 153 150 154 161 164 160 140 135 143 166 172 191 210 214 213 197 175 171 171 164 152 141 159 187 206 177 132 85 75 132 187 218 208 208 211 216 217 214 208 200 195 194 198 198 198 200 206 199 188 173 163 151 133 109 102 101 105 112 113 114 113 113 114 115 117 122 123 124 124 124 124 123 121 119 119 118 117 114 111 108 107 106 104 103 102 100 97 96 96 94 89 87 85 83 80 76 73 72 66 63 60 58 56 56 56 58 59 59 56 57 58 59 59 58 58 57 55 54 53 53 53 53 53 54 56 55 56 56 58 58 59 61 63 65 68 69 70 71 73 75 78 80 200 255 255
250 253 211 118 115 110 105 106 99 91 86 78 76 74 73 75 76 78 80 80 80 82 91 84 77 78 84 85 86 91 99 100 93 63 45 47 74 55 51 62 96 124 130 119 140 135 101 35 24 26 40 68 64 49 28 13 9 10 12 15 20 27 33 39 44 47 50 47 42 39 42 45 48 46 44 44 45 47 54 62 67 73 91 120 153 170 172 162 149 158 167 165 156 157 165 173 168 162 155 160 153 149 156 164 162 152 143 144 145 147 159 158 156 167 179 175 157 133 131 140 156 164 182 198 203 217 204 174 168 173 173 164 154 169 190 198 195 176 143 98 149 198 210 208 208 208 211 213 211 206 198 193 192 194 194 193 194 200 193 181 164 158 150 134 109 101 102 107 113 116 116 115 113 116 118 119 123 124 125 124 125 125 124 122 121 120 119 116 114 112 110 108 108 107 105 103 101 98 99 97 94 90 88 86 84 81 77 74 72 68 64 61 58 57 57 58 59 59 59 58 58 58 58 59 58 58 57 55 54 54 52 54 54 54 55 57 56 57 58 59 59 59 61 63 66 69 70 71 72 73 75 78 80 200 255 255
251 253 211 118 116 111 105 106 98 90 86 78 76 75 75 76 77 79 81 80 80 81 92 86 79 78 81 82 82 86 84 74 60 50 44 52 76 59 53 60 87 125 134 122 149 142 103 32 17 20 40 76 73 56 33 12 9 12 17 19 23 28 34 42 49 50 48 44 41 39 44 48 52 49 46 45 46 41 45 51 58 69 90 118 142 154 155 150 151 167 181 180 169 167 170 171 164 158 153 159 153 151 164 172 162 142 134 143 151 155 172 170 165 175 187 177 150 129 134 143 149 158 174 188 192 220 209 175 164 171 173 165 155 159 171 184 203 203 180 127 170 207 202 208 207 203 203 206 206 203 197 193 191 190 191 189 188 193 187 174 156 154 147 132 107 101 103 110 115 118 118 116 113 117 120 121 123 125 126 124 125 125 123 122 121 120 119 115 114 112 110 109 109 109 106 104 101 98 100 98 95 91 88 86 85 82 78 74 72 68 65 62 59 57 57 59 59 58 58 59 59 58 57 59 58 58 57 54 54 54 53 54 55 55 55 56 56 57 59 60 59 58 62 64 66 69 71 71 72 73 75 77 79 200 255 255
250 253 212 117 116 111 105 104 98 92 86 78 76 76 76 77 78 80 83 81 80 81 94 89 81 77 77 77 78 80 68 47 27 45 53 64 84 65 59 62 81 128 139 122 158 149 105 29 14 22 47 84 83 69 45 17 14 18 22 26 27 29 35 41 47 52 55 51 47 44 46 48 50 48 50 50 50 42 37 34 37 52 78 108 139 159 170 175 166 174 182 180 167 163 164 165 158 151 147 147 141 140 150 148 134 118 132 158 174 178 192 182 170 172 182 170 144 130 144 155 152 152 167 183 188 222 216 180 163 166 168 164 166 155 151 176 200 198 174 151 189 215 205 210 205 198 193 199 201 203 198 192 190 190 189 185 182 188 183 169 151 152 145 129 99 102 107 112 118 119 117 116 116 117 119 125 125 125 125 128 126 124 125 123 122 120 119 116 115 113 110 110 111 109 108 106 102 100 101 98 96 92 89 87 85 82 78 75 72 69 66 63 60 60 59 59 59 59 59 58 58 58 59 59 58 58 57 55 54 54 54 53 53 53 55 56 57 58 58 58 59 59 62 65 67 69 71 71 72 74 76 78 80 200 255 255
252 254 213 120 114 110 106 101 97 93 86 78 75 75 75 75 76 78 81 82 83 84 88 94 93 83 72 73 81 89 75 52 32 43 57 70 80 74 65 61 79 127 150 148 176 155 101 24 19 25 47 95 109 90 44 25 18 19 26 27 31 38 48 48 50 57 52 48 45 45 46 46 47 47 47 49 52 51 53 53 46 56 80 112 139 152 160 169 176 181 181 174 166 164 165 169 173 176 177 170 164 164 171 173 166 156 157 174 190 199 194 180 169 173 176 164 145 139 152 161 159 162 174 184 184 214 217 193 157 153 160 171 179 188 194 189 214 209 176 133 168 201 205 208 204 199 199 198 195 192 193 192 189 185 181 180 180 176 167 161 159 160 151 132 101 102 106 112 118 121 121 120 118 120 122 127 126 124 123 124 126 128 130 129 126 122 118 120 119 117 116 112 110 109 112 108 101 95 100 98 93 93 94 91 85 82 78 74 68 68 66 63 59 57 57 58 60 60 59 57 59 60 59 59 58 58 57 57 56 56 56 55 56 58 59 59 59 59 58 60 62 62 64 65 68 69 71 72 72 75 77 80 82 200 255 255
254 255 213 122 112 109 107 99 98 93 86 77 75 75 74 74 75 77 80 82 85 87 85 95 98 87 73 75 85 94 77 53 33 42 59 71 74 77 68 60 77 130 159 164 182 158 101 21 15 22 46 104 125 101 45 27 18 20 31 33 39 47 53 45 45 54 49 46 44 44 45 46 47 48 48 49 51 52 59 62 53 59 80 110 132 141 151 164 178 183 182 178 174 171 169 171 175 179 183 181 179 178 183 186 185 180 175 185 199 210 188 169 159 165 169 160 146 141 149 155 154 163 174 181 182 208 217 204 162 151 155 168 180 200 212 194 219 216 184 133 161 194 205 205 201 196 197 195 189 183 186 189 189 184 175 173 171 162 153 152 157 160 150 131 104 103 105 112 118 122 123 122 121 122 124 128 129 127 125 125 127 129 131 131 128 125 121 119 118 118 115 110 106 106 108 107 101 96 101 98 91 90 91 90 85 82 79 75 70 69 66 63 59 57 56 57 59 60 61 61 60 59 59 59 58 58 58 57 57 57 57 57 58 60 61 61 61 60 60 61 63 64 64 65 68 70 71 72 72 75 77 80 83 200 255 255
254 255 213 123 110 108 108 99 99 93 84 77 76 75 74 75 76 78 80 83 86 89 87 95 96 88 78 82 91 95 73 47 28 42 60 70 66 75 67 58 72 135 166 168 179 159 106 19 6 13 44 110 131 108 53 24 16 20 33 41 49 55 51 33 32 45 46 45 44 43 44 47 49 50 49 48 46 45 53 58 55 60 78 103 118 128 143 162 174 180 185 191 190 184 176 169 165 163 166 176 181 183 187 188 186 185 185 192 202 208 176 153 142 149 161 159 146 136 137 139 141 156 167 175 182 204 215 211 178 158 151 155 172 191 201 190 214 218 199 157 174 198 207 202 194 188 188 187 182 175 178 184 188 186 171 162 155 148 142 141 146 153 143 126 108 105 107 113 118 121 122 122 122 123 124 128 132 133 131 129 128 127 128 129 128 128 127 116 113 114 111 105 100 98 99 102 102 100 101 97 89 85 85 85 86 82 80 78 78 70 66 63 58 57 56 56 57 60 64 66 61 58 59 58 58 58 58 56 55 56 56 57 57 57 60 61 62 61 61 61 62 65 65 66 69 72 73 73 73 75 77 79 82 200 255 255
254 255 213 123 111 108 108 98 97 92 83 79 77 77 75 74 75 78 81 84 86 88 91 97 97 90 86 93 99 96 68 40 21 43 65 74 61 73 67 57 65 137 172 169 179 164 114 23 6 12 42 101 127 121 86 37 21 18 24 35 51 64 59 36 32 46 46 44 42 41 44 49 52 54 51 48 44 43 46 49 49 60 78 97 108 121 139 162 170 176 182 189 188 182 174 169 169 170 174 184 189 192 194 193 190 190 193 196 198 197 173 150 138 142 155 156 146 137 140 144 149 160 166 171 183 199 213 219 199 168 147 143 166 181 189 189 215 227 222 197 204 216 220 204 190 180 178 179 174 166 168 177 186 190 166 152 142 132 131 133 136 139 133 124 114 110 111 114 117 119 121 123 124 125 126 126 130 131 131 132 129 126 125 125 124 124 127 116 115 118 115 107 100 95 94 95 97 98 85 86 94 99 97 96 94 85 79 77 81 73 69 65 62 58 55 54 56 59 63 66 60 58 58 57 57 57 56 57 56 56 55 55 56 57 59 60 60 60 61 61 63 65 65 66 69 72 73 73 74 76 78 80 82 200 255 255
253 254 213 122 112 109 107 97 97 92 84 79 77 77 75 74 75 78 81 84 86 88 93 98 99 94 94 100 102 91 62 36 22 45 73 81 59 76 70 57 58 135 171 167 178 166 117 25 9 13 34 75 108 125 121 64 39 28 19 23 43 65 69 45 37 46 45 43 40 39 43 50 55 57 53 48 43 45 42 39 39 56 76 94 105 119 139 162 167 173 180 185 184 180 176 174 177 180 183 185 189 195 198 196 195 197 201 199 194 186 163 145 138 141 150 150 143 134 137 143 150 161 165 170 186 195 208 222 216 179 149 140 160 167 171 181 204 218 223 214 212 214 216 201 186 175 173 175 170 161 161 171 183 190 166 149 135 124 124 128 131 129 125 122 119 115 115 115 117 118 121 124 126 127 127 126 127 128 129 131 131 130 128 126 124 122 121 112 111 112 108 100 92 86 84 84 84 86 75 81 95 98 93 91 91 87 80 75 79 73 70 68 65 60 56 54 55 56 60 63 59 57 57 56 56 56 55 56 56 55 54 54 56 58 59 59 59 59 60 61 63 65 66 67 69 72 73 74 74 77 78 81 83 200 255 255
253 254 213 121 111 108 107 97 96 92 84 79 76 76 75 75 76 78 81 84 87 89 95 99 102 99 101 104 101 83 55 34 26 47 79 88 62 82 74 58 52 131 170 165 176 165 117 26 13 13 24 45 81 118 141 88 64 47 26 16 31 57 71 51 41 44 44 42 39 38 43 50 57 59 54 48 43 48 41 33 33 54 73 89 99 117 139 163 167 173 178 182 184 183 182 181 182 184 185 182 185 193 197 197 199 204 207 202 192 178 155 144 144 147 149 145 138 131 133 139 147 159 164 170 190 191 203 222 228 191 158 146 159 160 161 176 192 205 214 217 210 205 205 196 183 173 172 173 168 159 157 167 178 186 166 150 135 122 122 125 128 122 120 120 121 119 118 117 118 118 121 124 127 127 127 126 126 127 128 130 132 134 133 128 125 121 116 110 107 103 99 91 86 83 82 83 84 87 87 95 103 98 87 83 86 88 82 77 77 72 70 69 66 61 57 55 55 55 58 61 58 57 57 56 56 56 55 55 56 55 54 54 55 58 60 60 59 58 59 61 63 64 66 67 69 72 73 74 75 77 79 81 83 201 255 255
252 254 213 121 109 107 106 97 96 91 84 78 76 76 76 77 78 80 82 85 88 92 96 102 106 105 104 102 94 73 50 36 34 48 81 92 70 90 80 60 51 128 169 166 169 161 118 28 12 10 16 24 54 92 124 96 86 76 56 23 20 36 57 46 37 36 41 41 39 38 42 50 57 60 54 49 45 48 41 34 37 56 68 76 85 110 137 166 171 176 181 187 192 194 194 190 182 176 173 169 175 185 193 195 201 207 211 205 192 175 153 153 160 164 157 146 135 127 128 131 138 153 160 170 192 189 198 218 234 206 179 168 173 170 170 183 189 197 206 214 204 195 194 192 182 173 173 174 169 160 158 164 173 178 169 153 136 124 124 124 124 119 115 115 119 120 120 119 119 120 123 125 127 128 128 126 129 130 129 129 131 133 135 132 129 123 117 115 109 100 94 91 91 95 102 110 117 120 143 148 136 112 89 80 82 90 90 86 81 70 65 65 63 61 59 57 56 57 59 61 58 56 56 55 55 55 54 53 53 53 54 53 53 55 58 60 60 58 60 61 62 65 66 67 70 72 73 74 75 76 78 81 83 201 255 255
252 253 212 120 109 106 106 96 96 91 83 79 77 77 76 77 77 79 82 85 88 92 94 104 110 109 104 98 88 68 48 37 37 49 79 94 81 99 86 62 52 127 170 172 167 163 125 35 12 9 17 30 47 64 78 71 81 90 90 49 26 22 43 42 39 36 41 40 38 38 42 49 56 59 55 51 47 45 40 38 50 63 65 63 69 100 134 166 178 180 181 184 188 191 193 192 187 182 179 176 180 187 193 197 202 206 206 197 184 170 165 168 169 158 138 121 108 101 107 120 138 149 160 172 188 185 195 215 233 218 202 193 186 183 185 192 193 199 208 219 213 205 200 191 182 174 174 173 168 160 160 164 167 166 162 151 137 127 125 124 121 116 112 111 114 119 120 121 121 123 125 126 126 127 128 127 130 131 129 129 128 129 129 128 125 121 119 118 110 99 92 94 103 116 133 150 166 177 192 196 188 170 136 103 76 74 79 80 72 65 61 59 57 57 56 57 58 60 61 62 57 55 55 55 54 54 53 53 52 52 52 52 52 53 57 59 59 59 61 62 63 66 66 68 70 72 74 74 75 77 79 82 84 201 255 255
252 253 212 120 109 106 106 96 96 91 83 80 78 78 76 76 77 79 82 85 88 90 92 104 111 112 103 95 85 68 50 38 36 52 79 97 94 106 88 61 53 124 169 178 167 164 128 39 14 9 18 35 44 46 44 49 69 93 116 76 39 18 36 42 43 38 42 40 38 38 42 48 54 57 55 53 50 43 38 40 57 68 64 57 63 98 132 163 180 181 180 180 182 185 189 193 193 192 191 187 187 191 195 199 202 203 199 189 178 169 172 170 160 135 108 88 75 66 78 101 134 148 163 177 183 184 194 212 227 224 218 211 194 189 189 191 190 195 205 218 217 209 200 186 178 173 173 169 164 159 162 164 162 154 154 147 138 129 127 124 121 116 111 109 109 117 121 123 126 127 127 127 127 127 127 128 129 131 133 135 133 131 127 123 121 119 119 113 104 96 91 98 112 131 153 175 195 211 214 218 221 219 181 131 77 68 74 79 67 64 61 56 52 52 52 55 59 61 61 61 56 55 55 54 54 54 53 53 52 52 51 52 53 54 57 58 59 59 60 62 64 66 66 68 70 73 74 75 75 77 79 82 84 201 255 255
253 253 212 121 109 107 105 95 95 90 82 80 78 78 77 76 76 79 83 86 87 88 90 103 112 113 102 94 84 72 54 40 34 56 81 101 108 112 87 58 55 120 167 183 170 163 126 40 17 10 16 35 43 41 30 35 55 87 130 101 58 25 37 46 47 39 41 39 39 39 43 48 51 54 55 55 53 43 37 39 56 68 67 62 71 104 133 155 175 179 178 175 176 179 185 193 200 203 205 201 197 195 195 200 202 201 192 185 178 173 172 158 134 100 74 57 45 28 42 75 125 146 169 185 179 183 193 209 218 225 227 221 193 186 185 179 179 184 196 209 213 205 190 178 173 171 169 163 157 155 163 165 159 143 143 142 138 131 128 125 123 118 113 109 106 115 120 124 130 130 129 129 127 125 126 128 126 130 140 147 146 141 132 122 117 116 116 101 93 90 92 103 119 138 159 180 200 218 209 214 228 247 217 159 89 78 87 91 75 71 65 57 48 45 47 53 59 61 60 58 55 54 54 53 53 53 53 53 53 52 50 51 53 55 56 57 57 57 58 61 64 65 66 68 71 73 75 76 76 78 80 82 84 201 255 255
252 253 212 119 110 107 105 96 94 89 82 81 78 77 76 77 79 81 84 87 89 90 88 101 111 110 99 92 85 73 53 39 35 61 86 106 119 115 87 56 54 115 163 186 172 154 112 32 15 7 5 17 35 47 50 46 57 85 133 112 73 37 40 49 46 33 37 38 40 42 43 45 48 52 54 56 57 47 37 34 46 64 71 74 93 120 139 149 165 172 178 182 186 189 192 192 193 194 196 198 193 189 188 197 202 201 195 192 191 192 170 147 120 92 84 75 62 33 38 68 118 150 178 192 179 184 194 206 210 222 228 220 202 202 202 183 181 185 195 205 208 198 175 170 169 167 166 157 151 150 163 166 157 137 138 137 136 134 132 129 126 122 117 113 109 112 118 126 131 134 132 128 125 126 127 127 124 133 150 168 173 165 146 129 120 116 116 104 100 101 114 130 143 156 167 181 196 209 216 218 222 241 225 186 137 144 157 157 125 93 72 60 47 42 42 49 53 56 54 54 55 55 54 52 53 53 52 52 50 51 53 49 50 54 57 58 58 57 59 61 63 65 67 68 71 73 75 75 77 78 80 82 83 201 255 255
252 254 212 119 111 106 102 98 95 91 85 81 78 77 77 80 81 82 82 84 87 91 92 102 108 104 97 92 84 65 45 37 42 71 92 106 113 115 82 47 57 101 148 190 183 152 103 40 16 7 6 9 29 46 54 56 66 88 124 114 78 37 29 42 43 31 35 39 41 42 43 47 51 52 51 51 53 46 40 39 46 58 68 76 92 116 138 155 166 172 177 184 189 191 190 187 187 189 192 191 193 194 187 192 199 204 199 192 182 169 148 132 118 104 108 107 95 57 48 65 107 149 175 186 184 189 196 203 206 217 225 224 213 211 207 186 179 183 194 202 200 188 169 166 164 162 160 155 153 156 164 162 152 134 134 132 130 129 130 130 129 125 119 114 110 118 120 121 126 131 132 128 125 127 128 128 121 139 167 179 187 185 172 144 128 118 113 110 107 109 134 158 167 166 177 193 205 202 213 212 207 213 205 190 175 189 201 201 179 148 127 114 102 93 86 83 81 74 59 41 50 55 53 45 52 57 56 54 46 42 52 53 54 54 58 57 57 58 61 60 62 71 71 70 71 72 73 73 74 76 79 81 83 201 255 255
252 254 211 118 113 106 99 100 96 93 89 81 78 77 78 82 83 82 79 80 85 90 96 102 104 100 96 92 82 57 37 35 48 77 93 102 108 112 75 39 64 86 128 187 193 153 100 48 17 10 13 8 23 40 56 63 77 94 115 111 77 34 16 35 42 34 36 41 44 41 42 48 54 52 47 46 48 45 44 47 50 55 65 76 86 108 135 162 166 168 171 179 186 188 185 181 183 186 189 185 194 201 191 192 198 203 195 180 158 128 112 112 120 127 140 142 127 82 60 65 100 146 169 179 190 194 198 202 207 215 222 227 221 217 208 189 178 180 192 199 190 178 165 164 161 158 154 154 157 162 164 157 148 137 134 130 126 124 127 129 131 126 119 113 108 122 122 119 122 126 129 128 129 129 128 124 122 148 179 183 193 200 198 161 135 117 109 112 113 120 152 178 184 177 188 205 213 198 202 195 182 174 177 186 199 208 213 214 212 198 185 175 167 158 151 142 136 116 85 45 49 52 52 42 52 58 56 56 47 40 50 55 55 53 59 56 56 59 63 60 60 76 74 72 72 70 70 71 72 74 77 80 82 200 255 255
253 253 210 117 113 105 98 99 95 92 90 81 78 77 77 80 82 82 81 83 85 89 94 99 101 102 101 94 81 57 41 37 44 65 80 98 122 106 70 46 75 78 111 167 189 158 103 33 14 18 25 11 8 32 70 65 79 99 118 110 75 34 20 40 47 36 39 43 45 41 42 49 56 54 48 45 47 48 45 46 51 63 72 80 91 112 132 150 147 151 159 170 180 185 186 184 180 180 184 188 194 198 195 204 204 192 164 144 123 96 67 84 119 154 172 166 136 85 64 70 105 147 173 186 191 191 198 211 219 221 222 226 222 219 210 192 180 180 189 192 181 168 159 168 166 160 153 151 153 157 160 158 154 150 140 133 127 123 128 129 127 123 115 110 107 109 119 132 135 125 120 123 136 136 126 108 138 158 170 178 192 202 206 174 136 108 105 97 116 146 164 171 180 193 199 201 201 204 184 160 138 138 166 191 202 187 179 178 187 194 190 184 184 195 208 220 222 197 158 106 62 46 52 62 56 47 43 56 67 67 48 43 42 44 58 59 56 55 64 63 59 65 70 72 72 72 73 73 74 76 79 81 82 200 255 255
252 254 211 117 113 106 99 101 95 92 89 80 77 75 75 81 83 84 82 82 85 89 93 96 100 106 104 94 79 62 52 46 47 71 83 100 130 100 74 64 87 67 81 128 174 164 113 28 10 15 27 22 8 28 70 66 80 100 120 112 79 39 21 38 45 37 41 44 45 40 41 49 57 56 49 46 48 51 47 47 57 72 81 88 102 120 132 138 137 140 147 159 171 177 180 179 179 181 184 187 192 196 197 204 196 176 153 138 117 86 51 68 108 150 175 178 159 115 88 83 101 138 169 189 194 186 188 198 207 211 217 227 223 223 218 202 188 187 193 193 180 167 159 170 168 159 153 153 154 154 152 150 151 153 140 133 128 123 126 127 127 120 114 110 108 107 122 140 138 124 122 132 143 134 117 97 139 158 167 182 182 185 189 167 124 91 89 94 119 148 163 175 192 211 202 186 180 192 154 138 138 146 163 174 177 167 163 165 174 182 183 183 190 202 214 225 232 223 203 172 98 50 30 46 59 73 90 105 125 133 109 66 44 43 57 58 54 49 62 65 63 61 66 69 70 72 73 75 76 78 81 82 83 201 255 255
252 254 212 117 113 106 99 101 95 92 88 81 77 75 76 81 83 84 81 82 85 90 94 95 100 109 108 95 79 68 65 60 57 86 92 102 128 92 81 86 95 58 53 87 150 165 129 42 12 9 23 31 14 25 60 62 78 99 120 118 89 49 23 34 39 34 41 45 45 39 41 49 58 58 51 47 49 54 49 49 65 81 89 96 113 130 136 130 133 134 139 147 159 167 173 174 178 182 187 187 191 193 193 193 180 161 154 147 125 83 53 65 95 130 159 172 169 139 110 93 92 123 156 181 188 181 182 190 195 199 208 223 221 224 224 211 198 194 197 194 182 169 160 170 167 158 155 159 158 154 144 140 141 146 135 130 125 123 126 128 127 120 115 112 110 112 125 139 132 125 130 145 141 120 100 90 130 153 167 183 167 157 156 143 103 74 75 99 123 146 164 183 202 215 198 175 161 164 134 134 151 161 157 152 151 158 164 169 170 177 181 185 193 199 204 207 220 227 228 218 132 67 31 52 86 118 143 149 171 189 179 104 58 44 55 56 51 43 57 64 64 60 64 66 68 71 74 77 79 81 82 82 83 201 255 255
252 254 211 117 113 106 99 99 95 92 89 82 79 78 77 80 80 81 80 82 85 91 96 95 99 112 111 97 80 76 81 78 74 108 105 101 111 82 91 109 95 49 30 47 119 160 150 77 21 3 12 35 22 22 39 54 73 95 116 126 104 64 27 29 31 30 40 45 44 38 40 49 59 60 54 50 52 57 51 52 73 92 98 101 121 140 143 129 134 134 134 138 147 157 165 171 178 184 191 189 192 191 183 170 156 149 165 169 140 81 71 74 83 99 123 143 156 148 123 98 79 102 133 159 171 174 181 191 190 189 197 213 217 223 226 218 207 201 201 196 185 173 164 167 162 156 159 166 165 156 138 128 125 130 127 123 119 122 126 129 128 124 119 113 112 121 126 128 119 128 143 155 128 94 76 84 113 143 170 180 148 121 108 100 76 60 67 108 129 143 170 194 206 204 189 168 147 125 130 149 171 172 148 132 132 163 183 190 179 185 188 190 195 192 186 181 196 216 232 237 159 99 67 93 139 174 188 177 195 224 243 150 83 48 53 55 50 39 52 61 64 62 63 65 68 71 75 78 81 83 83 83 83 201 255 255
252 254 210 117 113 106 99 99 95 92 90 83 79 77 76 79 80 81 80 83 86 91 98 94 96 108 108 96 81 81 91 93 94 119 115 103 93 82 101 115 77 45 28 33 85 135 155 131 57 18 7 21 26 27 29 44 60 80 105 130 118 83 33 26 28 34 38 42 42 37 39 48 59 61 56 54 56 56 53 58 80 99 105 108 130 150 152 136 129 126 125 128 140 152 163 172 179 185 191 195 192 182 168 158 149 149 168 163 123 54 62 65 68 75 84 91 97 99 94 84 75 86 106 128 145 163 181 196 191 186 188 200 204 213 221 219 208 202 199 192 180 169 163 163 159 156 160 167 166 156 136 125 120 124 121 119 118 124 129 132 132 125 119 114 113 118 124 127 125 136 145 143 100 68 60 83 106 138 162 155 131 104 80 59 57 66 85 118 144 166 191 195 191 181 174 163 146 124 157 161 149 137 138 150 168 187 196 200 198 195 192 188 188 187 184 183 196 209 218 215 170 152 154 163 179 189 189 191 194 202 214 155 96 50 48 54 54 44 51 56 61 64 63 65 68 71 76 79 82 83 83 83 82 201 255 255
252 254 211 117 113 106 99 100 95 92 89 83 79 76 75 79 81 82 80 83 86 91 96 92 92 101 103 94 82 82 95 104 112 133 130 114 90 90 107 111 59 39 29 28 56 103 144 163 97 47 16 9 23 29 26 36 47 63 87 121 119 90 37 27 30 39 37 40 41 37 39 48 57 59 55 55 58 54 53 63 85 101 109 116 140 157 157 140 120 113 114 120 135 150 164 172 178 183 187 194 186 171 156 160 162 165 171 154 108 42 49 49 47 50 50 49 49 57 66 69 68 79 94 112 130 147 159 166 165 169 179 193 193 205 220 222 212 204 198 188 176 166 162 161 158 156 158 163 162 153 136 126 123 126 122 121 121 127 132 134 134 124 118 113 113 115 127 139 140 142 136 121 79 56 56 84 106 133 150 130 117 98 72 38 50 79 111 136 162 186 198 192 181 169 151 142 142 153 170 160 137 129 149 174 199 204 205 207 212 197 187 181 179 177 172 169 178 190 197 197 181 189 207 196 190 186 184 203 200 193 196 147 94 48 44 54 57 51 51 52 56 63 62 63 66 70 75 78 81 83 83 83 82 201 255 255
251 254 211 117 113 106 100 101 95 91 88 83 79 75 74 79 81 82 80 83 87 91 94 90 89 94 98 93 85 82 94 109 126 146 142 123 93 98 106 99 43 34 30 26 34 71 119 169 127 79 33 4 18 27 26 28 35 47 65 101 106 85 37 28 33 44 37 39 42 39 40 47 55 56 53 55 60 51 54 67 88 100 112 125 150 162 159 140 110 100 103 113 132 150 166 173 177 179 181 186 176 161 150 170 183 186 175 148 104 51 44 37 32 34 30 23 18 26 43 54 59 75 88 102 121 127 126 122 130 150 170 184 181 197 217 223 214 206 197 185 174 164 162 162 159 156 155 157 155 149 138 131 130 132 126 125 126 129 133 135 133 123 117 113 113 115 133 151 155 140 119 94 64 53 60 84 106 127 135 113 108 96 72 34 52 92 138 158 180 197 195 185 174 160 127 118 136 187 168 151 140 145 171 196 216 212 208 209 218 192 178 171 170 165 157 150 155 168 179 183 189 210 229 208 190 180 178 207 205 193 188 132 81 45 42 53 59 56 54 50 51 62 61 61 64 68 72 76 79 81 81 81 81 200 255 255
252 254 211 117 112 105 98 99 94 92 89 85 82 78 77 77 78 79 80 84 88 92 93 91 89 91 97 98 94 84 92 110 134 151 136 112 90 87 88 80 42 33 26 19 25 49 84 125 118 89 49 16 15 20 26 21 28 37 42 68 74 61 31 27 32 40 35 40 44 42 42 45 50 50 50 53 59 48 54 68 84 98 114 134 158 162 155 135 104 95 99 109 128 148 166 174 175 176 176 171 167 162 157 180 197 203 185 163 132 95 73 56 47 45 40 29 17 22 35 43 45 70 81 88 105 105 97 91 117 146 161 156 165 186 208 220 215 206 194 183 172 165 165 161 159 156 153 152 148 144 139 135 132 131 129 127 127 128 133 133 129 125 121 116 116 128 139 145 142 119 93 71 59 57 63 72 95 116 128 119 104 86 66 42 59 98 155 176 189 193 187 177 163 144 114 110 131 178 147 149 171 192 199 201 201 205 208 208 206 187 172 163 160 155 147 140 149 164 177 181 189 202 213 215 207 193 178 186 192 193 189 114 66 45 47 51 54 53 55 49 48 61 61 62 65 67 71 74 77 79 80 79 80 200 255 255
253 254 211 117 113 106 99 100 95 92 89 85 80 76 75 77 79 80 81 84 88 91 94 94 92 91 99 104 101 85 90 110 140 138 109 81 64 59 61 62 55 38 22 11 26 41 55 71 86 80 61 40 23 16 18 16 24 30 25 37 40 36 18 21 28 35 34 41 45 45 43 44 47 45 46 50 58 45 55 70 81 93 115 142 165 161 148 128 109 101 102 107 125 143 160 170 174 177 176 160 166 174 169 179 190 196 190 181 165 140 116 99 90 89 76 51 23 14 24 33 37 53 57 61 79 90 100 115 157 172 155 111 139 170 196 212 207 200 190 179 168 164 166 159 157 156 153 149 145 142 139 134 127 121 126 127 126 126 130 131 129 124 123 124 127 142 139 124 107 84 67 56 55 55 54 49 71 102 131 142 106 71 46 45 62 97 150 176 188 191 192 166 136 110 123 134 135 116 138 164 190 208 205 197 189 192 195 193 188 175 157 141 134 138 145 154 169 179 182 175 189 194 198 219 221 212 197 184 173 152 114 75 55 51 54 49 45 48 52 51 52 64 63 63 65 67 70 73 75 77 78 78 79 199 255 255
253 254 211 115 112 105 98 99 94 91 89 85 80 76 75 77 79 81 82 84 88 91 96 96 96 94 100 105 105 94 101 121 144 116 80 52 35 33 41 52 64 45 25 11 24 32 36 37 56 61 56 49 29 17 15 16 24 28 19 16 15 16 13 21 27 30 36 44 49 49 45 43 44 42 43 49 56 45 56 70 77 90 116 146 165 155 138 120 110 105 106 109 122 138 154 164 168 172 175 157 169 182 175 176 179 182 188 187 181 172 154 139 132 132 112 80 44 27 28 31 34 38 39 48 77 104 130 158 199 196 156 91 123 154 181 204 203 197 185 174 166 163 163 156 154 154 152 148 144 141 137 131 123 116 122 126 127 123 129 132 129 111 120 133 136 143 126 98 70 58 52 53 52 46 40 33 72 112 144 153 104 61 36 41 55 84 130 158 179 188 180 137 104 93 129 137 120 71 124 166 196 212 203 192 184 183 180 174 171 146 126 113 121 140 158 171 181 184 183 181 192 193 195 220 226 224 218 201 173 128 61 46 47 55 56 50 44 41 51 54 55 61 62 63 65 68 70 73 75 76 77 78 79 199 255 255
254 255 210 112 110 103 94 93 90 89 90 84 82 79 77 77 79 80 81 85 90 95 97 98 100 100 99 100 104 113 131 147 149 89 54 29 7 12 32 54 65 52 37 22 11 18 26 31 33 34 32 33 28 23 19 20 28 32 25 8 2 5 21 30 30 27 39 49 56 56 48 42 39 41 45 50 53 52 59 68 75 90 116 144 155 142 126 111 103 102 106 114 119 132 146 154 152 159 174 165 175 183 173 172 170 169 177 173 175 186 180 170 164 166 141 112 85 69 53 42 37 28 35 61 111 156 189 212 228 208 165 108 121 141 166 198 208 200 180 168 166 163 158 154 152 151 149 147 144 139 133 128 123 121 118 125 129 118 130 138 130 84 110 140 141 123 97 67 39 45 55 62 47 31 24 30 109 155 170 146 99 63 41 32 35 53 91 122 162 185 139 84 73 105 123 103 78 62 102 147 187 205 196 189 188 179 165 155 152 97 74 84 133 172 189 184 173 170 178 201 198 199 207 216 218 223 234 236 200 139 59 40 41 52 49 57 54 36 51 58 57 49 57 62 66 70 73 75 76 77 78 79 80 200 255 255
254 254 210 113 109 103 95 93 89 88 87 84 83 82 79 77 78 80 83 86 89 90 92 97 100 99 97 101 111 126 130 128 112 48 26 17 8 10 19 28 37 41 40 32 18 18 21 23 22 21 21 22 21 17 15 18 24 27 24 13 9 10 21 26 28 27 37 45 51 56 51 44 39 42 45 48 50 56 64 70 73 93 117 140 146 132 115 102 98 92 88 91 109 136 161 171 160 149 146 168 177 170 145 150 157 165 180 168 159 163 173 171 165 167 149 130 112 102 84 74 73 74 88 114 152 181 198 209 219 210 185 149 137 145 165 190 193 186 171 163 163 162 157 151 149 149 149 146 143 137 133 128 123 119 118 122 125 122 136 139 128 99 125 152 154 121 79 41 17 37 57 66 42 33 47 84 144 174 173 133 82 52 43 42 38 38 48 72 93 104 93 86 94 110 96 69 51 54 95 143 187 206 198 191 186 169 133 95 62 66 90 132 185 184 164 140 149 164 181 201 208 209 209 210 211 216 225 237 229 205 169 96 56 43 40 45 48 47 49 54 58 58 61 64 67 71 73 74 76 77 78 80 82 200 255 255
254 255 210 112 110 103 95 93 89 87 87 84 82 81 78 77 78 80 83 86 89 90 92 97 99 96 94 102 115 130 118 100 70 21 10 11 12 12 13 13 17 25 29 30 19 16 16 15 12 11 13 16 15 12 10 17 21 23 23 18 16 16 21 24 25 26 33 42 49 54 50 45 41 42 44 46 47 56 62 68 73 93 117 138 141 128 114 104 99 93 89 91 109 131 152 159 151 142 139 169 176 163 128 136 152 169 184 164 150 154 171 172 166 165 152 145 140 134 115 108 115 119 132 152 181 198 203 205 211 212 203 184 158 158 172 188 186 176 163 163 165 163 155 150 148 148 147 144 141 136 132 127 123 120 116 119 124 127 139 136 122 116 141 163 166 128 79 33 9 33 55 65 39 42 72 130 164 184 181 139 84 51 43 44 38 33 33 49 62 74 86 94 97 91 68 50 41 47 72 111 152 177 172 159 138 107 73 48 37 83 122 156 183 156 126 112 150 175 188 188 196 194 188 189 194 199 204 218 228 230 223 139 77 45 47 50 57 68 55 50 51 60 62 64 68 70 73 74 75 77 78 79 81 200 255 255
253 255 210 110 110 102 93 92 88 86 88 84 81 78 77 77 78 80 82 85 88 91 92 96 97 93 91 100 112 121 98 65 29 6 5 11 18 17 13 7 7 9 14 21 14 11 11 8 4 5 9 14 12 8 5 15 18 19 20 22 23 21 21 22 22 24 30 40 48 51 49 46 43 42 42 44 45 55 59 64 73 90 114 135 137 125 116 111 102 101 103 108 116 124 128 130 133 139 145 166 172 159 119 128 151 176 186 161 147 154 173 174 166 158 150 155 166 163 144 141 158 159 165 177 197 205 205 202 207 214 216 208 182 178 185 191 183 170 159 166 168 163 151 148 148 146 144 141 139 135 131 127 124 122 115 117 123 132 138 129 113 133 155 171 176 142 93 44 11 30 49 60 41 58 100 163 171 188 193 161 104 65 49 47 43 42 45 54 69 88 107 103 86 60 46 44 44 40 45 66 96 122 121 102 67 26 13 25 62 126 155 155 145 103 81 92 157 188 193 174 178 171 160 161 169 175 177 188 206 223 235 170 106 61 71 73 84 102 74 51 42 58 61 63 67 69 73 74 75 76 78 79 81 200 255 255
252 254 209 111 110 103 94 93 87 84 85 83 83 80 78 76 76 79 81 84 87 89 87 90 93 92 90 93 96 93 66 34 5 9 10 13 18 21 21 20 14 9 6 5 5 5 4 3 2 6 11 17 14 9 4 15 16 16 19 24 26 24 18 18 21 27 32 39 46 50 46 43 40 42 45 45 44 54 57 61 66 85 107 125 125 115 109 108 100 108 121 132 135 127 111 101 117 136 150 148 154 150 121 130 148 169 179 158 151 168 180 176 163 149 144 157 177 175 159 161 186 182 179 182 190 198 203 206 210 211 210 206 201 200 202 200 184 169 159 165 168 162 146 145 145 143 142 140 137 133 130 127 124 122 119 119 121 135 132 116 101 144 162 174 183 160 120 71 25 23 32 48 55 80 119 167 169 188 205 190 146 108 81 74 74 80 92 109 127 139 134 100 68 43 46 51 49 35 39 40 41 46 46 36 16 3 25 66 124 158 153 122 93 57 43 59 123 163 185 188 188 173 152 143 145 148 149 158 176 194 207 188 146 103 121 130 144 159 126 80 50 63 63 64 66 69 71 73 74 76 78 80 82 200 255 255
251 253 209 112 110 104 96 92 87 85 85 83 83 81 78 76 76 79 81 84 86 87 84 87 91 93 90 84 74 58 35 15 1 10 10 10 11 17 22 26 24 19 14 9 11 10 7 4 2 5 10 16 15 11 6 17 17 14 17 24 27 24 16 17 22 30 34 39 43 47 44 40 38 42 45 47 48 58 63 66 66 80 96 109 106 97 93 93 91 104 120 135 146 139 118 101 115 127 127 129 137 138 115 122 133 147 161 151 151 171 181 174 158 144 144 160 181 177 160 163 191 193 192 191 191 196 202 207 209 206 203 201 207 207 205 200 184 168 157 161 162 156 139 141 142 142 141 139 136 133 130 128 125 123 124 122 121 132 123 107 98 153 170 179 190 174 135 83 26 13 21 47 72 100 130 164 178 193 204 198 178 157 139 128 124 125 133 150 153 143 113 80 59 52 49 42 38 36 32 30 28 22 15 9 4 26 64 105 143 145 121 84 60 36 25 32 75 113 146 173 166 152 137 130 129 127 125 134 149 162 168 176 159 135 154 170 181 185 159 101 56 65 65 65 67 70 71 72 74 76 78 82 84 201 255 255
251 253 209 112 112 106 97 93 87 85 86 83 82 80 78 76 77 78 80 83 85 87 85 86 89 91 86 73 53 27 12 5 6 11 11 9 8 14 20 26 31 30 28 25 28 24 17 10 4 5 8 14 16 13 9 19 17 14 16 23 26 23 16 18 23 32 36 39 42 44 41 38 38 42 46 49 51 63 71 75 72 79 88 97 93 84 80 81 87 101 117 131 149 144 122 100 111 112 100 114 127 130 111 112 116 125 144 144 149 167 175 165 148 139 146 163 182 173 154 156 185 194 198 199 194 193 197 203 205 202 200 203 209 208 204 199 185 170 157 157 157 150 135 139 141 141 139 138 135 133 130 129 127 126 127 125 124 129 113 101 102 162 179 186 197 185 144 85 23 7 21 55 87 112 135 160 185 195 198 199 199 196 188 176 166 161 163 169 160 134 88 61 53 57 45 32 31 49 36 31 28 18 10 9 18 61 102 131 142 120 88 54 41 29 20 18 39 65 96 131 118 109 105 103 100 95 92 106 123 136 140 161 165 160 175 190 195 189 169 107 56 62 64 65 67 70 71 72 73 75 78 82 84 201 255 255
252 255 211 112 114 107 97 95 89 87 88 84 81 78 77 76 76 77 79 82 85 88 91 90 88 85 77 57 31 4 1 7 17 14 14 14 15 16 18 23 32 39 46 53 53 48 38 24 11 6 5 10 14 14 13 19 17 15 16 22 24 22 19 20 24 31 35 40 42 42 39 38 39 43 47 49 53 67 78 85 87 84 87 93 92 82 76 76 91 104 117 128 147 137 110 83 93 92 77 111 128 129 110 104 101 105 132 140 146 154 160 149 135 134 149 166 180 163 141 140 168 182 194 201 197 189 188 193 197 201 207 216 208 203 200 199 190 175 158 156 153 148 139 141 142 141 138 136 134 133 131 130 129 129 127 128 129 126 104 98 115 171 187 194 204 195 148 81 17 11 34 73 100 118 135 156 181 187 186 195 209 216 215 201 188 180 178 161 146 123 80 54 44 45 30 27 40 77 58 44 33 26 26 35 55 95 124 137 128 94 62 39 37 34 29 24 28 32 41 57 45 43 49 54 49 43 41 67 97 123 133 155 170 179 183 187 182 168 151 96 49 54 61 65 67 70 71 71 72 73 77 80 83 200 255 255
253 254 212 116 115 107 99 98 91 87 85 84 83 81 79 75 73 75 79 83 84 87 92 87 80 70 55 36 17 5 7 15 22 20 24 29 35 38 39 40 44 55 66 74 73 68 61 48 33 23 17 17 17 15 12 16 16 16 19 22 23 22 21 21 24 29 34 39 43 43 39 38 41 47 50 50 51 67 83 94 97 92 92 96 95 84 74 68 86 104 120 131 147 128 87 52 69 74 62 94 115 124 118 109 94 84 115 127 130 127 136 122 107 115 136 151 157 141 124 128 156 165 180 193 189 177 176 184 191 197 205 216 206 201 200 203 196 182 165 153 150 150 147 143 141 140 138 137 135 134 132 131 131 130 131 135 135 124 98 102 135 174 185 191 198 183 135 74 18 23 51 91 110 120 133 150 169 177 183 198 208 209 200 188 182 178 177 158 151 144 120 87 63 50 56 72 94 115 118 90 51 36 57 89 125 150 154 140 109 70 47 41 56 52 38 19 15 13 16 26 27 25 21 17 14 18 30 74 120 160 179 187 196 201 188 174 162 152 129 87 55 59 63 66 67 70 71 71 72 74 78 81 85 201 254 254
253 254 211 117 116 109 101 97 92 88 86 85 82 81 78 76 74 76 78 82 84 87 92 84 72 54 35 19 10 9 15 21 25 22 30 41 53 60 64 67 69 78 87 91 85 82 78 68 55 43 33 27 22 16 11 12 14 18 21 22 23 22 23 23 24 25 32 38 42 44 42 42 44 49 50 50 50 65 87 103 106 97 94 94 92 78 63 52 72 95 115 131 149 127 80 40 56 59 41 67 92 111 121 112 85 61 91 106 107 98 116 99 82 95 119 132 132 117 109 118 147 158 176 189 183 168 168 180 189 191 194 200 203 200 198 203 201 187 165 147 146 149 150 143 141 140 138 137 135 134 133 133 133 133 134 140 141 122 94 106 150 174 181 185 190 160 114 63 19 30 61 102 119 125 133 146 163 173 182 197 203 200 189 183 180 177 171 165 161 155 147 123 100 85 104 128 145 144 143 115 80 70 95 126 157 173 164 137 95 59 40 36 52 48 35 16 10 5 4 9 14 12 7 9 23 44 70 112 153 184 196 197 203 206 183 155 138 133 102 75 58 62 64 66 67 69 70 71 72 74 78 82 85 201 255 255
253 254 210 117 116 111 104 95 91 89 89 87 82 78 76 78 78 78 76 80 85 90 90 78 60 37 17 8 9 17 24 28 30 26 35 49 66 80 90 95 98 99 100 101 89 89 90 88 79 66 50 38 27 20 14 10 13 19 22 23 23 22 25 24 23 23 30 35 40 45 44 45 47 49 49 50 50 64 89 109 113 100 94 90 86 68 50 36 55 81 104 127 149 131 85 41 49 45 23 36 61 90 115 108 76 44 63 78 78 66 92 79 62 76 95 103 99 90 94 110 138 154 173 182 174 160 162 175 186 183 179 179 200 201 197 202 202 187 161 144 143 146 150 143 141 140 139 137 136 134 134 134 134 135 135 143 144 117 93 112 161 171 176 177 176 130 86 47 21 36 67 106 124 128 133 143 164 175 183 194 197 191 183 182 180 175 163 179 174 162 165 158 147 137 160 181 186 164 144 126 115 116 131 146 159 173 161 131 86 60 42 29 33 30 24 17 12 5 1 2 7 8 13 34 70 107 141 168 185 193 188 190 194 194 168 131 111 109 74 59 57 63 65 66 67 69 70 70 71 74 78 82 85 202 255 255
255 253 210 121 118 116 110 93 90 87 85 88 84 81 81 86 84 79 72 79 91 100 82 55 30 7 7 13 22 29 40 48 55 49 54 63 79 96 104 104 97 90 86 86 86 89 94 101 99 87 66 39 29 30 33 17 14 17 19 21 23 25 25 24 24 25 33 37 38 42 43 44 45 46 48 48 48 61 82 99 106 103 104 102 86 64 51 48 59 79 100 123 135 124 90 42 23 21 31 27 39 58 75 81 71 54 45 43 44 46 43 53 63 70 56 43 36 49 72 95 117 132 145 152 153 150 151 155 163 169 173 178 190 195 197 199 190 178 162 149 144 145 148 142 139 138 136 136 136 136 136 137 137 138 130 140 139 90 99 132 174 169 173 167 147 108 59 24 39 61 82 102 121 120 124 144 163 173 180 189 194 193 189 183 175 168 161 181 186 184 183 179 177 177 183 190 190 183 155 145 142 136 133 139 153 169 160 136 101 76 59 44 25 16 17 23 13 5 0 3 20 45 76 116 149 175 189 191 187 180 173 185 182 167 139 111 88 70 54 53 58 65 68 69 70 72 72 72 73 76 80 83 87 202 255 255
255 253 210 119 114 112 107 90 90 90 90 92 89 84 80 79 82 84 86 85 82 75 53 32 15 4 13 24 35 41 49 58 65 57 59 66 81 99 110 111 103 93 83 78 86 93 100 110 109 100 81 56 40 31 26 18 16 17 17 20 23 25 26 24 23 23 32 36 38 42 43 43 43 43 45 46 49 56 73 91 101 104 107 105 88 66 52 47 53 70 90 114 125 116 88 43 20 19 36 34 38 47 57 63 61 51 40 37 39 44 34 44 56 57 40 26 20 33 53 70 83 101 111 119 128 135 140 145 153 162 172 182 183 187 191 192 184 173 160 149 145 144 147 140 138 137 136 136 136 136 137 138 139 140 133 138 132 88 110 147 182 174 170 156 129 86 46 28 64 83 95 104 122 120 123 141 153 162 171 180 185 186 183 176 170 164 159 182 192 194 194 192 191 193 195 196 195 191 157 146 147 144 143 148 159 169 160 142 117 89 73 60 36 20 12 11 6 16 34 60 94 123 147 171 184 192 195 194 189 181 172 176 159 127 90 69 58 56 58 61 63 65 68 70 71 73 73 73 74 76 80 83 86 202 255 255
255 253 210 117 109 108 104 88 91 94 95 93 94 89 81 75 79 89 99 87 67 43 26 18 14 15 26 36 45 50 55 62 67 60 60 65 76 95 108 114 108 96 84 76 86 95 102 110 108 100 88 71 51 32 17 20 20 19 18 20 23 25 27 24 22 20 30 34 38 42 43 42 41 41 43 46 50 52 66 83 97 104 108 107 94 74 57 45 47 61 80 105 117 109 85 45 27 28 44 44 45 46 48 52 52 49 44 45 49 53 43 45 50 49 38 31 29 36 46 54 59 78 90 100 110 117 124 131 143 158 171 183 177 178 182 184 179 169 158 149 145 144 145 140 138 137 136 135 135 136 137 138 139 140 141 135 120 90 119 154 184 173 158 135 106 65 41 42 87 100 106 109 128 125 125 135 146 156 165 175 179 179 175 169 164 160 157 179 191 196 200 200 199 199 199 198 196 192 158 147 148 150 154 159 165 165 155 143 128 100 79 62 37 20 9 6 17 47 87 128 163 185 195 199 195 191 191 192 187 177 163 150 122 86 50 38 40 53 65 68 67 64 68 70 71 73 73 73 74 76 80 83 86 202 255 255
255 253 209 118 109 106 104 90 94 96 95 92 95 94 88 80 84 92 98 77 47 18 13 17 24 33 41 46 51 55 58 62 64 64 61 61 66 83 98 109 108 96 84 78 84 94 100 99 89 82 77 74 58 38 22 27 25 21 18 19 22 26 29 25 21 18 27 33 38 42 43 41 39 38 41 45 49 51 59 74 95 109 113 111 103 88 69 48 44 54 72 99 113 107 84 49 37 40 54 56 53 48 43 46 50 56 59 65 70 73 63 56 53 50 50 54 58 60 60 59 60 78 93 104 108 99 97 103 127 151 170 179 168 168 172 175 172 165 156 148 145 143 143 139 138 136 135 134 134 135 137 139 140 141 147 125 98 91 122 154 174 160 130 96 66 49 45 59 103 111 114 117 138 135 127 126 150 162 169 177 179 176 170 163 157 154 155 169 182 192 200 203 202 201 198 194 191 185 165 157 155 157 164 167 164 154 143 134 128 106 74 39 9 1 5 21 61 109 153 185 190 193 193 193 190 190 192 192 179 158 133 95 68 51 37 37 44 56 64 66 66 65 68 70 71 72 73 73 73 75 79 82 85 202 255 255
252 252 211 124 116 114 111 96 96 95 92 91 94 96 97 92 88 80 70 51 32 18 24 32 40 46 46 47 49 56 62 65 67 74 70 66 65 77 89 100 105 101 94 88 77 82 88 89 79 72 69 69 61 50 38 32 26 21 16 18 22 27 30 27 22 20 25 30 36 41 42 40 37 35 39 43 47 50 54 65 86 102 109 108 108 98 78 52 47 55 74 103 120 116 94 64 55 57 66 71 67 60 54 55 59 66 74 80 85 88 79 69 60 54 60 67 73 72 68 64 64 75 94 109 107 82 68 68 97 122 136 138 155 163 167 170 167 162 155 148 145 142 141 138 137 136 134 133 133 134 137 139 141 142 154 122 87 97 134 162 171 156 119 84 60 62 63 71 101 107 115 127 150 142 129 121 151 166 173 179 180 176 169 162 158 158 158 161 171 184 196 200 199 195 191 185 179 173 170 168 165 164 166 166 163 151 137 124 115 78 42 12 2 18 45 82 129 168 193 200 194 191 190 189 189 190 188 173 145 111 78 52 42 46 52 58 62 61 59 59 63 69 69 69 71 72 72 72 73 75 79 82 85 201 255 255
250 252 213 127 121 119 116 102 100 97 92 93 95 97 98 91 79 62 44 33 26 24 31 40 48 52 47 47 50 61 69 72 72 83 80 75 72 78 88 98 106 107 105 99 77 75 79 81 80 78 77 76 69 60 49 35 26 20 13 16 21 27 31 29 24 21 24 28 34 39 39 38 35 34 37 41 45 46 46 54 73 89 97 100 108 102 83 55 47 53 74 107 128 126 106 81 75 76 80 82 79 75 70 70 72 76 84 88 91 94 87 76 64 55 62 69 73 70 64 59 60 71 93 110 111 85 65 58 79 98 108 110 148 162 165 166 164 161 155 148 144 141 139 138 137 136 134 133 133 133 136 138 141 141 151 111 71 95 137 162 164 148 113 82 68 77 79 81 98 106 118 136 153 143 128 119 147 162 170 175 176 173 168 163 162 163 164 157 164 179 193 198 197 192 186 179 172 166 169 170 169 168 168 167 166 157 139 119 100 51 21 13 31 65 99 131 164 190 204 201 198 192 187 182 178 172 159 132 102 73 52 40 40 48 59 65 66 62 56 58 63 72 70 69 70 72 72 72 73 75 79 82 85 201 255 255
251 254 215 128 122 121 119 106 105 102 97 99 99 97 91 76 58 40 25 25 28 33 34 42 49 51 47 47 53 67 77 79 78 87 89 87 85 87 93 100 109 114 115 110 85 76 76 79 87 94 97 91 79 68 56 36 25 19 12 15 20 26 31 30 27 23 23 27 32 36 37 36 34 33 35 40 44 41 39 44 59 71 80 87 102 101 84 56 45 50 71 111 135 135 118 100 96 96 96 91 90 90 89 88 87 88 91 93 93 94 92 80 67 57 61 65 66 59 54 53 56 70 92 111 120 103 84 70 73 82 90 100 149 164 164 164 162 160 155 149 144 141 138 138 137 135 133 132 132 132 135 137 140 141 140 94 54 83 129 153 152 136 107 88 85 91 90 89 97 108 124 142 148 137 126 122 141 152 160 166 168 168 167 165 167 169 171 157 161 176 191 197 195 190 185 176 168 161 160 164 168 170 171 171 174 168 145 116 85 32 19 41 90 132 156 163 166 178 189 192 198 194 183 172 159 140 112 79 58 48 51 55 56 56 59 60 60 59 57 60 65 73 70 69 69 71 71 71 72 74 79 82 85 201 255 255
254 255 215 127 118 116 116 108 111 111 106 104 99 89 71 46 31 24 27 34 38 38 37 44 51 54 52 55 60 70 75 75 73 81 87 92 96 98 102 106 111 112 112 110 107 95 81 71 80 91 100 99 85 72 57 35 25 19 15 14 18 24 28 29 28 25 24 26 29 32 33 34 34 34 35 38 40 38 38 42 51 58 68 80 97 99 86 63 40 41 62 106 136 139 125 113 114 114 109 94 95 100 106 107 107 108 109 111 111 111 108 98 88 82 85 86 85 79 79 82 89 108 117 122 130 124 108 87 71 81 102 131 160 168 166 164 161 158 155 151 146 141 138 140 139 137 134 132 131 130 133 135 138 140 136 89 47 72 113 133 130 112 90 79 86 87 91 97 106 118 131 141 134 124 122 129 146 154 158 164 168 169 169 167 168 168 169 157 161 175 187 192 191 187 181 172 163 155 147 153 163 172 176 177 178 168 140 106 70 60 73 105 150 170 167 145 132 143 164 187 184 178 169 158 142 116 81 51 42 49 68 66 62 58 57 56 56 56 55 58 63 69 68 68 69 71 71 71 71 73 77 81 84 201 255 255
255 255 215 129 116 114 115 109 114 114 107 99 88 71 50 30 22 23 32 40 43 42 44 51 57 62 62 64 66 70 72 71 70 77 85 92 99 101 103 107 110 110 108 107 117 108 91 75 72 76 84 88 81 71 57 35 25 20 16 14 16 21 23 26 26 26 25 25 26 28 30 32 34 35 35 35 35 35 40 44 46 49 60 76 95 96 87 70 38 36 56 102 134 138 126 120 125 126 118 102 104 113 122 124 126 129 133 134 133 131 126 122 119 118 120 121 120 117 119 121 127 141 141 136 134 125 106 81 64 82 115 155 169 171 167 163 160 157 155 152 148 143 140 141 140 138 134 131 130 130 132 134 137 139 144 102 59 72 107 124 118 96 79 73 84 83 92 104 111 120 129 135 124 118 122 136 155 162 164 166 171 173 172 170 168 166 163 158 162 173 182 185 185 182 177 169 159 150 141 147 160 175 181 182 177 161 135 107 81 101 123 145 168 172 163 141 128 138 162 193 187 184 183 176 161 139 111 86 71 64 64 62 60 58 59 59 59 57 55 56 60 66 66 68 69 70 71 71 71 73 77 81 84 201 255 255
253 254 215 130 118 115 117 112 115 114 105 89 70 50 31 25 27 31 36 41 44 46 51 57 63 69 72 72 71 70 71 71 74 78 85 92 98 101 102 105 109 109 107 104 114 112 102 87 71 63 64 72 73 67 54 34 26 21 17 15 15 17 20 22 24 26 25 24 24 25 27 31 34 36 36 34 30 32 41 47 43 42 55 75 93 92 85 75 38 34 53 99 130 136 126 123 131 133 125 114 118 127 136 138 142 146 151 152 149 146 141 143 147 150 152 152 151 150 152 152 155 162 160 153 143 124 98 73 65 93 132 173 175 172 167 161 159 157 155 153 149 145 142 142 141 139 134 131 130 129 131 133 136 139 151 115 70 68 100 115 109 84 70 68 80 81 94 108 111 115 121 127 118 117 124 141 160 166 166 167 171 174 175 173 169 165 159 161 166 173 179 181 181 179 176 168 158 147 139 145 159 177 186 186 175 154 135 120 110 136 154 163 167 165 162 155 146 152 171 202 196 197 202 199 190 180 168 151 122 89 56 58 58 57 59 62 63 60 56 56 59 65 66 68 69 71 71 71 72 73 77 81 84 201 255 255
248 253 216 130 123 121 122 115 115 110 99 74 47 27 19 36 46 48 36 35 41 52 56 60 66 74 78 77 74 73 78 82 88 87 90 94 99 97 99 104 110 112 109 103 95 107 115 111 81 62 54 59 62 59 49 33 28 25 19 15 14 13 17 20 22 23 25 24 22 21 25 31 35 38 35 32 29 26 36 45 40 34 48 71 88 85 79 73 42 35 52 98 129 134 124 124 134 137 129 130 135 142 146 147 149 153 157 157 152 145 147 153 160 167 167 166 163 162 159 157 155 159 169 174 167 131 100 78 88 120 154 182 178 172 166 159 156 155 155 154 150 146 144 145 144 139 134 132 129 128 129 132 135 138 146 112 67 53 84 101 97 70 60 61 73 80 98 112 106 103 109 120 118 122 130 144 157 160 160 163 165 171 177 178 173 167 162 166 171 176 180 183 183 180 178 170 161 150 140 145 158 178 191 191 176 155 147 149 160 147 149 157 159 167 180 193 187 184 189 208 207 208 211 208 211 220 234 231 189 127 58 62 62 57 56 58 60 62 59 60 63 65 66 67 68 70 70 70 71 73 77 80 83 200 255 255
252 247 209 135 124 123 126 124 112 91 67 48 35 26 24 36 43 45 40 39 44 52 60 67 73 78 78 78 79 81 85 86 88 94 94 92 92 94 95 97 100 106 110 114 111 104 100 105 102 88 71 63 65 64 57 36 29 26 21 19 16 13 14 16 19 22 23 23 21 20 24 29 32 35 33 31 28 27 34 42 40 34 42 58 74 79 80 75 45 41 58 93 122 129 123 119 129 134 135 140 141 144 149 156 162 168 171 171 171 172 173 174 175 176 177 178 178 177 177 176 176 178 178 176 172 130 95 81 124 160 179 178 177 174 169 163 159 156 155 152 151 148 146 145 143 140 136 132 129 127 129 132 136 139 149 115 66 38 68 77 64 54 55 59 64 78 86 93 105 107 112 120 126 124 127 143 158 162 161 161 162 166 172 174 172 168 163 163 167 175 181 181 179 177 174 166 158 151 147 146 153 170 196 196 168 163 164 162 149 162 176 188 195 196 200 206 207 204 201 201 204 205 208 215 210 207 209 215 212 179 94 67 57 58 59 61 61 62 62 63 63 65 66 67 68 70 71 71 72 74 77 80 83 201 255 255
254 245 207 140 130 125 122 117 96 70 45 35 30 28 29 37 41 43 44 45 48 54 64 72 77 80 78 79 82 87 90 89 88 97 96 91 89 91 92 93 92 99 107 115 118 103 95 104 115 106 87 71 68 64 57 41 34 31 27 24 20 15 10 12 16 21 22 21 20 20 23 27 30 32 31 29 27 28 34 39 39 34 38 47 63 72 76 71 45 42 56 84 111 121 120 117 126 134 140 144 144 147 154 166 174 180 181 182 185 190 194 193 191 190 191 193 193 192 193 193 193 190 183 176 170 129 103 101 152 180 188 177 176 173 169 164 160 157 155 152 150 149 147 145 143 140 136 132 128 126 128 131 136 139 150 120 73 32 54 57 42 45 53 59 59 71 73 76 100 105 110 115 125 122 124 140 157 163 162 159 160 162 167 172 172 169 164 160 164 173 181 180 179 176 172 166 160 154 153 150 152 164 195 197 169 167 169 160 132 170 194 207 215 211 207 206 211 211 208 202 203 201 200 211 206 201 198 204 217 199 114 70 55 58 61 63 62 61 62 63 63 65 66 67 68 71 71 72 72 74 77 80 83 201 255 255
255 246 209 144 139 126 110 92 70 51 37 35 33 33 34 39 43 45 46 49 52 58 67 73 77 77 76 78 82 89 91 90 89 96 94 91 90 89 91 91 88 92 98 107 111 102 99 109 119 113 99 82 71 60 48 47 43 38 35 30 24 16 5 8 14 21 21 20 19 19 21 23 27 29 28 28 26 28 32 36 38 35 36 41 56 64 67 62 44 39 47 70 95 108 112 117 126 135 143 142 145 152 163 176 184 189 186 188 192 196 205 208 208 207 208 208 207 206 204 204 203 194 186 177 162 130 123 137 171 177 179 182 173 169 166 162 159 157 156 154 150 147 146 144 143 140 137 133 129 126 127 130 134 137 148 127 85 36 42 43 36 45 55 59 56 61 62 66 90 95 99 104 115 117 122 137 155 162 162 158 158 159 165 173 174 170 162 158 162 171 180 182 181 177 173 169 165 159 158 155 154 160 187 194 177 164 156 142 112 167 198 209 215 208 200 194 200 206 210 210 206 197 190 196 200 203 205 200 203 184 115 72 56 59 63 63 62 61 60 61 63 65 65 65 67 70 71 71 72 74 77 80 83 201 255 255
255 248 210 141 134 115 89 62 45 37 36 40 40 41 42 44 46 46 45 50 55 62 67 70 71 70 70 74 80 87 89 87 85 91 90 89 88 89 89 88 86 89 94 99 104 101 101 111 121 117 106 92 76 55 36 43 47 47 43 29 18 9 8 12 15 18 21 21 20 19 20 22 25 27 27 27 26 26 31 34 36 33 33 37 49 54 55 50 41 35 39 56 78 90 97 105 117 128 135 137 143 150 162 174 182 188 186 190 194 199 200 202 203 205 204 204 203 203 203 203 203 193 186 174 150 132 145 176 191 175 169 181 169 164 162 160 158 158 157 154 151 148 146 143 142 140 138 135 131 128 127 129 132 135 145 132 98 42 34 32 33 48 53 54 48 54 59 68 91 93 94 99 112 116 123 137 155 164 166 163 158 157 162 172 172 167 156 154 160 170 178 179 178 174 171 167 164 160 171 167 157 151 165 173 170 142 127 110 82 140 174 190 201 198 191 185 189 196 202 206 203 196 190 192 193 193 189 168 159 141 97 71 60 61 62 61 59 58 58 60 63 65 65 66 67 70 71 71 72 74 76 79 82 200 255 255
254 250 208 125 115 94 68 45 36 37 43 47 47 48 48 49 49 46 44 50 58 66 69 69 68 66 69 74 81 87 89 87 85 88 88 88 89 90 90 89 87 89 93 97 99 99 101 108 114 113 109 100 82 59 37 43 52 55 48 25 11 6 18 23 20 14 21 22 21 20 20 22 24 26 27 27 26 25 29 32 33 30 31 34 42 46 46 42 40 34 35 47 65 74 80 90 103 115 121 130 136 142 151 161 170 177 182 187 192 197 198 201 203 205 204 203 202 202 203 202 200 191 182 168 146 138 158 193 201 177 166 178 168 164 161 159 158 157 156 154 151 148 146 143 141 140 138 135 131 129 127 129 130 132 140 133 106 50 31 30 38 47 47 45 41 50 61 74 93 93 92 95 108 115 124 136 154 165 171 171 163 158 159 168 167 161 149 151 159 169 178 178 175 171 168 164 159 156 173 168 150 132 132 140 149 114 97 83 64 110 141 163 181 184 181 175 174 175 176 176 171 169 169 168 165 159 150 125 113 100 81 70 64 63 62 61 59 58 59 61 63 65 65 66 68 70 71 71 72 74 76 79 82 200 254 254
255 252 203 102 89 70 50 38 38 44 52 53 53 53 53 53 51 48 45 51 60 69 72 70 67 66 71 77 86 92 93 91 89 87 88 90 92 93 93 92 91 92 95 96 94 96 99 102 103 105 107 107 91 70 48 49 58 60 49 23 9 10 30 35 27 13 21 23 22 21 21 22 23 24 25 25 25 23 27 30 30 28 29 32 36 40 40 37 37 33 34 44 56 61 64 73 87 99 104 121 127 130 136 145 156 166 176 182 186 191 197 202 204 205 203 201 200 201 201 199 195 187 174 161 147 147 164 192 201 181 170 175 170 166 163 159 158 156 155 152 151 150 147 143 142 141 139 136 132 129 127 128 129 130 137 134 112 56 32 31 44 45 41 37 35 47 62 79 94 93 91 92 102 112 123 134 150 165 176 180 170 161 158 163 161 155 144 148 158 169 178 176 173 169 166 160 154 150 165 158 135 108 97 104 121 84 70 63 55 80 103 126 148 155 156 150 144 137 129 125 119 121 129 127 119 111 102 85 77 71 71 69 66 64 61 60 58 57 59 61 63 64 64 66 67 69 70 70 71 73 76 79 82 200 255 255
255 254 198 78 62 48 39 45 49 53 57 55 54 55 56 57 55 51 49 55 63 71 77 75 71 71 78 86 95 100 102 101 98 92 92 95 97 97 98 97 96 97 97 96 89 91 94 93 91 95 105 112 104 91 78 70 65 56 42 24 18 23 36 38 32 20 20 21 21 21 20 20 20 20 21 21 23 20 23 26 28 28 28 30 33 36 37 36 35 34 37 47 53 55 53 60 74 86 92 111 117 119 124 133 145 158 170 177 180 181 192 198 200 199 195 193 193 198 196 192 185 179 165 154 160 159 161 171 189 186 179 171 173 171 166 160 157 154 153 152 152 150 148 144 144 143 140 137 133 129 128 129 130 131 139 138 118 61 33 32 49 38 33 32 36 43 57 73 86 89 89 88 93 108 122 132 144 160 176 185 177 167 159 158 156 153 146 150 158 167 176 176 173 170 166 160 153 146 142 131 113 83 68 74 93 63 55 54 54 52 60 75 91 97 98 92 82 71 58 49 46 52 63 61 56 54 58 67 67 68 76 71 68 66 62 59 57 56 59 61 63 64 64 65 66 68 70 70 70 72 75 78 81 200 255 255
254 254 195 64 52 44 41 53 53 52 52 54 53 53 54 56 55 52 50 55 61 68 74 72 70 71 82 90 98 102 104 105 104 97 100 104 105 102 101 98 97 97 95 92 86 90 93 88 85 91 104 114 112 108 104 91 69 46 27 26 28 31 26 24 24 25 18 18 19 20 19 19 18 17 17 17 19 20 21 23 26 26 27 30 33 35 35 36 32 33 37 48 53 52 49 56 68 77 82 97 105 110 117 126 138 150 162 168 170 169 175 179 180 179 177 179 184 194 195 192 184 166 150 147 170 169 157 148 170 183 183 170 173 171 166 161 158 155 154 152 151 149 148 145 144 144 141 138 134 131 129 131 133 134 144 144 125 69 34 28 43 31 32 36 40 41 52 66 77 88 93 92 92 107 124 134 140 153 170 182 179 172 163 158 157 156 154 154 159 167 174 176 176 174 169 161 151 141 124 114 103 75 61 64 75 51 43 41 40 33 32 35 39 40 40 37 32 26 19 15 18 24 28 21 19 25 42 73 76 71 72 70 68 66 62 59 58 58 59 62 63 64 63 64 66 68 69 69 70 72 75 78 81 200 255 255
252 254 192 55 51 46 45 57 52 49 49 54 53 51 52 54 55 53 51 54 58 64 67 66 67 70 83 92 99 101 103 105 107 102 105 109 109 105 102 99 99 97 94 90 84 90 94 88 84 90 102 110 111 114 119 103 73 42 20 28 33 33 20 15 19 27 17 16 19 21 21 20 18 15 15 15 16 19 21 21 23 24 26 29 31 33 34 35 31 31 34 46 50 49 46 52 62 68 69 81 90 97 105 111 121 132 145 154 158 159 161 163 163 160 160 166 176 190 193 189 179 150 133 137 174 174 152 128 148 169 177 169 170 168 165 160 158 156 155 153 151 148 147 146 145 144 141 138 134 131 131 133 136 138 145 147 132 82 38 25 37 28 35 40 38 40 50 62 70 88 97 97 91 107 126 136 141 151 164 176 178 175 167 161 159 161 162 159 162 168 173 176 177 176 170 158 143 129 109 103 98 71 60 59 60 43 36 32 29 25 21 17 13 12 12 12 12 10 8 6 13 16 13 6 6 15 36 81 83 72 69 69 68 65 62 59 59 60 61 63 63 64 63 64 66 68 69 69 70 72 75 78 81 200 255 255
251 253 191 53 58 54 49 53 45 44 48 54 52 50 48 52 53 53 51 52 55 59 57 58 61 68 82 90 96 98 101 104 107 104 108 111 111 105 101 98 100 98 94 90 84 91 97 93 88 92 100 100 99 106 117 106 78 47 23 29 32 31 20 15 19 27 17 17 20 24 24 23 20 16 15 15 14 20 21 20 20 21 24 27 28 30 32 34 30 28 29 38 43 42 41 47 54 57 55 63 72 81 88 89 94 102 117 132 143 150 153 154 152 146 145 153 167 183 186 181 167 129 114 126 172 173 147 114 127 148 162 165 165 163 161 160 160 159 157 155 151 147 145 147 147 145 141 138 134 132 133 135 139 142 142 146 139 97 45 24 31 29 41 45 33 41 51 61 66 89 103 104 93 108 127 138 147 152 158 168 175 176 171 164 162 164 169 165 166 170 173 175 176 175 166 149 129 112 97 97 97 70 63 57 49 41 35 28 21 28 27 22 16 15 16 19 21 22 21 20 24 22 15 13 16 24 39 85 85 71 67 68 66 63 61 59 60 62 64 64 63 63 63 64 66 68 69 69 70 71 74 77 80 200 255 255
252 254 189 50 59 56 48 46 41 44 53 53 49 47 47 52 55 56 54 54 55 58 52 54 60 71 83 92 97 99 102 106 110 102 104 107 109 104 99 97 100 100 99 94 84 93 102 99 95 95 95 86 82 88 102 101 86 66 43 33 28 29 33 32 31 29 19 20 25 29 30 28 26 21 19 18 18 21 21 20 19 20 22 23 26 28 30 32 31 26 25 29 34 35 35 41 47 46 40 49 58 65 69 63 62 67 85 110 130 145 150 148 140 130 124 128 139 153 151 142 127 102 99 119 165 167 143 110 109 127 147 161 158 156 157 158 161 161 160 157 151 145 140 147 148 146 143 139 134 132 134 137 141 145 136 142 143 111 52 27 32 34 47 47 23 40 53 60 61 89 106 106 88 101 121 136 152 157 156 161 170 174 173 165 162 164 171 170 171 172 172 172 172 170 158 138 114 91 83 86 87 61 58 52 42 48 47 40 29 28 26 24 24 27 28 27 24 20 16 14 10 8 8 19 30 35 41 81 82 74 78 73 68 63 60 58 59 62 65 65 65 63 63 65 65 68 69 69 69 71 74 77 80 200 255 255
253 253 189 54 59 56 50 45 41 43 48 46 48 50 53 54 56 58 60 60 59 59 60 64 70 81 92 98 100 97 99 104 109 99 104 109 111 105 99 97 98 98 98 94 90 94 97 96 95 97 99 92 86 86 91 93 90 80 63 42 35 38 48 46 37 24 18 19 23 28 30 30 26 20 17 17 19 20 20 21 21 22 23 24 25 25 24 23 29 26 23 25 30 33 33 35 38 38 36 43 49 53 55 51 49 51 65 81 94 105 116 115 111 111 111 110 110 115 112 103 88 82 88 107 141 162 153 120 88 99 126 159 159 156 155 160 165 164 159 157 155 150 142 147 147 145 141 138 135 133 134 136 139 142 135 139 141 124 60 27 25 33 43 43 25 40 57 68 70 89 105 110 94 99 116 140 156 163 163 161 166 171 174 164 160 163 176 176 175 174 173 168 163 156 145 128 109 91 75 70 67 48 45 42 39 47 46 41 32 31 25 18 25 35 37 29 18 15 15 17 7 7 15 32 50 62 68 85 82 75 76 72 68 66 62 60 59 60 62 63 64 63 63 64 65 68 69 69 70 72 75 79 82 200 255 255
254 252 190 59 56 54 51 46 45 43 42 40 47 54 59 58 58 59 65 66 64 61 71 74 80 90 101 105 105 98 98 101 106 99 106 112 113 107 101 99 99 96 92 89 93 92 89 90 93 96 100 99 95 91 88 88 92 91 80 58 49 51 59 54 38 19 17 18 21 27 29 28 23 16 15 16 20 20 20 22 22 22 24 26 25 23 18 15 26 26 23 23 28 31 32 29 31 33 37 40 41 41 41 41 41 42 49 52 55 58 70 70 70 83 90 87 77 73 74 69 58 69 80 94 113 156 163 133 69 73 105 154 160 157 153 161 169 167 159 156 158 155 146 147 147 144 140 138 137 136 135 135 136 139 138 138 138 135 69 28 17 30 38 39 32 42 61 78 81 88 102 114 103 101 115 148 159 169 172 164 163 165 172 162 159 163 180 180 179 177 174 164 153 141 133 119 105 91 66 52 45 36 33 34 39 41 39 35 30 32 23 12 23 39 42 29 15 14 18 22 11 15 31 52 72 87 94 89 82 75 71 70 70 69 65 61 58 57 59 61 63 65 64 65 65 68 70 70 71 73 77 80 83 200 255 255
255 251 189 59 50 49 49 45 47 46 43 39 46 54 60 60 61 61 64 65 64 63 70 71 75 84 98 107 113 111 106 103 102 105 107 109 110 111 112 113 111 100 87 75 74 80 86 92 91 86 81 81 86 92 96 96 97 97 91 79 69 63 59 49 36 24 24 28 32 34 31 26 21 16 16 18 21 23 22 21 20 20 21 22 22 22 21 18 22 22 20 20 22 23 23 21 25 29 34 35 32 27 23 20 19 22 26 33 39 43 37 30 27 36 40 37 31 32 41 49 55 65 75 88 104 146 156 131 66 63 89 133 151 150 145 153 165 168 164 158 156 154 151 150 149 147 143 139 137 136 138 139 140 139 144 144 142 142 84 38 17 33 40 40 34 46 64 81 85 90 101 116 110 109 123 155 164 171 174 168 161 159 162 163 165 168 178 177 180 182 175 160 148 137 127 109 88 66 45 38 38 36 35 33 33 35 33 29 25 22 18 15 22 31 37 34 31 31 29 24 21 34 57 79 87 87 82 79 78 78 78 76 71 66 64 61 59 57 58 61 64 66 64 65 66 69 70 70 71 73 76 78 80 199 255 255
255 251 188 56 48 46 46 44 46 45 43 44 49 55 60 62 63 64 64 62 59 56 66 69 74 82 95 104 109 107 103 100 100 104 105 106 108 110 113 114 111 102 88 76 76 84 92 99 96 89 83 81 89 99 108 104 100 98 96 92 82 69 51 39 32 30 34 40 44 44 34 25 18 18 20 22 22 25 24 22 19 20 20 20 22 22 21 19 20 20 21 20 18 17 16 17 22 26 30 32 27 20 15 16 18 19 17 19 21 25 36 43 49 60 72 77 75 64 62 66 75 69 73 82 91 131 147 132 69 54 70 111 134 139 137 140 153 161 165 160 155 154 154 153 151 148 145 142 140 138 139 140 140 141 148 148 146 147 100 54 19 31 37 38 35 50 70 86 88 91 100 114 112 115 129 158 167 172 174 171 162 155 154 164 171 174 173 176 180 181 175 160 149 139 129 108 83 57 41 40 47 50 49 47 43 41 37 32 26 16 15 18 19 23 32 46 58 55 45 29 40 59 83 100 96 85 74 75 78 80 78 75 72 67 65 62 59 58 59 61 62 65 64 65 66 69 70 70 70 72 75 78 80 200 255 255
255 251 187 53 45 43 42 41 43 45 45 50 54 57 60 62 64 64 64 58 52 48 62 70 78 87 94 98 98 96 97 100 103 99 99 102 105 106 107 107 104 100 93 87 85 89 94 97 94 90 86 85 91 99 107 108 103 99 98 98 89 73 47 35 31 35 43 52 56 55 39 26 17 21 25 25 23 26 25 22 19 19 19 20 22 21 21 20 19 19 21 21 15 13 12 16 20 23 24 24 22 20 20 20 17 14 9 17 29 46 72 88 99 110 126 135 134 106 84 75 78 69 71 75 78 115 137 135 77 49 54 91 115 126 129 127 135 148 161 162 157 155 158 156 154 150 147 145 142 140 139 140 141 143 148 148 148 147 116 70 22 27 32 35 37 55 76 92 95 94 98 109 112 118 132 157 170 172 171 171 163 155 149 163 174 178 170 176 179 179 174 164 155 147 135 114 91 67 54 55 66 72 70 66 60 54 47 38 29 16 20 30 28 24 32 53 70 68 55 40 63 84 101 108 98 84 73 76 79 79 74 73 72 68 65 62 59 58 60 61 61 64 64 65 66 69 70 70 70 72 75 78 81 200 255 255
255 251 186 49 43 40 40 37 41 44 48 58 59 59 59 61 62 62 60 53 45 42 60 74 87 98 97 92 84 80 88 100 108 91 94 99 103 100 95 90 90 95 101 105 97 92 87 84 84 85 87 89 88 87 88 107 105 100 99 98 90 75 51 40 37 41 51 61 68 64 44 29 21 25 27 26 23 27 25 21 20 22 23 24 22 21 21 22 19 20 21 21 16 13 13 19 21 20 17 11 16 25 35 27 14 0 3 32 72 117 145 158 166 172 187 195 190 143 96 65 57 62 69 70 64 96 127 141 91 51 43 72 96 114 123 115 113 127 151 164 161 158 161 156 154 152 148 145 144 142 141 141 141 143 145 145 146 144 128 86 27 24 26 32 42 62 83 99 102 96 96 103 110 120 133 151 172 172 165 168 165 158 149 160 173 179 170 175 176 174 172 171 167 159 145 126 109 96 82 83 92 96 94 90 84 76 62 46 30 20 34 56 54 41 40 52 64 63 59 58 90 104 105 100 91 83 80 82 80 75 67 69 70 69 65 62 60 59 59 60 61 62 63 65 66 69 69 70 70 71 74 77 79 199 255 255
255 250 185 49 40 38 38 37 41 45 48 59 59 56 55 56 57 58 56 52 48 47 59 74 89 103 101 94 85 80 88 99 106 93 94 98 100 96 90 84 85 94 103 109 103 96 89 83 85 90 95 97 92 87 84 105 108 107 107 106 100 91 78 65 53 47 57 66 72 67 48 34 27 30 29 26 21 26 24 20 21 26 28 29 24 22 22 23 19 19 19 16 14 14 17 21 20 17 12 18 14 8 9 7 12 25 53 100 147 188 183 174 164 152 161 175 179 147 100 66 54 62 64 60 51 78 112 138 104 60 40 56 84 108 121 113 99 108 134 160 165 165 163 159 156 153 149 146 143 141 140 141 141 141 141 142 144 141 136 100 43 26 25 33 48 68 86 99 103 97 96 99 109 121 135 151 173 168 156 160 167 167 159 159 168 174 173 178 175 170 171 177 177 167 146 130 122 124 112 109 109 108 107 104 98 87 66 43 22 26 51 83 90 71 54 43 38 43 59 84 106 106 95 86 86 86 86 81 76 70 67 69 70 67 64 62 61 59 60 61 62 62 63 65 66 68 69 69 69 71 73 76 78 199 255 255
255 250 184 48 40 37 37 37 42 45 48 56 55 51 50 52 54 55 54 53 52 53 56 69 84 98 100 97 92 89 91 94 96 99 98 98 98 96 93 91 90 94 100 104 101 97 94 91 93 97 101 102 99 96 92 100 105 109 111 109 107 105 101 86 68 53 61 68 70 66 50 39 33 35 32 27 20 24 22 19 20 27 31 32 26 23 22 25 21 18 16 13 14 15 19 19 18 15 13 19 13 7 11 26 52 86 124 160 190 210 193 172 149 123 130 149 166 152 115 83 64 62 57 51 43 62 95 128 112 68 40 44 75 104 121 115 93 92 112 145 161 168 165 160 157 153 149 146 143 141 140 141 142 142 140 141 144 139 141 114 65 31 25 34 54 75 88 97 102 100 99 99 109 124 140 155 172 165 151 154 167 172 165 159 163 169 174 181 176 169 170 179 179 166 141 128 126 135 131 125 118 112 112 111 105 87 63 39 18 35 60 86 94 79 61 45 37 47 69 101 109 101 89 82 86 89 87 76 70 68 71 70 70 67 64 62 61 60 61 61 61 62 63 65 66 68 68 68 68 71 73 75 78 199 255 255
255 250 184 48 40 36 36 36 41 45 47 51 49 46 46 49 51 53 51 52 54 57 55 65 77 90 97 100 102 101 96 90 87 104 104 100 97 99 101 102 98 96 95 96 94 96 98 99 100 101 102 103 104 106 105 96 100 106 110 109 111 115 117 102 82 61 64 67 66 61 50 43 38 38 34 28 21 22 19 16 18 27 32 33 27 23 22 25 24 18 13 12 15 17 18 14 14 15 18 19 22 30 49 80 117 157 186 201 207 204 191 165 133 100 104 125 151 154 130 102 75 61 51 44 40 50 78 112 115 76 44 36 68 99 120 119 94 82 87 120 149 165 169 161 158 155 151 148 144 142 141 142 142 143 139 142 145 138 144 128 91 38 26 35 61 82 90 94 102 105 105 102 110 128 146 162 169 161 149 150 164 173 171 161 160 166 176 183 178 171 171 178 176 162 137 126 125 135 139 132 120 112 114 112 104 79 55 35 22 45 61 72 78 71 62 55 55 67 86 107 103 94 86 84 89 91 85 70 65 68 77 72 69 67 65 63 61 61 61 61 60 61 64 65 66 68 69 68 68 70 72 74 78 199 255 255
255 251 185 49 40 38 38 35 42 45 46 47 45 44 46 51 52 51 46 46 50 55 61 70 82 92 97 100 103 104 99 93 90 105 107 104 101 106 108 106 102 95 93 93 85 85 88 90 92 92 93 96 102 105 107 93 94 99 102 100 105 113 119 109 94 75 68 64 59 52 47 45 43 41 36 31 26 21 16 13 13 23 30 31 24 21 23 29 26 20 14 15 21 21 15 7 12 21 32 27 58 105 155 176 185 187 189 192 196 199 202 177 141 111 109 119 135 143 125 95 56 47 44 45 47 45 64 95 112 83 52 34 64 92 115 124 101 77 63 85 122 152 171 163 160 158 153 149 147 146 145 144 143 145 141 145 148 137 143 138 114 45 25 33 64 90 97 97 107 113 111 108 113 131 150 167 165 158 152 149 158 166 171 164 161 165 176 180 179 177 176 176 170 159 143 133 128 128 133 126 114 110 113 109 94 65 45 35 37 52 55 53 53 54 58 65 80 93 100 99 98 93 88 88 89 88 82 72 70 72 78 71 68 68 66 64 62 61 59 59 60 61 64 66 67 68 69 69 68 70 71 73 75 198 255 255
255 251 186 50 41 38 39 38 41 44 45 45 45 46 50 54 53 49 44 43 46 52 72 86 98 107 104 102 100 102 104 105 105 105 106 107 109 110 107 100 93 95 99 104 94 91 88 87 87 91 98 103 108 110 110 99 96 95 93 94 99 107 117 114 106 94 75 61 51 44 44 45 44 42 37 33 28 22 15 10 9 19 25 27 22 21 25 31 29 23 18 19 25 22 14 4 11 27 52 86 125 162 193 196 190 183 185 189 193 195 203 180 147 118 114 119 130 145 132 102 63 49 44 46 54 45 56 82 109 88 58 35 61 86 107 125 106 74 42 54 96 137 169 166 163 160 155 152 149 147 146 146 146 146 142 145 148 135 141 143 128 47 23 32 64 97 104 103 112 120 120 114 114 130 150 169 160 157 158 150 151 159 170 167 163 165 175 176 178 181 180 174 167 160 155 146 136 124 123 115 106 104 109 102 82 50 34 33 50 52 51 51 56 57 57 59 77 93 101 94 99 97 92 87 86 85 83 82 79 75 73 70 68 68 65 64 62 61 61 60 60 60 64 67 68 68 68 68 67 68 71 72 75 198 255 255
255 252 186 48 42 38 39 41 41 42 45 47 45 46 51 55 52 46 40 42 45 53 82 97 106 112 105 100 97 101 106 110 111 106 106 109 114 113 108 100 93 99 105 110 101 97 94 90 87 92 102 110 113 111 106 100 98 96 94 92 93 98 112 118 117 109 91 70 53 43 43 42 42 44 43 38 30 22 14 9 8 17 22 22 17 17 23 30 28 25 21 19 22 21 16 5 13 33 68 133 168 186 198 192 182 176 178 185 191 194 197 183 157 121 111 110 119 144 134 107 68 49 45 48 57 48 54 73 105 92 66 37 58 76 94 117 107 76 39 38 77 122 161 167 166 162 157 154 150 147 145 146 147 148 146 146 145 134 140 146 137 53 25 33 68 100 112 116 124 128 126 120 118 133 153 174 159 157 161 152 148 153 165 168 166 164 168 174 179 183 180 170 163 161 164 159 148 132 120 109 101 99 101 91 67 36 26 33 58 53 52 55 58 57 57 60 78 92 98 91 98 98 94 87 84 82 83 86 82 75 69 70 69 67 64 63 62 61 61 61 60 61 64 67 67 67 67 67 67 69 71 73 75 198 255 255
254 254 187 41 41 39 38 46 41 41 47 51 45 43 48 54 50 41 37 44 50 60 89 98 100 100 95 94 96 102 105 105 103 106 108 110 113 114 116 115 111 109 107 106 99 101 102 98 90 90 96 110 112 104 91 89 95 102 108 96 89 91 108 124 127 120 119 96 69 51 43 38 38 49 54 49 35 19 12 10 12 19 21 17 9 9 13 21 21 23 22 12 12 15 20 13 18 38 74 148 170 171 177 177 175 172 169 177 187 196 190 191 176 119 95 88 99 134 129 102 63 45 45 49 54 54 58 72 98 97 75 38 52 62 73 95 98 82 55 42 68 105 144 164 169 166 162 157 149 143 141 142 145 149 155 148 139 137 141 147 141 65 32 36 76 98 120 139 146 139 131 125 129 143 161 183 162 158 161 156 151 150 155 166 169 164 150 176 185 182 173 162 158 159 166 167 164 155 130 112 101 96 88 73 49 23 21 34 57 57 59 59 50 48 56 76 93 97 95 90 92 92 92 89 85 82 82 79 75 72 68 69 68 66 64 63 63 62 60 59 60 61 64 66 66 66 67 68 69 71 73 74 75 198 255 255
254 254 186 39 40 38 37 45 39 40 48 46 42 42 48 53 49 41 38 44 48 52 69 74 78 89 99 105 105 102 100 100 103 108 108 106 105 105 107 110 113 112 112 112 107 112 116 113 103 98 98 103 103 99 93 84 85 93 105 104 101 100 106 113 114 108 110 104 95 86 70 55 44 47 52 48 36 26 18 13 13 21 25 25 19 17 19 21 24 18 12 10 20 25 24 12 25 55 98 153 170 172 177 179 179 176 172 176 182 189 189 187 170 125 88 73 78 102 112 101 69 44 39 43 53 51 55 67 96 98 80 46 55 66 79 96 95 81 59 41 56 86 125 158 167 164 160 157 154 151 147 145 146 150 155 150 143 141 144 148 140 70 37 36 65 98 121 136 142 140 138 140 142 148 159 172 162 161 164 162 159 160 166 176 176 171 163 178 182 178 173 172 171 168 164 158 151 147 133 130 130 117 88 60 37 31 32 35 36 46 54 59 57 58 65 77 83 87 93 103 99 95 91 88 85 83 82 79 75 72 71 67 66 66 65 64 62 60 61 61 62 62 63 65 64 65 65 66 67 69 71 73 75 198 255 255
253 254 186 38 39 37 36 44 37 38 47 44 40 41 48 53 48 41 38 44 46 47 56 60 68 85 103 111 109 97 91 92 100 106 105 102 99 100 104 108 113 114 115 115 111 117 122 123 115 107 101 100 101 102 101 93 90 93 103 108 106 101 101 106 109 107 109 115 118 112 90 70 56 54 52 48 40 36 25 17 12 18 22 23 18 15 16 18 24 16 9 10 22 25 22 18 45 84 129 158 167 169 174 180 181 180 176 176 178 183 189 186 171 138 93 68 63 74 98 101 75 47 36 38 49 50 52 62 92 101 88 54 54 66 80 91 89 78 61 41 45 67 104 152 166 163 160 158 155 153 150 148 148 149 151 146 142 142 142 142 134 70 37 32 54 92 118 135 142 143 146 152 154 157 163 171 165 164 165 166 166 168 175 183 181 178 173 180 181 178 179 181 178 169 157 150 148 151 136 139 146 128 85 47 23 31 39 40 32 43 50 53 54 61 72 85 84 85 92 107 101 95 90 88 85 84 82 78 75 72 71 67 66 66 64 63 62 60 61 62 62 62 63 64 64 64 64 65 66 68 70 71 73 197 255 255
252 253 185 39 37 35 35 43 36 37 45 42 40 41 49 54 50 42 39 42 44 44 50 56 67 86 106 112 106 88 82 86 96 100 99 98 96 99 104 109 112 114 116 115 112 115 120 125 122 115 107 101 102 107 111 111 103 99 103 110 107 100 97 102 108 111 112 125 134 127 103 85 74 66 56 50 48 46 35 22 12 14 16 16 12 10 12 16 22 16 10 15 20 19 17 32 76 121 161 163 163 165 170 178 183 183 181 177 175 177 188 187 177 158 109 74 55 51 85 99 79 52 35 33 45 49 51 58 90 107 97 62 52 63 79 83 81 73 63 41 37 50 85 144 164 164 164 160 156 152 152 151 149 147 145 141 139 144 139 137 127 66 35 30 47 86 115 134 145 149 153 160 163 165 170 178 168 165 164 165 171 176 181 184 184 183 181 180 180 180 185 187 181 167 150 145 149 159 139 140 146 126 77 37 15 30 43 48 39 44 45 46 48 62 79 95 92 88 91 104 99 94 91 88 85 83 82 80 76 73 70 68 67 66 63 63 62 61 62 62 61 61 63 64 64 64 64 65 66 67 69 69 71 196 255 255
253 254 186 40 38 36 35 44 38 38 45 45 43 44 53 57 52 44 41 43 41 40 50 60 73 90 100 100 92 79 80 85 94 88 89 94 99 103 107 109 108 109 109 107 110 108 108 112 117 116 111 103 101 104 109 121 116 110 109 112 106 97 96 102 107 109 109 123 133 127 108 95 85 73 62 60 64 57 44 31 18 18 18 18 19 19 21 24 17 13 15 23 20 17 21 58 111 149 168 160 157 158 163 172 180 186 183 180 177 174 182 184 182 176 138 94 54 40 73 93 82 60 42 34 41 49 53 60 93 111 103 68 49 57 71 70 66 65 64 44 35 43 74 132 156 163 168 163 157 150 149 148 147 147 147 143 142 152 149 142 124 62 38 39 62 90 116 136 150 152 153 154 157 161 169 183 170 164 161 162 169 175 179 179 181 182 182 181 182 182 183 184 181 172 157 147 142 140 137 128 112 85 55 37 33 44 53 59 57 38 36 43 52 67 84 100 98 94 93 98 94 92 91 87 83 82 82 80 76 72 70 70 67 64 62 62 62 62 60 59 58 60 63 64 64 65 66 67 68 70 71 71 72 197 255 255
254 255 187 40 39 37 37 45 38 39 47 48 47 49 56 59 53 46 44 44 40 35 43 56 72 87 90 86 81 79 85 92 98 86 88 95 104 107 108 106 103 104 105 105 112 106 100 100 109 114 114 105 99 96 98 109 110 110 115 116 111 103 103 104 102 96 98 111 121 119 110 105 98 81 69 67 75 71 61 50 42 34 27 22 17 14 12 13 9 9 15 28 30 30 40 82 126 155 162 161 158 156 158 168 177 183 181 178 174 172 175 179 181 181 158 110 54 36 60 79 78 69 52 40 41 48 55 65 97 113 106 74 47 52 65 59 53 55 61 45 34 39 65 113 139 155 168 168 164 156 152 150 149 149 149 143 141 153 151 141 116 52 36 47 78 103 125 141 149 148 148 151 153 156 162 174 169 166 162 162 167 172 176 176 177 179 182 182 183 181 177 178 181 183 176 156 131 105 123 109 75 42 35 42 57 68 67 61 52 24 30 55 74 82 88 92 91 91 94 99 94 91 89 85 83 81 80 79 75 72 69 68 66 65 63 62 61 61 59 59 59 60 63 65 65 67 68 69 70 72 72 72 73 198 255 255
255 255 187 40 40 38 38 44 38 40 48 51 50 52 58 59 53 47 47 46 41 33 36 54 73 88 84 78 75 81 91 98 99 89 93 101 108 110 108 104 101 102 105 108 115 105 95 91 102 113 119 112 102 93 90 97 102 108 118 119 114 109 111 110 102 90 94 100 105 104 108 114 115 98 81 72 75 77 74 70 66 57 48 38 27 20 16 15 18 17 21 33 41 48 61 96 131 153 160 165 162 157 157 166 174 180 179 175 170 169 169 175 180 179 171 124 58 36 50 66 76 76 62 47 42 47 56 70 99 112 107 82 48 50 61 52 44 47 54 44 35 37 55 88 115 140 162 169 168 162 156 153 153 153 153 145 139 150 148 135 107 46 40 60 96 118 134 143 145 142 145 152 156 157 159 166 169 168 165 165 167 171 174 174 176 178 182 181 182 182 177 174 178 186 187 163 129 89 101 81 46 18 25 46 70 80 70 55 40 19 36 72 95 94 89 86 87 89 92 97 93 89 86 83 82 80 78 77 74 71 69 66 66 66 63 62 61 59 60 60 61 60 64 65 66 69 70 71 72 73 73 73 74 198 255 255
255 255 188 42 41 39 39 45 39 41 49 51 50 52 58 60 54 48 49 49 43 33 32 54 78 93 86 80 78 86 94 98 97 99 104 108 111 111 107 103 102 105 111 117 116 103 92 87 100 114 125 126 116 104 96 96 99 106 115 115 112 110 117 119 113 101 102 95 87 80 97 120 138 131 102 75 59 71 78 83 86 86 81 71 59 51 48 48 58 48 38 38 52 65 80 98 124 149 170 174 170 163 161 168 173 177 176 170 165 164 168 176 181 174 175 135 69 41 44 57 74 81 71 56 44 46 56 74 98 106 104 90 54 52 58 48 41 40 44 42 36 34 42 60 86 117 148 161 165 164 163 160 159 156 162 152 140 146 139 124 101 53 57 81 115 131 139 141 135 135 147 164 173 172 168 165 170 172 172 172 172 173 174 177 180 181 183 178 181 187 186 176 170 172 178 166 144 112 71 45 31 23 32 46 58 61 53 39 26 35 61 92 105 95 87 86 92 92 90 89 90 88 83 81 81 79 78 75 73 71 68 65 65 65 62 61 60 59 60 60 60 60 64 66 67 70 71 72 73 74 73 73 73 197 255 255
254 254 188 42 40 38 38 45 40 41 47 47 46 48 55 56 51 47 50 52 46 37 37 54 75 92 88 82 77 78 83 86 89 95 97 98 99 99 98 97 97 98 100 100 100 93 86 83 95 107 118 122 116 109 102 103 101 102 108 112 111 109 114 119 119 114 110 98 88 80 91 114 136 149 127 93 57 56 64 74 83 98 109 116 124 127 128 127 124 107 89 74 83 94 105 112 131 154 179 180 175 170 167 173 177 179 175 170 166 162 169 175 179 174 177 148 95 51 45 53 68 76 73 63 46 44 54 73 90 95 96 97 63 55 56 50 41 38 40 38 36 34 33 42 65 92 119 131 138 146 156 161 163 162 167 153 135 135 119 107 98 79 92 113 131 127 130 135 135 139 151 167 175 172 169 168 169 173 178 181 180 179 180 184 186 186 180 176 181 189 188 175 164 157 155 146 134 117 51 26 28 33 37 39 38 31 30 31 35 82 107 115 106 90 84 88 96 94 88 82 85 85 82 79 77 77 76 74 72 69 68 66 64 62 61 61 60 60 59 58 58 60 64 66 67 70 70 72 73 73 73 73 73 197 255 255
253 254 187 39 39 37 37 44 38 39 46 43 42 45 51 52 49 47 52 55 50 40 36 49 66 81 82 77 72 69 71 75 80 82 80 80 80 83 86 88 87 85 81 76 83 83 80 79 86 94 102 106 104 99 95 102 97 94 101 114 116 112 111 112 114 112 104 100 98 98 97 105 121 147 142 116 78 58 57 65 76 92 110 129 148 157 162 163 162 153 139 121 122 129 136 136 143 157 176 180 177 173 172 177 181 182 178 172 167 163 167 171 175 175 177 159 120 59 45 47 59 68 73 68 48 42 52 72 83 85 91 102 67 56 55 52 44 38 36 37 37 32 26 36 53 72 89 99 109 124 144 158 165 166 155 135 113 104 82 75 81 87 109 125 127 112 119 133 141 145 151 158 160 158 157 162 165 173 183 188 185 184 186 192 192 188 180 179 182 185 182 174 165 155 143 122 100 80 41 24 22 27 34 35 31 20 23 32 47 118 144 137 114 93 83 86 90 89 87 87 84 83 81 78 77 76 75 73 71 68 66 66 65 63 62 61 61 60 59 58 58 59 62 64 65 68 70 72 72 73 72 72 73 197 255 255
252 254 186 38 38 36 35 43 36 38 44 39 39 44 50 50 48 47 52 56 53 43 35 42 54 65 69 68 63 58 61 66 71 64 60 60 62 68 74 79 80 71 61 54 69 75 77 80 79 80 82 85 86 83 81 95 88 82 92 116 121 115 104 99 99 98 90 99 111 123 109 98 99 129 145 139 114 73 60 60 69 76 93 119 140 151 158 164 175 181 179 170 163 164 167 164 158 159 167 175 176 174 175 180 184 185 181 175 169 166 164 164 169 174 174 166 140 66 44 41 48 60 70 69 49 42 50 68 76 79 88 104 69 56 54 52 45 38 33 38 36 30 23 36 47 57 64 70 82 100 125 147 161 164 129 100 77 67 41 39 57 83 111 122 109 91 107 136 148 149 146 140 135 137 143 155 160 171 182 189 185 185 191 199 196 190 182 186 183 177 169 170 170 163 136 95 54 20 38 33 17 14 24 31 31 24 27 38 58 139 168 158 128 101 85 79 78 81 86 96 87 81 80 78 76 75 74 72 71 67 63 64 65 64 62 62 60 58 59 60 59 58 61 63 63 66 68 71 72 72 71 71 71 197 255 255
254 255 188 44 40 35 33 39 35 38 46 40 41 47 54 53 51 48 49 55 60 61 50 51 56 60 60 57 54 53 57 63 66 51 58 69 76 76 80 87 97 90 79 69 82 84 89 103 99 86 75 80 92 95 88 84 72 64 67 88 98 98 85 82 85 93 99 100 103 114 115 109 103 113 134 148 148 97 75 71 79 69 85 116 135 140 143 149 170 179 181 180 181 181 178 168 163 166 177 177 175 173 172 175 177 178 178 175 173 173 168 162 161 163 161 162 150 78 51 43 48 57 60 59 51 47 50 60 73 83 91 96 80 59 43 44 37 32 30 35 26 22 29 31 40 51 60 64 70 80 98 117 134 143 88 52 43 78 50 43 59 86 117 123 94 79 109 149 143 144 136 122 126 142 161 179 165 163 165 165 174 182 188 194 199 199 195 193 191 187 174 171 168 159 118 73 36 9 32 30 17 20 22 21 18 26 34 46 64 130 164 170 152 114 85 75 83 86 84 81 82 81 78 75 73 73 72 70 68 67 65 66 66 65 64 62 62 61 61 61 62 62 62 63 64 66 69 71 73 73 72 72 71 197 255 255
255 255 189 45 43 38 35 41 34 36 44 42 43 45 47 47 46 46 50 58 65 70 59 58 61 64 62 57 52 50 58 68 76 67 72 80 84 82 84 91 101 101 96 89 98 98 101 111 109 97 87 95 108 111 103 96 85 76 73 80 81 78 68 75 88 104 105 96 88 87 98 105 108 108 124 146 165 123 91 75 78 71 82 102 117 126 134 142 162 172 179 185 186 184 180 176 174 175 178 174 173 172 170 171 173 176 178 178 177 176 169 162 158 159 159 163 154 85 53 43 48 54 56 56 51 47 48 56 71 83 92 95 85 62 43 45 37 33 33 37 25 21 32 29 34 45 53 58 63 70 79 88 94 96 52 31 41 95 57 45 64 98 129 127 81 78 112 152 149 146 132 114 126 145 165 181 168 159 153 152 160 170 178 183 188 192 194 191 191 188 172 161 147 125 79 43 21 13 28 26 17 23 22 20 21 29 32 38 54 102 139 159 152 114 84 71 80 86 86 82 84 82 79 75 74 73 72 71 69 68 66 65 64 63 62 61 61 60 61 61 61 62 63 65 66 68 70 72 72 72 72 72 72 197 255 255
255 255 188 45 45 41 37 44 33 32 40 44 44 42 41 40 42 46 53 61 68 74 68 64 63 63 64 60 55 53 62 74 84 81 82 85 86 83 84 90 99 104 106 105 109 106 107 111 112 105 100 110 122 125 118 112 105 98 92 86 76 65 57 69 87 105 103 93 81 68 80 98 113 108 115 139 172 152 113 80 72 75 78 84 93 109 122 131 149 161 174 185 184 181 179 182 184 182 176 173 173 172 169 169 172 176 177 179 179 177 169 162 157 157 161 165 155 89 53 41 48 53 55 56 52 47 47 53 68 81 91 97 85 64 47 47 39 36 38 39 27 23 33 26 29 38 46 53 59 65 68 66 58 50 24 22 48 108 62 48 72 111 139 129 70 80 115 151 157 146 127 107 128 147 162 175 164 153 146 147 154 164 172 174 175 177 184 183 186 184 170 148 119 82 40 18 11 17 22 22 18 24 22 24 32 36 28 25 40 73 113 149 151 117 86 68 75 84 87 85 85 82 78 75 74 74 72 71 70 68 66 64 63 63 62 61 61 60 61 61 61 62 64 66 67 69 70 70 71 71 71 71 72 197 255 255
255 255 189 45 46 44 42 46 32 28 35 46 47 45 42 41 44 50 58 65 71 77 81 71 58 51 55 61 65 67 71 76 81 78 77 77 77 77 79 84 90 98 105 109 107 102 101 103 105 105 106 117 127 129 123 121 122 121 118 108 91 73 60 59 65 76 89 95 91 72 76 97 118 111 107 127 168 181 144 96 62 74 72 64 68 87 101 108 125 145 165 180 176 173 175 186 191 186 174 178 178 175 171 170 171 172 175 177 176 175 171 162 154 155 162 167 157 95 54 39 48 52 55 56 54 49 46 49 62 78 91 99 85 66 50 44 39 39 41 39 29 26 32 23 23 30 37 46 56 64 65 55 39 24 10 21 56 114 66 53 82 115 141 129 65 84 115 146 163 143 116 95 126 146 158 166 151 143 142 149 163 175 181 172 165 162 167 169 173 175 170 137 92 43 15 7 8 12 13 18 23 25 22 31 49 46 26 15 31 55 101 151 164 129 93 66 71 78 83 84 82 79 76 73 72 71 70 69 68 67 65 66 66 66 64 63 64 63 63 63 63 64 66 67 67 67 67 67 68 68 70 70 72 197 255 255
255 255 188 42 44 44 43 47 34 29 33 42 45 46 48 49 51 52 55 58 60 64 78 71 60 50 51 59 69 76 77 77 76 76 74 72 71 76 80 83 82 84 88 93 93 91 92 97 101 104 107 114 120 121 117 121 125 127 129 125 117 104 88 70 56 49 62 85 99 94 87 97 114 117 113 123 148 182 168 126 66 73 70 64 71 84 91 94 107 129 151 165 164 164 170 180 184 182 174 178 177 173 170 170 169 170 175 176 177 177 173 162 153 155 163 167 157 101 56 37 47 54 58 59 58 54 49 50 59 75 89 100 83 65 49 38 37 38 39 37 30 26 29 26 26 28 31 39 49 59 64 57 45 31 24 33 59 102 63 59 91 110 130 119 66 90 114 138 165 137 106 87 127 147 156 156 136 132 138 151 171 182 181 167 160 159 165 165 165 166 163 120 67 19 13 16 17 12 11 20 31 28 27 43 72 62 31 11 27 59 110 163 179 141 99 67 69 73 77 78 77 75 74 70 69 67 67 67 66 65 63 65 66 65 64 63 63 62 62 63 63 63 65 66 65 63 63 63 65 66 68 69 70 196 255 255
255 255 187 39 41 41 42 48 37 33 36 36 40 46 51 54 53 51 48 48 47 50 67 71 69 63 58 60 67 77 80 79 76 82 78 73 71 80 84 85 79 75 76 80 83 85 89 98 104 109 112 114 114 113 112 117 121 123 125 126 126 123 113 92 71 53 53 74 93 98 89 93 104 118 121 123 130 167 178 155 87 80 74 73 83 88 90 91 100 118 136 151 154 158 165 174 179 180 178 175 172 169 166 166 167 170 175 178 180 181 174 162 153 155 163 166 157 110 60 36 46 57 62 64 63 59 54 52 57 72 87 99 83 66 49 35 36 38 39 36 31 28 29 29 29 28 27 32 40 51 58 55 46 35 35 45 63 89 60 65 100 110 122 109 65 95 116 133 162 131 100 86 129 148 154 149 127 123 132 148 165 172 167 154 154 160 174 171 165 160 158 111 57 10 11 18 22 18 14 24 38 36 40 61 94 77 35 8 25 67 121 171 184 144 100 68 69 73 75 75 75 75 72 69 68 67 67 67 66 64 62 64 65 64 63 62 61 61 61 62 62 62 65 66 65 63 63 63 64 66 68 69 70 196 255 255
254 254 185 37 38 38 39 48 39 37 40 31 35 44 53 55 52 46 40 38 38 41 55 71 83 87 73 64 63 73 82 83 81 94 87 79 76 85 89 90 81 74 71 73 77 85 93 102 110 116 119 115 109 107 108 110 111 110 110 112 118 125 128 118 104 86 64 66 75 84 82 83 91 113 127 127 118 140 175 180 122 96 85 86 97 96 95 97 102 112 125 139 147 154 160 168 174 180 183 171 166 163 161 162 166 172 174 180 183 183 174 163 154 156 162 163 156 120 65 36 44 59 66 69 69 65 61 58 59 71 85 98 85 69 51 33 36 40 42 35 33 32 31 33 33 30 26 27 32 41 49 49 44 36 41 55 70 77 58 70 108 119 120 101 63 100 118 131 155 123 97 91 131 149 152 142 120 116 124 140 151 151 143 137 148 166 191 181 169 159 159 117 66 19 12 13 21 32 21 30 46 50 60 85 116 87 38 7 26 81 135 176 181 140 98 68 70 75 77 74 77 76 73 70 69 68 68 68 67 65 63 63 63 62 61 60 59 59 59 60 60 60 64 66 66 64 65 65 65 67 69 69 70 197 255 255
255 255 185 37 36 35 37 47 40 41 45 35 39 47 54 54 50 45 42 44 48 54 60 75 87 92 78 71 70 79 84 84 79 89 82 74 70 77 83 86 83 81 82 84 77 84 93 100 107 115 119 111 101 99 102 98 98 100 100 99 102 106 115 119 120 118 107 87 69 64 72 77 84 101 118 124 118 117 160 188 162 124 101 92 91 86 85 93 102 110 120 134 144 151 158 165 175 183 188 175 170 168 164 163 165 168 169 172 173 173 172 165 158 158 159 157 151 129 71 37 42 59 67 70 73 72 68 64 63 72 83 95 90 77 58 35 38 44 47 39 41 41 38 31 29 29 26 28 33 41 48 47 42 35 38 61 81 71 62 80 117 136 126 99 60 101 120 129 142 111 93 97 127 144 146 131 106 106 120 138 145 143 135 132 146 166 190 179 166 158 178 159 121 70 33 12 13 40 32 42 59 69 84 107 130 91 40 14 42 106 154 181 174 131 94 71 74 78 79 75 79 78 75 72 71 70 70 70 69 68 66 65 66 65 64 63 63 63 63 63 63 64 66 67 66 67 67 68 69 71 72 72 74 198 255 255
255 255 187 39 37 35 35 44 39 41 47 40 43 49 54 54 52 48 47 51 57 63 67 73 78 80 75 74 76 80 79 77 73 76 75 71 70 74 77 80 81 84 88 91 83 87 93 93 99 109 116 108 97 95 101 95 95 99 101 100 98 97 101 109 117 124 128 108 85 69 75 80 87 93 104 115 120 112 142 173 182 151 125 104 88 78 75 81 93 104 117 131 137 144 152 164 176 183 186 178 174 171 167 165 164 164 165 164 163 163 169 166 162 161 156 151 147 138 77 38 39 57 65 68 75 77 75 70 68 74 82 92 94 84 64 37 41 47 51 43 48 50 44 33 29 29 27 29 36 44 51 50 44 36 43 70 90 62 72 96 128 145 126 98 72 108 126 132 130 103 95 108 124 140 142 123 97 100 119 138 142 140 134 134 147 163 180 166 154 155 191 189 167 125 77 36 21 48 49 60 76 89 104 121 132 87 46 37 84 136 170 182 164 121 88 69 73 76 77 75 77 76 74 71 70 69 70 70 69 68 66 67 68 67 65 64 64 64 64 64 64 65 64 64 64 65 67 68 70 72 73 73 74 198 255 255
255 255 188 42 40 35 34 41 36 39 47 43 45 49 52 53 53 51 52 55 60 64 70 67 65 65 70 74 75 70 67 68 69 71 75 77 80 79 77 76 77 82 88 93 92 95 95 87 92 105 116 110 99 98 105 101 101 104 107 106 102 96 94 101 111 121 128 121 108 89 85 87 93 89 93 105 122 117 124 145 185 173 150 121 93 79 71 70 79 96 115 128 129 134 144 163 175 180 178 175 173 170 166 165 164 163 163 161 159 158 167 167 165 164 153 146 143 144 82 39 37 55 62 65 73 79 80 77 73 76 82 91 98 90 69 37 42 49 53 45 53 56 48 38 34 31 28 30 37 46 53 51 44 35 53 81 94 54 83 114 137 148 122 98 92 120 137 140 124 100 101 123 126 139 140 119 94 99 120 136 137 134 130 135 148 161 170 150 141 150 194 199 191 168 127 73 42 59 69 79 92 105 117 126 125 81 56 68 136 161 176 176 151 108 79 65 70 73 75 76 75 73 72 69 68 67 68 68 67 66 65 66 66 64 63 62 62 62 62 62 62 63 60 59 61 62 65 67 70 72 72 72 73 198 255 255
253 254 188 46 44 37 33 39 34 37 47 41 41 43 46 50 52 53 52 50 49 51 62 57 54 58 69 70 62 46 46 58 74 82 91 98 104 97 87 79 74 77 82 88 107 110 103 88 93 108 122 119 110 109 118 120 116 113 112 112 110 107 101 105 113 119 102 116 127 116 98 95 100 92 87 98 121 130 109 111 173 189 176 145 112 95 82 69 64 85 110 124 119 121 134 160 173 175 165 164 162 161 161 161 163 166 165 167 167 163 168 169 168 166 151 142 141 148 86 40 34 51 58 61 70 80 84 83 78 78 81 90 101 93 71 38 42 50 53 45 54 59 52 49 45 37 31 29 33 42 49 46 39 29 68 93 92 45 92 130 146 143 111 96 117 137 153 153 125 105 113 140 135 144 144 122 103 107 122 130 123 118 115 130 148 161 168 138 131 146 179 176 176 182 168 115 74 75 91 99 103 115 123 124 113 73 67 102 189 173 166 159 132 94 68 58 64 69 73 76 72 70 67 64 63 63 64 65 63 62 60 59 58 56 55 54 53 54 55 56 55 56 54 54 56 59 63 66 67 69 69 69 70 196 255 255
255 254 188 50 42 38 35 35 36 38 40 38 40 44 47 48 48 49 50 51 53 56 67 65 60 58 60 59 57 53 56 62 69 70 84 92 88 80 83 89 88 80 80 88 98 96 91 86 95 108 118 119 114 115 119 119 117 114 111 110 108 105 106 107 110 114 114 118 118 111 105 106 107 102 95 96 105 125 116 117 153 186 188 168 139 112 91 78 72 85 101 108 109 119 133 145 152 159 167 162 162 163 163 162 160 159 164 165 165 165 167 167 168 171 152 143 144 148 97 52 34 43 52 59 65 72 78 81 78 75 76 84 94 88 70 45 41 46 54 57 62 61 53 47 42 37 36 33 38 49 56 46 37 35 83 95 83 62 92 123 140 115 96 98 127 139 153 149 110 113 132 152 134 142 146 129 111 115 127 132 131 125 119 144 153 151 142 128 134 153 175 155 156 183 182 141 99 80 100 111 119 131 130 120 104 95 110 141 186 172 149 124 110 86 65 53 60 62 62 65 65 64 61 58 57 56 57 57 56 56 54 51 50 50 50 49 49 48 48 48 48 47 47 48 49 50 53 55 57 60 63 65 66 195 255 255
255 253 187 51 41 38 36 33 36 37 36 37 41 45 47 47 46 47 48 52 56 59 69 68 63 58 54 54 56 60 63 66 66 59 77 89 82 73 79 90 87 76 78 89 87 85 85 90 99 108 111 112 114 119 124 121 119 117 114 112 109 106 108 108 109 112 118 115 109 105 109 113 116 113 107 103 102 115 112 115 137 180 191 180 164 133 105 87 80 86 95 98 105 116 129 132 137 148 165 161 163 165 164 160 157 156 162 163 164 164 167 166 166 171 152 145 147 149 104 60 32 39 49 58 63 67 74 81 78 73 72 79 90 85 69 49 41 44 55 65 66 62 54 45 39 35 37 36 42 52 57 46 42 53 94 89 69 72 97 120 132 95 91 105 133 145 151 141 102 116 136 150 137 144 141 114 111 122 136 138 135 126 120 148 153 144 127 125 140 162 167 142 145 176 178 149 113 87 107 119 127 138 137 129 118 124 142 159 170 156 128 99 96 79 61 47 55 55 52 55 57 57 54 51 50 50 50 50 49 49 47 45 45 45 46 46 45 44 42 42 42 40 42 43 44 45 46 48 51 55 59 62 64 194 255 255
255 252 186 49 42 37 35 33 34 35 36 40 43 45 46 47 47 47 50 53 56 59 65 64 59 55 54 56 59 63 66 68 67 55 74 91 90 78 79 80 70 65 74 90 79 81 88 99 105 108 105 101 109 122 133 126 124 123 121 118 114 111 110 110 111 113 112 108 104 102 110 118 125 125 121 116 111 103 96 101 125 170 183 178 183 156 125 96 87 86 91 97 106 115 121 124 131 144 159 159 163 166 164 158 156 156 158 161 162 162 170 166 163 165 151 146 147 150 109 64 29 39 49 56 61 66 74 81 78 72 71 75 87 82 66 48 40 43 54 66 65 62 56 45 36 32 37 38 43 49 51 46 53 77 98 76 51 76 108 127 124 85 93 113 135 153 150 132 105 114 125 135 146 152 132 79 105 128 144 145 132 120 118 141 148 142 126 131 151 168 151 136 142 166 161 142 118 96 117 126 128 137 144 149 151 157 157 154 144 127 104 86 89 74 56 41 50 49 46 46 50 51 49 47 46 45 44 45 44 43 40 39 39 40 40 40 41 40 40 38 38 37 40 42 42 44 45 47 51 54 58 60 62 194 255 255
254 251 187 53 45 40 37 34 35 35 34 36 38 40 42 43 44 45 47 51 55 57 63 61 57 54 55 58 61 65 67 67 67 62 79 92 92 84 84 82 68 64 74 91 85 87 93 101 104 103 99 96 102 113 123 119 120 121 121 117 113 109 105 108 110 113 117 112 106 106 117 124 130 128 124 119 113 99 92 95 113 157 172 173 192 177 148 115 99 93 95 102 114 122 123 125 136 150 162 160 161 163 162 157 154 154 154 160 163 161 171 165 158 162 151 145 143 147 114 71 27 35 45 53 58 64 73 80 78 71 68 71 83 77 60 45 39 42 50 65 66 63 57 49 39 31 36 38 40 42 39 38 54 91 114 88 60 97 135 142 118 77 92 115 131 147 140 126 120 126 127 127 149 158 139 89 116 135 146 149 132 121 123 144 157 154 134 143 160 168 136 136 147 161 152 142 131 115 136 144 143 146 152 157 162 160 147 130 107 95 84 78 88 76 60 46 54 54 50 47 53 55 53 49 47 47 47 46 45 43 42 42 41 41 41 41 41 43 41 41 42 42 46 48 49 51 51 53 55 58 62 64 67 196 255 255
254 251 188 56 47 43 41 36 37 36 34 33 34 36 37 39 41 43 47 50 54 56 60 59 57 56 57 59 61 63 64 64 64 71 81 86 83 82 86 88 76 69 74 87 90 89 90 92 95 99 100 101 103 105 108 114 119 122 125 122 117 113 110 114 118 122 120 116 113 114 121 125 128 124 122 119 117 108 97 95 110 149 162 165 190 185 163 131 110 93 86 93 108 115 114 117 133 146 155 157 158 159 159 155 153 153 156 161 164 163 172 163 154 160 153 145 138 144 120 80 31 32 42 53 58 63 72 80 78 70 65 66 76 71 57 42 37 41 51 64 67 65 57 49 38 31 36 38 40 41 37 37 54 92 112 87 62 101 138 143 118 82 101 127 142 156 138 116 120 127 129 132 154 154 135 99 125 142 151 153 130 124 135 151 163 160 139 152 165 165 130 139 151 155 145 134 125 118 133 140 141 140 139 139 141 134 118 100 81 74 76 83 95 83 68 56 64 66 63 57 61 62 59 56 53 53 52 51 50 48 46 48 48 48 47 47 46 47 47 47 47 47 52 54 55 58 59 60 63 65 69 70 72 197 255 255
255 253 190 57 49 46 45 39 39 37 34 32 31 32 32 35 37 41 45 48 52 54 57 57 57 57 59 60 61 61 60 59 61 78 80 76 70 75 85 93 86 76 74 81 90 87 82 78 83 93 103 111 108 102 98 109 116 122 128 126 122 118 115 120 126 131 118 117 119 120 122 123 122 119 118 120 124 121 107 100 112 146 157 158 184 185 172 146 121 93 76 79 95 101 101 109 127 140 146 153 156 158 157 154 152 151 158 162 164 166 169 159 151 159 155 143 132 139 124 90 39 29 37 51 57 61 69 78 77 68 61 60 68 66 55 40 35 39 50 63 67 64 55 46 36 32 37 37 39 44 44 42 54 83 99 80 63 96 126 134 121 93 110 136 153 165 141 113 121 129 136 145 158 144 126 112 136 151 158 156 129 127 149 157 163 158 139 161 168 159 131 145 153 146 135 114 101 104 110 117 122 119 112 106 104 95 83 73 67 64 75 94 104 91 76 66 74 77 76 69 69 68 64 62 60 59 58 56 55 53 50 53 54 54 52 52 51 50 51 51 50 51 55 57 59 61 63 65 69 71 74 75 75 198 255 255
255 254 191 57 50 47 45 40 39 38 36 33 31 31 30 32 34 38 42 45 47 49 54 54 54 55 57 58 59 60 59 56 57 74 73 65 59 67 79 90 89 79 72 71 81 78 71 65 74 90 105 117 115 108 101 103 108 115 122 122 118 114 112 116 121 125 109 109 115 119 120 119 116 113 118 125 133 128 113 105 116 151 160 158 178 180 175 162 135 103 79 73 83 90 96 109 127 137 142 153 158 159 157 152 150 150 155 160 162 165 164 158 153 160 156 143 129 133 124 95 48 31 35 47 53 57 66 76 76 67 58 54 62 60 51 39 36 40 50 61 64 60 52 42 35 33 38 35 40 52 60 55 57 71 83 78 74 92 102 113 119 99 109 128 145 158 145 130 144 149 153 158 155 133 122 132 151 162 165 155 128 129 155 157 153 144 125 168 171 153 141 153 152 136 117 80 58 69 67 72 77 74 69 67 68 60 55 59 73 69 83 105 109 94 80 70 74 79 80 73 71 67 63 61 60 59 57 56 54 53 51 51 50 50 49 49 49 48 50 50 50 51 53 54 54 57 59 62 64 67 69 70 70 196 255 255
255 252 189 56 47 43 41 36 37 36 34 37 36 35 35 37 37 38 39 40 40 41 48 48 48 49 54 57 59 61 60 58 57 63 65 66 66 70 76 82 84 81 77 74 79 78 75 72 77 87 98 109 110 108 102 100 105 111 117 118 116 113 110 112 114 116 108 108 112 119 121 119 113 108 113 121 128 117 109 107 113 151 165 165 176 176 176 176 149 122 100 85 87 91 100 114 129 138 142 154 159 159 156 151 148 148 152 157 159 160 158 158 158 157 153 142 131 129 124 100 56 32 34 44 50 54 63 73 75 66 56 50 57 55 48 40 37 41 51 60 60 55 48 41 37 35 38 33 36 48 57 49 45 50 51 52 55 56 51 62 81 63 61 72 92 111 116 118 135 139 148 162 162 139 127 140 154 160 157 143 127 133 156 156 148 136 123 169 167 146 150 158 150 127 98 57 34 50 47 47 48 42 46 56 67 58 53 61 83 78 92 110 104 87 74 67 65 68 69 64 62 59 56 53 52 51 50 49 47 46 45 43 42 40 39 38 38 39 41 43 45 46 46 46 47 51 52 54 55 57 59 59 60 193 254 254
255 251 186 53 44 40 38 33 35 34 34 39 39 39 38 40 40 41 40 39 36 36 42 43 44 46 51 55 58 60 59 59 57 54 60 68 75 73 73 74 80 84 82 78 81 83 84 84 83 86 91 99 103 104 102 104 108 114 120 122 121 119 116 116 117 118 112 112 115 121 124 120 113 105 107 112 117 103 104 108 112 144 160 166 176 173 174 182 159 139 119 98 90 91 98 112 123 130 134 150 156 156 154 148 144 144 149 155 157 157 154 158 161 153 149 141 132 128 125 105 64 32 32 43 48 50 59 70 73 65 54 47 53 52 46 40 39 43 51 58 56 50 42 40 37 35 39 33 34 42 48 38 34 42 41 45 49 41 33 48 75 58 51 56 77 91 91 89 100 112 133 157 163 143 128 135 150 155 150 132 127 137 158 157 145 134 134 167 160 142 156 160 147 117 77 42 26 44 43 40 35 26 39 59 78 66 59 66 94 87 99 114 96 79 68 64 57 60 61 56 55 53 50 47 46 45 44 44 42 41 39 38 36 34 32 32 32 33 35 36 39 40 41 42 43 47 49 50 52 53 53 54 54 192 255 255
255 251 186 49 41 37 35 32 34 34 35 39 40 41 41 42 42 43 44 40 35 32 37 39 41 43 48 52 56 58 58 58 57 50 57 70 82 77 70 68 80 88 87 81 86 92 96 96 89 87 87 92 96 98 99 113 118 123 129 133 134 132 130 130 130 131 120 120 122 127 127 123 116 106 101 101 104 91 100 110 110 130 146 159 178 170 171 181 164 151 134 109 91 85 89 101 107 113 119 140 149 150 149 144 141 141 148 154 158 159 152 159 162 147 143 139 135 131 127 107 70 30 30 45 46 47 56 68 72 64 53 44 50 50 46 39 40 44 51 57 53 47 37 37 34 33 39 35 34 36 34 26 29 50 61 64 64 58 59 80 111 95 89 95 114 108 79 50 50 78 112 144 154 140 124 117 140 150 148 126 129 143 162 161 144 138 156 161 152 142 158 159 142 105 53 33 32 50 54 50 41 29 44 71 96 82 69 73 106 95 103 114 89 72 65 64 54 55 57 54 51 49 47 45 43 42 42 43 42 40 36 36 36 35 33 31 31 31 32 34 35 36 40 43 45 47 50 54 56 57 57 56 56 193 255 255
255 253 188 52 42 39 37 33 36 38 37 33 31 31 33 38 40 43 43 40 36 34 42 43 43 43 46 50 52 54 53 53 51 46 53 65 74 68 63 65 82 89 82 70 90 96 96 93 88 89 92 100 102 100 98 105 109 113 118 124 128 129 129 128 127 127 123 121 121 125 129 128 124 113 104 99 96 90 108 120 104 113 128 147 171 167 170 182 169 167 158 129 101 92 95 101 102 106 115 134 140 142 141 138 137 140 149 157 162 163 153 161 165 142 137 138 142 134 126 107 71 32 30 41 44 45 54 66 72 63 52 45 48 48 45 42 42 46 52 55 51 42 31 33 30 28 37 39 40 41 35 35 49 85 101 100 94 95 101 120 143 119 116 124 140 143 115 85 95 126 133 115 97 108 126 146 156 164 161 133 142 154 164 160 144 142 169 162 153 147 155 153 134 93 28 19 31 44 61 59 46 35 53 80 103 80 68 78 118 102 105 113 83 70 68 72 60 60 62 59 57 55 52 49 48 48 48 49 47 47 46 43 41 41 39 38 37 38 40 43 45 47 51 54 55 58 59 62 64 65 65 65 65 195 254 254
255 254 189 51 44 38 35 38 38 37 36 32 31 32 33 37 38 41 41 41 38 37 41 43 44 45 48 51 53 55 54 54 54 52 56 61 62 60 63 71 83 85 81 73 82 89 95 98 95 95 96 101 103 102 101 102 108 114 119 122 125 129 133 131 127 122 122 121 121 124 128 130 128 121 114 110 106 92 100 109 104 107 115 131 158 166 170 171 170 174 167 138 107 97 99 103 101 103 111 117 125 133 139 140 142 145 151 156 158 157 152 157 160 144 138 138 140 135 124 105 76 38 31 38 43 48 53 60 65 61 53 43 49 48 42 39 42 46 52 53 49 42 37 33 32 33 39 37 37 39 45 60 82 112 121 121 118 123 127 129 127 111 120 134 143 150 134 115 121 148 148 119 87 92 104 109 126 153 170 147 146 158 172 161 143 143 172 163 149 142 159 153 124 73 22 19 36 56 74 65 45 44 64 89 106 83 80 94 126 104 101 106 88 79 76 75 67 66 67 66 65 63 61 58 57 57 57 57 55 54 53 53 52 50 49 49 48 49 50 52 53 55 59 62 63 66 68 71 73 74 75 75 75 198 255 255
254 255 190 49 47 38 33 44 39 36 36 34 34 35 36 37 37 38 40 41 41 41 40 42 44 47 49 51 55 56 58 58 61 62 63 60 53 55 65 77 82 80 81 83 75 81 91 101 102 101 99 99 101 103 104 103 110 118 122 120 121 127 136 133 127 117 121 121 121 123 126 129 130 129 126 124 121 99 89 88 100 105 107 115 143 163 168 159 168 175 169 142 112 102 102 104 100 100 107 102 112 125 138 142 145 148 151 153 152 149 150 152 153 148 141 137 135 134 121 103 81 45 33 35 42 51 54 55 58 58 53 40 48 46 40 36 43 48 51 50 47 44 44 35 36 41 42 34 32 37 57 84 107 124 121 125 132 139 138 121 93 89 113 133 134 142 139 133 132 154 158 140 105 97 87 66 84 122 156 148 145 159 184 164 144 143 170 164 147 137 166 155 114 53 27 27 44 73 90 72 43 53 76 99 111 89 94 110 129 103 95 97 96 91 85 79 76 75 75 74 74 73 71 68 67 67 67 65 63 61 58 63 64 62 61 61 61 61 61 62 62 63 66 70 71 74 77 80 82 83 85 85 86 202 255 255
254 255 190 49 47 39 33 42 39 36 36 34 34 34 35 36 37 38 39 39 39 39 44 43 41 39 40 43 48 54 60 64 67 71 71 67 60 58 66 76 79 78 81 86 85 84 84 88 95 98 98 94 93 96 101 103 108 112 113 110 111 118 126 127 122 116 123 123 122 124 128 131 133 132 132 130 127 113 92 76 77 92 100 107 124 146 161 165 162 169 171 151 123 109 104 101 97 98 106 104 111 122 131 132 134 137 144 148 149 147 147 148 147 142 134 132 132 132 117 99 77 46 34 34 41 51 55 55 57 57 52 42 39 38 39 42 47 52 54 49 45 43 45 39 39 42 40 36 36 41 58 75 91 99 90 101 119 133 132 112 81 74 101 125 129 123 122 127 128 151 161 155 134 132 127 110 74 68 79 97 134 170 195 172 151 149 175 167 155 151 175 150 104 46 32 38 55 79 103 84 52 60 85 109 124 97 97 107 122 100 97 103 106 101 95 90 90 90 88 84 85 83 81 78 77 77 77 75 73 71 69 70 71 71 70 69 69 69 72 74 74 74 77 79 81 83 86 89 91 93 95 95 97 205 255 255
254 255 190 49 47 40 34 43 39 36 36 35 35 35 35 36 36 37 38 39 39 39 42 41 39 38 38 40 45 51 58 63 66 68 70 67 60 58 64 73 77 79 84 93 102 94 85 82 92 98 99 92 91 94 100 103 109 114 117 115 116 121 127 127 121 115 122 124 124 125 127 130 134 135 136 135 133 125 101 80 71 79 87 94 111 136 157 169 162 171 177 165 137 118 105 95 90 91 99 104 111 119 125 126 128 132 140 146 150 152 144 142 140 134 128 126 126 125 112 95 75 46 34 33 41 50 54 54 56 56 51 42 38 37 40 45 50 51 48 41 39 39 42 42 44 46 45 44 46 52 64 73 79 82 80 97 120 136 133 117 93 88 111 128 127 113 116 127 129 148 162 166 155 155 153 143 105 78 66 80 98 117 137 161 169 172 180 160 154 159 173 136 86 37 34 45 61 78 108 90 56 60 89 116 134 101 94 100 115 96 97 108 113 107 100 94 95 95 94 89 91 90 88 85 84 84 84 83 81 79 78 75 75 75 75 75 76 76 78 80 80 81 83 85 87 89 93 96 99 101 103 103 104 207 255 255
254 255 190 49 47 40 33 43 39 36 36 35 36 35 35 36 36 37 38 39 39 39 39 38 38 39 40 41 44 48 53 57 59 63 67 66 59 57 60 67 72 75 83 95 114 104 90 82 91 96 96 91 90 93 100 107 114 119 122 121 123 126 131 130 125 119 123 126 127 127 127 130 134 136 138 137 136 133 115 95 80 76 76 82 102 131 156 171 163 173 181 176 151 128 109 94 88 89 95 103 109 115 120 121 124 129 137 144 152 156 142 137 133 126 121 119 121 119 107 91 72 46 34 33 41 50 54 53 55 55 51 41 38 37 40 46 49 48 43 35 36 38 41 41 43 44 45 47 52 58 65 68 69 68 76 95 116 127 125 116 104 105 121 126 115 102 111 128 131 145 159 172 168 166 163 160 134 106 86 99 84 73 80 139 166 175 169 149 152 163 166 120 71 32 36 49 63 74 108 92 58 61 89 120 140 103 92 95 112 96 100 114 119 111 101 94 97 97 95 89 93 93 91 88 87 87 87 86 84 83 81 79 77 78 78 78 79 81 82 84 84 86 88 90 92 94 98 101 104 106 108 109 110 209 255 255
254 255 190 49 46 38 33 43 39 36 35 34 35 35 35 36 36 37 37 38 38 39 35 36 38 40 42 44 45 46 45 45 48 55 62 64 59 55 56 61 65 66 75 90 116 112 98 86 88 91 92 91 91 92 98 116 124 127 128 126 125 127 134 136 133 128 128 128 129 128 127 129 133 137 139 138 136 137 132 122 105 85 72 73 98 132 158 172 163 171 179 180 161 139 116 100 93 92 95 101 105 109 114 117 121 126 135 144 153 159 141 132 126 118 114 113 115 114 103 87 71 48 35 32 40 50 54 53 53 54 50 42 39 38 40 45 47 46 41 35 36 40 45 36 34 36 39 43 48 55 60 60 59 58 74 92 104 100 101 105 110 118 124 116 91 89 105 126 133 140 153 171 173 166 160 159 149 138 133 152 103 59 43 106 136 146 140 138 151 164 154 106 61 30 37 50 63 71 104 91 61 63 89 120 144 105 92 96 115 100 106 121 125 113 101 93 97 96 93 86 91 92 89 87 85 85 86 84 83 82 79 80 79 78 78 79 79 81 83 85 86 87 89 91 93 95 99 102 105 107 109 111 112 209 255 255
254 255 190 49 47 39 33 43 39 36 36 34 34 35 35 35 35 36 36 37 37 37 34 35 38 39 40 42 43 45 43 43 44 55 64 65 62 56 55 58 56 57 63 74 99 102 97 89 83 81 84 91 95 96 98 123 128 126 121 115 114 117 125 133 137 138 134 133 132 132 130 131 133 139 141 139 135 140 144 143 131 106 87 81 96 126 156 177 162 163 170 173 162 146 128 116 111 108 103 98 98 103 108 114 117 121 129 137 144 150 139 130 122 111 108 108 109 110 98 84 69 48 35 31 38 50 54 53 52 52 49 43 35 33 38 43 47 50 48 43 40 42 47 35 33 36 41 47 51 54 57 60 63 67 74 86 92 80 83 93 108 119 121 108 79 76 93 116 128 134 150 172 180 171 163 161 145 137 144 175 139 98 66 79 83 93 119 143 163 169 142 95 57 36 40 51 65 78 107 97 71 69 91 120 143 105 92 98 122 113 118 129 131 119 106 96 99 101 98 92 91 90 88 86 85 85 86 86 83 82 80 80 81 81 81 82 83 83 86 88 89 89 91 93 95 97 100 103 106 108 110 111 113 210 255 255
254 255 190 49 47 40 33 43 39 36 37 35 35 35 35 35 35 36 36 36 36 36 34 35 36 35 36 37 39 42 44 45 47 51 59 62 59 55 55 58 57 58 63 72 85 92 95 93 83 79 84 94 101 101 100 117 122 122 119 116 115 117 122 128 132 134 134 137 137 137 134 133 136 142 143 140 135 142 148 151 144 126 108 96 95 116 148 179 166 162 164 169 164 153 138 128 121 113 103 96 97 102 108 114 118 120 124 130 137 143 138 128 118 106 102 103 105 104 93 80 66 48 35 31 37 49 54 53 51 51 48 42 33 32 36 42 48 51 50 43 39 39 43 38 39 43 47 51 52 52 54 59 66 74 76 86 93 79 81 93 110 119 119 108 85 78 89 108 125 133 151 173 186 176 166 163 151 143 145 168 148 123 99 90 71 68 93 136 164 169 129 82 51 39 38 48 65 84 107 99 78 73 89 115 139 105 91 97 122 119 123 129 129 120 110 101 101 103 101 98 93 92 91 88 88 87 88 88 86 85 84 84 85 85 85 87 88 88 90 91 92 93 94 96 98 100 103 106 108 110 112 113 114 210 255 255
254 255 190 49 48 40 33 44 39 36 36 36 36 35 35 34 34 35 36 35 35 35 36 35 34 31 31 32 34 40 45 50 51 46 51 55 52 52 55 60 62 64 69 77 75 83 93 97 87 83 88 101 108 107 102 105 109 114 119 123 124 123 123 123 122 123 130 138 142 141 136 135 139 145 145 141 136 144 148 150 147 141 130 116 97 108 138 178 171 165 162 167 166 158 145 136 126 113 98 96 99 104 110 117 122 124 123 127 134 140 137 127 114 100 97 99 101 98 89 77 63 48 36 31 37 47 52 52 50 50 47 42 35 34 37 42 48 50 47 40 39 40 43 51 54 56 58 58 56 53 52 58 68 79 78 90 101 88 88 98 113 115 116 110 97 89 91 102 123 135 153 174 190 180 167 163 162 153 144 149 142 138 136 124 92 66 65 117 154 162 115 68 43 39 35 45 62 86 105 99 82 74 84 108 135 104 90 93 117 119 122 124 123 117 110 105 102 102 102 101 96 94 93 90 91 90 91 91 89 88 87 87 88 88 89 90 91 92 92 93 93 95 96 98 100 102 105 107 109 111 112 112 113 210 255 255
254 255 190 49 46 38 32 44 40 36 35 36 35 34 34 35 36 35 35 34 34 34 39 37 34 31 30 31 33 38 42 48 49 41 44 47 46 46 52 60 66 68 75 85 73 81 92 97 94 94 98 105 107 104 99 92 97 107 119 127 130 128 125 119 113 110 124 134 139 138 133 133 138 145 145 139 133 140 143 144 141 146 144 132 108 109 130 166 168 162 158 165 170 164 150 139 127 110 90 96 100 104 112 119 125 128 126 131 138 144 136 124 110 96 92 94 97 94 84 72 60 49 37 30 36 48 53 51 47 48 47 46 38 36 38 44 46 45 42 43 53 64 74 85 86 83 80 74 68 60 58 62 71 81 84 97 108 91 92 100 113 107 105 102 98 101 96 98 123 137 154 170 189 179 164 155 161 159 152 146 143 150 165 170 139 92 43 77 118 143 103 60 40 41 36 44 58 77 95 94 81 73 76 100 134 110 96 95 109 115 116 115 112 111 110 108 102 97 95 97 98 96 93 90 90 91 92 91 91 90 87 88 88 88 87 86 86 88 90 91 91 93 94 97 98 100 101 103 105 106 107 108 108 209 255 255
254 255 190 49 47 39 33 41 38 36 36 35 35 35 36 35 35 34 34 34 34 34 35 36 36 35 35 36 36 38 40 42 43 47 51 50 45 43 49 57 60 64 71 78 75 79 85 93 98 101 102 100 98 94 92 92 96 102 110 113 115 115 112 112 113 116 120 126 132 134 130 130 135 143 143 137 129 132 141 146 140 140 143 142 127 120 127 147 154 150 148 162 170 166 154 145 133 115 93 93 94 97 106 116 123 125 128 133 141 148 139 123 107 93 89 90 92 91 80 68 57 49 37 29 35 48 53 51 47 47 46 45 38 38 40 42 43 43 46 58 82 108 131 141 139 131 124 117 108 97 89 90 97 106 107 116 119 99 102 111 123 113 105 99 95 104 96 92 117 133 149 165 186 178 165 154 159 161 160 156 148 146 151 170 162 129 72 52 84 125 97 60 44 48 43 48 58 73 91 92 81 70 76 101 139 121 106 100 111 118 115 109 108 113 114 111 101 94 91 92 93 92 91 88 88 89 90 90 89 87 85 84 84 83 82 82 82 82 84 85 86 86 88 89 90 93 94 96 97 99 99 99 99 206 255 255
254 254 189 51 47 41 36 39 38 36 37 35 36 37 38 36 36 35 35 35 35 35 33 34 36 37 38 38 38 38 38 38 39 51 54 52 46 42 47 53 55 61 67 72 76 75 78 87 97 100 98 93 91 90 91 95 97 98 101 103 105 105 102 105 110 117 118 122 128 134 132 128 128 134 136 130 121 128 138 144 141 138 142 145 137 128 126 132 141 138 138 151 163 166 160 152 138 119 97 93 93 96 104 113 117 120 125 131 139 146 136 120 104 91 87 87 89 86 76 66 57 49 38 31 35 48 52 51 48 48 47 44 36 37 41 43 40 42 52 77 105 133 160 166 163 157 152 147 139 131 123 123 127 132 132 133 130 113 118 128 136 124 112 103 97 106 98 94 116 133 149 163 181 178 167 155 156 163 169 168 156 145 141 163 170 152 105 45 60 102 91 65 53 54 49 54 62 73 97 98 84 70 74 95 127 121 112 110 120 118 112 106 107 115 117 109 95 89 87 85 85 84 84 82 81 82 82 83 81 79 78 76 76 75 74 74 74 72 74 76 76 76 78 78 79 81 83 84 86 86 86 86 86 202 255 255
255 252 188 54 46 42 40 38 38 37 36 37 37 37 36 37 37 37 38 38 38 39 36 34 34 34 35 35 36 37 38 39 41 47 48 48 47 45 46 49 54 62 68 73 70 66 68 80 90 91 87 87 92 97 99 100 97 95 97 105 107 107 101 98 99 104 119 123 129 143 142 129 115 116 122 119 109 130 134 134 140 143 143 139 134 128 127 128 134 130 128 131 148 161 167 158 138 118 101 101 103 106 110 111 111 113 115 123 130 134 126 114 101 89 87 87 86 79 72 66 60 49 39 34 38 47 50 51 52 52 49 40 32 35 43 48 37 40 61 96 111 123 138 136 139 144 148 148 148 150 153 155 154 151 149 144 138 134 144 150 150 139 125 115 109 107 105 109 124 141 155 165 177 178 171 157 152 163 177 180 166 154 151 162 160 149 127 62 53 73 83 77 67 56 54 62 73 81 118 117 93 72 68 74 88 101 114 126 138 113 105 107 108 117 115 100 80 79 80 73 74 73 72 71 70 70 69 68 67 67 66 65 64 63 62 61 60 59 58 59 60 61 63 64 65 66 67 67 67 68 67 67 67 196 255 255
255 252 188 56 47 43 41 38 39 38 37 37 36 36 36 37 37 37 38 38 37 37 35 35 34 34 34 34 36 38 39 39 40 46 47 47 47 46 46 48 53 59 64 67 64 60 61 71 81 83 81 84 94 101 104 105 100 96 95 102 105 104 99 98 103 109 116 119 121 127 127 123 119 124 129 127 120 125 125 125 129 135 136 134 130 127 128 131 132 130 129 128 133 141 150 153 142 127 111 105 106 108 110 110 111 114 116 123 130 134 120 107 96 86 86 87 86 80 71 63 57 51 41 34 38 47 51 51 52 52 49 41 36 35 39 46 39 44 62 86 93 104 123 114 116 123 128 126 125 128 135 143 148 149 149 148 146 147 151 153 152 145 137 132 130 117 112 117 132 147 159 167 179 180 173 156 153 162 172 171 159 152 153 164 165 157 139 79 56 54 56 57 56 52 48 49 54 63 89 90 76 66 70 78 88 99 111 125 138 118 109 106 105 116 114 96 71 65 64 56 60 60 60 58 58 57 56 55 54 55 54 54 53 53 52 51 51 51 50 51 50 50 52 52 53 55 55 56 57 57 56 56 56 192 255 255
255 252 188 56 48 44 42 37 38 38 38 36 36 36 36 37 37 37 38 38 37 37 36 35 34 34 33 34 36 38 39 39 40 44 45 46 47 47 47 48 53 57 60 63 64 60 59 67 75 76 75 80 92 101 105 107 103 97 94 101 103 103 100 101 107 114 115 116 116 114 114 117 123 132 135 135 131 122 118 118 120 126 129 129 126 125 128 132 128 129 130 126 122 125 135 146 144 134 119 109 107 109 108 108 109 112 115 121 128 131 113 100 92 84 86 87 86 80 70 60 55 50 41 34 38 47 51 51 52 52 49 43 38 35 36 44 42 49 63 77 79 88 109 94 94 102 106 104 102 105 115 126 136 142 142 145 148 152 151 150 148 144 142 141 141 123 118 123 138 153 163 171 181 183 175 159 156 160 165 161 153 151 155 166 169 164 152 93 58 40 34 43 49 51 42 39 44 57 77 80 75 75 82 89 93 97 106 118 132 122 113 105 103 117 117 97 67 58 54 46 52 53 52 50 50 50 49 48 47 47 48 46 46 47 45 44 44 45 45 45 45 45 46 47 47 50 51 52 52 53 53 52 53 191 255 255
255 253 189 55 48 45 43 38 39 40 39 37 37 37 38 38 38 38 38 38 38 38 36 36 36 35 35 35 36 36 38 39 40 42 44 46 47 48 49 50 53 55 58 61 66 63 62 68 72 71 70 76 89 99 103 108 104 99 96 101 103 103 100 102 109 117 114 116 114 105 104 113 127 137 137 139 139 121 115 114 115 120 123 126 122 123 126 130 124 128 130 126 117 116 124 139 142 136 125 111 107 106 105 105 106 107 113 118 123 127 106 95 87 82 84 85 84 77 68 59 53 50 42 35 39 47 51 51 53 53 50 44 39 34 33 41 43 52 66 73 69 75 95 78 76 83 86 83 81 82 93 108 121 130 129 136 143 149 147 142 138 138 141 143 142 124 120 127 143 157 167 174 183 185 178 161 160 159 157 152 148 149 157 167 172 171 164 102 59 32 21 35 47 51 36 34 42 62 79 86 88 95 103 105 102 96 99 108 121 124 118 106 103 119 121 103 69 56 51 45 50 51 50 48 48 49 48 46 45 45 46 45 44 45 43 42 42 42 43 44 44 44 45 47 48 50 52 54 55 56 56 56 57 193 255 255
255 253 189 55 47 46 44 40 41 41 40 39 39 39 39 39 39 38 38 38 38 38 37 36 36 35 36 36 36 36 37 39 41 41 43 46 49 51 51 53 53 54 57 60 66 63 63 71 75 73 72 79 92 100 104 105 101 98 97 102 105 105 101 103 108 113 112 116 116 107 105 116 130 135 131 132 136 123 118 116 117 120 122 123 120 120 121 122 118 122 126 125 119 118 122 130 133 130 123 110 104 102 100 101 102 104 111 115 119 122 104 92 84 79 81 83 83 73 65 59 54 52 44 37 41 49 52 50 53 54 51 44 36 34 35 40 42 52 67 75 71 74 87 73 70 73 74 70 67 68 77 90 101 108 109 118 129 137 136 132 127 131 133 133 130 121 122 130 145 160 170 175 182 185 180 165 164 160 153 148 148 151 159 168 171 171 167 99 60 40 34 47 55 54 37 41 57 83 99 105 108 116 121 119 110 98 96 100 110 122 116 103 100 120 126 110 75 63 59 54 55 56 55 55 55 55 54 53 52 52 52 52 52 53 51 50 49 49 50 51 52 53 54 55 56 59 61 64 66 67 68 69 69 196 255 255
255 253 190 56 48 47 46 41 42 42 40 41 41 41 40 40 39 39 38 37 38 38 36 36 36 36 36 37 38 38 38 38 40 42 43 46 51 53 54 55 53 54 56 57 57 56 59 69 74 74 76 85 98 106 107 101 95 93 96 102 106 107 99 98 101 105 105 111 115 111 110 119 128 128 121 121 128 121 118 117 118 123 126 125 121 119 117 116 114 115 117 119 121 121 121 120 122 124 125 111 104 101 98 99 101 104 110 113 116 117 105 94 85 78 78 78 77 69 63 58 55 54 45 38 41 49 52 51 53 54 51 44 35 35 39 43 40 48 64 79 76 73 78 69 66 66 63 59 56 58 65 74 81 84 88 100 113 122 125 126 127 132 132 128 123 125 128 135 150 163 170 173 180 183 179 167 168 163 155 150 151 155 162 168 168 167 164 95 62 51 51 59 62 58 46 52 68 94 104 108 110 116 121 119 110 99 96 99 109 117 110 98 96 119 128 114 79 67 65 61 61 61 61 60 60 60 60 59 59 59 59 60 60 60 59 58 58 58 58 60 60 61 61 62 63 66 68 71 73 75 77 77 77 199 255 255
255 253 190 57 49 48 46 42 43 43 41 42 42 42 41 39 39 39 38 37 37 37 36 36 36 36 36 37 38 39 39 39 39 41 43 46 52 54 55 55 54 55 56 56 50 50 55 66 73 75 77 89 101 107 106 95 90 88 93 101 106 106 96 92 93 97 96 105 113 114 116 122 126 119 111 112 119 119 117 116 118 126 129 128 125 121 117 114 113 111 109 113 120 122 119 111 112 119 127 112 105 102 99 99 103 107 112 115 117 115 106 95 85 76 74 72 70 66 61 57 57 57 48 39 40 49 52 51 53 54 51 44 35 37 43 47 38 43 60 83 79 72 72 64 60 58 53 49 48 51 58 61 63 61 70 81 94 106 112 119 126 133 131 126 120 130 136 142 157 167 171 172 178 181 178 168 169 166 159 154 156 159 165 167 165 162 157 92 64 60 62 65 65 62 56 62 74 92 101 105 105 109 114 114 107 98 96 99 109 113 106 95 95 119 129 115 82 73 72 68 67 67 68 68 67 67 67 67 67 66 65 66 66 65 65 65 65 65 65 66 66 67 67 68 69 72 74 77 80 82 83 83 83 201 255 255
254 253 191 58 51 49 47 43 43 44 43 42 41 42 41 40 40 39 39 37 37 36 37 37 38 38 36 36 37 39 40 40 39 39 42 46 51 54 55 56 56 57 57 56 49 50 56 66 73 73 74 85 96 101 98 90 86 86 91 100 104 103 93 87 87 90 89 96 107 115 121 123 121 110 105 106 112 116 115 114 117 126 131 133 130 124 120 117 116 110 105 108 117 119 114 104 107 117 131 116 108 104 100 101 107 115 118 120 120 116 106 94 84 74 70 67 64 62 59 57 58 60 50 39 41 49 52 51 53 54 52 45 39 40 46 50 38 42 60 85 79 69 66 56 51 49 44 40 41 45 51 51 49 44 55 64 74 85 96 109 121 129 129 125 120 137 146 152 165 172 173 171 176 179 177 169 169 168 165 161 161 163 167 167 163 158 151 93 68 64 63 64 65 64 64 67 71 78 91 96 96 99 105 106 102 97 96 100 109 111 106 98 99 121 128 114 86 79 79 74 76 76 76 76 75 75 75 75 76 75 74 72 70 69 69 69 69 70 70 71 70 72 72 73 74 78 80 83 85 88 88 89 88 202 255 255
255 253 191 58 51 48 47 44 44 45 44 43 42 42 42 40 40 39 38 37 37 37 39 39 39 39 37 36 36 38 39 40 40 37 41 45 48 53 54 55 55 56 57 58 54 57 62 70 73 70 69 78 88 92 90 95 93 92 94 100 103 101 94 91 93 97 94 98 106 118 126 125 118 109 109 110 113 121 120 118 119 127 134 138 135 130 127 126 124 120 117 119 123 122 116 108 108 115 123 114 108 104 101 104 110 118 122 123 121 116 103 90 80 71 67 64 61 59 58 58 59 60 50 40 43 50 52 51 54 55 53 47 42 42 46 50 43 50 69 87 79 70 69 55 50 50 47 43 42 44 48 48 46 42 50 54 57 65 77 91 104 111 116 118 119 136 145 150 164 171 171 168 174 179 179 173 167 167 168 167 162 161 164 166 164 159 151 92 67 62 60 63 65 64 61 62 65 72 85 91 94 100 107 108 103 94 93 97 107 108 105 101 103 120 125 111 87 84 85 79 81 81 81 81 81 81 81 81 81 81 80 77 74 73 72 72 72 73 74 75 75 76 78 80 81 84 87 89 90 93 93 93 93 204 255 255
255 253 191 59 50 48 46 44 46 46 45 43 42 42 42 41 40 39 37 36 37 38 41 39 39 38 37 37 36 37 38 39 40 36 39 43 46 51 53 53 55 55 57 60 56 59 64 72 72 68 66 77 87 90 89 104 104 99 98 101 102 99 96 96 101 107 104 103 108 121 130 126 117 110 115 116 116 128 127 124 123 131 138 141 140 136 135 135 132 132 132 134 132 128 121 113 111 112 114 111 106 102 100 105 112 120 124 124 120 114 99 85 76 67 64 62 60 57 57 58 61 60 50 41 44 50 52 51 54 55 53 47 46 44 44 50 50 61 80 90 81 73 75 59 55 55 53 48 45 45 47 47 47 45 51 50 47 53 64 76 87 95 103 111 120 132 140 147 161 167 167 165 173 180 182 177 165 165 170 171 164 161 162 167 166 161 153 91 65 61 60 64 65 62 54 55 62 74 80 84 90 100 108 110 105 93 91 96 106 102 100 100 103 117 119 106 85 84 86 81 83 83 82 83 83 83 83 84 84 84 84 81 78 77 77 77 77 78 79 80 80 81 83 85 86 89 91 93 94 96 96 96 96 205 255 255
255 252 190 60 50 48 47 45 47 47 44 44 44 44 43 41 40 38 36 36 37 39 42 40 38 37 37 38 37 37 37 38 39 36 37 41 44 49 51 51 53 54 57 60 56 59 63 69 69 66 67 78 88 91 92 114 113 105 101 102 102 101 100 103 110 117 116 112 113 124 131 127 119 115 121 123 123 135 136 133 130 136 141 142 143 142 142 141 139 142 146 149 144 138 129 120 113 108 105 108 105 102 101 106 112 120 125 123 118 110 93 80 71 63 61 60 58 56 56 58 61 58 51 43 44 49 52 53 55 55 53 48 48 45 43 50 57 72 90 94 84 78 81 65 62 64 64 60 56 52 52 52 52 51 56 50 43 49 56 64 71 81 91 102 120 128 134 141 155 161 164 164 171 179 183 181 166 165 171 173 165 160 159 168 168 162 151 87 61 59 63 67 67 59 47 50 61 79 75 77 85 98 108 112 106 93 91 95 105 96 93 95 99 111 112 99 82 81 83 80 82 82 82 82 82 82 83 83 83 84 83 82 81 80 81 81 82 84 84 84 84 85 87 88 90 92 94 95 96 97 97 98 98 205 255 255
255 253 190 58 49 46 45 43 46 46 44 42 42 42 41 40 40 39 39 39 38 38 39 39 39 38 38 39 40 41 39 38 38 39 40 40 43 45 47 50 53 58 60 59 66 64 60 60 63 66 67 67 72 76 84 104 104 100 101 92 97 106 106 114 115 112 118 124 127 124 123 126 130 130 131 136 145 147 143 141 141 141 139 138 142 142 144 146 143 141 143 148 152 149 139 122 111 106 107 111 110 110 113 114 114 117 122 124 117 104 90 80 70 57 55 54 53 54 54 56 61 56 52 47 44 48 53 58 61 58 53 46 47 46 48 56 64 75 86 95 90 83 78 71 71 74 83 92 96 94 81 69 59 55 56 47 40 52 53 55 59 70 77 93 122 130 134 138 145 156 167 175 172 168 171 183 172 172 176 172 166 163 162 168 172 162 134 77 55 56 58 62 63 59 53 53 58 68 74 79 84 94 104 109 108 100 94 91 92 92 92 95 99 108 109 102 87 82 83 88 86 85 84 83 81 81 81 83 84 84 85 84 83 84 85 85 85 85 86 87 87 88 87 88 90 93 96 99 101 102 102 102 102 206 255 255
255 253 190 59 51 48 45 43 45 46 46 43 42 42 41 40 40 40 40 40 39 39 39 39 39 39 39 39 39 40 40 39 38 38 39 40 42 42 46 50 53 57 58 59 65 64 62 63 64 67 69 69 72 73 78 98 102 100 99 95 98 105 112 119 120 117 120 124 127 122 120 125 132 133 130 132 139 145 144 141 141 138 137 138 142 143 146 147 147 147 147 150 151 148 141 130 120 114 111 115 114 111 112 111 108 107 114 117 113 101 88 77 67 55 54 54 53 52 52 54 57 55 52 50 47 49 52 56 58 56 54 51 47 48 53 61 67 74 81 86 83 79 78 82 86 92 104 117 123 121 109 96 86 81 74 58 45 52 50 50 53 63 67 82 111 127 135 139 142 152 163 174 170 165 168 180 171 172 176 168 166 165 165 169 175 165 132 74 53 54 57 62 63 60 57 57 62 69 78 83 86 94 102 105 105 98 92 89 90 93 96 100 105 110 109 103 93 88 88 93 89 88 87 85 84 84 84 85 85 85 87 86 86 86 86 86 86 87 88 88 88 88 88 90 92 95 99 101 103 103 103 103 102 206 255 255
255 253 190 58 52 48 45 43 44 45 47 43 42 41 40 40 41 41 40 40 39 39 39 39 40 40 40 40 39 39 40 40 39 37 38 40 41 42 46 50 52 54 56 58 60 62 64 67 65 67 70 75 77 76 76 93 100 101 96 99 101 104 118 122 124 126 124 124 122 119 121 125 132 134 130 126 126 141 143 139 136 135 135 138 141 144 146 147 150 152 152 151 148 144 141 139 134 127 119 123 118 112 109 108 103 100 105 109 108 99 85 73 63 54 54 54 54 51 51 52 53 53 52 51 51 51 51 52 54 54 55 56 49 51 58 65 71 76 79 77 77 79 85 95 102 111 124 137 142 140 132 124 118 114 104 82 61 58 51 49 50 56 59 71 97 122 135 141 144 149 158 169 169 167 169 177 170 172 175 166 166 166 165 170 176 167 133 74 52 52 56 61 63 61 58 61 66 73 83 88 90 94 99 102 101 95 90 88 91 96 101 105 110 110 108 102 96 93 93 94 91 89 89 88 88 88 88 88 87 87 89 88 87 88 87 87 87 88 88 89 89 89 91 93 95 98 101 102 103 103 103 102 101 206 255 255
255 253 190 59 53 49 47 44 46 47 47 44 42 42 42 42 43 43 42 41 41 40 40 40 40 40 41 40 40 39 40 40 40 37 38 39 40 41 44 48 50 53 55 56 54 61 66 68 63 62 67 79 84 82 78 86 96 101 94 103 103 103 122 123 126 133 134 126 117 116 123 127 132 136 134 128 121 141 143 139 133 133 135 139 142 144 145 144 149 154 155 151 142 138 141 149 147 140 129 136 127 116 111 110 105 99 101 103 103 98 79 68 60 54 55 55 55 51 50 49 49 51 52 53 54 54 52 51 52 54 59 64 54 55 63 73 80 84 85 79 82 91 104 111 117 126 139 149 154 153 149 146 145 144 141 119 93 77 62 51 45 45 48 60 84 117 136 145 146 148 155 166 171 172 173 174 169 172 174 165 165 166 164 171 175 163 128 70 48 49 54 57 59 59 57 62 69 75 86 91 91 93 96 97 96 91 89 91 95 98 103 108 110 106 101 95 94 94 92 90 91 91 92 92 93 94 93 92 91 91 92 90 89 91 90 90 90 91 91 92 92 93 96 98 99 102 103 103 103 102 101 100 100 206 255 255
255 253 192 61 53 50 48 44 47 48 47 44 43 44 44 43 44 44 42 42 41 41 41 41 41 40 40 41 41 41 41 41 41 38 38 38 39 41 43 46 49 51 54 55 55 60 62 61 59 60 66 78 85 87 86 82 90 97 96 105 105 105 120 121 123 130 141 129 115 115 122 125 127 134 140 137 129 142 143 139 135 136 138 141 143 143 141 139 144 147 148 143 137 138 144 153 153 148 140 150 141 129 124 124 118 110 104 104 103 96 78 67 60 53 54 54 55 53 51 49 51 50 51 53 55 55 55 54 55 57 60 61 54 52 56 67 80 84 83 78 82 93 109 116 122 129 140 148 152 153 150 150 152 156 161 148 126 106 85 65 49 43 46 60 84 108 127 140 143 144 150 163 172 173 172 170 169 172 175 167 165 164 163 169 170 154 117 68 51 52 57 58 60 60 61 65 70 76 85 88 88 91 94 96 96 91 92 95 100 100 102 107 108 102 95 91 93 93 91 87 90 91 92 94 94 95 95 93 93 93 93 91 91 93 94 93 93 94 94 95 95 96 98 99 100 101 102 102 102 101 100 99 98 205 255 255
255 253 192 62 55 52 50 45 47 48 47 45 45 45 45 44 44 44 43 43 43 43 41 41 40 40 41 41 41 41 41 41 41 38 38 38 39 41 43 45 48 49 51 53 57 58 57 56 60 63 67 73 80 86 90 79 85 95 102 106 108 110 117 120 121 124 138 126 112 114 122 123 123 131 141 142 135 141 140 138 137 139 142 144 145 143 139 136 139 139 137 134 135 140 147 154 154 151 148 158 149 139 137 138 132 122 111 107 100 91 77 68 60 53 52 53 54 53 52 51 53 51 51 53 54 55 56 55 55 56 56 55 55 52 53 62 78 84 83 77 82 94 108 115 122 130 139 144 148 149 148 152 156 161 166 161 148 132 110 85 61 46 49 62 82 96 114 132 138 138 145 160 172 172 170 167 168 173 175 167 165 164 164 168 165 146 107 67 54 57 62 61 62 62 64 67 71 77 83 84 86 90 93 95 94 91 93 97 104 101 103 108 107 99 92 88 92 94 92 87 89 90 91 93 94 95 96 95 94 94 92 92 93 94 95 95 95 96 96 97 97 97 98 99 99 100 101 100 100 100 99 99 98 205 255 255
255 254 193 62 56 54 51 45 47 48 47 46 47 47 47 45 44 44 44 44 45 45 42 42 42 42 42 41 41 42 43 42 42 39 39 39 39 41 42 44 48 48 50 52 61 57 51 52 65 71 72 67 70 77 87 77 82 93 109 108 112 118 115 119 119 116 128 119 111 115 123 123 121 127 138 143 140 136 134 136 139 142 146 148 148 144 139 136 137 131 125 125 135 144 150 151 150 151 153 159 154 147 148 149 143 132 120 111 98 85 77 69 60 52 51 52 53 53 53 54 57 54 52 52 52 53 55 56 54 52 48 45 54 54 53 59 75 83 84 79 84 93 103 111 120 128 136 140 142 144 147 153 158 163 160 159 158 152 135 110 81 56 55 65 78 83 100 120 130 132 140 156 171 171 167 163 168 173 176 168 166 167 169 169 163 141 98 66 58 64 67 67 66 64 68 70 72 76 79 81 84 89 94 96 95 92 94 97 103 102 105 107 105 98 91 89 94 95 94 89 88 88 90 92 93 94 95 94 94 94 91 93 94 93 95 95 96 97 96 97 97 96 96 96 96 97 98 98 99 100 100 100 99 206 255 255
255 254 193 64 58 55 52 47 48 48 47 48 49 48 47 47 46 46 45 45 45 46 43 43 43 43 43 43 42 43 44 43 42 41 40 40 41 42 43 44 46 48 49 51 61 54 49 54 71 79 77 61 58 63 75 74 82 94 114 110 116 124 117 120 118 111 119 117 116 123 132 134 130 128 133 138 140 129 129 133 139 143 146 147 146 144 141 139 136 129 123 126 139 149 153 149 146 148 153 153 150 149 153 152 145 134 127 116 99 82 77 68 58 50 50 51 52 52 53 56 59 56 53 52 50 51 51 52 50 46 43 40 45 45 45 52 65 75 82 80 84 91 98 106 115 123 131 135 138 141 148 154 158 158 148 154 162 162 155 135 103 67 60 60 61 71 91 114 125 132 144 161 173 173 171 167 168 172 174 167 168 171 174 174 163 138 94 61 55 61 65 64 62 60 63 65 67 68 76 81 85 91 96 97 94 91 92 95 102 100 100 101 98 93 89 87 90 92 91 88 87 87 88 90 90 91 92 92 92 92 91 91 92 91 92 93 93 94 94 94 94 94 94 94 94 95 96 97 98 99 100 101 101 206 255 255
255 254 194 65 59 56 53 48 49 48 47 49 49 48 48 48 48 48 47 46 46 46 44 44 44 44 44 44 44 44 44 44 44 42 41 41 42 43 44 44 47 49 49 51 58 53 49 54 69 75 72 58 54 57 67 73 82 92 109 108 115 123 120 121 118 111 120 122 123 128 137 140 137 128 126 130 137 126 128 134 139 140 142 142 140 139 139 139 136 134 132 135 145 151 153 150 147 148 150 148 148 150 155 151 144 136 134 125 109 87 76 65 56 49 50 52 53 52 52 54 56 54 53 53 51 51 50 50 51 49 49 49 50 49 51 57 65 74 82 82 86 89 94 105 115 122 129 132 135 140 147 152 154 152 145 153 163 160 162 149 123 85 73 66 55 67 86 108 120 130 144 162 173 173 172 169 167 170 172 166 169 173 175 174 160 132 83 55 50 57 62 61 59 58 60 62 63 62 73 79 84 90 95 96 94 90 92 97 105 98 95 93 90 89 88 87 87 87 87 87 87 87 87 87 88 89 90 91 91 92 93 92 92 92 92 93 93 93 94 94 94 94 95 96 96 96 97 98 99 100 101 101 102 207 255 255
255 254 194 66 59 56 54 49 49 48 47 49 49 48 48 48 48 48 47 46 45 45 44 44 44 44 44 45 45 44 43 44 44 42 42 41 42 43 44 45 47 48 49 51 56 52 50 53 62 66 64 57 55 57 64 73 81 89 99 105 112 118 123 122 117 111 124 129 130 129 135 139 138 126 119 122 133 127 130 136 139 139 137 134 131 133 135 138 139 143 146 148 150 152 152 151 150 149 147 146 149 153 156 149 142 138 142 137 122 97 75 61 54 49 50 52 54 52 52 52 53 51 53 54 53 52 51 51 53 57 62 67 71 72 74 80 83 87 91 93 95 95 96 108 117 124 129 132 136 141 148 150 149 145 145 153 160 153 160 156 140 108 95 81 64 69 83 101 114 126 142 161 169 169 170 171 166 168 171 166 170 172 172 170 155 123 70 49 48 56 63 61 60 60 61 63 62 60 71 77 82 88 93 94 93 90 94 100 110 100 93 88 86 88 90 89 86 85 86 89 88 88 87 86 87 88 89 90 91 92 94 93 93 94 93 94 94 93 95 95 95 95 97 98 98 98 98 99 99 100 101 101 102 207 255 255
255 254 195 66 60 57 55 49 50 49 48 50 50 49 49 49 48 48 47 47 46 46 44 45 44 43 43 44 45 44 43 43 44 43 44 45 43 43 45 46 48 47 49 52 54 53 51 50 50 51 53 58 63 65 66 74 81 85 85 100 108 112 126 120 114 113 129 134 133 125 125 129 131 120 110 113 126 130 134 138 141 140 134 125 122 125 129 134 143 153 161 162 155 151 151 155 154 151 144 146 152 157 160 149 141 140 150 150 138 112 72 54 50 50 51 53 55 51 51 50 49 46 51 56 56 54 53 53 58 69 81 91 117 129 134 134 131 126 122 123 121 116 112 119 126 132 135 136 140 145 150 148 144 140 147 152 152 140 149 154 153 134 123 109 88 74 78 91 103 115 133 151 159 162 163 167 165 167 168 163 169 171 167 162 145 112 56 47 51 60 68 67 66 66 68 69 67 64 69 73 78 84 90 92 91 90 96 106 118 105 95 88 88 94 96 94 89 87 88 93 90 88 86 86 87 87 87 89 92 94 95 95 96 97 97 97 97 98 99 99 99 98 100 101 101 101 101 101 102 101 101 101 101 207 255 255
255 254 195 67 61 60 57 52 51 48 47 51 51 50 50 48 47 46 46 46 46 47 46 46 46 46 46 46 46 47 46 46 46 46 45 45 45 44 44 45 46 48 50 51 52 54 54 52 52 54 56 60 62 64 67 71 74 76 75 86 93 99 112 112 112 112 124 127 126 121 124 128 131 122 116 117 125 127 130 133 137 136 132 125 122 125 128 131 142 153 160 162 152 147 147 155 156 152 145 142 148 156 162 155 150 146 151 152 147 134 86 60 49 47 54 55 54 56 59 58 52 51 52 52 48 52 54 57 69 90 103 104 122 129 133 138 145 149 151 146 141 135 128 125 131 141 148 145 143 143 148 150 150 146 149 151 151 148 154 157 156 145 138 131 119 79 68 77 100 113 126 137 149 154 162 175 169 169 170 166 173 176 172 159 143 110 54 53 57 63 67 67 66 65 67 70 74 77 77 76 76 78 86 93 96 96 98 103 110 98 91 86 83 85 87 89 90 89 88 88 87 88 87 88 87 84 82 86 90 94 98 100 99 99 100 101 102 103 103 103 103 103 102 102 103 103 102 103 103 102 101 100 99 206 255 255
255 254 195 67 62 61 59 53 51 49 47 51 51 51 50 48 48 46 46 46 46 47 47 47 47 48 47 47 46 47 47 47 47 48 46 46 46 44 44 45 46 48 50 51 52 54 54 54 55 57 59 61 62 63 66 68 68 68 68 75 83 91 103 109 113 115 121 124 124 120 124 130 133 126 121 121 127 126 127 130 133 131 129 125 122 123 125 128 141 151 155 156 147 142 143 153 157 155 149 142 147 156 163 160 156 152 154 156 156 152 103 71 53 48 57 60 62 72 84 88 83 82 74 61 44 50 57 64 72 90 99 95 106 113 120 131 143 152 159 156 151 145 139 130 136 148 155 150 145 143 148 151 152 148 148 149 151 155 158 158 157 151 148 144 138 88 68 72 99 112 120 127 143 151 160 174 169 169 169 166 174 178 173 157 137 104 52 55 59 64 65 66 65 63 65 70 76 82 80 77 75 76 85 93 99 98 98 100 103 93 88 86 82 81 83 86 89 89 88 87 87 89 90 90 87 82 79 83 87 93 98 102 102 101 104 105 106 107 106 106 105 105 103 101 102 103 102 102 102 100 99 99 97 205 255 255
255 254 195 67 63 62 60 54 53 51 48 51 51 51 50 48 48 47 47 47 47 47 48 48 47 47 47 47 47 47 47 47 47 48 47 48 46 44 45 47 48 49 50 50 53 53 53 54 55 56 58 60 62 64 64 66 64 63 63 68 77 89 101 110 117 121 121 125 127 123 124 130 136 130 123 124 132 128 127 127 130 126 123 122 120 120 120 124 141 147 148 147 140 137 138 149 156 158 156 147 151 159 164 161 158 156 159 162 164 162 121 89 67 58 65 71 79 100 124 138 140 137 117 85 47 50 61 71 66 68 68 66 73 86 102 117 126 135 144 150 148 146 144 135 140 149 154 150 146 146 152 153 150 144 145 148 152 154 157 158 156 154 150 147 145 101 78 78 98 111 119 125 142 151 157 164 164 165 166 164 172 175 171 155 129 94 49 52 56 60 63 64 65 63 64 69 74 78 78 76 74 77 84 91 97 96 98 99 100 93 89 87 85 85 86 87 88 90 90 91 88 90 92 91 88 83 80 80 85 90 96 101 103 105 108 109 110 110 108 106 106 105 102 100 101 101 100 100 98 97 96 96 95 204 255 255
255 254 196 70 65 64 62 55 55 53 50 53 52 52 50 49 50 49 48 47 48 49 49 49 49 48 49 49 49 49 49 49 49 49 48 48 48 47 47 48 49 50 50 51 53 53 53 54 55 56 58 60 61 63 64 66 63 61 60 64 71 82 95 106 115 121 121 124 125 122 123 129 133 130 125 126 134 129 126 125 124 122 121 122 123 123 123 124 138 143 144 144 142 142 144 148 154 157 158 151 153 157 159 156 153 153 157 161 164 164 140 119 104 100 105 110 115 130 148 158 159 163 152 124 77 67 70 76 65 64 66 70 57 64 81 97 104 111 120 132 137 139 137 131 135 143 148 147 148 152 159 160 158 151 149 150 153 155 156 157 157 156 155 153 152 118 96 89 104 117 128 139 157 161 160 159 162 162 161 165 168 170 169 152 115 78 47 51 54 58 63 65 66 66 66 68 71 75 75 74 76 80 83 88 93 95 97 98 95 91 89 89 90 90 90 89 89 91 92 94 92 92 93 92 89 85 83 81 84 88 94 99 101 103 106 107 107 106 105 104 102 101 100 99 99 97 95 95 94 92 92 93 93 203 255 255
254 254 196 71 67 66 63 56 55 53 52 54 54 52 51 50 50 49 49 48 49 49 49 49 49 49 49 49 49 49 49 49 49 49 49 49 49 48 48 49 49 50 50 51 53 53 53 54 55 56 58 60 61 63 64 67 65 62 59 63 68 76 87 98 107 113 119 123 124 121 122 127 130 126 123 127 134 130 126 123 120 121 122 125 129 130 129 129 136 141 143 146 149 151 151 150 151 152 155 153 154 156 156 151 148 149 152 158 162 162 155 145 138 137 138 137 136 140 149 154 154 164 166 151 106 86 84 91 87 88 91 94 70 68 76 85 90 95 104 115 125 130 129 127 132 141 146 147 150 155 161 162 160 156 153 153 155 157 156 157 159 158 158 158 155 130 107 95 107 121 136 153 171 170 164 158 162 161 159 165 165 166 168 148 103 65 48 52 56 59 65 67 68 68 69 70 72 75 73 74 79 83 83 85 89 95 98 96 90 90 89 90 92 92 91 89 90 92 94 95 94 94 94 93 91 88 86 85 87 90 94 98 99 100 101 102 103 102 101 99 98 96 98 98 97 95 93 93 92 91 92 92 93 203 255 255
254 254 197 74 70 68 65 58 57 55 55 56 55 53 52 51 51 50 50 50 50 50 50 50 49 50 51 50 49 50 51 51 50 50 50 50 49 50 51 50 50 50 51 52 52 53 53 53 54 55 57 60 61 62 64 68 67 64 62 63 66 71 79 88 96 102 115 121 122 119 120 124 126 123 121 126 134 131 127 122 117 121 126 130 135 137 137 134 135 137 141 147 154 157 156 149 147 146 150 155 156 155 152 146 144 146 150 156 160 160 164 164 162 161 155 148 141 137 139 141 144 156 169 166 127 103 101 114 117 120 122 123 100 88 82 79 83 87 94 103 113 120 122 126 133 142 149 151 152 155 158 159 159 157 157 158 158 159 157 158 161 159 161 161 160 140 116 100 108 122 139 159 179 175 167 160 164 161 158 166 163 163 165 142 93 56 52 56 58 61 66 69 70 70 72 73 74 76 71 75 83 87 84 84 87 95 97 94 87 87 89 91 94 93 92 89 90 92 95 97 95 94 95 95 94 92 91 91 92 93 96 97 96 97 97 98 98 98 97 96 95 93 96 97 96 93 92 91 90 90 91 92 92 203 255 255
253 254 198 76 73 70 66 61 59 57 57 56 56 55 54 53 52 51 51 52 52 52 52 52 52 52 52 52 51 52 53 53 52 51 52 52 52 52 52 52 52 51 51 52 52 52 52 53 54 55 56 59 61 61 62 67 66 65 65 64 66 70 74 81 86 92 111 120 122 118 119 122 125 120 119 124 135 133 128 123 119 123 128 134 139 140 139 136 132 132 135 140 148 151 151 144 142 142 145 154 155 154 149 144 144 147 154 160 163 161 167 169 166 157 144 132 124 122 128 139 150 156 166 162 128 114 122 141 143 143 141 140 139 122 100 84 84 89 95 100 105 112 121 130 140 149 156 156 154 151 148 149 149 149 159 163 163 159 158 159 161 161 161 162 164 148 122 102 105 114 129 149 171 172 167 162 165 162 159 168 165 162 160 132 84 51 57 59 60 62 67 70 72 73 73 75 77 77 72 77 85 89 86 86 88 95 96 93 86 84 87 91 94 94 92 91 90 93 96 99 96 95 97 99 98 97 96 96 97 98 98 99 98 98 100 100 100 100 98 96 96 94 96 97 96 94 93 92 91 92 92 92 93 204 255 255
252 254 199 77 75 72 68 62 60 60 59 58 56 56 55 54 53 52 52 52 53 53 53 53 54 53 53 53 53 53 53 53 53 52 53 53 53 53 54 53 53 52 52 51 51 51 51 52 54 54 56 58 61 61 61 63 63 63 65 64 66 69 73 78 81 86 107 116 119 118 120 124 127 122 121 126 137 136 131 126 122 123 127 133 136 135 133 130 128 127 128 130 132 133 134 134 139 142 146 146 147 146 142 139 141 147 157 161 162 160 165 168 166 152 135 124 119 122 130 142 157 159 162 156 131 134 142 148 126 121 126 137 150 138 114 93 88 87 90 93 97 103 114 123 134 144 154 156 153 149 146 148 149 151 161 164 164 161 160 160 160 162 162 163 166 157 132 110 109 113 122 137 160 166 167 165 166 162 158 164 166 161 150 117 77 53 60 60 61 64 65 68 70 73 73 75 77 76 74 79 86 90 89 90 91 95 95 93 88 86 88 92 94 94 94 94 93 94 96 99 97 97 98 100 100 100 101 100 101 101 102 102 102 103 105 105 105 105 103 102 100 99 99 98 98 96 95 94 93 93 93 93 93 204 255 255
251 253 200 79 77 74 71 63 63 63 62 60 58 57 56 54 54 54 53 53 53 54 53 54 55 54 54 54 55 54 53 53 54 53 54 54 55 55 55 55 54 53 52 50 50 51 51 52 54 54 56 58 60 62 62 60 61 63 64 65 65 68 72 75 78 82 101 110 114 116 119 124 128 124 123 128 140 138 134 129 126 125 127 132 133 131 128 126 125 125 125 125 122 120 122 129 138 144 146 140 138 138 135 134 138 146 157 160 160 158 162 166 165 147 130 122 123 128 133 142 156 158 158 152 138 152 155 143 101 94 104 124 144 141 126 107 94 86 83 85 91 97 106 114 124 135 146 151 152 150 149 151 154 156 162 163 162 161 161 161 160 163 164 166 168 162 141 121 119 119 123 132 152 161 166 168 167 161 155 159 165 159 138 98 69 56 62 61 62 65 65 66 69 73 74 76 77 77 78 82 88 92 94 96 96 95 93 92 93 89 89 92 93 94 96 98 97 97 98 98 98 98 99 101 103 103 104 103 103 103 103 103 103 105 107 108 108 107 106 105 103 102 101 100 99 98 97 96 95 95 94 93 94 204 255 255
251 253 200 80 78 75 72 63 64 64 63 62 59 58 57 55 55 54 53 54 54 54 55 55 55 55 55 55 56 55 54 54 55 55 55 55 56 57 57 56 55 54 52 50 51 51 51 52 53 54 56 58 59 61 62 58 60 62 64 65 65 65 70 73 77 81 93 102 108 113 117 123 128 126 126 132 142 139 135 131 128 128 128 130 130 128 125 122 124 128 130 127 118 115 118 130 141 146 145 135 132 132 130 131 137 146 157 159 157 154 159 165 163 143 127 125 132 137 136 138 146 154 153 150 147 165 160 130 77 69 81 103 123 133 135 127 104 85 74 79 88 94 97 103 111 122 134 144 150 153 155 157 161 164 163 161 159 161 162 162 162 165 168 169 169 164 147 131 134 133 133 135 151 158 164 169 166 159 152 153 164 156 124 78 62 59 62 63 64 66 65 67 70 74 76 78 79 79 83 85 88 93 98 101 99 95 91 91 96 93 92 92 93 94 98 101 101 99 98 97 100 101 100 101 104 105 106 105 103 102 101 101 102 103 105 107 107 106 106 105 104 103 101 100 100 99 98 98 97 96 94 93 93 203 255 255
250 253 200 82 78 75 70 66 65 65 64 61 60 60 58 56 55 54 54 55 55 55 56 55 55 54 54 54 54 55 55 55 55 56 56 56 57 58 58 57 55 54 52 51 51 51 51 52 52 53 56 58 58 61 62 61 63 64 64 65 63 62 66 70 75 79 83 93 102 107 113 121 128 125 125 133 144 135 131 131 131 131 131 131 132 129 127 126 129 136 140 139 127 124 127 138 145 146 143 138 136 136 134 136 142 152 159 161 159 152 159 160 151 126 110 113 128 135 134 136 144 155 150 143 141 156 151 128 90 76 73 75 100 127 147 150 118 89 72 81 92 97 97 104 110 118 128 140 149 154 156 156 158 161 158 158 158 158 160 162 163 166 169 170 169 155 140 132 144 147 146 145 155 156 159 165 163 156 147 147 162 151 114 65 58 60 61 67 69 68 69 70 72 74 79 82 83 84 87 87 88 94 102 105 103 94 92 93 98 96 95 93 93 96 99 104 105 104 101 99 100 101 103 103 104 104 105 105 102 99 95 96 96 96 99 100 102 102 101 101 101 100 98 98 98 99 99 99 98 96 94 93 92 203 255 255
249 252 199 81 79 76 71 68 66 64 64 60 59 60 59 57 57 56 56 56 56 56 56 55 54 55 55 55 55 55 56 56 55 57 57 57 58 58 58 58 56 56 55 55 52 52 52 53 53 54 56 58 59 60 61 64 65 65 66 66 65 65 66 70 73 75 73 81 91 99 106 114 119 120 123 130 139 137 133 131 130 133 133 132 130 130 132 133 134 139 143 143 136 132 132 136 140 141 141 143 143 144 144 146 150 155 159 159 158 153 160 154 139 118 109 114 126 131 132 137 147 157 149 137 133 149 149 131 94 74 67 69 91 116 138 151 131 106 82 77 85 95 103 106 109 115 125 138 149 154 153 154 158 164 162 161 160 158 157 159 162 167 170 173 175 157 143 137 146 149 149 149 158 161 161 161 159 154 151 155 161 143 103 61 56 59 61 65 67 67 68 70 72 74 79 82 83 84 87 88 89 94 100 103 101 95 94 94 95 95 95 94 95 95 97 99 101 100 98 97 99 101 101 101 101 100 100 98 96 94 91 92 92 92 93 94 95 97 96 96 96 96 96 96 96 97 97 97 97 96 94 94 93 203 255 255
249 252 199 79 78 77 73 70 66 65 65 61 60 60 59 59 60 58 58 57 57 57 55 55 55 56 57 57 56 56 56 56 56 58 58 57 58 58 58 58 57 58 58 58 52 53 53 54 56 56 57 58 59 58 59 65 65 64 66 67 67 68 68 69 70 70 66 71 81 92 100 106 109 114 120 126 131 141 137 130 127 133 135 134 127 130 136 142 138 140 142 144 142 138 133 130 132 135 139 146 149 152 155 156 157 158 158 157 156 155 158 145 127 114 114 119 124 125 130 138 149 156 143 129 126 145 149 135 94 70 62 70 88 103 120 139 141 127 101 76 79 92 110 106 106 111 122 137 147 151 149 152 159 168 167 165 162 158 155 156 159 165 169 174 179 163 150 144 146 147 149 152 162 167 166 158 156 156 158 165 158 132 92 62 54 56 62 62 63 66 67 68 71 74 77 80 82 82 86 89 93 96 98 99 99 97 95 93 92 93 94 94 95 95 94 93 94 95 94 93 97 99 97 97 96 94 94 90 90 89 89 88 88 88 89 89 89 91 92 92 92 93 94 95 95 95 96 96 96 96 96 96 95 204 254 254
252 253 199 80 76 74 70 69 66 66 67 64 63 62 61 61 61 60 60 59 59 58 57 57 58 58 58 58 58 58 58 58 58 57 56 56 56 57 57 56 56 56 56 57 55 55 55 56 57 57 58 60 61 61 62 61 62 62 63 64 64 65 66 67 67 68 71 77 84 91 98 103 105 109 117 123 128 138 135 129 127 132 135 135 128 129 135 142 135 137 142 142 140 136 133 130 132 134 137 143 147 151 157 158 161 164 161 159 156 153 147 134 119 107 110 116 121 123 130 136 142 145 131 118 121 143 148 132 92 69 60 66 81 93 108 129 139 138 123 101 94 94 101 105 105 107 116 131 142 148 144 147 153 162 162 161 159 160 159 159 161 165 168 172 174 163 155 153 154 156 158 160 165 170 167 155 162 164 162 164 148 119 82 58 51 52 56 60 64 66 67 68 71 75 76 78 80 81 89 93 95 98 100 102 101 98 96 94 94 96 95 94 95 95 95 95 95 95 95 94 95 95 94 94 93 91 89 89 88 87 88 86 85 86 87 88 88 89 91 92 92 93 96 97 97 97 98 98 98 98 98 97 97 206 255 255
250 249 195 83 78 76 73 74 70 68 68 65 64 64 63 63 63 62 62 61 61 61 60 60 60 60 60 60 60 60 60 60 60 61 61 61 61 61 61 62 61 61 61 61 59 58 58 59 60 60 61 62 63 63 63 65 65 65 66 67 67 69 69 69 69 70 68 71 78 84 89 95 99 107 115 124 131 138 135 130 129 136 138 138 132 133 137 143 141 144 148 148 146 143 141 138 139 141 142 136 136 140 148 154 157 158 156 151 147 144 138 126 113 105 110 117 122 126 132 138 143 144 127 109 108 134 149 147 115 86 67 61 70 79 91 111 130 142 143 130 118 109 108 111 109 108 114 127 138 144 142 144 148 156 157 156 157 160 162 163 164 165 167 167 167 160 155 155 158 159 160 160 165 167 162 148 157 158 155 152 133 106 75 62 60 62 63 68 69 69 73 74 76 78 80 82 83 85 88 91 93 96 99 99 98 97 95 93 92 93 93 93 93 93 93 93 93 93 93 93 93 94 94 93 93 92 91 90 90 89 88 88 89 88 89 90 90 91 92 93 94 95 96 97 97 97 97 97 97 97 97 97 97 205 255 255
250 246 194 89 78 72 70 72 71 70 70 65 65 65 65 64 63 63 63 62 62 62 61 62 62 61 61 61 61 61 61 61 61 62 63 63 63 63 63 64 63 63 63 63 61 59 58 60 61 61 62 62 63 63 63 66 66 66 67 68 68 70 69 70 70 70 67 70 75 81 84 91 97 106 115 124 132 135 132 130 130 137 139 138 134 134 136 142 145 148 151 151 149 147 145 142 143 144 145 133 132 137 144 150 153 153 152 147 142 140 131 120 110 105 111 118 124 128 132 138 144 143 125 104 99 126 149 159 136 105 78 63 69 73 80 96 119 139 152 148 136 125 119 117 113 110 113 124 133 139 139 141 144 149 153 155 158 161 165 167 167 168 167 165 163 159 156 156 162 163 162 161 165 166 160 146 156 157 152 146 124 98 71 65 67 68 64 71 72 72 75 77 78 78 81 83 84 85 89 92 93 95 97 98 97 98 96 94 93 93 93 93 93 93 93 93 93 93 94 94 94 97 97 96 96 96 95 95 95 95 94 94 95 95 95 96 96 96 97 98 99 99 99 98 98 98 98 98 98 98 98 98 98 204 253 253
255 249 198 99 75 63 58 59 67 75 78 66 64 64 63 63 63 63 63 63 62 61 61 62 61 61 61 61 61 60 61 62 62 63 63 64 64 64 63 63 64 64 64 64 61 60 60 61 60 61 63 62 63 63 64 64 65 66 66 67 67 67 68 70 69 70 75 78 81 84 89 95 101 108 116 125 131 130 128 128 130 133 136 138 135 132 133 137 144 146 147 150 149 146 143 142 143 144 146 137 139 145 150 154 157 156 155 150 147 144 128 119 113 109 114 121 128 129 130 135 141 142 125 106 98 123 147 163 149 121 95 75 81 83 84 89 110 132 149 151 145 137 131 126 119 115 115 122 129 135 134 136 137 140 153 161 165 168 172 175 175 173 170 168 167 165 163 163 169 170 169 166 169 169 164 152 166 167 161 151 125 98 73 68 68 64 54 66 71 72 72 75 76 76 79 81 82 82 91 97 98 100 100 101 104 102 101 100 99 99 99 99 99 99 99 100 99 98 99 100 101 105 107 105 105 105 104 106 106 106 108 104 104 105 106 106 107 108 107 107 107 108 105 104 103 102 103 103 103 104 103 103 103 207 255 255
247 248 232 196 201 202 200 201 202 201 200 200 201 201 201 201 201 200 201 201 201 201 201 201 201 201 201 201 201 201 201 201 201 201 201 202 201 201 201 201 201 201 201 201 201 200 199 200 201 201 201 200 200 201 201 202 202 201 202 202 202 203 203 203 203 202 202 202 203 205 206 207 208 212 215 218 219 217 217 217 218 221 222 222 221 221 221 222 223 224 225 225 225 224 224 223 224 224 223 218 218 220 223 225 226 225 225 222 219 217 219 215 211 209 212 215 219 220 221 221 222 222 216 210 209 218 225 229 223 213 206 201 204 204 202 204 213 220 225 226 224 222 220 218 215 213 211 215 218 221 221 222 222 223 222 223 225 228 230 232 231 231 230 228 226 227 226 226 230 230 227 226 231 231 227 219 223 224 223 223 214 204 197 200 202 202 199 201 203 204 204 205 205 205 206 206 206 205 206 206 208 209 210 211 211 211 210 209 209 209 209 209 210 211 210 209 210 210 211 210 210 211 211 211 211 211 211 212 212 212 212 212 212 211 211 212 212 213 213 214 214 213 212 212 212 213 213 213 212 212 212 213 212 240 253 253
246 250 248 239 250 253 252 251 252 251 250 254 254 254 254 255 254 254 254 254 254 254 254 254 254 254 254 254 254 254 254 254 254 254 254 254 254 254 254 254 254 254 254 254 254 254 254 254 254 254 254 254 253 254 254 254 254 253 254 254 254 254 254 254 254 254 253 253 252 253 253 253 252 253 254 254 253 250 250 250 252 254 254 255 254 254 254 254 253 253 253 253 253 253 253 253 253 253 252 251 252 252 253 253 254 254 253 252 251 249 254 253 252 251 252 253 255 255 254 253 252 252 252 251 254 255 254 253 250 249 251 253 253 252 251 251 254 255 254 252 252 254 254 254 254 252 250 252 253 255 255 254 254 254 251 250 252 253 254 254 254 254 253 253 252 252 252 252 254 254 252 250 254 255 253 248 249 250 250 252 251 249 248 252 254 253 249 251 253 254 253 253 253 254 254 254 254 254 251 251 253 253 253 253 254 254 253 253 253 253 254 254 254 254 254 254 254 255 254 253 254 253 253 252 253 253 254 254 253 253 255 255 254 253 253 253 254 255 255 255 255 255 254 254 255 255 255 255 255 255 255 255 255 255 254 254
251 254 252 246 250 250 248 246 251 254 253 255 254 254 254 254 254 254 254 253 253 252 253 253 253 253 253 253 253 252 252 253 253 252 251 252 252 252 252 251 252 251 251 253 252 253 253 253 253 253 253 253 253 253 254 252 251 252 253 253 253 253 253 253 253 253 255 255 255 255 255 255 254 255 254 253 251 249 248 249 250 252 253 254 253 252 252 251 251 252 251 251 251 251 251 251 252 251 250 254 255 255 255 254 255 255 254 255 255 255 255 255 255 254 254 254 255 254 251 250 249 251 251 252 255 255 253 251 248 250 253 255 255 255 255 254 255 254 251 247 248 251 253 255 255 254 253 253 253 254 254 253 253 253 253 254 255 255 255 255 255 255 253 254 255 254 253 253 255 255 254 252 254 255 254 253 255 255 255 255 255 254 251 253 253 250 242 248 251 252 251 250 251 252 252 252 252 253 253 254 255 255 254 254 255 255 255 255 254 255 255 255 254 254 255 255 255 255 254 254 255 255 255 255 255 255 255 255 254 255 255 255 254 255 255 255 255 255 255 255 255 255 254 254 254 255 255 255 255 255 255 255 255 255 255 255
