P2
256 256
255
253 253 253 253 253 252 240 237 237 237 237 238 249 253 253 253 253 253 242 237 237 237 237 237 247 253 253 253 253 253 245 237 237 237 237 237 244 253 253 253 253 253 248 237 237 237 237 237 242 253 253 253 253 253 250 238 237 237 237 237 240 252 253 253 253 253 252 240 237 237 237 237 238 250 253 253 253 253 253 242 237 237 237 237 237 248 253 253 253 253 253 244 237 237 237 237 237 245 253 253 253 253 253 247 237 237 237 237 236 242 253 253 253 253 253 249 238 237 237 237 237 240 251 253 253 253 253 250 239 237 237 237 237 238 250 253 253 253 253 252 241 237 237 237 237 237 248 253 253 253 253 253 243 237 237 237 237 237 246 253 253 253 253 253 246 237 237 237 237 237 243 253 253 253 253 253 249 238 237 237 237 237 241 252 253 253 253 253 251 239 237 237 237 237 239 251 253 253 253 253 252 241 237 237 237 237 238 249 253 253 253 253 253 243 237 237 237 237 237 246 253 253 253 253 253 246 238 237 237 237 237 243 253 253 253 253 253 248 237 237 237 237 237 241 252 253 253 253 253 250 238 237 237 237 237 237
253 253 253 253 253 252 240 237 237 237 237 238 249 253 253 253 253 253 242 237 237 237 237 237 247 253 253 253 253 253 245 237 237 237 237 237 244 253 253 253 253 253 248 237 237 237 237 237 242 253 253 253 253 253 250 238 237 237 237 237 240 252 253 253 253 253 252 240 237 237 237 237 238 250 253 253 253 253 253 242 237 237 237 237 237 248 253 253 253 253 253 244 237 237 237 237 237 245 253 253 253 253 253 247 237 237 237 237 236 242 253 253 253 253 253 249 238 237 237 237 237 240 251 253 253 253 253 250 239 237 237 237 237 238 250 253 253 253 253 252 241 237 237 237 237 237 248 253 253 253 253 253 243 237 237 237 237 237 246 253 253 253 253 253 246 237 237 237 237 237 243 253 253 253 253 253 249 238 237 237 237 237 241 252 253 253 253 253 251 239 237 237 237 237 239 251 253 253 253 253 252 241 237 237 237 237 238 249 253 253 253 253 253 243 237 237 237 237 237 246 253 253 253 253 253 246 238 237 237 237 237 243 253 253 253 253 253 248 237 237 237 237 237 241 252 253 253 253 253 250 238 237 237 237 237 237
253 253 253 253 253 252 240 237 237 237 237 238 249 253 253 253 253 253 242 237 237 237 237 237 247 253 253 253 253 253 245 237 237 237 237 237 244 253 253 253 253 253 248 237 237 237 237 237 242 253 253 253 253 253 250 238 237 237 237 237 240 252 253 253 253 253 252 240 237 237 237 237 238 250 253 253 253 253 253 242 237 237 237 237 237 248 253 253 253 253 253 244 237 237 237 237 237 245 253 253 253 253 253 247 237 237 237 237 236 242 253 253 253 253 253 249 238 237 237 237 237 240 251 253 253 253 253 250 239 237 237 237 237 238 250 253 253 253 253 252 241 237 237 237 237 237 248 253 253 253 253 253 243 237 237 237 237 237 246 253 253 253 253 253 246 237 237 237 237 237 243 253 253 253 253 253 249 238 237 237 237 237 241 252 253 253 253 253 251 239 237 237 237 237 239 251 253 253 253 253 252 241 237 237 237 237 238 249 253 253 253 253 253 243 237 237 237 237 237 246 253 253 253 253 253 246 238 237 237 237 237 243 253 253 253 253 253 248 237 237 237 237 237 241 252 253 253 253 253 250 238 237 237 237 237 237
253 253 253 253 253 252 240 237 237 237 237 238 249 253 253 253 253 253 242 237 237 237 237 237 247 253 253 253 253 253 245 237 237 237 237 237 244 253 253 253 253 253 248 237 237 237 237 237 242 253 253 253 253 253 250 238 237 237 237 237 240 252 253 253 253 253 252 240 237 237 237 237 238 250 253 253 253 253 253 242 237 237 237 237 237 248 253 253 253 253 253 244 237 237 237 237 237 245 253 253 253 253 253 247 237 237 237 237 236 242 253 253 253 253 253 249 238 237 237 237 237 240 251 253 253 253 253 250 239 237 237 237 237 238 250 253 253 253 253 252 241 237 237 237 237 237 248 253 253 253 253 253 243 237 237 237 237 237 246 253 253 253 253 253 246 237 237 237 237 237 243 253 253 253 253 253 249 238 237 237 237 237 241 252 253 253 253 253 251 239 237 237 237 237 239 251 253 253 253 253 252 241 237 237 237 237 238 249 253 253 253 253 253 243 237 237 237 237 237 246 253 253 253 253 253 246 238 237 237 237 237 243 253 253 253 253 253 248 237 237 237 237 237 241 252 253 253 253 253 250 238 237 237 237 237 237
253 253 253 253 253 252 240 237 237 237 237 238 249 253 253 253 253 253 242 237 237 237 237 237 247 253 253 253 253 253 245 237 237 237 237 237 244 253 253 253 253 253 248 237 237 237 237 237 242 253 253 253 253 253 250 238 237 237 237 237 240 252 253 253 253 253 252 240 237 237 237 237 238 250 253 253 253 253 253 242 237 237 237 237 237 248 253 253 253 253 253 244 237 237 237 237 237 245 253 253 253 253 253 247 237 237 237 237 236 242 253 253 253 253 253 249 238 237 237 237 237 240 251 253 253 253 253 250 239 237 237 237 237 238 250 253 253 253 253 252 241 237 237 237 237 237 248 253 253 253 253 253 243 237 237 237 237 237 246 253 253 253 253 253 246 237 237 237 237 237 243 253 253 253 253 253 249 238 237 237 237 237 241 252 253 253 253 253 251 239 237 237 237 237 239 251 253 253 253 253 252 241 237 237 237 237 238 249 253 253 253 253 253 243 237 237 237 237 237 246 253 253 253 253 253 246 238 237 237 237 237 243 253 253 253 253 253 248 237 237 237 237 237 241 252 253 253 253 253 250 238 237 237 237 237 237
250 250 250 250 250 249 242 241 241 241 241 241 247 250 250 250 250 250 244 241 241 241 241 241 246 250 250 250 250 250 245 241 241 241 241 241 245 250 250 250 250 250 247 241 241 241 241 241 244 250 250 250 250 250 248 241 241 241 241 241 242 249 250 250 250 250 249 242 241 241 241 241 241 248 250 250 250 250 250 244 241 241 241 241 241 247 250 250 250 250 250 245 241 241 241 241 241 245 250 250 250 250 250 246 241 241 241 241 240 244 250 250 250 250 250 247 241 241 241 241 241 243 249 250 250 250 250 248 242 241 241 241 241 242 248 250 250 250 250 249 243 241 241 241 241 241 247 250 250 250 250 250 244 241 241 241 241 241 246 250 250 250 250 250 246 241 241 241 241 241 244 250 250 250 250 250 247 241 241 241 241 241 243 249 250 250 250 250 249 242 241 241 241 241 242 249 250 250 250 250 249 243 241 241 241 241 241 247 250 250 250 250 250 244 241 241 241 241 241 246 250 250 250 250 250 246 241 241 241 241 241 244 250 250 250 250 250 247 241 241 241 241 241 243 249 250 250 250 250 248 241 241 241 241 241 241
238 238 238 238 238 239 249 252 252 252 252 251 242 238 238 238 238 238 248 252 252 252 252 252 243 238 238 238 238 238 246 252 252 252 252 252 246 238 238 238 238 238 243 252 252 252 252 252 249 239 238 238 238 238 241 251 252 252 252 252 250 240 238 238 238 238 240 250 252 252 252 252 251 241 238 238 238 238 239 249 252 252 252 252 252 243 238 238 238 238 238 245 252 252 252 252 252 246 238 238 238 238 238 243 252 252 252 252 252 248 238 238 238 238 239 242 251 252 252 252 252 249 240 238 238 238 238 240 250 252 252 252 252 250 241 239 238 238 238 239 249 252 252 252 252 252 242 238 238 238 238 238 247 252 252 252 252 252 245 238 238 238 238 238 244 252 252 252 252 252 248 238 238 238 238 238 242 252 252 252 252 252 250 239 238 238 238 238 241 251 252 252 252 252 251 241 238 238 238 238 239 250 252 252 252 252 252 242 238 238 238 238 238 248 252 253 252 252 252 244 238 238 238 238 238 245 251 252 252 252 252 247 238 238 238 238 238 242 252 252 252 251 252 249 239 238 238 238 238 241 251 252 252 252 252 252
237 237 237 237 237 238 250 253 253 253 253 252 241 237 237 237 237 237 248 253 253 253 253 253 243 237 237 237 237 237 246 253 253 253 253 253 246 237 237 237 237 237 243 253 253 253 253 253 249 238 237 237 237 237 241 252 253 253 253 253 251 239 237 237 237 237 239 251 253 253 253 253 253 241 237 237 237 237 238 249 253 253 253 253 253 243 237 237 237 237 237 246 253 254 253 253 253 246 237 237 237 237 237 243 253 253 253 253 253 248 237 237 237 237 238 242 252 253 253 253 253 250 238 237 237 237 237 239 251 253 253 253 253 251 240 238 237 237 237 238 249 253 253 253 253 253 242 237 237 237 237 237 247 253 253 253 253 253 245 237 237 237 237 237 244 253 253 253 253 253 248 237 237 237 237 237 242 253 253 253 253 253 250 238 237 237 237 237 240 252 253 253 253 253 252 240 237 237 237 237 238 250 253 253 253 253 253 242 237 237 237 237 237 248 253 254 253 253 253 244 237 237 237 237 237 245 252 253 253 253 253 247 237 237 237 238 237 241 253 253 253 253 253 249 238 237 237 237 237 240 252 253 253 253 253 253
237 237 237 237 237 238 250 253 253 253 253 252 241 237 237 237 237 237 248 253 253 253 253 253 243 237 237 237 237 237 246 253 253 253 253 253 246 237 237 237 237 237 243 253 253 253 253 253 249 238 237 237 237 237 241 252 253 253 253 253 251 239 237 237 237 237 239 251 253 253 253 253 253 241 237 237 237 237 238 249 253 253 253 253 253 243 237 237 237 237 237 246 253 254 253 253 253 246 237 237 237 237 237 243 253 253 253 253 253 248 237 237 237 237 238 242 252 253 253 253 253 250 238 237 237 237 237 239 251 253 253 253 253 251 240 238 237 237 237 238 249 253 253 253 253 253 242 237 237 237 237 237 247 253 253 253 253 253 245 237 237 237 237 237 244 253 253 253 253 253 248 237 237 237 237 237 242 253 253 253 253 253 250 238 237 237 237 237 240 252 253 253 253 253 252 240 237 237 237 237 238 250 253 253 253 253 253 242 237 237 237 237 237 248 253 254 253 253 253 244 237 237 237 237 237 245 252 253 253 253 253 247 237 237 237 238 237 241 253 253 253 253 253 249 238 237 237 237 237 240 252 253 253 253 253 253
237 237 237 237 237 238 250 253 253 253 253 252 241 237 237 237 237 237 248 253 253 253 253 253 243 237 237 237 237 237 246 253 253 253 253 253 246 237 237 237 237 237 243 253 253 253 253 253 249 238 237 237 237 237 241 252 253 253 253 253 251 239 237 237 237 237 239 251 253 253 253 253 253 241 237 237 237 237 238 249 253 253 253 253 253 243 237 237 237 237 237 246 253 254 253 253 253 246 237 237 237 237 237 243 253 253 253 253 253 248 237 237 237 237 238 242 252 253 253 253 253 250 238 237 237 237 237 239 251 253 253 253 253 251 240 238 237 237 237 238 249 253 253 253 253 253 242 237 237 237 237 237 247 253 253 253 253 253 245 237 237 237 237 237 244 253 253 253 253 253 248 237 237 237 237 237 242 253 253 253 253 253 250 238 237 237 237 237 240 252 253 253 253 253 252 240 237 237 237 237 238 250 253 253 253 253 253 242 237 237 237 237 237 248 253 254 253 253 253 244 237 237 237 237 237 245 252 253 253 253 253 247 237 237 237 238 237 241 253 253 253 253 253 249 238 237 237 237 237 240 252 253 253 253 253 253
237 237 237 237 237 238 250 253 253 253 253 252 241 237 237 237 237 237 248 253 253 253 253 253 243 237 237 237 237 237 246 253 253 253 253 253 246 237 237 237 237 237 243 253 253 253 253 253 249 238 237 237 237 237 241 252 253 253 253 253 251 239 237 237 237 237 239 251 253 253 253 253 253 241 237 237 237 237 238 249 253 253 253 253 253 243 237 237 237 237 237 246 253 254 253 253 253 246 237 237 237 237 237 243 253 253 253 253 253 248 237 237 237 237 238 242 252 253 253 253 253 250 238 237 237 237 237 239 251 253 253 253 253 251 240 238 237 237 237 238 249 253 253 253 253 253 242 237 237 237 237 237 247 253 253 253 253 253 245 237 237 237 237 237 244 253 253 253 253 253 248 237 237 237 237 237 242 253 253 253 253 253 250 238 237 237 237 237 240 252 253 253 253 253 252 240 237 237 237 237 238 250 253 253 253 253 253 242 237 237 237 237 237 248 253 254 253 253 253 244 237 237 237 237 237 245 252 253 253 253 253 247 237 237 237 238 237 241 253 253 253 253 253 249 238 237 237 237 237 240 252 253 253 253 253 253
242 242 242 242 242 243 249 248 248 249 248 246 243 244 243 243 243 244 246 249 247 248 248 249 245 242 244 241 243 243 246 248 249 248 249 247 245 244 243 243 244 242 244 249 248 248 248 248 248 245 242 242 243 244 243 247 249 248 248 248 247 243 243 244 244 241 244 247 248 248 247 249 247 243 244 243 243 243 244 246 247 248 247 248 248 244 243 243 243 244 244 246 247 247 249 249 248 245 243 244 242 243 243 245 249 248 246 248 250 247 242 243 243 241 239 241 243 240 237 234 232 230 223 217 213 212 210 212 215 217 218 219 221 224 223 224 228 234 237 238 242 245 246 248 250 249 246 244 243 241 243 243 246 248 248 247 247 247 247 245 243 242 242 242 244 248 248 248 248 248 247 243 244 244 243 242 244 248 249 249 247 247 247 244 244 243 243 243 245 247 247 248 248 248 247 244 243 242 243 243 243 247 247 247 248 248 249 244 243 243 243 242 243 248 249 248 248 247 247 245 243 243 243 242 243 245 248 248 249 249 248 246 244 244 244 243 242 244 248 247 248 248 248 245 243 245 244 243 242 244 248 248 248 248 248 248
252 252 252 252 252 251 245 236 237 238 235 237 248 255 254 250 253 253 243 237 237 236 236 237 247 252 253 250 255 252 244 236 238 237 237 237 245 253 252 255 255 252 247 237 236 238 239 237 243 254 252 253 254 253 249 238 238 240 237 235 241 252 252 252 255 250 251 240 237 236 235 238 240 247 255 253 253 254 253 238 238 240 237 234 239 247 251 254 253 254 254 246 239 236 239 238 240 243 249 255 252 250 251 248 239 240 230 237 237 228 226 219 204 191 175 154 138 129 122 114 112 117 119 108 103 104 104 103 100 104 107 109 107 106 116 124 132 143 151 156 164 176 188 200 214 224 239 250 254 251 252 255 243 235 238 236 237 237 248 255 253 253 253 251 241 235 238 240 241 239 244 253 253 254 253 250 246 238 239 238 234 234 239 252 254 253 252 253 253 241 237 237 236 236 240 252 252 250 251 253 254 244 238 237 238 237 236 245 252 254 251 253 255 246 237 234 236 237 238 246 253 253 254 254 252 245 237 236 236 241 237 241 255 255 254 255 254 248 236 239 236 236 237 240 249 255 255 254 253 250 238 237 237 237 237 237
254 254 254 254 254 253 237 237 240 236 237 239 251 251 252 254 254 251 243 237 237 238 237 237 247 253 251 255 254 253 246 237 235 238 235 238 245 250 253 253 251 252 249 239 236 236 237 236 241 255 252 252 253 255 251 237 235 237 235 236 241 252 254 254 253 254 252 240 235 238 239 235 240 248 252 254 252 254 252 243 239 238 238 237 236 248 251 252 252 253 250 242 240 238 237 233 238 246 252 253 255 255 248 232 215 198 175 156 133 118 109 98 89 85 89 99 102 107 104 100 94 94 98 101 107 112 107 101 99 94 93 94 90 87 94 96 98 95 96 98 100 102 105 108 116 127 144 167 190 217 232 241 239 239 239 237 237 237 244 251 252 253 255 255 247 238 238 236 235 236 245 254 252 252 254 253 248 238 236 236 238 238 241 250 251 252 254 253 250 240 239 238 238 237 237 251 254 254 254 255 252 240 235 236 238 238 237 250 255 255 252 253 252 239 236 237 237 240 240 248 252 253 254 253 252 248 235 235 236 238 238 244 251 251 252 255 253 247 237 240 237 235 238 245 250 252 252 253 253 249 238 237 237 237 237 237
253 253 253 253 253 252 240 236 238 237 235 240 247 253 251 255 251 255 241 238 236 237 237 235 248 255 252 254 251 253 246 236 237 238 237 237 244 253 253 254 253 253 248 237 237 237 238 237 242 253 253 254 252 253 249 238 237 237 239 237 240 253 252 254 254 252 253 240 236 238 237 237 239 250 253 252 252 253 254 243 236 237 238 236 237 249 254 252 252 253 254 244 236 236 238 238 237 246 247 231 210 181 150 122 103 92 85 83 82 87 89 99 114 121 129 155 169 174 173 170 157 129 105 98 97 98 97 99 102 97 95 94 96 97 96 96 96 94 95 96 97 97 99 106 107 100 101 109 118 144 168 187 195 203 211 222 229 235 244 252 253 252 252 253 248 239 237 236 236 237 244 252 253 253 254 253 248 239 238 237 237 238 242 251 252 252 253 253 251 239 236 236 236 238 240 250 253 253 253 254 252 241 238 237 237 237 237 248 252 252 254 255 252 242 238 237 236 237 235 248 253 252 252 255 253 246 238 237 236 236 236 243 253 254 255 252 253 248 238 237 238 238 238 242 251 254 253 254 252 250 238 237 237 237 237 237
253 253 253 253 253 252 235 240 236 240 235 239 251 252 255 251 252 252 243 236 236 235 235 238 249 253 254 250 252 253 245 236 240 235 238 239 241 255 254 249 254 253 247 239 237 236 238 238 240 250 255 254 253 251 251 239 238 237 236 236 240 254 252 252 254 252 251 241 238 236 236 239 238 248 254 252 254 255 254 242 235 239 238 237 236 247 254 255 252 253 252 243 238 236 228 217 190 161 136 113 89 84 86 92 94 95 96 100 106 124 128 134 144 156 171 178 180 185 185 188 188 177 164 148 125 104 99 96 97 97 99 100 99 98 98 99 100 99 99 100 101 104 111 131 152 160 165 168 167 168 174 176 176 171 169 175 184 197 213 230 246 254 255 254 246 236 236 236 237 239 245 253 252 252 252 252 248 237 235 235 236 237 242 253 254 254 253 252 250 240 238 237 236 236 239 252 254 254 254 252 249 239 238 241 238 237 239 248 253 255 255 251 252 243 236 236 236 237 236 243 252 253 251 253 255 247 240 242 245 235 234 243 255 255 252 252 253 249 235 237 237 238 237 239 252 255 252 251 254 248 238 237 237 237 237 237
253 253 253 253 253 252 242 236 236 236 239 236 248 253 253 253 252 254 242 237 238 237 239 238 245 253 255 252 253 255 246 238 236 237 239 236 243 255 253 253 254 252 248 237 235 238 237 235 244 255 253 250 255 253 250 238 238 238 235 239 241 250 253 254 251 251 254 240 238 238 236 235 239 250 253 254 252 252 253 243 234 234 237 237 237 249 253 252 254 255 254 238 212 175 133 101 86 85 90 90 86 92 114 132 131 129 123 128 125 130 122 110 121 145 165 180 184 185 184 184 183 187 190 185 172 150 122 105 101 99 101 102 100 101 102 101 101 106 103 100 100 102 103 111 131 153 168 176 183 184 186 184 179 168 152 141 145 155 173 184 194 203 216 231 238 237 238 236 235 236 243 254 255 254 253 254 252 239 237 238 239 237 240 251 252 253 254 253 250 236 237 238 239 239 238 249 253 254 254 251 250 240 237 236 235 234 238 250 251 249 255 255 254 244 237 239 239 235 234 247 255 253 251 251 252 246 234 233 235 237 237 242 252 252 252 254 254 245 237 238 237 237 238 239 254 253 254 252 251 251 239 238 238 238 238 238
244 244 244 244 244 245 246 245 246 246 247 245 245 247 244 244 248 244 247 244 247 248 244 247 246 245 244 244 246 244 245 246 247 245 246 245 245 245 244 244 247 244 245 245 247 245 246 249 246 242 246 244 245 244 247 244 244 248 247 246 245 245 244 245 245 246 244 245 247 244 246 247 247 245 243 245 246 246 245 244 248 248 246 246 245 245 247 245 239 227 203 164 115 87 82 95 113 129 135 120 102 104 108 112 120 136 145 138 117 100 94 92 95 97 130 183 187 183 184 184 182 183 185 182 182 169 147 123 107 103 103 103 105 107 109 107 106 106 106 106 106 106 104 104 108 117 129 145 166 181 182 185 184 178 169 167 168 165 167 172 178 180 186 191 197 206 222 238 248 245 243 244 245 244 246 244 244 244 244 245 246 247 247 246 244 244 246 248 247 246 246 247 245 245 247 246 244 243 244 246 249 247 245 245 246 246 244 246 248 245 241 245 245 244 247 249 246 245 247 244 244 247 246 246 244 243 248 250 247 244 245 245 246 244 243 245 245 246 244 245 244 245 246 244 247 244 245 247 246 247 246 246 246 246 246 246
238 238 238 238 238 239 252 252 251 253 253 251 241 238 237 235 237 239 245 255 253 255 255 253 242 237 240 235 239 236 246 252 253 255 252 254 248 235 238 238 236 239 243 251 253 253 253 253 248 238 238 239 236 236 241 252 252 255 252 254 252 236 239 237 235 237 240 251 252 254 253 250 252 241 237 238 235 237 240 248 253 253 251 253 252 238 220 206 184 153 110 85 81 96 128 165 173 146 130 132 127 137 148 146 145 144 146 109 94 92 93 94 98 99 126 173 181 186 187 186 182 182 183 184 186 183 174 157 140 118 106 107 108 108 108 107 108 109 110 110 110 111 111 110 109 108 109 112 123 145 163 178 185 180 164 155 158 164 171 184 186 185 181 180 182 183 188 197 210 226 236 240 240 236 235 237 245 253 253 252 250 251 250 241 239 236 234 237 242 251 252 251 253 254 252 241 237 237 236 237 240 252 253 251 251 254 254 240 235 239 238 237 239 247 249 250 253 252 254 246 239 235 236 235 236 248 252 249 252 255 255 247 232 232 236 237 238 239 251 254 255 254 252 249 239 238 237 237 237 240 252 253 253 253 253 253
237 237 237 237 237 237 252 254 252 253 253 251 241 236 237 237 234 240 247 254 253 250 253 254 245 236 236 238 236 237 245 254 255 250 255 253 242 241 238 234 240 238 242 252 254 254 253 254 250 237 235 237 237 237 241 253 254 253 254 251 252 240 234 235 239 237 238 251 254 251 253 255 252 241 239 238 237 235 239 249 251 252 252 238 219 198 185 171 153 121 93 91 104 145 175 170 140 116 123 136 125 143 161 170 179 164 154 114 94 92 97 102 99 103 125 156 176 188 184 183 181 183 185 186 181 183 181 168 164 137 111 110 111 111 112 110 110 112 113 112 113 112 112 112 112 111 111 111 111 115 125 144 169 182 181 176 162 152 147 167 181 187 186 183 181 182 183 182 183 188 195 203 222 236 240 238 240 252 253 255 255 253 248 235 237 238 237 236 240 252 253 253 253 254 253 240 235 235 237 236 237 251 254 254 254 253 253 240 234 235 236 234 240 253 254 254 252 252 254 242 235 239 237 239 240 244 254 253 251 252 252 246 238 240 239 237 237 242 253 253 254 253 253 250 237 238 238 236 237 240 252 253 253 253 253 253
236 236 236 236 236 237 251 251 254 252 251 253 240 236 237 238 238 234 248 252 254 253 254 251 241 239 236 239 235 238 248 251 252 254 254 251 247 239 233 241 238 234 244 254 253 253 254 252 249 240 239 235 236 237 242 250 251 255 254 252 250 240 238 236 237 238 239 250 253 251 253 254 251 241 238 235 237 239 237 248 244 226 205 187 185 182 182 184 178 139 129 159 167 174 170 127 106 120 129 117 140 178 177 176 188 185 170 142 109 99 99 96 99 106 125 141 165 186 185 185 184 184 184 184 184 186 183 181 170 130 110 109 112 112 113 114 114 113 111 112 115 115 116 115 114 115 113 116 118 113 114 116 129 158 177 185 184 176 153 140 149 164 177 183 183 185 182 182 184 185 186 184 187 198 213 227 239 253 252 252 251 252 251 238 237 237 237 239 242 252 252 252 253 253 251 239 237 236 235 236 240 251 253 254 252 252 253 241 237 237 238 237 234 249 253 253 255 252 251 246 238 236 236 237 236 244 254 253 253 253 251 246 239 240 237 235 236 246 255 251 253 255 255 247 237 238 239 238 236 241 252 253 253 253 253 253
237 237 237 237 237 238 249 253 254 254 251 254 241 238 238 234 239 234 251 251 255 252 251 253 243 239 236 235 240 234 246 253 254 253 251 255 247 232 238 239 235 238 243 253 252 253 253 253 250 237 236 236 239 237 240 253 254 253 252 252 251 241 239 236 237 237 237 251 253 252 251 254 254 239 236 239 238 234 222 212 194 185 182 182 186 183 183 174 145 129 149 142 152 138 135 133 144 127 103 113 138 137 139 150 178 184 182 152 116 104 98 97 105 105 119 139 161 182 184 184 184 183 180 181 187 188 162 134 124 114 112 113 115 115 112 115 128 136 128 121 116 118 118 117 117 119 118 119 121 117 117 117 118 128 150 178 186 186 181 166 150 138 137 152 174 180 167 145 158 180 185 187 185 182 183 192 209 234 249 254 255 252 247 237 240 240 237 235 239 253 254 252 252 252 251 239 238 239 237 236 238 250 253 253 253 253 254 243 237 238 238 236 236 249 255 249 253 254 253 245 237 236 238 238 237 247 253 253 255 253 253 247 240 237 234 238 238 243 252 255 253 252 253 250 236 237 236 238 237 240 252 252 252 252 252 252
237 237 237 237 237 238 251 252 253 253 253 253 240 237 237 239 237 236 247 254 253 252 254 252 244 236 238 238 236 238 246 253 253 252 252 254 245 238 239 235 235 239 242 254 253 252 252 253 249 241 238 237 236 238 242 250 253 250 253 255 251 237 238 238 236 236 239 251 253 254 253 254 249 241 238 232 219 200 188 183 182 183 172 165 174 182 185 158 117 129 151 113 116 123 148 164 162 134 135 152 130 105 118 133 178 184 179 137 107 99 102 106 104 100 117 151 170 182 183 184 184 185 187 185 183 180 147 116 113 117 118 117 116 138 142 151 168 181 174 159 128 118 119 121 123 122 122 117 119 122 121 121 121 121 134 168 181 183 185 188 180 169 154 143 143 143 136 118 145 179 183 184 185 185 184 183 184 192 207 229 246 252 250 238 236 235 236 237 241 251 253 253 255 255 251 239 236 238 240 238 237 249 254 253 251 252 254 243 234 236 240 239 238 245 255 255 251 253 252 243 237 237 237 238 236 243 253 253 253 253 252 247 237 239 238 237 238 243 254 253 253 253 253 249 237 238 236 237 236 241 252 253 253 253 253 253
248 248 248 248 248 248 243 241 243 241 244 241 247 249 248 248 248 250 242 243 242 243 241 243 246 246 248 247 248 250 244 243 242 241 243 239 246 252 245 248 251 245 246 243 241 242 243 243 244 248 248 246 248 248 247 243 243 246 242 240 242 248 249 247 247 250 248 241 244 242 242 242 242 241 221 196 186 184 181 182 176 158 134 148 176 187 184 175 171 180 182 169 168 168 178 175 164 169 154 119 102 128 134 134 172 187 180 172 146 113 105 107 105 106 128 170 178 185 184 183 184 184 186 182 169 158 129 120 117 115 119 119 117 131 144 162 183 186 186 172 134 122 122 122 121 120 123 125 121 123 124 120 121 121 124 142 165 178 184 184 184 185 182 179 173 161 141 120 129 160 176 179 182 182 184 186 185 183 182 188 199 218 236 249 250 247 247 248 248 245 243 241 241 242 244 250 248 246 247 246 248 245 242 242 243 241 242 247 251 249 245 247 249 245 240 246 246 239 241 245 248 249 248 248 249 244 239 243 241 245 243 245 248 248 250 248 247 246 244 241 241 242 240 244 248 247 248 247 247 248 243 243 243 243 243 243
254 254 254 254 254 253 240 238 236 235 239 237 249 253 253 253 253 253 242 237 238 236 238 237 246 255 253 254 252 252 245 236 236 239 238 237 244 250 254 254 253 255 249 233 237 239 238 236 243 251 251 255 254 253 248 240 237 235 238 238 242 252 251 253 255 253 253 241 235 236 238 229 213 197 186 184 182 184 185 180 167 169 173 183 186 183 181 184 185 184 185 181 183 183 177 163 152 136 108 96 96 115 138 149 164 169 165 188 167 129 112 107 108 114 131 171 180 185 185 185 186 184 180 160 133 124 117 116 118 119 118 118 123 122 124 135 154 158 164 151 129 125 124 123 123 123 123 124 125 125 124 125 124 123 124 124 132 144 163 177 186 185 182 179 183 185 172 143 125 126 133 141 167 181 184 182 182 184 185 182 182 187 196 218 240 253 255 254 251 237 236 238 238 237 240 249 252 253 253 253 251 241 237 238 238 236 238 249 252 253 253 253 254 246 237 232 234 239 238 246 253 253 253 252 254 249 238 236 236 237 239 243 251 252 252 252 252 247 237 235 238 238 237 242 254 251 254 252 254 249 238 237 237 237 237 237
253 253 253 253 253 252 239 238 235 238 235 240 249 253 252 254 255 250 242 235 238 239 236 236 246 255 252 253 254 254 246 236 238 238 234 239 246 251 254 253 251 255 248 237 238 236 235 237 242 253 255 254 250 253 252 238 236 234 237 238 240 252 254 254 253 252 252 241 235 231 205 187 184 183 183 183 185 185 184 184 182 185 185 185 184 183 184 183 184 185 184 182 161 160 156 119 103 98 106 110 115 145 179 181 171 154 129 153 135 117 107 106 109 110 118 156 176 184 183 182 183 184 180 151 121 116 117 118 122 125 122 121 123 123 120 121 127 126 131 128 124 125 127 127 126 127 127 125 124 125 125 125 125 127 133 128 125 125 130 143 163 176 182 170 160 171 181 178 161 142 132 126 147 173 184 185 182 182 183 185 185 183 182 188 201 221 241 252 251 238 235 236 238 237 238 250 255 255 255 255 253 241 237 237 237 237 238 248 253 254 254 253 252 240 238 237 236 237 238 244 254 253 254 253 250 244 238 237 239 237 237 243 253 252 252 253 254 251 238 237 237 237 237 239 252 254 254 252 254 250 238 237 237 237 237 237
254 254 254 254 254 253 241 236 239 236 237 239 249 251 253 251 254 252 243 238 237 238 236 239 247 253 253 254 254 252 244 237 236 237 239 237 244 253 253 253 254 252 248 238 236 237 237 237 242 252 251 253 255 251 249 239 238 237 239 236 237 252 255 253 250 255 255 229 203 182 178 183 184 185 183 185 183 184 183 184 188 184 182 184 182 184 187 185 182 185 179 172 158 165 171 119 95 107 149 159 159 179 188 184 181 165 123 117 108 108 109 111 114 114 115 133 164 181 184 185 185 185 181 149 123 121 119 120 121 122 124 125 125 126 125 125 128 126 128 128 127 127 128 129 128 128 129 129 131 130 128 129 130 130 129 130 132 128 123 125 135 151 166 159 134 135 154 171 175 171 159 140 128 142 164 181 187 183 181 182 184 185 185 183 181 186 198 219 240 242 240 235 234 237 241 254 253 251 252 253 252 241 236 236 238 237 236 250 255 253 255 255 252 239 236 239 238 237 236 248 251 250 252 254 255 247 235 237 237 236 238 242 252 251 253 253 251 247 237 238 237 238 238 243 251 254 252 254 252 250 238 237 237 237 237 237
253 253 253 253 253 252 240 239 234 241 236 238 249 254 254 252 254 255 242 238 237 236 237 236 248 253 254 251 253 253 243 238 239 235 237 238 241 254 254 252 254 253 247 238 237 237 238 238 241 252 253 255 253 253 250 238 237 237 234 239 242 250 251 254 254 243 201 150 162 181 184 186 182 183 185 181 173 176 175 182 181 184 185 185 183 185 186 179 163 141 126 136 156 154 158 124 104 107 121 112 124 172 185 178 180 174 131 111 111 112 110 111 114 110 114 122 154 182 186 186 183 181 173 137 121 121 123 126 121 122 126 127 128 129 128 129 126 128 129 129 130 131 130 129 129 130 132 132 129 130 132 132 130 130 131 135 137 132 133 130 125 129 137 142 131 126 136 147 152 163 174 168 134 122 130 145 165 179 185 183 182 183 182 184 185 184 182 186 198 215 235 240 237 236 239 252 254 252 251 253 252 241 235 236 239 239 239 248 253 253 253 252 252 244 236 236 237 237 238 247 253 253 253 254 252 247 239 237 236 238 239 244 253 253 253 254 253 245 234 236 237 237 236 240 255 253 251 252 253 250 238 237 237 237 237 237
251 251 251 251 251 251 240 238 240 237 239 240 250 254 250 254 250 253 241 240 238 237 238 236 249 250 252 251 253 251 244 241 238 237 238 238 244 252 254 250 252 252 248 238 239 237 237 238 243 251 253 253 252 251 249 240 239 237 237 238 241 249 254 250 212 143 108 150 188 184 182 184 185 178 165 139 148 170 175 180 181 186 185 184 186 183 170 145 114 95 97 113 128 109 109 103 111 109 103 102 114 156 177 163 141 145 118 112 112 109 113 115 115 112 115 120 131 166 181 183 184 184 176 135 122 121 125 127 127 127 127 126 128 131 131 130 128 129 129 130 131 132 133 132 131 131 133 133 134 133 134 133 131 134 140 149 162 140 141 136 133 133 132 132 130 130 136 153 163 153 158 172 145 127 123 125 142 168 184 183 182 183 185 184 182 183 181 184 184 187 199 223 237 237 240 250 252 253 251 250 248 242 240 238 236 238 241 249 251 252 252 252 252 245 242 237 238 241 236 245 254 252 250 251 253 245 238 239 239 237 236 244 255 255 254 250 253 250 239 238 238 238 238 237 249 250 253 253 254 249 239 238 238 238 238 238
240 240 240 240 240 240 246 250 251 250 249 249 242 238 241 242 239 241 247 249 249 250 251 251 242 243 238 243 236 240 248 248 249 253 251 247 247 241 237 242 241 239 245 250 249 251 250 250 247 242 239 239 238 241 244 248 248 250 253 249 248 244 220 155 104 117 160 184 182 184 186 184 179 146 144 161 177 184 183 185 186 182 184 186 177 151 115 96 92 94 98 112 125 114 116 131 146 138 140 118 105 117 139 154 135 122 110 111 111 112 115 113 114 120 119 117 121 138 166 176 177 186 177 135 124 125 128 126 129 128 129 130 130 131 129 130 132 131 131 132 134 135 134 133 134 135 134 132 134 136 135 135 135 135 142 146 167 172 177 163 139 133 133 134 134 134 134 138 150 161 162 165 148 131 132 133 161 173 182 183 183 184 185 183 182 181 178 183 185 184 180 184 209 241 250 240 238 241 243 241 241 248 251 251 251 249 249 243 240 240 238 239 241 249 249 251 250 248 250 246 239 239 241 240 240 246 253 251 251 248 249 245 240 240 240 240 240 244 250 249 250 249 250 251 241 242 240 240 240 242 249 251 251 251 251 251
237 237 237 237 237 239 249 253 253 252 253 252 242 236 237 237 237 236 248 254 254 253 253 252 244 236 238 237 237 238 245 253 254 251 253 254 247 237 236 238 236 236 244 253 254 253 253 253 249 237 238 236 238 237 240 251 255 251 252 254 243 182 109 88 124 175 188 182 184 184 184 182 185 178 182 184 184 184 185 185 185 185 183 161 124 98 91 95 96 95 95 100 103 109 133 174 184 182 182 149 113 109 109 114 117 115 111 113 114 116 116 116 118 119 119 119 120 121 134 143 146 165 165 134 128 128 127 127 128 130 130 130 131 131 131 132 134 134 134 134 134 135 135 135 136 135 136 138 137 135 135 137 139 137 137 141 150 164 179 179 155 142 136 135 136 135 134 133 134 142 151 156 154 147 152 151 169 182 185 185 184 183 183 184 187 187 184 180 179 184 187 182 181 194 222 237 239 235 235 238 239 249 252 254 254 253 252 241 239 240 238 237 235 247 251 251 255 253 253 245 237 237 235 237 239 244 252 253 253 254 253 248 236 236 236 236 236 242 254 253 254 254 255 249 239 235 239 236 236 240 252 253 253 253 253 253
237 237 237 237 237 238 247 252 254 252 254 252 241 237 238 236 236 238 249 253 253 254 253 252 242 236 236 237 237 238 249 253 251 254 252 252 248 237 237 237 236 236 244 254 251 254 255 251 248 241 236 234 238 236 243 251 249 255 252 222 147 85 97 142 176 185 181 185 185 182 184 184 186 184 182 185 184 183 182 185 184 175 145 109 94 91 95 97 96 99 100 97 99 111 154 183 186 183 186 179 146 118 111 111 119 111 114 113 113 118 120 118 120 122 120 122 122 122 123 125 126 134 137 128 127 130 129 129 130 131 129 130 132 134 134 134 135 135 133 135 137 138 137 137 137 135 136 136 138 138 139 139 137 138 137 138 139 146 157 170 170 168 157 144 138 137 137 135 136 135 136 141 158 173 181 181 180 183 182 184 186 185 183 181 182 183 186 184 182 183 184 186 185 179 184 200 226 239 238 235 236 250 255 255 252 251 254 243 235 235 237 238 236 247 254 254 255 254 248 243 240 239 239 236 234 245 251 253 252 254 252 247 238 239 238 238 236 240 253 253 254 251 253 251 237 235 236 238 237 239 252 253 253 253 253 253
237 237 237 237 237 238 248 255 251 255 253 253 240 240 236 238 237 237 249 252 253 253 253 254 244 236 237 235 239 236 246 254 254 252 252 255 245 235 239 237 236 237 243 252 252 254 253 251 250 237 238 239 238 237 238 253 255 243 184 110 80 113 158 181 184 184 184 185 182 185 186 184 183 185 184 182 185 186 182 184 172 129 96 92 94 96 95 94 100 103 99 100 100 130 176 185 181 183 186 176 133 116 111 127 148 117 118 116 116 118 119 121 121 120 120 123 124 124 125 125 127 128 129 129 128 128 130 132 134 133 131 131 132 134 135 137 137 137 134 135 136 138 139 138 138 137 137 140 140 140 138 139 140 140 140 139 140 139 148 158 164 174 172 169 155 145 140 137 138 137 136 138 158 176 183 185 185 184 182 183 184 185 186 184 182 181 183 186 186 182 183 184 187 186 183 180 190 214 232 235 237 250 252 251 252 254 253 243 239 237 235 237 239 249 254 254 252 253 253 243 238 236 235 237 238 244 251 253 254 253 253 247 238 237 237 238 239 242 252 253 252 252 253 246 238 237 234 237 238 240 253 254 254 254 254 254
237 237 237 237 237 238 251 253 254 252 254 252 242 236 238 237 238 237 248 252 253 253 254 253 243 237 237 238 237 235 245 254 253 253 254 252 245 238 238 235 238 238 243 252 255 252 251 254 250 236 237 238 236 235 244 255 223 147 85 79 130 173 184 184 183 187 183 183 185 184 183 183 183 185 183 185 184 184 184 178 128 96 92 96 93 95 98 99 100 98 99 107 136 167 183 185 184 184 183 171 124 111 120 155 177 132 118 116 118 119 120 120 121 124 126 125 127 126 125 125 126 128 128 130 132 133 129 130 133 134 134 135 135 135 135 136 137 138 141 139 137 137 139 139 141 141 139 140 142 141 140 140 142 141 141 143 142 142 162 177 172 160 151 167 176 177 164 147 137 137 138 147 174 183 183 184 184 185 184 183 183 183 183 186 185 184 182 183 185 184 183 182 181 184 187 186 179 182 202 225 237 252 254 251 252 254 254 242 237 237 238 235 235 248 253 253 252 254 255 244 235 237 238 237 237 247 255 254 253 252 253 248 237 235 235 236 238 242 253 253 253 253 252 250 238 236 237 238 239 240 252 253 253 253 253 253
239 239 239 239 239 239 251 250 250 251 250 252 240 241 240 241 240 241 246 252 251 251 252 250 244 242 239 240 239 242 246 250 252 251 249 250 247 240 238 243 239 240 244 251 253 250 251 252 248 240 240 240 239 241 239 193 116 75 88 134 173 184 185 183 184 185 183 184 184 183 185 184 185 183 184 184 182 184 187 176 112 95 96 92 96 98 98 100 99 100 102 118 171 187 184 185 187 183 183 176 148 138 157 180 181 150 119 118 120 120 121 121 122 124 125 125 126 126 127 128 128 130 132 131 131 132 131 134 133 134 135 135 136 139 138 136 137 135 139 141 141 139 140 140 141 142 141 140 142 143 142 141 143 141 142 142 142 144 161 179 179 165 146 145 160 182 183 172 158 154 143 140 162 178 183 184 184 183 182 183 184 184 183 184 182 183 184 184 184 184 184 184 185 184 182 185 187 181 177 191 213 239 252 253 251 250 250 244 240 239 239 241 240 245 251 254 252 248 250 244 242 241 240 241 238 243 251 252 251 250 251 247 240 241 240 240 240 243 251 250 250 250 252 248 240 240 242 242 241 244 250 251 251 251 251 251
253 253 253 253 253 252 241 239 240 240 239 239 248 253 250 254 251 253 242 239 239 239 239 239 249 250 253 252 253 251 244 240 239 238 241 240 242 252 252 252 254 252 247 241 237 238 241 239 242 252 252 253 255 231 162 93 68 98 150 179 184 184 184 183 184 184 185 184 183 184 184 184 184 184 184 183 185 185 178 140 100 92 95 97 97 99 101 100 101 103 103 119 179 184 182 185 185 184 184 183 178 178 185 187 181 168 127 119 121 122 121 123 126 125 125 126 127 128 129 130 130 130 130 131 133 133 132 135 134 135 135 136 136 139 140 140 142 142 138 139 141 142 141 140 140 140 143 145 143 142 143 143 144 143 142 145 146 146 156 176 183 182 169 152 154 174 188 187 180 178 166 146 148 168 182 184 185 184 184 184 185 183 182 184 183 183 184 183 182 181 183 184 185 184 181 182 186 186 173 163 181 203 220 233 240 239 241 249 252 252 253 251 252 244 239 239 239 239 241 247 250 251 252 252 253 246 238 237 237 239 238 244 252 251 252 252 253 249 240 240 240 239 241 240 251 251 250 251 250 249 239 239 239 239 239 239
253 253 253 253 253 252 240 236 238 234 239 236 250 250 255 251 255 251 243 237 236 237 237 238 247 252 255 254 250 253 246 236 237 236 237 238 243 255 255 251 252 253 251 236 238 239 235 235 243 253 255 250 215 137 78 63 93 146 181 185 184 184 184 184 184 184 184 185 185 182 185 184 181 184 184 184 185 183 172 138 122 99 95 97 98 100 101 100 104 107 104 120 172 182 186 184 182 185 185 183 184 186 184 181 187 174 131 121 124 124 125 125 126 124 123 124 127 130 131 132 132 132 132 134 133 135 135 135 138 137 138 140 138 135 137 138 140 143 141 138 140 144 144 144 143 143 142 144 145 146 145 145 146 148 146 146 146 145 146 157 171 185 183 165 150 159 178 184 184 185 180 158 145 162 178 182 184 184 184 185 184 182 182 185 186 185 183 182 182 183 182 183 183 182 180 180 180 185 179 159 160 175 189 209 231 239 239 250 252 253 253 253 252 240 237 238 237 237 236 246 254 254 253 253 253 245 237 239 238 237 236 242 252 252 254 254 251 247 236 237 237 239 236 244 253 252 254 253 253 251 238 237 237 237 237 237
253 253 253 253 253 252 241 237 236 237 238 238 248 254 253 252 253 253 243 235 240 237 239 237 244 255 251 252 253 255 245 236 237 239 235 235 248 252 251 255 253 252 248 235 237 237 237 239 242 255 245 191 109 69 81 115 153 182 185 181 184 186 183 185 184 183 184 184 184 185 183 185 183 185 184 184 184 184 184 180 176 123 96 98 102 100 98 105 118 109 110 140 177 184 186 184 184 185 183 183 184 183 186 182 184 168 135 121 122 124 124 125 125 127 128 127 128 130 131 132 132 133 133 134 135 135 137 137 138 138 139 139 141 141 139 138 137 142 146 147 143 139 142 145 146 148 147 143 143 148 149 146 146 147 150 148 146 147 148 150 161 179 182 165 150 152 165 171 181 185 184 176 161 168 181 183 182 176 170 180 187 185 183 182 183 184 184 182 180 181 181 182 182 181 183 183 180 182 177 159 140 154 175 187 201 222 238 249 251 253 253 255 255 245 238 238 239 234 235 244 253 253 254 252 250 244 236 237 238 238 238 242 252 254 252 254 254 248 238 236 236 237 236 241 252 254 253 253 251 251 238 237 237 237 237 237
253 253 253 253 253 252 241 238 236 238 236 239 250 254 252 253 253 253 241 237 237 236 237 236 247 253 254 251 254 251 244 238 236 239 238 235 245 252 253 255 253 254 249 236 236 238 237 236 244 233 160 90 65 81 115 159 184 184 186 185 184 182 184 185 185 183 184 184 184 187 184 182 184 184 184 185 184 183 186 183 185 150 105 101 101 101 105 110 124 115 137 172 186 184 184 184 183 185 185 183 184 182 184 185 185 183 157 130 122 124 126 126 125 127 131 132 131 131 131 131 131 132 134 135 137 136 136 138 136 139 141 141 141 142 143 143 142 141 141 144 146 146 144 144 145 146 149 147 147 148 149 148 146 147 149 149 148 148 148 147 152 165 168 154 148 147 151 157 179 177 167 160 149 154 177 185 183 171 154 160 178 184 186 186 185 183 181 183 185 184 182 183 181 181 185 185 183 179 167 148 134 151 172 174 180 192 221 251 254 250 254 253 250 244 237 234 235 239 238 246 253 253 254 253 255 247 238 237 238 238 238 244 253 253 252 252 254 249 238 236 238 238 236 239 253 254 252 252 253 248 237 236 236 236 236 236
253 253 253 253 253 252 240 236 237 237 237 239 248 252 253 253 253 253 242 238 235 237 239 237 246 253 253 255 251 252 249 236 235 238 236 237 243 253 254 253 251 255 247 237 241 234 235 240 209 135 77 64 77 112 161 183 183 185 185 183 183 185 185 183 184 184 183 185 185 180 186 186 183 185 185 182 184 183 184 186 184 178 148 132 115 106 102 114 135 158 179 186 185 182 182 184 185 185 185 186 181 183 184 184 185 186 176 164 152 135 126 127 130 131 126 127 131 132 133 134 134 136 135 136 137 139 136 137 140 140 140 142 142 142 142 142 145 146 144 142 143 147 149 148 148 147 146 151 148 147 148 148 151 151 149 150 150 150 151 149 149 151 152 149 149 150 150 154 169 160 152 148 149 154 178 185 185 182 173 169 178 182 182 183 185 185 184 184 183 183 183 186 184 180 180 182 185 186 180 162 142 142 151 144 157 176 188 223 251 255 252 251 252 242 238 239 237 239 235 247 255 255 252 252 252 247 237 237 237 234 235 243 253 253 255 254 252 247 237 238 237 238 238 242 250 254 255 254 255 250 238 237 237 237 237 237
249 249 249 249 249 249 247 239 242 241 241 242 246 249 250 250 248 249 243 240 242 240 241 242 245 250 249 250 248 250 243 243 241 240 242 241 243 250 248 249 252 248 246 243 238 243 242 191 110 70 68 75 98 158 186 183 185 184 184 185 183 184 184 183 185 186 183 183 184 181 185 184 183 184 184 184 185 184 182 184 184 184 182 179 135 107 117 159 179 186 185 184 183 184 184 185 184 185 184 181 183 188 182 186 183 183 185 181 172 155 129 129 130 129 128 130 132 133 134 135 137 136 136 138 138 137 139 141 143 142 142 141 140 143 142 143 145 145 147 148 147 145 147 149 150 150 146 146 153 151 151 150 151 148 149 152 152 152 153 154 153 151 150 150 151 152 152 154 157 150 148 150 157 160 178 184 185 185 184 183 185 186 183 183 178 175 182 185 185 182 182 182 184 184 182 184 182 183 186 183 166 139 129 122 118 141 165 181 214 244 251 247 251 249 241 240 241 238 243 246 246 248 250 250 249 245 240 241 239 241 241 244 250 250 249 249 250 248 242 241 239 240 241 243 248 249 247 249 247 249 242 241 241 241 241 241
238 238 238 238 238 239 252 253 250 251 253 252 242 237 239 238 238 238 247 253 252 251 251 252 244 236 240 237 238 239 243 254 253 250 254 252 245 240 239 237 236 241 245 247 255 252 185 99 68 68 70 103 155 184 185 183 186 183 184 187 182 181 186 183 184 184 182 186 170 145 175 182 185 183 184 186 183 182 187 184 183 183 184 160 112 104 134 180 184 183 184 184 183 184 186 185 183 185 186 182 185 182 184 186 183 183 177 169 173 171 155 136 130 131 133 132 133 134 134 136 135 135 137 139 140 138 139 142 142 141 143 143 143 145 146 146 145 144 146 148 150 149 147 147 148 150 152 147 151 153 151 151 151 152 153 152 152 154 155 153 152 152 153 155 154 152 152 153 154 153 151 152 157 155 166 182 185 185 185 184 183 184 184 183 174 158 162 177 186 183 179 181 183 184 183 184 183 181 183 184 183 163 134 122 117 115 127 143 166 203 232 240 238 246 253 252 252 252 251 243 239 238 238 238 240 244 252 253 251 253 253 248 240 239 238 237 237 242 253 252 251 251 253 248 239 239 238 238 238 241 251 251 251 251 251 251
236 236 236 236 236 237 248 253 254 253 252 252 241 237 236 236 237 237 249 253 254 254 254 251 242 238 236 236 238 237 249 252 252 255 251 251 249 236 235 239 237 236 239 255 246 174 91 66 70 74 95 157 187 183 183 185 183 186 183 182 184 186 183 184 183 185 184 178 131 135 181 187 184 184 184 182 184 185 184 183 183 185 180 138 107 107 143 185 184 184 184 182 184 186 184 183 184 184 183 185 185 182 186 183 182 184 181 179 186 185 179 145 131 132 133 133 133 135 135 136 136 137 138 140 140 140 142 143 141 142 142 143 146 147 146 145 146 150 149 146 146 150 152 151 149 149 153 153 148 152 154 154 151 153 155 152 152 154 154 154 154 154 154 155 155 154 154 152 153 153 155 164 176 173 170 180 181 182 185 185 183 183 184 185 183 169 160 172 182 185 183 180 182 183 184 183 182 182 183 184 184 183 164 137 123 116 110 118 133 160 200 231 237 247 254 255 255 254 251 243 239 236 238 237 234 244 253 253 255 252 252 247 238 238 237 237 236 242 253 252 254 252 253 249 237 238 239 239 238 240 252 253 253 253 253 253
237 237 237 237 237 238 249 253 254 253 252 253 241 239 236 237 237 237 247 253 253 253 253 252 244 237 236 236 238 237 245 254 253 253 252 253 247 235 238 238 238 233 247 242 165 85 65 71 73 107 141 180 185 185 183 183 185 183 184 184 185 183 184 187 182 184 185 161 117 168 186 184 183 184 184 183 185 185 182 183 185 185 175 142 117 112 158 184 184 184 183 183 185 185 183 184 184 183 183 186 185 185 183 183 186 183 181 184 185 187 180 145 132 132 132 133 136 137 136 137 137 137 138 141 142 142 143 142 142 144 144 145 147 146 146 147 148 150 150 149 149 148 150 151 151 152 153 155 154 152 153 154 154 153 154 156 155 156 154 155 156 157 156 153 153 155 156 155 155 156 153 157 170 174 174 182 185 184 183 184 184 183 184 184 186 184 178 181 184 185 183 168 170 177 182 184 182 182 182 184 184 184 183 166 132 121 122 113 117 128 158 199 228 251 253 253 254 253 254 245 237 237 238 237 237 245 252 253 254 254 252 247 237 237 237 237 238 243 253 252 254 253 251 249 236 236 237 237 237 240 252 253 253 253 253 253
238 238 238 238 238 238 250 253 251 253 254 253 241 235 237 237 238 237 247 254 252 253 253 253 244 236 238 239 236 237 246 253 253 251 255 255 243 238 240 234 234 243 226 155 81 63 72 71 105 151 173 184 183 184 184 184 184 184 184 186 183 183 186 184 183 184 185 159 148 184 184 183 184 185 185 183 183 183 186 185 184 183 164 114 107 131 177 184 184 182 183 186 185 182 183 185 184 186 185 183 182 184 183 185 184 186 184 186 184 179 173 145 135 136 134 133 135 136 137 138 139 141 140 141 142 142 141 140 143 145 146 147 148 148 148 149 150 148 149 150 152 152 150 150 151 153 153 153 155 156 153 153 157 157 155 157 157 156 156 155 155 157 158 159 158 157 155 155 155 156 155 155 155 156 158 165 176 182 184 185 184 183 183 184 184 184 183 184 185 184 182 169 158 155 164 179 185 185 181 181 185 186 185 182 159 132 124 118 127 133 132 166 201 237 252 251 252 254 254 245 237 238 235 237 240 245 253 253 251 253 253 247 235 235 238 237 236 241 254 254 253 254 253 250 237 235 238 237 239 241 252 253 253 253 253 253
237 237 237 237 237 238 252 251 255 253 252 252 241 236 237 238 237 238 248 252 254 252 253 253 241 239 236 239 236 237 246 253 253 253 253 253 246 236 235 238 240 220 144 74 64 75 68 85 135 162 180 186 182 184 185 183 182 186 184 183 184 186 184 182 185 186 180 163 177 182 184 185 183 184 183 186 183 183 184 185 183 183 174 121 125 163 186 185 182 185 186 185 182 183 184 185 185 184 185 183 183 184 186 184 183 184 185 184 175 164 166 147 133 134 135 136 136 136 137 139 140 142 141 142 142 142 142 144 147 146 147 147 147 149 149 149 150 150 149 150 151 154 154 154 153 153 153 155 156 156 156 155 157 157 157 159 159 158 157 157 158 158 158 158 158 158 158 159 157 155 156 156 157 155 155 156 161 169 177 184 186 185 184 183 184 184 185 184 184 184 185 183 167 146 144 158 174 181 184 179 176 183 183 183 185 163 134 126 146 172 162 172 182 207 242 254 252 252 252 245 237 236 238 237 236 246 253 253 251 252 253 246 237 239 237 237 238 241 253 253 253 254 254 249 239 238 236 237 234 240 252 253 253 253 253 253
245 245 245 245 245 245 244 248 247 247 248 247 246 245 244 244 243 244 246 247 247 247 246 247 246 243 245 242 245 244 243 250 246 246 249 245 246 244 242 248 225 137 73 65 72 69 74 120 146 173 185 186 182 186 182 185 185 184 183 183 186 184 182 186 187 182 166 165 182 185 183 185 185 182 183 185 185 185 183 183 186 185 177 156 167 183 182 183 186 185 183 183 185 185 184 183 182 182 184 184 185 186 183 185 185 181 180 161 149 159 166 144 134 132 132 136 138 140 141 142 141 141 142 143 143 144 145 145 146 146 147 148 147 148 149 150 151 152 152 153 152 152 153 155 155 155 154 156 159 155 157 159 158 157 157 158 159 159 158 160 161 160 157 155 157 158 157 157 157 159 158 158 158 157 156 155 156 158 162 174 183 186 186 184 184 185 186 184 179 179 176 176 177 163 146 143 151 156 166 165 155 168 182 184 185 182 167 145 142 169 183 187 179 181 202 234 247 247 250 245 241 245 246 244 244 245 247 248 248 250 249 247 244 243 243 244 244 245 247 247 247 247 246 247 244 244 242 242 243 243 247 246 246 246 246 246
253 253 253 253 253 252 242 237 236 236 239 236 249 253 254 252 254 252 243 238 236 237 236 240 248 250 255 254 254 252 242 239 238 234 240 239 241 254 255 227 143 74 63 72 69 70 93 146 167 184 182 183 186 182 183 188 184 182 184 183 184 184 185 183 181 184 177 179 186 183 183 184 183 184 184 185 184 182 185 183 184 185 183 181 182 184 184 185 185 182 183 187 187 183 184 183 183 185 179 169 170 176 175 177 173 167 152 139 141 166 162 141 136 137 136 135 137 139 141 142 141 142 143 142 143 146 147 146 147 147 148 149 147 148 152 154 150 153 154 153 154 155 155 155 156 157 155 156 157 157 156 160 159 160 159 157 157 157 160 161 161 161 161 159 157 157 159 160 159 160 160 160 159 159 159 158 157 155 157 167 180 184 182 182 183 184 184 184 176 159 152 155 168 174 164 161 158 147 146 146 140 148 173 183 183 184 184 176 162 169 183 188 189 183 180 197 226 239 238 246 250 252 251 252 255 246 238 236 234 237 238 243 253 251 252 253 253 248 236 237 237 237 236 244 252 251 255 254 255 250 238 237 237 237 237 237
252 252 252 252 252 251 240 236 238 238 237 237 249 254 254 253 255 253 242 235 237 237 238 237 246 254 253 254 253 252 245 235 237 239 237 236 243 255 231 147 73 63 71 70 71 101 129 169 184 186 182 181 185 182 183 183 183 183 185 185 183 185 185 183 183 186 182 185 183 185 185 183 183 187 183 183 184 184 182 185 186 184 181 186 184 183 186 184 183 184 185 186 183 181 184 188 184 169 144 131 135 147 149 138 136 138 127 133 155 180 173 157 154 154 141 138 139 140 140 141 142 142 142 144 145 146 148 150 149 147 149 149 151 153 151 151 153 154 154 153 155 155 155 155 156 156 155 158 160 159 156 158 159 158 160 160 159 160 162 159 159 160 160 159 161 161 160 161 161 159 160 161 160 159 159 159 158 158 157 160 170 181 184 184 184 184 185 183 179 166 154 147 150 162 171 182 180 163 150 144 141 141 159 176 184 182 182 170 152 160 180 179 187 188 183 183 198 226 237 247 255 252 252 251 254 248 238 236 237 235 236 243 254 253 251 252 254 251 237 235 236 237 235 240 253 252 253 255 255 251 239 238 238 238 238 238
253 253 253 253 253 252 239 237 237 236 236 241 248 254 252 253 253 253 241 237 237 238 238 234 247 255 251 252 254 253 247 238 235 238 235 234 250 233 149 74 62 72 72 67 100 161 178 186 183 183 186 183 183 184 185 180 183 185 183 185 181 182 185 183 183 184 182 183 185 184 183 184 185 184 185 182 185 185 183 184 184 184 186 185 185 186 182 182 184 187 183 180 183 188 185 176 161 143 139 140 131 142 158 146 136 130 131 140 168 183 187 181 181 172 143 138 141 141 141 141 140 143 145 145 146 148 145 146 148 150 149 150 151 152 153 153 155 155 155 157 155 153 153 155 156 157 158 158 158 158 161 159 161 159 160 162 161 160 159 158 159 159 160 161 161 161 162 161 160 160 159 159 158 160 160 161 161 159 159 158 160 173 185 186 184 181 182 175 168 167 158 152 149 157 161 162 163 162 171 170 163 146 143 155 176 183 181 157 140 163 187 180 181 185 184 184 183 200 228 247 255 254 254 253 251 246 236 237 238 238 236 243 254 254 254 253 254 250 238 238 236 236 237 240 249 254 251 253 253 251 237 237 237 237 237 237
253 253 253 253 253 252 244 236 236 236 238 239 249 253 253 254 252 254 242 238 238 236 236 238 248 252 254 254 252 254 246 237 238 235 236 241 227 157 75 59 73 71 66 84 147 183 184 184 185 182 184 187 184 182 185 185 184 186 181 183 184 183 183 183 182 184 183 183 183 183 186 177 157 158 182 184 182 183 186 184 182 183 187 183 183 184 183 185 186 182 183 185 187 182 168 158 158 168 182 178 146 129 133 134 128 130 138 160 182 184 185 183 185 174 151 143 141 140 142 143 143 144 144 145 147 148 147 146 149 151 150 150 152 152 154 155 154 152 155 156 156 156 158 157 157 158 158 156 160 161 160 158 160 160 157 160 162 162 160 160 160 161 162 162 160 160 161 161 161 161 160 161 160 160 160 161 161 160 159 161 161 168 181 184 185 179 174 169 159 154 151 152 154 162 167 156 149 151 168 179 178 170 159 151 162 177 182 170 144 146 175 188 182 181 185 187 184 182 201 236 253 253 252 255 253 244 235 237 235 238 237 242 251 253 255 254 252 246 237 238 238 238 238 242 250 251 253 253 252 250 237 237 237 237 237 237
253 253 253 253 253 252 239 237 238 238 236 237 250 251 253 253 253 254 243 237 237 237 237 238 248 253 253 255 251 253 244 236 238 234 240 228 150 77 62 71 69 67 77 128 180 185 182 184 184 184 183 186 182 185 185 184 182 185 185 183 184 184 185 184 183 183 183 183 181 184 160 126 102 115 169 185 185 183 183 185 185 184 182 185 184 183 186 185 182 183 184 184 179 165 161 172 182 180 165 158 137 127 130 130 128 134 146 173 183 184 178 181 179 166 160 145 140 141 142 142 144 146 146 147 148 146 148 149 149 150 151 152 152 155 153 154 157 155 154 154 155 157 159 158 159 159 160 159 160 161 160 160 160 160 161 161 161 160 161 162 162 161 160 160 162 163 162 161 161 160 160 162 162 161 161 164 165 170 170 171 175 179 184 183 182 174 165 168 165 157 157 153 151 154 161 158 153 148 150 159 169 176 180 173 160 163 175 180 159 135 146 169 181 182 184 185 186 183 183 208 242 254 252 254 254 247 238 237 236 236 238 243 250 251 254 253 251 247 237 236 237 238 237 241 254 254 253 253 253 249 238 237 237 237 237 237
245 245 245 245 245 245 246 244 248 244 247 247 245 243 244 244 244 243 246 246 246 247 246 245 244 245 244 244 244 245 246 248 242 249 239 162 79 59 73 73 66 80 123 172 186 182 185 185 183 185 185 181 182 188 182 181 186 184 185 185 184 183 184 185 186 183 183 184 170 138 115 101 101 103 145 181 184 183 184 185 185 182 184 184 184 185 185 182 183 185 185 180 167 166 176 182 185 179 160 139 125 128 132 134 133 132 143 153 149 151 150 159 159 159 171 149 143 143 143 143 146 148 148 148 149 147 148 149 150 150 152 154 153 152 154 155 155 156 155 156 157 157 157 158 160 160 161 161 158 162 161 159 160 162 164 164 162 160 159 162 161 159 160 162 164 163 162 163 164 162 161 161 162 161 170 181 183 184 184 184 184 184 185 186 184 179 168 169 177 161 155 155 154 153 152 155 161 153 147 149 152 156 166 170 157 148 155 169 178 160 138 140 166 182 183 183 182 185 180 185 209 238 248 244 243 244 244 246 246 247 247 245 243 244 246 246 243 244 247 248 245 245 247 247 243 244 242 243 241 245 246 245 245 245 245 245
237 237 237 237 237 237 252 255 252 253 255 251 242 239 236 236 237 237 248 254 254 251 253 254 243 236 237 234 240 236 248 252 253 251 180 84 63 72 71 64 82 135 176 185 182 185 185 182 186 184 183 185 186 182 183 186 186 182 183 185 183 184 183 183 183 184 176 144 115 107 117 105 101 99 135 182 184 184 185 182 182 182 186 184 184 186 182 183 187 184 183 177 167 177 185 183 183 183 174 138 130 132 132 132 138 133 133 135 137 136 138 149 145 150 161 146 142 141 144 147 146 145 147 147 148 149 151 152 151 152 154 153 152 152 155 155 154 158 160 158 157 157 159 160 159 159 160 160 160 162 163 160 160 161 161 160 161 162 163 165 164 164 165 165 163 163 165 166 166 165 164 164 164 164 172 184 187 184 183 184 186 185 183 184 185 185 180 178 183 165 157 156 156 156 155 159 172 169 155 148 147 147 152 158 159 151 141 147 163 177 164 148 149 170 184 187 184 185 177 175 184 205 233 238 236 244 250 253 254 255 253 246 238 239 238 239 237 242 253 253 254 253 252 248 237 237 237 236 236 241 252 253 253 253 253 253
237 237 237 237 237 238 249 254 252 255 253 250 241 237 238 237 236 238 249 252 253 252 254 254 244 236 236 238 236 237 244 253 255 195 96 61 69 69 65 80 132 178 185 182 185 185 183 183 186 184 181 184 187 183 182 185 184 184 184 183 185 185 183 185 184 181 163 133 133 160 153 119 111 116 150 183 186 184 180 184 186 185 181 183 187 184 182 187 183 183 184 177 179 184 184 183 184 183 178 151 144 139 135 140 159 141 131 136 139 137 136 141 139 140 142 140 141 143 146 148 147 145 146 148 150 150 151 152 152 150 153 153 153 156 155 155 155 159 159 157 158 159 160 160 160 161 160 161 163 161 162 161 160 161 161 160 161 165 167 165 167 166 164 162 163 165 165 165 164 165 167 165 164 164 167 175 182 184 184 184 185 184 183 181 182 185 188 185 175 161 159 159 155 153 154 154 165 173 165 152 150 150 147 148 157 162 150 141 142 159 168 163 145 148 167 178 186 177 166 162 179 182 206 235 240 246 254 252 252 254 254 247 237 238 236 237 237 241 253 252 252 254 252 248 238 237 238 237 238 240 253 253 253 253 253 253
237 237 237 237 237 239 251 252 255 253 252 254 241 236 239 237 239 234 248 253 252 254 253 252 242 238 238 237 236 237 242 255 208 107 62 66 71 66 71 123 176 184 184 185 184 184 184 183 184 185 184 183 185 186 183 185 184 183 185 184 184 184 186 184 183 185 182 180 181 186 183 174 172 163 158 169 180 181 185 185 186 184 181 187 185 181 185 184 183 185 184 182 184 186 184 183 181 185 183 167 153 150 144 155 169 149 137 138 137 136 138 140 143 140 141 143 144 144 145 146 147 149 148 149 150 150 151 149 151 152 153 154 156 154 155 156 158 158 158 158 159 160 159 160 161 162 161 163 162 158 160 162 161 165 167 165 163 163 164 165 166 167 166 165 164 164 163 164 164 166 168 167 166 165 164 166 176 185 187 185 182 182 185 185 184 183 184 183 174 163 161 159 157 157 157 154 156 165 174 160 152 152 147 145 150 159 158 143 140 145 156 170 155 136 140 154 169 164 154 142 168 182 183 207 237 246 255 253 252 253 253 246 239 237 236 236 237 245 254 254 252 252 252 251 234 236 235 238 238 240 252 252 252 252 252 252
236 236 236 236 236 237 249 253 254 254 251 253 241 237 236 237 239 235 249 255 252 253 251 252 243 238 236 238 239 233 250 227 120 63 67 70 67 70 108 167 186 181 184 187 183 183 185 185 181 186 186 184 183 184 185 184 183 184 184 184 183 184 185 184 183 184 185 184 185 181 161 142 133 140 123 131 145 150 182 184 183 185 186 184 180 186 187 181 183 185 183 183 185 184 183 184 184 180 173 175 173 168 162 161 153 141 137 139 138 137 137 141 143 143 144 143 144 144 145 145 147 149 149 150 150 150 149 151 152 153 153 154 156 156 156 158 159 156 158 159 160 160 161 161 161 161 160 160 160 161 161 165 165 166 164 163 165 164 164 165 164 166 167 166 167 168 167 166 166 168 169 167 167 166 166 165 170 179 184 185 185 183 183 184 185 185 184 184 179 162 160 161 166 163 158 156 154 157 168 163 153 154 152 149 148 155 163 145 143 142 144 157 163 144 134 135 140 146 131 124 140 169 182 185 217 247 253 254 254 251 250 248 239 237 238 237 236 242 254 253 254 254 254 249 238 239 237 238 237 239 252 253 253 253 253 253
238 238 238 238 238 239 249 253 253 253 253 253 240 238 238 239 238 238 248 253 253 253 252 253 244 238 237 239 236 241 231 143 69 65 69 70 65 94 158 184 183 185 184 184 184 185 182 185 185 181 186 184 183 183 185 183 185 185 183 185 184 183 183 185 184 184 184 184 181 150 109 109 152 169 120 110 122 118 165 184 182 184 187 182 184 185 183 184 183 183 182 183 184 183 185 176 164 151 150 167 183 179 168 150 137 135 136 138 139 139 141 141 141 143 142 142 145 146 146 147 149 149 150 150 149 149 150 155 154 152 154 155 153 155 158 159 158 158 159 159 160 161 161 160 160 159 160 163 162 161 164 167 167 163 162 164 167 168 168 166 165 166 167 167 168 169 168 167 167 167 167 167 167 166 166 168 168 173 181 182 184 185 185 184 182 183 185 186 182 165 159 163 170 164 158 158 157 154 156 156 153 154 154 154 164 173 174 151 143 144 142 140 150 150 141 135 131 132 126 123 122 142 174 183 188 230 255 253 253 253 251 248 241 239 237 238 239 242 253 253 252 254 254 247 239 239 237 237 237 241 252 253 253 253 253 253
249 249 249 249 249 248 245 242 242 241 244 241 247 249 249 250 248 251 243 242 243 242 245 241 246 249 250 248 249 245 161 75 64 70 69 65 80 140 182 185 185 186 183 182 185 185 184 183 185 182 182 186 186 183 184 184 183 184 184 184 184 185 183 183 184 186 184 182 165 118 122 154 184 168 117 109 132 122 161 184 185 185 181 183 186 182 181 182 181 181 185 185 183 183 177 152 136 157 175 172 162 148 137 133 135 137 137 136 137 140 141 141 141 143 143 144 147 147 147 148 148 149 149 149 151 153 153 151 154 155 154 154 154 157 157 158 160 160 161 161 161 162 160 160 161 161 163 163 166 166 164 163 165 165 167 170 168 166 166 167 167 167 168 167 166 165 167 168 168 167 166 167 167 169 169 168 166 167 176 182 184 185 184 183 183 183 184 185 182 172 163 161 162 161 161 160 157 156 156 157 156 153 152 152 163 172 177 168 151 142 142 138 140 143 137 134 134 133 130 127 124 125 141 171 181 200 236 243 242 243 244 244 245 247 247 248 250 246 241 242 241 240 242 245 249 248 250 250 250 249 242 242 242 242 242 242
253 253 253 253 253 252 237 237 237 238 236 239 249 254 252 253 252 255 241 237 237 236 238 237 246 254 253 252 255 189 88 62 69 69 67 71 121 175 184 186 183 183 185 184 183 184 185 183 184 186 182 184 185 184 185 184 183 185 183 185 185 184 185 183 185 184 181 186 150 115 162 187 176 137 107 120 165 167 178 184 185 175 162 176 182 184 185 183 183 185 185 180 161 146 138 132 147 181 171 140 130 133 134 136 134 137 140 137 138 141 141 140 142 142 145 148 145 146 148 147 147 149 149 149 152 154 153 151 152 155 155 155 159 159 157 159 160 159 160 162 161 160 161 161 162 163 164 164 165 166 164 165 165 166 168 167 168 167 166 165 166 167 168 168 169 168 168 168 169 168 169 171 170 169 170 170 169 170 175 184 183 183 184 185 185 184 183 183 185 183 174 166 162 160 160 160 159 158 158 157 155 153 156 155 154 154 159 162 153 148 144 144 141 139 137 138 148 149 138 127 126 122 120 143 176 186 209 233 237 236 239 243 251 253 253 253 254 249 236 237 238 235 237 241 252 253 253 253 254 249 238 237 237 237 237 237
253 253 253 253 253 252 239 236 238 237 236 240 249 253 252 253 252 253 243 238 237 237 234 237 249 253 251 255 218 106 60 71 67 67 68 101 164 187 184 184 182 184 184 186 183 183 184 186 183 184 185 184 183 183 184 184 185 184 184 183 183 184 185 184 184 184 186 173 120 129 181 184 165 138 120 151 185 184 167 158 152 141 151 179 184 186 185 183 183 184 170 151 131 125 124 128 151 165 143 130 133 133 134 136 136 136 138 140 141 141 141 141 142 142 145 147 146 147 148 148 149 150 150 152 152 152 153 153 153 154 155 156 160 160 158 159 160 159 161 161 161 160 161 162 163 164 164 165 166 164 165 168 170 165 164 167 169 169 167 168 169 170 170 170 171 171 169 169 171 171 170 169 170 170 170 170 170 170 173 183 184 184 183 184 185 186 183 183 186 186 178 165 164 163 161 161 161 158 157 157 157 159 169 172 165 153 151 151 148 149 149 146 141 138 139 139 146 147 138 132 123 122 122 125 158 180 189 220 237 235 236 244 255 253 254 254 251 248 236 237 240 238 239 239 252 254 253 253 253 250 238 237 237 237 237 237
253 253 253 253 253 252 243 236 238 236 238 237 249 252 254 253 255 251 241 239 237 237 236 235 249 252 255 238 132 66 66 68 70 66 80 145 183 186 186 181 185 186 182 184 186 184 183 185 184 182 185 185 183 185 184 183 185 185 183 185 184 182 185 185 182 184 185 142 106 154 182 183 181 166 152 181 185 166 139 141 143 153 171 184 184 183 185 185 184 174 142 126 122 127 128 126 132 134 128 131 135 132 135 136 137 138 138 140 142 141 140 143 142 143 145 145 147 148 148 150 151 151 151 153 153 152 153 156 157 155 156 156 156 160 160 159 158 160 161 161 161 161 163 164 165 165 165 165 165 165 167 166 167 169 168 169 169 170 171 170 170 170 170 171 169 169 170 170 170 171 171 170 171 171 170 168 169 169 170 179 183 185 184 184 185 185 184 183 183 185 183 168 164 164 164 162 159 159 158 163 172 174 182 184 177 159 152 152 150 147 148 146 144 142 141 138 138 138 130 134 133 127 123 121 141 177 185 199 226 242 236 244 255 253 253 252 251 249 239 235 234 237 237 242 253 252 253 252 251 251 237 236 236 236 236 236
252 252 252 252 252 251 240 237 238 236 238 237 250 254 252 253 254 253 243 237 238 237 237 237 245 252 248 168 76 65 71 65 69 72 118 178 188 182 184 184 184 183 185 183 184 184 184 183 185 186 184 182 185 184 184 184 184 185 184 183 184 185 185 183 183 186 167 112 112 171 183 185 184 180 177 185 174 166 168 179 183 183 184 186 185 183 183 185 185 159 127 121 125 127 127 128 130 131 132 132 132 133 136 138 138 138 138 138 140 142 143 143 143 144 146 148 148 147 148 149 150 150 152 152 153 152 153 156 157 156 156 157 158 160 161 161 160 161 160 160 161 163 164 164 165 165 166 166 165 168 168 167 165 169 172 169 168 171 171 171 170 169 169 170 170 171 172 171 170 172 173 172 171 171 172 172 174 171 170 174 179 183 184 184 184 184 185 184 183 184 184 170 165 165 164 161 162 168 170 174 182 184 186 184 180 167 158 153 152 149 147 147 148 145 144 143 140 138 133 130 135 131 125 122 124 147 169 184 206 233 237 242 255 255 254 254 253 248 239 237 235 237 236 240 251 253 254 254 254 249 238 237 237 237 237 237
252 252 252 252 252 251 240 238 240 238 239 240 249 253 250 252 249 253 245 238 239 240 239 239 246 251 204 91 64 67 69 68 65 95 162 187 184 183 183 185 184 182 185 184 182 184 185 183 184 187 183 182 185 184 183 184 184 183 185 183 183 186 184 184 185 183 139 104 134 180 187 183 172 169 156 142 140 154 177 184 187 183 183 187 184 183 184 184 181 145 121 124 128 126 128 128 129 132 133 133 132 136 136 135 139 139 137 141 140 141 143 143 145 146 145 148 148 148 148 149 151 152 152 152 154 155 155 154 154 158 158 160 159 157 159 160 163 162 161 161 163 165 165 165 166 166 166 166 165 168 169 169 168 169 171 169 170 171 170 173 173 171 169 170 172 173 172 172 171 171 172 172 171 172 172 173 173 173 172 172 172 179 184 184 182 183 185 184 183 183 180 170 166 163 163 169 176 183 184 184 185 184 184 184 184 180 171 156 153 152 150 148 148 146 142 142 140 140 138 132 132 133 130 128 122 123 144 175 189 213 237 243 250 252 253 252 253 246 237 243 243 240 238 241 247 252 253 253 253 248 240 239 239 239 239 239
240 240 240 240 240 241 248 252 248 254 250 250 239 238 242 240 240 241 245 251 250 250 254 251 246 220 117 66 64 64 70 68 75 140 186 183 182 186 185 183 185 184 184 185 184 184 183 185 183 184 185 184 183 185 183 184 185 183 185 184 184 184 182 187 185 173 127 128 170 185 186 169 143 125 120 142 167 181 186 185 187 181 183 186 181 185 186 183 178 149 127 128 125 126 130 128 130 133 133 132 133 135 137 137 139 140 139 143 140 138 143 145 146 145 147 147 147 149 150 151 152 153 153 152 153 154 157 155 154 157 159 161 161 159 160 161 160 159 160 164 166 166 165 165 165 167 166 166 167 169 169 170 171 170 169 169 169 173 173 173 173 172 171 171 171 172 171 173 173 171 171 172 174 173 172 172 171 173 174 172 169 174 183 183 181 182 184 183 180 177 174 170 169 163 169 182 185 184 183 184 184 185 183 183 185 186 183 163 152 153 152 150 148 147 143 143 140 139 139 138 134 131 129 129 127 123 132 164 181 192 233 246 237 240 239 238 241 246 250 251 251 251 252 252 242 242 240 239 240 242 250 251 251 251 251 251
237 237 237 237 237 238 253 253 254 254 252 250 243 236 238 236 240 236 248 253 249 255 250 255 237 150 69 65 67 65 70 68 109 174 186 181 185 183 184 185 182 186 183 184 186 184 183 184 185 183 185 185 183 185 185 183 184 184 184 184 185 184 183 183 185 185 166 175 185 185 182 160 131 136 163 182 184 184 186 185 183 184 184 184 185 184 180 164 151 139 129 127 126 126 128 130 132 130 131 134 136 134 136 139 138 137 141 142 140 142 142 144 146 146 147 147 148 150 150 151 151 152 153 155 155 155 154 156 159 157 159 159 159 161 162 162 161 161 163 165 165 164 164 165 166 168 167 168 168 169 169 170 170 172 171 172 172 170 172 172 172 173 173 172 171 171 171 171 172 174 173 172 172 172 172 172 171 170 171 172 173 173 176 174 173 176 177 177 175 169 166 166 167 168 176 184 184 184 184 185 184 184 183 183 184 185 184 172 154 153 151 149 148 149 148 144 142 142 139 150 142 136 131 124 128 128 134 162 180 181 206 238 238 234 240 238 235 242 253 251 251 252 252 248 239 239 236 237 236 241 252 253 253 253 253 253
237 237 237 237 237 238 252 253 252 252 255 253 241 236 238 237 238 236 248 254 255 252 252 255 190 85 63 69 65 73 66 81 152 185 182 185 184 184 184 184 185 184 184 183 184 184 184 183 185 183 183 186 182 184 184 185 184 183 185 184 183 183 185 183 184 186 182 185 183 183 185 184 178 181 187 185 182 184 184 183 182 187 183 182 181 170 156 134 123 126 125 125 127 128 128 132 131 131 134 133 135 137 138 139 138 137 140 140 142 145 143 143 146 147 146 148 149 150 151 151 152 153 154 154 155 156 154 156 159 158 160 160 160 161 161 161 162 163 165 165 164 165 166 167 167 167 167 168 169 170 171 171 168 171 173 173 175 170 172 173 172 172 172 172 172 172 172 172 172 172 172 172 172 172 172 172 173 173 173 171 170 171 172 172 170 170 171 171 170 169 168 166 165 171 182 185 183 184 184 184 184 184 184 184 184 184 183 177 160 155 152 152 148 148 149 147 143 144 151 173 170 156 145 133 131 135 157 171 181 183 188 217 238 237 236 237 236 241 254 253 253 254 252 248 238 234 236 236 236 241 252 252 252 252 252 252
237 237 237 237 237 238 248 252 254 253 252 253 240 237 236 238 235 237 250 252 255 248 255 226 122 63 67 67 66 71 67 117 179 185 184 187 182 183 185 184 185 183 184 184 183 184 185 184 184 183 184 185 185 181 184 185 184 184 184 186 184 183 185 184 183 184 186 183 184 184 183 185 184 185 184 183 184 185 184 183 184 184 184 172 150 139 130 123 122 125 125 126 127 128 129 131 131 133 134 132 136 138 137 139 138 139 141 141 142 141 142 146 147 147 149 149 149 149 150 151 153 155 155 154 154 155 157 157 158 159 160 160 160 161 161 161 163 164 165 165 166 167 168 167 166 166 166 169 171 171 170 170 170 171 171 172 173 173 170 172 172 172 172 173 173 173 173 172 172 171 172 172 172 172 172 172 173 172 172 171 172 172 171 171 170 169 170 170 173 172 169 169 169 176 183 184 184 183 183 184 185 185 184 184 185 185 184 182 173 166 157 154 152 149 147 145 145 142 151 178 185 177 174 163 151 148 173 183 184 180 181 193 225 242 234 237 237 240 254 254 254 253 255 249 237 238 237 238 238 240 252 253 253 253 253 253
237 237 237 237 237 238 250 252 255 253 252 252 241 238 235 238 236 238 247 253 253 255 248 164 75 64 66 64 71 68 80 156 187 180 185 186 183 184 185 183 184 184 184 184 183 184 184 184 184 184 184 184 185 184 183 184 184 185 183 184 185 184 183 184 185 183 185 184 184 183 184 185 184 184 182 184 186 185 183 183 184 184 186 158 124 121 122 124 126 126 125 125 127 129 130 131 132 133 132 134 137 137 138 138 137 141 141 140 142 142 143 146 145 147 149 149 149 150 151 153 154 154 154 154 156 156 158 159 159 161 160 160 160 162 161 161 164 166 166 166 165 166 168 167 167 167 168 170 170 171 169 169 172 171 170 170 172 175 174 171 171 171 172 172 173 173 173 172 173 172 172 173 173 173 174 174 173 172 171 172 173 173 172 171 170 170 171 173 179 180 178 181 181 182 184 184 184 183 185 185 184 185 185 183 184 184 184 185 184 181 174 170 169 162 157 150 147 143 145 166 184 185 183 183 182 175 184 185 181 177 180 183 204 234 239 236 239 242 253 253 253 253 254 249 238 238 237 237 236 240 252 253 253 253 253 253
240 240 240 240 240 241 248 252 249 251 251 249 244 240 241 239 242 240 246 250 246 255 203 100 60 69 65 67 71 65 99 174 185 182 186 184 183 185 184 183 183 186 183 184 185 184 184 184 184 185 183 185 184 185 184 184 183 185 183 183 185 184 182 184 184 183 184 186 182 184 185 184 184 183 183 186 185 182 183 184 183 181 177 138 118 122 124 124 124 125 125 125 128 129 131 131 131 132 132 136 136 138 140 138 137 141 141 141 143 144 146 145 145 147 148 148 149 151 152 153 154 154 154 155 157 157 158 158 159 160 160 160 161 161 161 161 165 167 166 165 165 166 167 167 167 168 169 170 171 170 169 169 171 171 171 173 171 172 175 172 173 174 174 173 174 174 175 175 175 173 173 175 174 173 173 174 173 174 174 173 173 173 172 172 172 172 171 172 180 183 184 186 185 184 183 184 185 184 184 184 183 184 184 183 183 183 185 185 185 184 183 182 184 182 176 165 150 143 144 152 172 187 181 181 184 182 186 186 180 174 176 181 188 217 243 241 240 245 250 250 249 250 249 248 242 238 240 238 239 242 249 250 250 250 250 250
253 253 253 253 253 252 241 239 236 239 239 239 249 250 254 251 253 251 244 237 240 226 133 65 66 67 67 70 66 77 136 182 182 185 186 181 184 184 182 185 185 184 183 184 185 184 184 184 183 185 182 185 185 184 184 185 184 182 183 185 184 183 185 183 183 185 185 185 182 187 185 183 183 184 185 185 183 182 183 171 167 159 154 123 120 123 123 123 124 125 126 127 129 129 131 132 132 133 134 137 136 139 139 137 138 140 140 143 143 143 147 146 147 148 148 149 149 152 153 154 154 155 155 156 157 159 159 157 157 159 160 161 162 160 162 163 166 165 165 165 166 168 168 167 167 167 169 170 171 170 171 169 171 172 172 175 173 169 171 173 175 176 175 174 173 173 174 174 174 174 174 174 174 174 174 174 173 174 175 174 173 172 172 172 172 172 172 171 179 183 184 184 185 184 182 183 185 184 184 184 184 182 182 183 185 184 184 183 184 184 185 181 183 187 184 178 164 153 150 146 152 180 184 181 183 184 182 183 184 176 169 179 185 200 239 253 250 248 237 239 238 239 236 244 251 250 252 251 253 250 239 238 238 238 238 238
253 253 253 253 253 252 239 237 236 238 237 239 247 253 254 255 252 254 242 235 238 174 81 63 70 65 70 67 69 119 174 186 184 186 185 181 185 184 183 186 184 183 184 184 185 184 183 184 184 183 184 184 185 183 184 185 186 182 186 184 183 184 185 183 183 185 183 183 186 186 182 184 184 184 185 184 183 186 183 162 157 127 126 118 123 122 122 124 125 124 127 129 129 130 131 132 133 132 133 137 138 137 137 139 140 141 141 144 143 142 145 146 147 149 149 149 150 151 153 153 154 155 155 156 156 158 159 158 159 159 160 160 161 161 162 163 164 164 164 166 168 169 168 167 167 168 169 170 171 169 169 171 171 171 172 173 173 169 172 172 174 175 176 175 173 173 173 174 174 175 176 174 174 174 174 174 174 174 174 173 172 173 173 173 172 171 172 172 179 184 185 184 184 184 184 183 185 183 183 184 184 184 183 184 186 186 184 182 183 184 183 183 184 186 185 183 181 177 175 164 153 174 184 180 180 184 184 185 186 179 170 174 180 187 218 251 255 248 236 236 235 235 236 241 253 252 252 253 255 250 239 238 238 238 238 238
252 252 252 252 252 252 238 237 237 237 236 238 248 254 253 255 251 255 239 240 215 112 63 69 64 67 69 67 82 156 184 184 186 184 185 183 184 185 184 183 183 184 184 185 185 183 184 185 183 183 186 184 184 183 185 184 184 184 186 184 183 184 184 183 184 185 183 182 187 184 182 184 185 184 184 183 185 185 173 154 159 122 119 120 120 121 125 125 125 124 126 129 130 131 131 132 132 132 135 138 138 137 137 138 140 141 143 143 143 143 143 148 149 148 149 149 150 151 153 153 154 155 155 156 158 157 158 159 161 160 160 159 161 163 161 162 164 164 165 167 168 168 167 167 167 169 170 171 170 167 168 172 173 174 172 170 169 172 176 173 173 175 175 174 173 174 174 173 173 175 176 174 174 174 175 174 173 173 172 174 174 174 174 172 172 172 172 175 180 185 185 184 183 184 186 184 184 184 183 184 185 185 184 183 184 184 183 184 185 185 184 184 184 184 183 182 184 186 184 183 176 182 184 182 179 183 188 183 186 182 176 168 170 179 195 234 255 247 236 235 235 234 237 240 253 255 253 254 255 250 239 238 238 238 238 238
252 252 252 252 252 251 239 238 238 237 235 238 250 253 253 252 254 252 243 237 159 73 65 65 63 69 67 67 101 176 185 185 184 184 185 184 184 184 183 184 183 184 184 185 184 183 185 184 184 184 184 184 185 183 185 184 183 185 185 183 184 185 184 183 185 184 183 183 186 183 183 184 187 183 183 184 186 184 167 150 153 122 119 122 120 123 126 125 124 126 126 128 130 132 131 132 132 133 135 137 137 138 138 139 141 140 143 142 143 146 144 147 148 148 149 150 151 152 153 152 153 154 154 156 159 157 156 160 163 160 159 159 161 163 161 163 165 165 165 167 167 167 167 167 168 170 170 171 170 168 170 173 174 173 171 169 168 173 177 173 173 174 175 174 174 174 174 173 173 175 176 174 173 173 174 174 174 173 173 175 176 175 173 172 173 173 174 180 183 185 184 184 184 184 185 184 183 184 185 184 183 184 185 185 184 183 183 184 184 184 184 184 183 184 185 183 185 186 182 184 185 183 182 186 183 180 186 182 186 183 181 171 158 166 181 209 246 250 238 236 236 237 238 238 252 255 254 254 254 250 238 237 237 237 237 237
252 252 252 252 252 251 240 237 238 237 237 238 250 252 252 250 255 248 247 206 100 62 68 61 69 67 66 70 119 183 185 185 182 185 184 184 185 184 183 185 185 183 184 184 184 184 185 184 184 185 182 183 185 183 184 185 184 185 184 183 184 185 184 183 184 184 183 184 184 183 184 186 185 183 184 185 184 183 165 142 137 120 120 121 122 123 125 125 125 127 126 127 130 132 131 132 133 134 136 136 136 139 139 140 141 139 141 140 144 148 146 145 148 148 149 151 151 152 153 152 154 154 155 156 159 158 157 160 162 160 159 161 162 161 161 164 165 166 166 167 166 167 168 167 169 170 170 170 170 171 173 171 171 171 171 170 171 174 174 174 174 173 174 175 175 174 174 173 173 174 174 173 173 173 174 174 175 175 175 175 175 174 174 174 173 173 175 182 185 184 184 184 184 184 183 184 183 184 185 183 183 183 185 186 185 183 184 184 183 183 184 184 184 187 186 185 186 184 181 182 184 184 182 187 186 179 181 183 185 184 182 180 159 156 172 189 228 250 239 238 238 239 239 239 251 253 254 253 253 249 237 236 236 236 236 236
248 248 248 248 248 248 244 240 243 242 242 244 246 248 247 249 245 249 239 149 70 65 65 64 70 67 69 71 132 185 186 183 183 185 182 183 184 185 185 184 185 184 183 184 185 184 184 184 184 184 183 184 184 185 183 183 186 185 183 185 184 183 185 184 183 185 184 184 184 184 185 186 181 185 185 184 183 181 156 123 119 118 120 121 122 123 125 124 125 128 128 128 130 131 131 132 134 135 136 135 137 139 139 141 141 140 141 142 144 146 147 147 148 148 149 150 150 152 153 153 155 156 155 156 158 158 159 158 159 160 161 162 162 161 161 164 164 164 164 166 167 168 168 168 170 170 170 170 171 172 173 170 169 172 174 172 172 175 172 174 175 174 174 174 174 174 174 173 173 174 174 173 174 175 174 174 174 174 175 174 174 174 174 175 175 174 174 181 184 184 185 183 183 183 184 185 184 184 183 183 184 183 184 185 184 184 185 185 184 183 184 183 182 184 185 186 184 183 182 183 186 185 185 185 185 183 180 185 182 186 185 184 171 156 158 173 204 239 244 244 245 243 244 245 246 247 247 247 247 247 241 241 241 241 241 241
237 237 237 237 237 239 251 252 253 252 254 252 240 238 237 241 232 244 207 97 65 69 63 69 66 67 70 70 141 186 185 183 184 183 182 185 184 184 185 183 183 185 184 184 184 184 182 184 184 185 185 183 183 186 183 183 185 185 184 184 184 183 185 185 183 185 184 184 185 182 184 185 180 185 185 183 184 186 168 129 120 117 121 123 121 123 123 125 128 126 128 128 131 131 132 132 134 135 135 136 139 136 138 142 141 141 142 143 144 145 148 149 148 147 150 151 150 152 153 154 156 155 155 156 158 157 161 159 157 160 161 162 162 162 163 164 164 165 164 166 167 166 167 169 170 171 171 170 170 172 171 169 170 172 173 172 174 175 173 175 174 174 173 174 174 174 174 174 174 174 173 174 174 175 174 175 175 174 175 174 173 173 174 176 175 175 175 181 183 184 185 185 184 183 184 185 185 184 184 183 184 185 184 183 182 184 185 184 184 185 185 184 183 182 184 186 184 182 184 184 185 185 187 182 183 184 181 186 180 187 187 184 181 164 149 160 180 221 251 252 254 251 252 251 237 238 236 238 237 241 252 253 253 253 253 253
237 237 237 237 237 238 251 253 253 252 254 251 242 236 239 234 240 234 149 70 64 66 67 69 66 69 69 72 147 185 183 184 184 182 184 186 184 184 185 183 182 184 184 184 184 184 183 184 184 185 185 183 183 186 184 183 184 184 183 183 184 184 184 185 183 184 184 184 183 184 185 182 185 183 184 183 185 180 159 126 120 119 120 122 121 123 123 125 127 125 127 129 131 132 132 132 132 135 136 136 139 137 138 140 140 141 142 143 145 146 148 148 148 148 150 150 150 153 153 154 156 155 155 156 158 158 158 160 160 160 160 161 159 160 163 166 166 166 165 166 166 166 167 170 171 171 171 170 168 170 171 172 172 173 172 172 174 174 173 175 174 174 174 173 174 174 174 175 175 175 174 175 175 175 175 175 175 176 176 177 176 175 176 176 175 174 175 180 183 184 185 186 184 183 184 184 185 185 184 184 184 184 184 184 183 183 184 183 184 185 185 185 183 182 183 185 184 185 185 184 184 184 185 183 183 186 183 183 184 185 185 184 185 176 158 154 165 200 245 253 252 253 251 250 237 237 237 237 237 240 252 254 254 254 254 254
237 237 237 237 237 238 248 254 252 253 253 251 243 236 239 232 244 202 97 62 66 64 68 68 67 70 69 75 151 184 183 185 183 184 185 185 184 184 183 184 183 184 184 184 183 184 185 184 184 185 184 183 184 184 184 184 183 184 184 183 184 185 183 184 184 183 183 185 183 185 185 181 187 183 183 184 187 175 150 122 118 120 120 121 122 124 124 125 126 125 127 130 131 132 133 132 131 135 137 137 138 139 139 139 140 142 143 142 146 147 148 148 148 148 150 150 151 153 153 153 155 155 155 157 158 158 157 160 161 160 159 161 158 159 163 166 167 167 166 167 166 167 167 170 171 170 171 170 168 170 172 174 174 173 171 172 174 173 174 174 174 174 175 175 176 176 176 178 178 176 176 177 177 177 177 177 176 178 178 178 177 176 177 176 175 175 175 179 183 184 185 186 185 183 183 183 184 185 185 184 184 183 184 185 184 183 184 184 184 184 184 185 185 183 183 184 184 186 185 183 184 183 183 183 184 186 184 181 186 181 183 184 185 184 171 154 155 179 231 253 251 255 252 249 237 236 238 237 238 239 253 254 254 254 254 254
237 237 237 237 237 238 247 254 252 253 253 252 240 238 236 238 232 148 69 64 66 67 68 67 69 69 71 78 156 184 184 184 184 186 184 183 185 184 183 185 184 183 185 183 183 184 185 183 184 184 184 184 186 182 184 186 183 183 185 184 184 185 184 184 184 183 183 185 184 185 184 183 185 184 184 186 182 160 137 120 118 120 120 121 123 125 123 125 126 126 128 130 131 131 133 133 133 136 137 136 138 139 139 140 141 142 143 142 146 145 147 149 148 148 151 150 152 154 153 153 155 155 155 157 158 159 158 160 160 160 160 161 161 160 162 165 165 165 166 167 167 169 169 170 170 169 170 170 170 172 172 174 172 171 172 173 174 173 175 174 174 175 177 177 177 177 177 177 177 177 177 177 177 177 178 178 177 177 177 177 177 177 177 177 176 176 175 178 182 183 184 185 185 184 183 183 184 184 185 185 184 183 184 185 185 183 184 184 184 183 183 184 186 186 183 183 184 184 184 182 183 184 183 182 184 184 185 183 187 180 181 185 185 185 180 162 152 162 207 248 253 253 253 248 239 237 237 237 239 239 253 254 254 254 254 254
237 237 237 237 237 238 248 254 252 254 253 252 238 240 235 243 203 100 58 69 66 68 67 67 70 69 70 80 161 184 185 183 184 187 182 182 186 184 183 185 185 183 184 183 184 184 184 184 184 183 184 184 186 181 184 185 184 184 184 185 184 184 184 184 184 184 184 184 185 185 183 185 182 186 184 185 172 141 120 116 119 119 120 122 122 124 123 126 126 128 130 131 130 131 133 134 134 136 135 136 138 138 138 141 142 143 143 143 145 144 147 149 148 150 151 149 152 153 153 153 155 155 155 158 158 159 158 159 160 161 161 161 163 162 162 164 163 163 166 168 168 169 171 170 169 169 169 170 172 172 171 173 171 170 173 174 172 174 176 173 174 175 177 178 177 177 177 176 176 178 178 177 176 176 178 178 178 177 176 177 178 177 177 176 177 177 176 176 181 183 183 183 184 184 184 184 184 183 184 185 184 184 184 184 185 184 183 184 184 184 183 183 186 186 184 183 183 183 183 182 184 186 184 182 183 184 187 185 186 182 183 184 183 184 185 172 156 152 183 235 253 250 252 248 241 238 237 237 238 240 253 253 253 253 253 253
245 245 245 245 245 245 246 246 246 245 246 245 246 246 245 242 156 73 63 67 67 68 65 68 70 68 70 87 171 184 184 183 185 184 183 184 185 183 183 185 183 184 185 183 184 184 184 183 185 183 184 184 185 183 184 183 184 184 184 184 184 184 184 184 184 185 184 183 185 184 183 186 182 188 181 159 137 118 115 119 120 119 121 121 122 124 124 127 126 127 129 130 131 131 133 133 135 135 135 138 139 137 138 141 142 143 142 144 146 146 147 148 148 150 151 149 152 153 152 153 155 155 155 158 158 158 157 160 162 161 161 159 162 164 162 163 164 165 168 168 167 167 170 170 170 170 169 170 171 172 172 172 172 171 173 174 173 174 175 175 176 176 177 178 178 178 177 177 177 178 178 177 176 176 177 178 177 176 175 176 178 178 178 177 177 177 177 177 180 183 183 183 184 185 184 184 184 184 184 185 184 185 185 184 184 184 182 184 185 185 183 183 184 185 184 183 185 184 184 184 185 185 185 183 184 183 184 185 184 187 182 182 184 184 185 183 169 153 159 207 244 245 245 245 245 245 245 246 245 245 246 246 246 246 246 246
253 253 253 253 253 252 242 236 238 236 237 239 250 252 254 223 110 60 69 64 67 65 65 70 67 69 69 101 178 182 184 184 184 182 185 184 184 184 184 185 183 185 184 184 184 184 184 184 184 184 183 185 182 186 184 183 184 185 184 184 183 185 185 183 183 185 183 184 184 184 183 184 184 182 155 123 113 112 116 119 120 119 121 120 123 124 124 126 126 126 129 130 131 131 133 133 135 136 135 138 138 137 139 141 141 142 140 144 146 147 149 147 148 149 149 150 152 153 153 154 155 156 156 158 159 158 159 160 160 160 161 159 162 164 163 163 165 166 168 168 167 166 169 170 170 171 170 170 172 172 173 171 172 173 174 173 174 175 173 175 177 177 176 177 177 177 177 178 177 177 177 177 177 177 177 177 177 178 178 177 175 177 178 179 178 177 177 177 179 184 184 184 184 184 184 183 184 185 183 183 184 185 185 183 183 185 184 184 184 184 184 184 183 183 184 184 185 184 184 185 185 183 185 186 184 183 182 183 181 188 183 179 185 186 184 190 183 160 141 177 227 238 236 244 248 251 253 253 252 250 237 236 236 236 236 236
253 253 253 253 253 252 242 237 236 237 238 239 248 252 254 174 77 59 68 65 66 64 68 69 66 71 69 127 180 178 183 185 183 183 184 184 184 184 185 184 184 185 183 184 184 184 183 185 184 185 184 184 182 186 183 184 185 184 185 185 183 183 185 185 183 185 184 185 183 184 185 184 180 155 123 111 111 114 116 119 119 118 122 121 123 124 124 125 126 127 129 131 131 131 133 133 134 137 136 137 137 137 139 142 141 143 142 144 145 147 150 148 148 149 149 150 152 153 153 154 155 155 157 157 158 158 160 160 159 160 162 161 161 160 165 165 166 165 167 167 167 167 169 170 170 171 170 170 172 172 173 171 172 173 173 174 174 175 173 175 177 176 176 177 177 177 177 178 178 177 176 177 177 177 177 177 178 179 179 177 175 176 177 178 178 177 176 176 180 185 185 183 183 184 184 184 185 184 183 183 184 185 184 183 183 184 184 184 183 184 186 184 182 183 185 185 184 184 184 184 184 182 185 186 183 183 183 184 181 186 185 180 181 185 184 188 187 171 142 154 202 237 234 242 251 252 253 253 252 251 237 236 236 236 236 236
253 253 253 253 253 252 241 237 236 238 236 238 249 253 238 118 61 66 66 66 65 67 71 68 69 70 75 151 179 183 184 184 183 185 184 183 184 184 185 184 183 185 183 184 184 184 183 184 185 185 184 184 184 184 183 185 183 184 185 185 183 182 184 185 184 183 185 185 183 185 187 180 156 121 111 112 112 115 117 121 119 117 122 122 123 124 124 125 126 128 130 131 131 132 133 133 134 137 137 136 137 138 138 142 141 143 144 144 144 146 149 150 149 149 150 151 154 153 152 153 154 155 158 157 157 158 158 160 161 161 162 163 158 158 166 168 167 165 166 167 166 169 169 170 170 170 171 171 172 172 172 171 172 172 173 175 174 174 174 176 176 176 176 177 177 177 178 178 176 177 177 177 177 177 177 177 177 178 178 178 178 176 175 176 178 177 175 176 181 185 185 184 184 184 185 185 184 183 184 185 185 184 183 183 182 183 185 185 183 184 185 184 182 183 185 185 183 184 185 185 184 185 183 183 185 185 183 184 185 182 183 182 177 181 185 183 185 181 155 141 176 231 236 238 252 255 253 254 253 251 238 237 237 237 237 237
253 253 253 253 253 252 240 236 238 237 235 238 249 255 196 79 59 71 66 67 66 67 69 69 71 69 83 160 150 176 184 183 184 185 183 185 184 182 185 185 182 185 184 184 184 183 184 184 185 185 184 184 185 183 184 185 183 184 184 184 184 184 183 184 185 183 185 183 185 186 175 152 123 108 112 114 113 114 117 120 118 118 122 121 123 125 124 126 126 129 129 131 132 132 133 133 133 137 137 136 137 139 139 141 141 142 142 143 146 147 148 149 148 148 149 151 154 153 153 153 154 154 157 158 158 159 159 160 160 161 161 163 158 159 166 167 167 166 167 167 166 170 170 170 170 170 171 172 172 173 172 172 172 173 173 174 175 175 175 175 176 177 178 177 177 177 177 177 176 176 177 177 177 177 177 177 177 177 176 178 179 178 176 176 177 177 177 179 183 184 185 185 184 183 184 184 183 183 184 185 184 184 184 184 183 184 185 184 183 183 184 185 185 184 184 184 183 184 183 185 185 185 183 182 183 186 184 184 186 181 182 184 178 180 185 182 183 185 168 143 154 212 240 239 252 255 253 254 252 250 238 237 237 237 237 237
253 253 253 253 253 253 239 238 237 237 237 240 247 248 140 62 66 70 65 66 67 67 69 70 70 67 92 158 103 160 183 181 184 182 178 185 183 183 186 183 184 184 185 184 183 184 186 184 184 184 184 182 185 184 184 183 185 185 183 183 185 186 183 183 185 183 183 185 185 169 139 117 110 112 112 114 114 113 116 118 119 120 121 120 124 125 124 126 127 128 129 131 132 132 133 133 133 135 136 137 138 139 141 141 141 141 141 144 147 147 148 147 147 149 150 151 153 153 153 154 155 154 156 157 158 159 162 161 158 159 161 162 161 162 165 165 165 167 168 167 167 171 171 171 170 170 171 172 172 173 172 172 172 174 173 174 175 174 176 177 178 178 177 177 177 177 177 178 178 178 178 178 178 178 178 179 179 178 177 176 177 177 177 178 177 176 179 182 184 183 184 185 185 183 183 184 183 184 185 184 184 184 185 185 185 184 184 184 185 183 183 184 186 184 183 184 184 183 182 183 183 184 186 186 182 184 183 181 186 186 185 184 180 179 184 185 184 186 178 157 138 180 238 243 250 252 252 252 252 249 239 237 237 237 237 237
243 243 243 243 243 244 245 248 245 247 248 245 245 217 92 61 68 64 66 65 67 68 69 69 69 69 102 143 89 166 184 182 184 181 182 185 182 185 185 183 185 184 184 183 184 184 185 183 184 183 185 184 184 185 184 183 185 184 183 184 185 184 183 184 186 182 183 189 175 138 114 108 110 114 111 113 115 113 118 120 120 119 121 121 123 124 125 126 126 128 130 131 131 132 133 133 133 135 136 138 137 137 141 141 141 142 142 145 147 146 147 147 148 150 151 150 152 153 154 155 155 155 156 157 158 159 162 159 157 160 161 161 163 164 164 163 163 166 168 168 169 170 170 170 170 171 172 172 171 172 171 172 172 174 174 175 174 173 175 178 178 178 177 176 176 177 177 179 180 179 179 180 179 178 178 179 179 178 178 178 178 178 179 179 178 177 180 183 184 183 182 184 185 184 183 184 184 184 185 184 183 184 184 185 185 184 183 183 186 185 183 184 185 183 182 184 184 184 184 183 182 184 184 185 184 183 183 183 184 187 186 184 182 179 181 185 183 184 184 174 144 156 224 247 244 242 244 242 244 243 247 247 247 247 247 247
237 237 237 237 237 238 250 254 251 253 254 249 243 166 66 66 68 63 68 65 67 69 69 70 67 72 112 118 95 175 184 183 185 184 185 183 183 186 183 183 184 184 184 184 184 184 184 184 184 184 184 185 183 184 184 185 184 183 185 185 184 183 184 185 183 183 186 183 148 114 107 110 111 113 112 112 113 114 119 118 119 119 120 121 123 124 125 126 125 127 131 131 131 131 133 133 134 136 136 138 138 137 141 141 141 143 143 144 146 146 148 148 148 149 151 150 152 153 154 155 155 155 156 158 158 158 160 159 160 162 161 160 163 164 163 163 164 166 167 168 169 169 169 170 170 171 172 172 172 172 171 173 173 174 175 175 174 173 175 178 178 177 177 176 177 178 179 179 179 180 179 180 179 178 178 178 177 177 179 178 177 177 178 179 179 178 182 183 184 183 182 184 185 185 184 184 185 184 184 184 184 184 184 184 184 184 183 183 184 185 185 185 184 183 183 184 184 184 184 182 182 183 182 184 185 184 185 184 183 184 184 183 184 181 180 184 183 183 185 185 161 144 196 245 241 237 238 237 238 240 252 253 253 253 253 253
237 237 237 237 237 238 250 253 253 253 253 251 230 114 62 68 66 66 66 65 67 70 69 70 68 73 119 103 109 180 184 183 185 184 185 184 183 185 183 184 185 183 184 185 183 184 184 185 184 185 184 185 183 183 183 186 183 183 185 184 184 183 185 185 182 184 187 174 127 108 107 110 113 111 114 112 112 116 119 117 118 120 121 120 123 124 125 127 126 127 130 132 131 131 133 134 135 136 136 138 138 138 140 140 141 143 143 143 145 147 148 148 148 149 150 150 153 153 153 154 155 155 157 159 158 158 157 161 163 161 160 160 162 165 165 165 165 166 166 167 168 170 170 170 171 172 172 172 172 172 172 174 174 174 174 174 174 174 175 178 177 176 176 177 178 178 179 179 179 179 179 179 178 178 177 177 176 177 179 178 177 177 177 177 177 178 183 184 184 184 183 183 184 185 184 183 184 184 184 184 185 184 183 184 184 183 184 183 183 184 185 185 184 184 184 184 183 183 184 183 184 183 182 184 184 183 185 184 184 180 183 183 184 183 181 183 185 183 182 186 176 145 165 233 241 237 238 237 237 240 253 254 254 254 254 254
237 237 237 237 237 238 250 252 255 253 252 252 198 77 68 68 64 68 66 67 66 70 69 70 70 73 130 100 128 184 185 183 185 183 184 185 184 184 183 183 185 183 184 185 183 183 184 184 184 184 185 183 184 184 183 186 182 180 184 182 184 185 184 184 185 184 184 161 110 107 109 110 114 110 112 114 111 115 117 117 119 120 122 120 123 123 124 126 127 126 129 132 130 131 133 134 134 136 136 137 139 139 140 140 141 143 142 143 146 149 148 148 147 149 149 151 154 153 153 154 154 155 158 159 158 159 157 160 162 160 160 161 161 164 166 167 166 166 166 166 168 171 170 171 172 172 173 172 171 171 172 174 175 173 173 174 174 174 175 177 176 176 177 178 178 178 178 177 177 178 178 177 177 177 177 176 176 177 177 177 178 178 177 176 176 178 184 185 185 185 184 183 184 185 183 183 184 185 185 185 184 183 183 185 184 183 184 184 184 184 184 185 184 184 184 185 184 183 185 184 184 183 183 184 182 183 185 184 183 180 183 184 184 184 183 182 184 184 181 184 185 157 147 210 240 238 238 237 237 240 252 253 253 253 253 253
237 237 237 237 237 238 250 252 254 253 253 249 152 64 70 66 65 68 65 67 67 70 69 69 71 75 146 108 147 184 184 184 184 184 185 183 183 184 183 182 184 185 184 184 185 183 184 184 184 181 186 182 185 177 163 148 143 141 140 142 164 187 182 180 188 184 183 159 107 109 109 110 113 111 111 115 112 114 118 120 119 118 121 121 122 123 127 126 126 126 128 131 132 132 132 132 135 136 136 137 138 139 139 141 142 142 141 143 146 147 149 148 147 150 150 151 153 153 154 155 156 156 158 158 158 160 160 158 160 160 160 162 160 164 166 166 167 166 166 166 168 171 171 171 171 172 171 172 172 172 172 174 175 173 173 174 175 174 174 175 176 177 178 178 178 178 177 177 177 177 176 177 177 177 178 177 176 176 175 176 177 178 177 177 177 180 184 184 185 185 183 182 183 185 185 184 182 183 185 185 183 183 184 184 185 186 184 184 184 183 182 184 185 183 183 184 184 184 184 185 184 184 184 183 183 184 185 185 183 183 184 185 184 184 184 182 184 183 182 183 186 173 147 180 235 239 236 237 236 240 252 253 253 253 253 253
238 238 238 238 238 239 249 253 251 252 253 235 106 66 67 65 65 66 65 67 68 69 70 68 70 81 156 108 160 185 183 185 183 185 186 182 183 184 184 183 183 186 183 183 186 184 184 173 165 154 172 172 183 182 156 108 95 98 98 96 123 165 158 157 182 186 184 161 108 109 109 109 111 113 111 115 113 113 118 121 120 116 121 121 121 124 127 126 125 127 129 130 133 132 132 132 135 137 135 137 137 139 139 141 141 142 141 145 146 145 148 149 148 150 150 149 151 153 155 156 157 157 158 158 158 159 162 159 159 161 161 160 160 164 164 164 166 168 167 167 168 170 171 171 171 171 171 172 173 172 171 173 175 174 173 175 176 173 173 174 176 178 178 177 176 176 177 178 178 176 176 177 177 179 179 177 176 176 176 177 177 178 176 176 177 183 185 184 183 184 184 183 183 184 186 185 182 183 185 184 183 183 184 184 184 187 184 182 185 184 181 183 185 183 183 184 183 183 184 185 184 184 184 183 186 185 183 185 182 186 185 184 182 184 184 182 183 183 185 184 185 185 160 152 221 240 237 238 237 242 250 251 251 251 251 251
249 249 249 249 249 249 243 240 242 240 241 199 78 67 66 66 68 65 66 67 69 69 69 71 71 94 157 96 156 185 184 184 183 183 185 184 183 182 183 182 184 182 184 185 183 187 168 119 101 93 111 119 162 181 164 116 92 93 99 95 103 117 107 117 166 187 184 164 112 109 109 109 109 113 113 112 113 113 117 119 120 120 120 121 122 124 123 126 127 127 129 131 131 130 133 134 133 136 135 137 139 139 138 140 141 144 143 142 146 146 147 149 149 149 151 150 152 153 153 154 155 158 159 157 157 158 161 161 158 161 162 162 161 163 164 164 165 167 167 167 168 169 169 170 170 172 172 171 173 171 170 171 172 175 175 174 174 173 173 176 177 177 176 176 177 177 177 178 177 176 177 178 177 177 177 177 177 178 177 177 177 177 176 177 178 183 185 184 182 182 184 186 185 182 182 184 185 186 184 183 186 185 184 185 182 181 186 185 183 184 186 184 182 183 184 184 184 185 184 184 183 184 184 184 185 184 183 184 183 184 184 183 181 181 185 185 183 184 186 183 182 188 174 142 202 248 250 250 250 248 242 241 241 241 241 241
253 253 253 253 253 252 241 236 237 236 236 152 69 66 66 66 68 65 67 66 69 70 69 71 73 117 155 86 150 185 184 183 184 184 184 184 185 183 183 184 185 182 183 186 182 175 133 88 86 86 91 90 115 121 124 107 95 93 97 96 99 103 98 103 144 181 185 170 114 107 110 110 109 113 112 113 112 114 117 119 120 119 122 121 121 125 122 126 126 126 129 132 129 130 134 134 134 136 136 137 138 137 141 140 141 142 141 142 146 146 148 149 148 148 150 150 153 154 153 154 154 156 157 158 158 159 160 159 159 160 161 162 162 162 164 165 165 165 166 167 168 169 169 169 170 170 173 172 171 172 172 171 172 172 174 173 174 175 173 175 175 176 177 177 178 177 176 176 177 178 178 178 177 176 176 177 177 178 177 177 177 178 177 177 177 181 184 184 184 183 183 185 185 184 182 183 185 185 184 184 184 185 183 184 186 182 183 186 183 183 186 186 183 183 184 184 184 184 186 186 183 183 186 184 183 185 185 185 184 184 183 182 182 181 183 184 182 184 184 184 184 186 180 152 176 246 255 253 254 251 239 237 237 237 237 237
253 253 253 253 253 252 240 237 238 235 230 106 68 67 66 66 66 66 66 66 71 70 68 71 90 158 151 76 131 183 184 183 185 184 183 185 185 183 183 184 186 182 186 183 150 120 91 83 87 86 88 89 92 91 96 95 94 94 96 97 100 101 99 98 125 174 184 176 115 109 109 109 111 112 111 114 113 114 116 118 120 119 122 121 122 123 123 126 127 126 129 131 131 131 133 133 135 135 137 137 137 138 140 141 142 141 141 143 144 145 149 149 147 148 150 150 152 153 154 155 156 154 155 158 158 159 159 159 161 160 160 161 161 162 164 165 165 165 166 167 167 167 169 170 170 169 170 173 170 173 173 173 171 171 173 174 173 174 175 174 174 176 178 178 176 176 176 176 178 178 176 177 177 177 177 177 177 177 177 177 177 177 178 177 177 182 183 184 184 184 183 183 184 185 184 183 183 184 185 184 182 183 185 184 186 186 182 183 185 183 182 186 187 185 183 183 184 183 185 183 183 184 185 184 182 184 184 182 183 185 185 186 184 183 182 183 184 185 184 183 184 183 183 168 152 234 255 252 253 250 238 237 237 237 237 237
253 253 253 253 253 252 239 238 236 236 207 79 67 66 66 66 64 67 65 67 70 69 69 68 91 171 150 75 133 185 183 185 184 184 185 183 184 185 184 184 184 185 187 159 107 86 83 86 85 87 89 90 90 91 94 94 94 94 97 98 99 99 100 100 126 178 184 178 119 109 109 108 111 112 112 114 114 114 117 118 118 118 120 121 122 123 124 125 126 126 129 130 131 131 132 132 134 136 137 136 138 139 137 142 142 142 142 142 145 146 148 148 147 148 149 149 151 153 154 155 156 154 154 158 159 158 158 159 162 160 160 161 161 161 163 165 165 164 165 166 167 167 169 171 171 170 169 171 171 172 172 173 172 170 172 173 172 173 175 174 174 175 176 177 176 176 176 176 177 178 177 177 177 177 177 177 177 177 177 177 176 177 178 177 177 182 184 183 184 184 183 182 183 185 185 184 183 183 184 184 183 183 184 184 184 186 185 182 185 184 181 183 186 186 183 183 184 183 184 182 184 186 183 184 184 184 185 185 184 184 187 186 184 185 183 182 183 184 183 184 186 183 186 177 144 215 253 251 252 249 237 236 236 236 236 236
253 253 253 253 253 252 240 239 236 240 166 69 66 65 66 66 65 67 66 69 69 68 69 68 82 150 149 75 121 182 184 185 184 184 185 183 184 185 184 182 180 188 177 126 88 82 86 85 85 87 89 91 90 91 93 94 95 93 97 98 99 99 100 104 134 185 184 176 127 107 108 109 112 112 112 112 113 114 117 118 118 119 120 120 121 123 125 125 126 126 128 128 131 131 132 132 133 135 136 136 139 139 137 140 141 142 142 142 146 147 146 148 147 148 148 149 150 152 153 154 155 155 155 157 158 158 158 160 161 160 160 161 160 161 162 164 164 165 166 166 166 167 168 170 170 170 169 170 171 171 172 172 172 172 172 172 172 173 174 174 174 174 174 176 176 177 177 177 177 177 177 177 177 177 177 176 177 177 177 176 176 177 177 177 178 182 184 184 185 184 183 184 184 185 185 185 183 183 184 184 184 183 184 185 184 184 184 183 183 185 183 184 184 184 184 183 184 184 183 182 185 184 182 184 185 184 185 185 185 184 185 184 184 186 185 183 183 183 183 184 184 183 186 181 153 189 250 252 252 249 238 237 237 237 237 237
251 251 251 251 251 251 241 240 239 239 123 67 66 66 65 66 66 66 66 69 68 69 68 69 72 123 155 79 103 177 185 183 186 184 183 185 184 183 185 184 181 184 153 96 82 85 86 85 86 87 89 90 90 92 92 93 95 94 97 97 99 100 99 101 133 183 183 179 137 108 107 110 112 111 113 112 112 114 117 117 117 120 121 119 122 124 124 125 126 127 128 128 131 132 132 133 133 135 136 137 139 137 137 140 141 141 142 143 145 147 146 147 148 148 148 149 150 151 153 153 154 155 156 156 157 157 159 160 160 159 160 160 161 161 161 162 164 166 167 166 165 166 167 168 169 170 171 170 170 171 172 172 172 174 172 171 172 172 172 174 175 174 173 175 177 178 178 177 177 177 177 177 177 177 177 176 177 177 177 176 175 176 175 175 177 182 184 185 185 185 184 183 183 185 185 184 183 183 184 185 184 184 185 185 184 182 182 184 183 184 185 185 183 183 185 184 184 185 182 184 185 183 184 184 183 184 185 183 185 185 182 182 186 185 186 185 184 184 184 185 182 183 186 183 167 164 240 250 248 248 240 239 239 239 239 239
239 239 239 239 239 240 249 250 251 230 95 67 66 66 65 66 66 65 66 69 69 70 67 68 71 120 155 77 94 173 185 184 184 184 183 186 184 183 185 184 180 185 139 85 84 85 85 86 86 87 89 90 90 92 92 93 95 94 97 96 100 100 99 103 134 182 186 182 142 109 107 110 111 111 111 112 113 113 115 117 119 120 119 120 122 122 124 125 126 126 127 128 131 131 131 133 133 135 136 136 137 137 138 139 141 141 142 142 143 145 146 147 148 149 148 150 150 151 153 153 153 155 156 155 156 156 158 160 159 159 161 161 160 160 161 161 163 165 166 167 166 166 166 167 168 170 171 170 169 170 172 172 171 174 173 171 172 173 172 173 174 174 173 174 175 177 177 178 177 177 177 177 177 177 177 177 177 177 175 174 174 174 174 174 177 183 184 184 184 184 185 184 183 184 184 184 184 184 184 184 185 185 185 185 184 183 183 184 183 184 186 185 183 183 184 184 184 185 182 183 185 183 185 185 183 182 182 182 185 187 183 183 186 185 186 185 183 183 186 186 183 184 186 185 176 146 217 241 239 242 250 251 251 251 251 251
237 237 237 237 237 238 252 252 254 199 77 67 66 65 66 66 66 65 66 68 68 69 69 69 69 119 146 78 115 184 184 184 183 185 184 183 184 184 184 183 182 182 125 82 86 86 84 86 87 87 89 90 89 93 93 92 94 94 97 97 98 100 100 99 120 166 186 184 138 108 113 118 115 116 113 110 113 113 115 118 119 118 119 122 121 121 125 125 125 127 128 129 129 130 131 133 133 135 137 136 135 138 139 140 142 141 142 142 142 145 146 148 148 148 148 150 151 150 152 153 153 155 156 155 156 157 158 158 158 160 161 161 160 160 160 161 162 163 164 165 166 166 166 166 167 169 171 171 169 169 171 171 171 171 171 172 172 172 172 174 174 174 173 173 174 174 175 175 176 178 178 177 176 176 176 175 175 174 174 175 175 175 174 173 178 184 184 183 183 184 184 183 183 184 184 184 184 184 184 184 184 184 184 184 184 184 185 184 183 183 185 183 182 184 185 184 183 184 184 184 183 183 185 185 184 184 184 185 185 183 182 183 185 185 184 184 183 183 183 185 186 186 184 183 181 150 199 237 236 241 252 253 253 253 253 253
237 237 237 237 237 238 253 253 253 159 69 67 66 66 67 66 66 65 68 68 68 68 69 69 70 124 137 74 114 182 183 184 183 185 185 182 184 185 184 183 185 180 119 83 86 86 84 84 87 87 89 90 90 93 94 92 94 94 96 97 98 99 101 98 108 148 184 185 134 110 118 123 115 120 115 111 113 112 115 118 119 118 119 122 120 120 124 124 125 126 128 130 129 130 132 132 133 134 137 135 135 138 139 140 141 142 141 141 142 145 146 147 149 147 147 149 151 150 151 152 152 154 155 155 156 157 159 158 157 160 160 160 160 160 161 161 161 162 163 165 166 167 167 167 167 168 170 171 170 170 171 170 170 170 172 172 171 173 172 173 173 174 174 174 174 173 174 173 174 177 177 175 174 174 174 173 174 174 174 175 174 174 173 173 179 185 183 182 183 184 185 184 183 183 184 185 184 184 184 183 183 184 184 183 184 185 185 184 183 184 184 183 184 185 185 184 183 184 184 183 183 184 185 183 185 185 184 186 184 182 182 183 184 184 183 184 184 183 182 184 186 185 183 183 183 162 183 233 237 241 252 253 253 253 253 253
236 236 236 236 236 237 251 253 248 123 67 67 66 67 66 66 67 66 67 69 70 67 69 69 75 141 136 73 93 171 184 184 183 184 184 184 184 184 184 182 188 179 116 86 84 85 85 84 87 87 89 90 90 92 93 93 94 94 95 97 99 100 102 99 98 129 175 183 130 108 108 111 110 122 114 112 114 111 113 117 120 120 119 121 120 121 124 124 126 125 126 129 129 131 131 132 133 132 134 136 137 137 138 139 139 140 140 142 144 144 144 145 149 148 148 150 150 150 151 153 153 152 153 155 156 157 159 159 157 158 159 159 160 162 162 162 161 163 164 164 165 166 167 167 167 168 168 170 172 170 170 169 169 171 173 172 171 173 173 172 172 174 175 175 174 173 173 173 174 175 174 174 174 174 174 173 174 173 175 175 174 173 173 174 179 184 184 184 185 184 185 185 184 183 183 184 185 185 183 182 184 184 183 183 184 185 185 184 185 185 183 183 185 185 185 183 184 184 181 179 183 184 184 185 185 185 183 184 183 184 185 185 184 185 184 184 184 184 184 182 183 183 183 185 182 172 171 229 239 239 253 253 253 253 253 253
237 237 237 237 237 238 249 252 233 99 68 66 67 66 67 66 66 67 66 70 70 67 69 68 76 141 131 72 83 158 182 186 183 184 184 184 184 183 184 184 183 155 96 84 86 85 84 85 86 86 88 91 90 91 93 94 93 94 95 97 99 99 102 100 95 114 161 174 126 106 107 112 107 115 111 113 115 112 112 116 119 120 118 120 122 121 123 125 125 125 125 128 130 131 131 131 133 132 134 136 138 137 137 139 137 140 141 142 143 144 145 146 147 147 149 149 148 149 151 152 153 152 153 155 155 155 156 158 157 157 159 159 160 161 162 162 161 162 163 165 165 165 166 167 167 167 166 169 172 171 170 169 170 171 173 172 171 173 173 171 171 173 174 174 174 173 174 174 175 174 173 173 174 174 174 174 174 173 174 174 173 173 174 175 181 185 184 184 186 184 184 185 185 184 183 184 185 185 183 183 184 185 184 183 184 185 185 184 184 184 183 182 184 185 184 182 184 184 180 181 185 185 184 184 186 185 181 183 183 185 186 185 183 185 184 183 184 184 184 182 183 182 183 186 182 181 167 223 240 240 252 253 253 253 253 253
242 242 242 242 242 242 247 250 207 84 67 66 67 66 66 65 66 66 67 70 70 69 69 68 73 126 134 73 77 146 181 187 183 183 184 184 184 183 184 186 176 130 84 84 87 84 84 86 85 86 88 91 90 91 93 94 94 94 95 97 99 100 100 101 96 105 140 151 115 106 106 115 109 114 114 114 114 113 112 114 118 120 118 119 123 122 122 124 124 125 124 127 130 131 131 131 133 133 134 137 138 137 137 139 137 140 142 142 142 143 146 146 147 148 149 148 148 149 150 152 153 153 154 156 155 155 155 157 158 158 159 160 160 160 161 161 161 162 163 164 165 165 166 166 167 167 166 167 171 171 170 170 170 171 171 171 172 172 172 171 171 172 173 174 174 174 174 175 175 174 173 173 174 174 174 175 174 174 174 174 173 173 174 175 180 184 184 185 185 184 184 185 186 184 183 184 185 184 183 184 184 184 184 184 183 185 185 184 184 184 184 182 184 184 183 183 184 184 182 184 185 185 185 184 184 184 182 183 184 186 185 185 184 185 185 184 184 184 185 183 184 183 183 185 183 183 167 216 243 243 249 249 249 249 249 249
252 252 252 252 252 251 240 242 169 75 64 67 66 66 66 65 68 65 68 69 69 70 69 69 70 113 151 78 75 146 184 184 184 182 184 185 183 184 184 185 169 112 84 83 86 85 84 85 86 88 89 91 90 91 93 94 94 93 94 98 98 99 99 102 101 98 110 114 103 107 113 136 119 113 115 113 113 113 113 114 118 120 119 120 122 121 121 123 125 126 125 126 129 131 130 131 132 133 134 136 136 135 135 138 139 141 142 142 141 141 144 146 147 148 148 148 149 149 149 150 151 153 153 154 155 156 155 157 158 158 158 159 161 160 161 161 162 161 162 163 164 165 166 166 167 167 166 167 169 170 170 169 170 170 170 170 172 172 171 172 172 171 171 172 174 174 174 175 175 174 174 174 173 173 174 175 175 175 174 174 173 173 173 175 180 183 184 184 183 184 185 186 185 183 184 185 185 183 184 185 184 184 183 183 183 184 183 184 185 185 184 183 183 183 184 185 185 184 184 185 184 183 184 184 184 183 184 183 182 186 186 183 184 183 185 185 184 185 184 183 183 184 184 183 184 186 176 213 250 249 239 238 238 238 238 238
253 253 253 253 253 252 242 237 142 69 64 67 66 66 65 65 69 64 68 69 68 71 68 70 69 101 154 84 74 141 186 183 185 182 184 185 183 184 184 185 154 93 81 83 85 85 85 85 86 87 89 91 91 89 93 94 93 93 95 98 97 99 99 102 103 98 105 107 103 107 116 144 122 109 115 115 114 114 114 113 117 119 119 120 121 121 120 123 124 127 126 126 129 130 130 132 132 133 134 135 135 135 136 138 139 140 142 141 140 141 144 146 147 148 148 149 149 149 149 149 150 153 153 153 154 156 155 156 159 158 158 158 160 160 160 161 162 161 162 162 163 164 165 165 167 167 167 167 168 169 170 169 170 171 170 169 172 172 170 172 172 172 171 172 173 174 174 174 174 174 174 174 173 173 174 175 174 174 174 174 175 174 173 173 177 180 182 184 184 185 184 184 184 184 185 186 184 182 183 185 185 184 183 183 183 184 183 184 185 185 184 183 183 184 184 184 184 184 185 187 185 183 184 184 184 183 185 183 182 186 185 182 184 183 185 185 184 185 185 183 184 184 185 182 184 185 177 205 250 251 237 236 236 236 236 236
253 253 253 253 253 252 242 227 119 66 66 67 65 65 66 66 67 65 66 69 68 69 68 69 69 89 135 83 72 128 184 183 185 183 184 185 183 183 184 185 147 85 83 84 85 85 85 85 86 88 88 89 90 91 92 93 93 94 95 96 97 101 100 100 103 101 104 106 104 106 107 128 121 110 112 113 115 115 114 113 117 119 119 118 120 122 121 122 124 125 126 126 128 128 129 132 132 133 134 134 135 136 137 139 139 138 141 141 141 142 143 145 146 147 148 148 148 148 149 150 150 153 154 153 154 155 154 155 157 158 159 159 159 160 159 160 161 161 161 161 163 164 164 165 166 167 167 167 167 167 169 170 170 171 169 169 171 171 170 172 172 172 172 171 172 173 173 174 174 174 174 174 174 174 174 174 174 174 174 174 175 175 174 172 174 176 181 185 185 184 183 183 183 184 185 185 184 183 183 185 185 184 183 183 185 184 184 184 184 184 185 184 182 184 184 184 184 183 185 187 184 182 185 186 183 183 186 184 182 185 184 183 184 184 185 185 184 184 185 184 184 184 184 184 184 183 181 198 247 251 237 236 236 236 236 236
253 253 253 253 253 252 243 213 99 63 66 66 65 65 68 68 65 66 66 70 69 69 70 68 72 73 86 73 70 110 179 184 183 186 184 184 184 184 184 184 142 81 84 85 84 85 85 85 86 87 87 90 89 91 92 92 93 95 95 96 96 100 101 99 102 102 103 105 106 107 106 117 119 109 110 112 115 113 113 116 116 116 119 118 118 121 122 122 123 125 126 127 127 128 129 132 132 132 134 134 135 136 138 138 138 139 141 142 142 143 142 145 146 145 146 148 147 148 150 152 152 153 154 153 154 154 155 155 156 158 159 159 158 159 159 159 160 160 160 161 163 164 164 165 166 167 168 168 167 166 168 171 171 170 170 171 170 169 170 172 172 172 172 171 171 172 172 174 174 173 174 175 175 175 174 173 174 174 174 174 174 175 175 174 173 174 180 184 184 183 183 183 183 184 184 184 184 184 184 184 184 185 183 184 185 184 184 184 182 183 186 186 183 183 184 184 182 183 186 185 182 184 184 185 184 184 185 184 184 182 182 184 182 183 183 183 184 184 184 183 184 184 185 187 183 184 184 192 241 251 238 237 237 237 237 237
253 253 253 253 253 252 240 196 84 62 66 66 65 65 67 68 64 67 67 70 69 69 70 68 72 69 74 72 69 95 171 184 183 187 184 183 185 184 183 183 136 79 84 85 83 85 86 85 86 87 87 89 89 91 92 92 93 95 95 95 96 100 102 102 107 107 104 104 105 108 106 109 111 107 110 112 116 114 113 115 115 116 120 118 117 120 123 122 123 125 126 127 126 127 129 132 132 133 133 133 135 136 138 137 137 138 140 141 142 142 142 144 145 145 146 147 147 148 150 151 151 153 154 153 155 155 155 155 155 157 158 158 158 159 159 159 160 160 160 161 162 163 164 165 165 167 168 168 167 165 166 170 171 170 169 172 170 169 170 171 172 172 172 171 171 172 172 173 173 173 174 175 176 175 174 173 174 174 174 174 174 175 175 174 173 174 180 184 184 183 183 183 183 183 184 184 184 185 184 183 184 184 184 184 185 184 184 185 183 183 186 186 183 183 184 184 182 183 184 184 182 184 184 184 184 185 183 185 185 181 182 185 183 184 183 183 183 183 184 184 185 184 186 187 183 185 186 189 235 250 238 237 237 237 237 237
248 248 248 248 248 247 242 182 71 65 66 66 66 66 66 66 64 68 68 69 69 67 70 69 71 70 72 70 71 83 159 185 183 185 184 183 185 185 184 180 127 80 84 84 84 86 85 85 84 88 86 89 90 89 93 92 93 95 94 93 99 116 139 150 162 163 148 126 111 106 106 108 111 108 109 117 117 113 115 113 113 118 119 120 119 119 123 122 123 124 125 125 125 128 131 129 130 132 131 132 137 137 136 135 136 140 139 140 143 141 138 142 146 147 148 148 147 148 148 149 150 149 151 153 153 154 156 156 153 156 158 158 158 159 161 161 159 161 161 160 162 164 165 165 165 165 166 165 167 168 167 167 170 169 169 171 169 169 171 170 171 172 173 173 172 171 171 173 172 172 173 174 174 175 174 175 174 174 174 174 174 173 173 174 173 173 176 182 184 183 186 186 186 184 180 182 185 187 184 182 184 184 185 185 184 183 184 186 183 181 184 185 185 184 184 186 186 183 180 183 184 184 184 182 184 186 183 185 186 181 183 183 185 185 183 184 185 182 182 182 184 183 183 185 184 183 184 187 227 246 244 244 244 244 244 244
238 238 238 238 238 239 248 164 66 67 67 67 67 68 64 67 65 67 67 69 69 69 69 68 73 71 71 69 73 77 148 185 184 183 185 183 183 184 185 182 117 83 83 81 87 86 83 85 85 86 86 90 91 89 92 93 92 94 92 94 137 164 158 137 153 179 187 175 143 116 114 108 111 109 109 111 113 114 122 116 116 116 118 119 120 120 121 122 122 123 126 125 124 130 130 129 130 131 132 132 135 136 135 138 136 136 139 141 142 142 141 143 144 145 147 149 147 146 147 149 151 150 152 153 152 152 155 156 154 156 156 157 158 159 161 162 161 161 160 160 159 161 163 165 165 164 166 166 168 169 167 167 167 168 170 170 170 171 171 169 168 169 172 175 173 172 172 172 172 173 173 174 174 174 174 174 175 172 173 175 174 173 173 173 172 171 172 179 186 186 185 183 183 187 187 185 182 184 186 184 182 182 183 183 184 184 184 185 185 185 182 182 183 184 186 184 185 185 182 184 186 185 182 184 186 183 183 185 186 183 184 183 185 185 184 184 185 183 182 183 184 182 183 181 183 181 181 181 212 241 252 253 253 253 253 253
237 237 237 237 237 238 245 136 67 66 66 67 65 66 65 67 66 67 67 70 69 69 69 68 71 70 69 72 73 76 145 185 184 183 183 186 184 183 184 177 107 81 82 84 86 83 85 85 84 87 87 87 91 90 90 94 93 93 93 108 152 143 118 101 131 166 173 182 180 162 148 120 109 109 110 110 111 113 118 112 116 118 118 118 120 119 120 122 122 123 124 125 125 127 126 130 130 130 132 134 134 137 136 136 137 136 138 140 140 143 142 140 142 145 146 147 149 148 147 147 149 151 151 153 153 152 153 156 156 155 155 157 159 160 159 161 160 160 159 160 160 160 162 164 165 166 166 167 167 166 167 167 166 168 169 169 169 172 170 170 170 170 171 172 173 173 173 171 171 172 173 174 174 173 174 174 174 173 172 174 173 172 172 172 172 173 175 178 182 185 187 185 181 180 185 188 183 181 184 185 184 184 184 183 183 185 187 183 185 187 183 182 184 184 185 183 185 184 184 183 185 184 184 186 183 182 184 185 182 184 185 184 184 185 185 184 183 182 185 183 182 184 186 182 185 183 184 184 203 238 252 253 253 253 253 253
237 237 237 237 237 238 242 116 67 66 66 64 67 64 66 66 65 66 68 69 69 71 68 69 70 72 69 73 70 79 150 183 184 184 185 184 184 184 183 172 102 79 83 83 83 86 87 84 85 85 86 88 93 93 98 99 90 93 95 108 120 107 120 108 103 108 119 152 178 179 181 158 124 109 108 110 112 112 112 111 114 116 117 119 119 118 120 121 121 122 123 126 128 125 125 129 133 130 129 132 133 136 137 136 137 136 137 139 139 142 143 142 142 145 146 146 147 148 149 148 150 150 148 152 154 154 153 152 156 154 154 156 159 160 157 159 161 160 159 161 163 163 162 161 163 164 165 168 167 167 167 167 167 168 167 168 172 172 167 168 170 173 173 170 171 173 171 169 173 173 172 172 173 173 174 173 171 172 171 171 172 173 173 170 170 171 175 177 182 183 182 183 184 185 184 183 184 185 185 183 183 185 185 184 184 184 185 183 185 185 182 183 186 185 183 182 185 185 186 184 184 184 185 184 183 185 184 185 182 184 185 183 183 183 184 184 182 182 184 182 183 184 185 187 186 186 183 184 196 237 252 253 253 253 253 253
238 238 238 238 238 238 232 103 61 69 66 65 65 65 68 65 66 67 65 69 69 69 70 69 70 71 72 71 69 87 161 185 184 184 185 184 184 185 185 175 106 80 84 82 83 87 85 84 87 81 99 119 139 159 165 140 97 93 94 95 97 101 123 112 100 97 103 110 122 136 173 182 160 130 113 109 110 112 113 118 113 115 116 118 119 121 119 120 121 122 124 125 126 126 128 127 130 132 132 131 133 134 134 136 139 139 138 139 140 140 142 143 142 144 145 144 145 147 149 149 150 150 149 150 152 153 154 153 155 155 155 156 158 158 158 159 160 159 159 160 163 163 162 160 161 163 164 166 166 167 167 167 167 167 167 168 170 169 169 172 172 171 169 169 170 172 171 172 174 174 172 171 172 172 172 172 173 174 173 170 171 172 172 172 174 173 171 172 180 183 183 183 184 186 184 182 185 186 183 182 185 186 185 184 185 183 181 183 185 184 184 185 183 183 184 182 182 185 184 182 182 183 184 185 184 185 185 182 185 185 186 183 182 183 184 183 185 186 183 181 184 185 183 184 187 186 182 180 192 232 252 253 253 253 253 253
238 238 238 238 238 239 219 88 67 65 67 66 67 67 66 65 66 65 67 69 69 69 69 69 71 68 72 69 73 107 174 185 185 182 184 186 185 183 186 182 117 81 86 82 84 85 84 85 85 89 147 177 181 184 188 156 100 94 93 94 96 96 102 100 99 98 101 102 104 108 153 182 183 173 153 127 113 110 119 136 125 114 116 117 118 120 118 122 121 123 124 123 125 127 128 126 127 131 132 132 133 134 134 134 137 137 137 138 142 142 141 141 140 142 142 145 147 148 148 148 149 150 151 151 152 153 153 153 155 155 156 156 157 156 157 157 158 160 162 161 160 159 161 163 164 166 165 164 164 166 167 167 167 168 167 168 168 166 169 172 172 170 168 170 170 171 172 173 171 172 172 173 173 171 170 172 172 173 173 171 170 171 172 173 174 173 169 169 180 184 185 185 184 182 182 183 186 184 182 185 184 185 185 184 185 187 183 182 184 185 185 186 183 182 184 182 184 184 182 183 184 185 184 184 184 182 184 184 186 186 183 183 183 183 184 185 185 184 184 183 185 184 183 184 185 183 182 181 187 228 252 253 253 253 253 253
245 245 245 245 245 245 208 80 68 66 66 67 68 68 64 66 66 66 68 68 68 69 68 69 72 70 73 68 75 120 186 182 184 185 184 185 183 182 184 184 138 83 83 83 84 84 85 86 84 98 166 185 184 188 173 132 94 90 93 96 94 96 100 99 100 100 101 100 103 104 125 149 169 183 181 159 141 120 109 120 117 112 114 117 119 119 119 120 120 121 123 123 125 126 127 127 127 129 132 132 132 134 135 135 135 136 138 138 140 141 140 141 142 141 142 146 147 147 147 147 147 148 150 151 152 153 153 153 154 156 156 155 156 157 158 158 158 159 161 162 159 158 160 162 163 164 165 165 164 166 166 167 166 167 167 167 166 168 169 170 170 170 170 170 170 170 171 171 170 172 173 172 172 172 172 171 171 170 172 172 172 171 170 170 169 170 170 171 180 184 184 184 184 183 183 184 184 184 184 186 184 183 183 183 184 186 184 184 186 185 182 184 184 183 182 182 184 185 184 186 186 184 183 185 185 185 185 185 185 185 183 183 183 181 184 185 184 183 184 185 183 183 184 182 183 183 183 183 187 227 245 245 245 245 245 245
252 252 252 252 252 251 194 74 67 66 65 67 67 66 64 65 67 66 69 69 69 68 69 69 68 72 68 74 72 104 180 183 182 186 183 184 185 183 183 183 159 89 80 84 83 84 86 86 83 111 176 184 185 183 142 105 93 91 94 94 93 97 97 98 100 101 99 100 103 106 104 113 149 180 186 184 180 152 117 111 116 113 114 118 119 120 119 119 121 120 123 125 125 125 126 128 128 129 131 131 131 133 134 137 135 135 136 137 137 141 143 141 142 139 143 147 146 146 146 147 146 147 150 151 151 152 154 154 150 154 156 155 157 158 160 159 158 159 159 160 160 160 161 161 161 162 164 165 167 165 165 166 165 167 168 166 166 169 168 166 167 170 171 172 171 170 169 169 169 170 170 170 172 172 172 171 171 172 173 172 171 170 169 171 169 169 170 171 181 184 184 184 184 184 183 185 183 184 185 184 184 182 183 185 183 183 184 185 185 184 184 183 184 184 183 185 185 186 185 185 185 181 184 186 183 185 183 182 181 181 184 183 185 182 184 185 183 184 184 185 182 183 185 183 183 183 186 184 188 225 238 237 237 237 237 237
252 252 252 252 252 251 186 71 62 67 66 67 66 65 67 66 66 66 66 68 70 68 71 69 68 73 69 72 69 87 152 184 186 182 183 184 185 186 183 183 170 99 79 84 83 84 85 84 86 130 184 185 183 173 117 88 93 94 94 92 93 95 96 98 101 99 99 101 104 104 105 124 155 157 151 156 150 132 115 121 137 133 134 144 140 128 120 118 120 120 122 124 125 125 125 126 127 129 130 131 131 132 132 135 134 137 138 139 138 137 141 141 141 142 143 144 144 144 145 146 147 149 150 149 150 151 152 153 154 154 155 156 156 156 157 158 158 159 159 159 160 161 161 161 161 162 162 161 164 166 167 165 165 164 167 167 166 167 167 167 166 167 170 171 171 171 170 169 170 171 171 170 170 170 171 171 173 172 170 169 168 169 171 171 171 170 169 169 180 186 185 182 183 185 187 186 183 183 185 184 183 183 184 186 183 182 186 183 182 184 186 183 184 184 184 187 185 184 186 180 181 185 185 183 181 182 182 182 185 183 185 183 184 182 183 185 185 185 184 183 182 184 184 182 185 184 186 184 186 219 238 237 237 237 237 237
252 252 252 252 252 251 174 69 64 65 66 65 65 66 65 66 65 67 66 68 69 69 71 70 67 72 72 69 70 73 112 172 187 185 185 182 184 187 183 185 179 115 79 83 83 83 86 83 97 156 185 183 183 180 118 89 92 95 95 93 95 96 96 97 100 101 99 100 102 104 105 108 113 110 108 111 111 110 114 124 153 176 176 184 181 166 141 125 119 121 122 122 123 123 127 126 128 129 130 132 128 130 135 134 135 138 137 138 138 137 138 141 141 145 140 138 142 144 147 148 148 149 149 148 149 152 150 153 157 154 153 155 154 155 155 156 158 158 159 160 161 160 159 160 161 162 163 161 161 166 167 164 165 165 165 164 166 166 166 167 166 165 167 168 169 170 170 170 169 170 170 169 171 172 171 171 171 170 168 169 170 170 171 169 168 168 168 168 179 183 184 182 184 186 184 183 181 181 185 185 184 182 185 188 183 181 186 184 181 183 186 184 186 184 184 187 183 183 181 180 184 188 185 180 182 183 183 184 186 184 183 183 184 182 183 184 184 184 183 183 183 182 185 184 185 187 186 185 185 210 238 238 238 238 238 238
253 253 253 253 253 252 168 67 67 64 67 65 66 66 66 66 66 66 65 68 68 71 70 68 69 70 72 69 71 69 82 135 179 187 182 183 184 185 183 185 183 132 85 80 84 83 84 89 127 180 186 181 186 183 118 88 92 93 93 93 94 95 96 97 100 101 99 101 101 102 107 105 108 107 107 108 108 110 111 114 140 177 182 185 186 183 166 148 131 120 122 122 123 123 126 125 127 129 129 131 129 129 133 132 137 137 136 136 136 138 140 141 141 143 142 140 142 145 146 146 147 147 147 148 150 151 149 151 154 153 153 154 154 155 155 156 158 158 157 158 161 162 159 159 160 160 162 162 160 162 164 165 165 164 164 165 166 165 166 167 167 166 166 166 167 168 168 170 170 170 170 169 170 171 170 171 170 170 169 170 171 169 167 166 167 167 167 169 179 182 184 186 185 183 182 184 183 184 185 184 185 184 184 186 184 181 182 187 185 182 184 185 183 183 185 185 184 183 182 184 188 185 182 182 183 183 185 185 185 184 181 184 185 182 183 183 184 184 184 185 183 182 184 185 182 186 183 183 182 205 237 237 237 237 237 237
253 253 253 253 253 252 165 66 67 67 66 68 65 65 68 67 67 65 66 68 69 70 68 68 71 72 70 72 68 75 69 90 152 183 184 183 186 184 183 184 185 166 126 87 83 96 113 116 154 186 186 182 183 165 108 87 93 93 91 93 93 94 96 97 97 100 100 100 101 101 107 104 105 107 108 108 108 112 119 119 131 168 182 184 181 187 181 177 164 127 120 121 121 125 126 126 126 127 126 129 134 132 128 132 136 135 136 137 138 137 137 140 141 138 143 143 142 143 144 145 146 147 147 149 150 150 150 151 150 152 154 154 153 155 155 155 156 159 158 157 158 161 161 160 161 160 160 162 161 158 160 166 165 164 164 165 164 165 167 165 166 166 166 166 167 167 168 168 169 168 169 170 170 169 167 167 168 168 167 167 168 166 166 167 168 168 167 170 182 184 185 186 184 182 184 185 184 185 184 183 185 185 184 183 184 183 182 186 184 184 183 184 182 185 184 183 186 183 185 187 185 181 184 187 183 183 186 186 184 183 182 185 185 182 183 184 184 184 184 183 181 183 183 185 183 182 183 183 183 203 236 237 237 237 237 237
242 242 242 242 242 243 157 67 66 65 67 67 65 66 67 66 66 66 66 68 70 69 69 69 69 69 70 72 71 75 71 74 98 145 185 184 184 186 183 185 181 186 172 132 133 161 179 167 179 187 183 182 176 126 95 93 89 91 93 93 92 94 96 96 98 101 100 98 103 102 115 113 104 106 108 107 111 131 158 150 148 168 179 181 165 165 147 145 153 126 119 121 122 126 128 128 126 125 128 132 132 130 132 135 129 134 137 134 139 139 137 139 141 138 139 142 141 141 144 147 147 147 149 147 147 148 151 152 150 152 153 152 154 155 155 154 155 159 159 156 154 156 160 161 162 161 161 159 163 161 160 161 162 163 162 164 166 166 166 164 164 164 165 166 166 166 167 167 167 165 166 168 168 166 168 167 169 169 168 167 167 166 167 168 169 168 168 171 182 187 184 183 183 185 184 184 184 185 185 184 182 183 184 183 184 184 187 185 182 185 185 183 183 184 184 189 185 182 182 184 178 183 187 183 183 182 182 183 183 185 184 185 186 185 183 184 185 185 185 183 183 184 183 185 182 183 184 183 184 198 244 248 248 248 248 248
237 237 237 237 237 238 153 67 68 66 66 66 66 67 64 66 66 67 65 66 70 66 71 69 67 72 70 70 72 70 71 75 71 94 150 183 185 181 184 188 183 184 186 180 184 185 185 183 185 182 180 183 178 113 88 89 92 91 94 94 94 94 94 95 98 101 99 97 101 104 116 115 107 110 111 109 108 115 132 127 125 128 146 159 127 121 118 118 122 117 121 122 121 123 125 127 127 125 126 131 128 131 132 131 131 133 134 134 137 138 137 138 140 141 140 140 143 142 143 144 145 146 147 147 147 148 150 150 151 151 151 151 152 154 154 153 155 157 158 158 157 158 158 158 158 159 160 163 161 161 162 159 163 161 161 164 164 164 165 165 165 164 165 165 164 164 166 167 167 166 166 166 167 167 170 170 170 167 166 166 167 168 167 167 167 165 165 169 178 186 181 177 182 186 186 184 181 181 184 186 185 184 183 183 184 184 184 185 186 183 182 182 185 184 185 186 182 182 183 184 182 186 184 181 186 185 183 185 184 185 186 184 184 185 182 184 186 184 184 183 183 183 183 183 184 185 182 182 183 198 248 253 253 253 253 253
238 238 238 238 238 238 148 69 65 68 66 67 66 65 67 66 66 66 66 65 68 67 69 69 69 72 71 71 69 68 71 74 72 73 103 156 184 184 184 185 186 185 183 183 186 184 183 184 183 180 182 183 173 106 88 90 90 91 94 94 94 93 93 96 98 98 100 101 99 102 105 103 106 109 110 109 108 108 112 112 114 109 118 130 115 115 117 119 117 117 121 121 121 122 124 125 127 126 125 128 128 130 131 132 133 132 132 137 137 137 136 138 140 141 139 140 142 142 142 143 144 145 146 148 148 148 148 149 150 149 151 152 150 152 155 155 155 155 156 156 157 158 158 158 158 159 159 161 160 162 163 160 160 160 162 162 161 162 163 164 164 165 165 166 165 165 165 165 165 166 166 166 167 167 168 169 169 166 165 165 166 167 166 165 163 163 165 168 171 178 172 169 177 184 184 185 183 182 182 184 186 185 182 182 184 186 185 185 185 181 181 182 183 185 187 182 183 183 185 186 186 184 182 184 187 188 185 185 184 184 185 183 184 184 182 185 185 183 184 184 182 183 182 183 184 183 183 182 184 199 248 253 253 253 253 253
237 237 237 237 237 238 145 67 64 67 65 67 66 65 66 65 67 66 67 67 68 68 67 70 70 69 72 71 72 67 72 74 73 72 76 112 162 186 186 182 185 186 184 183 184 184 183 184 181 181 184 184 169 101 89 91 89 90 92 94 95 92 94 96 98 97 100 103 97 100 104 103 105 106 107 108 109 108 109 109 115 111 110 115 112 115 114 118 118 117 119 120 121 122 122 122 125 127 128 126 127 130 133 132 132 132 133 136 135 136 137 137 139 141 139 141 141 142 142 142 143 144 145 147 148 148 147 147 149 148 150 151 150 151 154 156 155 153 154 155 155 157 158 158 159 159 159 159 160 162 161 160 160 161 162 160 161 161 160 161 163 163 165 165 165 165 165 164 164 165 165 166 166 166 166 167 167 165 165 165 165 166 165 164 163 165 167 166 167 175 168 165 175 183 183 184 185 184 183 183 184 184 183 182 185 187 184 183 182 183 185 184 184 187 184 180 182 184 185 186 184 181 184 186 186 186 184 184 184 184 184 183 184 182 183 186 184 183 183 184 182 184 181 181 183 184 184 183 184 199 248 252 252 252 252 252
237 237 237 237 237 237 142 66 65 66 66 66 67 66 66 66 67 65 67 66 69 70 68 69 69 68 71 71 72 71 72 72 72 73 71 80 119 167 187 183 183 185 184 184 183 184 184 185 182 183 184 184 166 98 86 90 89 90 91 92 94 93 94 95 96 96 98 102 99 98 101 101 104 105 106 107 108 108 109 107 113 113 111 113 112 114 112 115 119 120 120 118 121 122 123 122 123 127 128 125 126 129 130 131 131 132 134 134 133 136 138 136 136 138 140 141 141 141 142 142 142 143 144 146 148 148 147 147 147 148 150 150 150 150 152 154 155 153 153 155 156 157 157 157 158 158 158 158 161 160 159 160 159 162 162 160 161 161 161 162 162 162 162 162 164 165 165 165 165 165 165 165 165 164 164 165 166 165 166 165 165 165 165 165 165 166 166 165 167 176 171 167 175 183 182 183 186 186 184 183 185 184 183 184 185 184 183 183 183 184 186 184 185 186 181 181 182 187 186 184 183 183 185 186 184 182 184 183 183 185 185 184 183 181 181 183 183 184 184 184 184 185 183 183 184 184 184 183 183 198 248 253 253 253 253 253
238 238 238 238 238 238 139 65 67 65 67 65 67 65 67 66 66 65 66 66 69 70 69 70 68 68 71 72 70 74 73 71 73 72 73 74 82 125 169 183 184 182 171 175 183 185 184 184 181 183 184 183 152 92 86 91 90 90 92 90 92 94 94 94 95 97 98 100 100 101 101 99 103 105 107 106 106 107 110 108 109 111 112 114 112 112 113 114 117 121 120 118 121 120 121 124 124 125 125 125 128 130 130 130 132 132 134 133 133 135 138 136 134 136 141 141 141 141 141 141 142 142 144 144 146 147 148 149 148 148 149 150 150 149 150 151 152 152 153 155 156 156 156 157 158 158 157 158 160 158 158 162 159 160 160 160 161 161 162 162 163 162 160 159 160 162 164 165 165 165 165 166 165 164 164 164 165 166 167 166 165 165 165 166 167 166 162 162 165 176 178 176 180 183 182 183 185 185 183 182 183 184 185 186 184 182 182 184 185 184 184 185 185 182 181 183 184 186 183 180 184 184 184 186 183 181 184 182 184 185 184 184 183 182 180 181 183 185 185 184 185 185 183 184 184 184 184 183 182 198 247 252 252 252 252 252
249 249 249 249 249 247 132 65 67 66 66 65 65 67 67 65 67 66 65 67 67 70 69 70 69 67 71 69 72 72 72 73 75 72 72 77 74 83 114 157 182 158 110 116 162 186 184 182 182 184 186 170 117 86 89 89 95 94 92 94 89 94 95 93 92 97 99 98 101 101 99 100 102 105 106 106 107 108 108 109 107 111 114 111 111 113 115 116 117 119 116 119 122 121 119 122 124 123 125 128 127 127 131 129 131 131 132 137 134 130 135 137 136 135 139 139 140 140 141 141 142 143 143 143 144 145 148 148 149 149 148 148 150 148 149 150 150 152 155 156 154 152 154 157 158 157 158 158 157 156 159 163 161 159 158 160 160 159 160 162 163 162 160 159 160 161 161 162 162 163 164 166 166 165 165 164 164 166 167 167 164 163 163 164 164 163 159 159 160 174 182 183 184 184 184 185 183 184 183 183 181 185 187 185 182 184 182 182 183 184 185 189 183 180 184 188 186 181 180 182 184 183 183 182 183 184 185 184 184 183 182 184 184 183 182 182 185 186 182 184 185 184 183 183 184 185 184 185 182 199 238 242 242 242 242 242
253 253 253 253 253 250 133 68 65 66 66 66 66 67 65 66 66 66 65 66 67 69 69 69 71 69 70 70 73 69 70 73 74 73 73 75 74 74 79 93 108 100 77 80 124 173 184 179 183 185 185 172 139 129 124 122 139 149 143 127 98 91 93 95 92 95 98 97 102 99 99 101 103 104 105 107 108 109 108 108 110 110 111 112 112 112 112 114 116 117 117 120 119 119 122 122 123 123 125 127 126 125 133 132 130 131 130 133 135 133 134 136 137 136 136 138 140 140 141 141 141 142 142 143 145 146 145 145 147 149 148 147 149 149 149 150 149 152 153 153 154 153 154 155 156 156 158 157 157 159 158 159 160 159 160 161 161 160 159 157 158 162 163 163 162 161 160 160 161 162 163 163 163 165 165 164 163 164 164 163 160 160 161 161 161 161 162 161 160 167 175 179 182 186 185 182 182 185 186 184 183 184 183 183 184 184 184 184 183 185 184 184 182 184 185 183 182 182 185 186 183 182 183 183 184 186 185 183 184 184 184 185 183 183 182 181 184 184 183 184 185 183 184 182 183 184 184 185 184 199 234 237 237 237 237 237
253 253 253 253 253 250 134 66 67 66 67 66 67 65 65 66 65 67 66 66 66 70 68 69 70 69 68 72 71 70 72 72 72 73 73 74 76 75 75 77 77 79 81 76 93 146 179 182 184 183 185 183 178 183 184 178 180 186 185 168 126 94 90 97 94 93 97 96 100 98 102 102 102 103 103 107 108 106 109 109 109 111 110 112 113 112 111 114 116 115 118 120 118 117 121 121 122 123 123 123 128 127 129 132 128 130 130 129 133 136 133 135 136 136 137 137 139 140 141 141 140 140 141 142 144 146 145 145 145 147 148 148 148 149 150 151 149 151 151 152 153 154 154 154 155 156 157 155 158 158 156 156 158 160 160 159 159 161 160 159 159 161 162 162 162 161 160 159 160 162 162 161 160 161 162 162 161 161 161 160 160 161 161 161 160 159 163 163 162 161 165 169 177 184 183 181 185 186 184 184 186 184 182 184 183 182 186 184 182 185 184 181 180 186 185 181 184 185 184 184 182 183 185 184 184 184 184 186 184 184 185 184 182 183 184 181 181 182 183 184 184 183 185 187 182 182 185 186 185 198 234 236 236 236 236 236
252 252 252 252 252 250 139 65 67 65 66 67 67 65 66 67 66 67 66 67 66 68 69 68 69 68 69 72 71 71 69 72 72 72 73 72 76 76 74 77 79 76 83 79 79 111 160 186 185 181 185 185 180 185 186 182 184 184 185 184 166 123 93 93 94 94 95 97 99 101 100 99 101 102 104 106 106 106 108 108 109 110 109 112 114 112 112 113 115 114 117 118 119 119 119 121 121 122 123 124 127 128 124 130 128 130 131 129 132 135 133 134 136 136 136 137 138 139 140 141 140 141 141 142 143 144 144 145 145 146 147 148 148 150 150 150 150 149 150 151 151 152 153 154 155 156 154 155 158 156 156 156 157 159 159 158 159 160 160 161 160 160 160 161 161 161 160 160 161 162 161 160 159 160 161 162 162 161 160 160 161 162 162 162 161 161 162 161 161 161 164 165 172 181 185 186 185 183 183 185 185 183 184 183 179 184 187 182 182 185 183 180 181 185 185 183 185 185 184 183 183 184 185 184 185 184 184 185 183 184 184 184 182 184 185 182 182 182 184 184 184 184 183 185 182 180 186 185 184 199 234 237 237 237 237 237
252 252 252 252 252 250 143 66 66 65 66 67 67 66 66 67 65 67 66 67 66 67 69 68 69 69 68 72 71 72 69 71 72 73 73 72 76 76 74 76 80 75 80 82 76 87 131 178 188 181 183 186 181 185 185 183 185 183 182 184 178 133 93 92 94 95 94 97 97 101 100 100 100 101 103 105 106 107 107 107 109 110 109 110 113 112 113 113 113 114 117 117 118 120 120 121 121 121 122 124 125 127 123 128 129 129 130 131 130 132 134 133 136 137 136 136 137 138 139 140 140 142 141 142 142 142 143 145 145 145 146 146 147 150 149 149 150 149 148 149 151 153 153 153 154 154 152 156 157 155 156 156 157 158 158 158 158 159 159 160 160 159 160 160 161 161 160 160 162 162 160 160 160 161 161 162 161 161 160 160 161 162 161 161 161 162 161 160 160 161 162 160 165 174 183 187 185 182 183 185 183 184 186 182 181 187 185 182 185 185 183 183 185 185 184 184 185 185 184 182 183 184 185 184 184 184 183 184 182 184 184 184 183 185 185 183 183 183 184 184 183 184 183 184 183 181 186 185 183 200 235 237 237 237 237 237
251 251 251 251 251 249 150 67 65 66 66 66 66 66 66 66 65 66 66 66 67 66 69 69 70 69 69 71 71 72 70 71 73 74 73 73 75 75 75 76 79 77 78 81 80 77 101 152 182 183 181 184 182 184 183 184 186 184 183 184 183 139 96 91 93 95 93 96 97 98 100 101 100 101 103 104 105 107 108 107 108 109 110 107 111 113 114 112 112 113 116 117 117 120 119 120 121 121 122 124 124 126 126 128 130 129 128 131 130 131 134 133 133 136 136 136 137 137 138 139 140 142 142 141 141 141 143 144 145 145 145 145 147 149 148 148 150 147 148 149 152 154 152 151 151 151 153 158 154 155 156 156 156 157 157 158 158 158 158 159 159 159 160 160 160 160 160 160 161 160 159 159 161 162 161 161 161 160 160 160 162 161 160 159 160 161 159 160 162 160 160 159 161 167 179 186 185 183 183 183 182 185 186 182 185 188 180 182 186 183 182 185 186 183 183 183 184 184 183 182 182 183 185 185 184 184 183 183 183 184 185 184 183 185 184 182 184 184 185 184 184 185 184 183 182 182 185 184 183 201 238 240 240 240 240 240
241 241 241 241 241 241 164 66 67 66 68 65 64 66 66 65 66 65 66 66 67 66 68 69 69 69 69 70 70 72 70 72 73 75 73 73 74 75 78 76 78 79 77 79 80 79 83 102 128 153 176 183 184 181 182 184 181 182 184 185 183 131 94 92 95 95 94 95 97 97 100 101 100 101 102 103 104 106 108 107 108 107 108 108 110 113 113 113 112 113 115 116 118 118 118 119 121 122 121 122 123 123 128 128 128 129 126 130 130 131 133 133 132 135 135 136 136 137 138 139 140 141 142 141 141 140 141 143 145 145 145 146 146 147 147 147 148 147 149 151 151 150 149 150 150 152 155 155 152 156 157 155 155 155 156 157 159 159 158 157 158 158 159 159 158 160 161 162 160 159 159 160 160 162 160 161 160 159 160 161 161 160 160 159 160 160 160 160 161 160 159 158 157 160 169 178 182 183 182 184 185 185 183 185 186 184 182 183 183 183 183 185 186 183 184 183 182 182 181 183 183 182 185 186 185 183 183 184 184 185 185 183 184 186 184 183 183 184 185 184 184 185 185 181 182 183 178 180 178 200 248 250 250 250 250 250
238 238 238 238 238 238 175 66 68 66 66 65 64 65 66 66 66 66 66 65 67 66 69 70 67 70 68 70 69 73 73 71 71 74 73 73 73 75 77 76 77 76 76 81 79 79 82 83 83 98 137 165 183 179 181 183 179 184 187 184 175 116 91 93 96 93 94 94 96 96 99 101 100 101 102 102 104 105 106 107 106 107 109 110 109 111 112 113 113 116 115 113 117 116 118 119 121 124 122 120 122 122 126 128 130 128 126 129 129 130 132 133 132 133 134 135 134 136 137 138 140 140 141 141 141 140 142 144 144 144 145 146 146 145 145 146 148 150 150 148 147 147 150 151 152 154 154 150 152 154 156 155 155 155 155 156 157 156 156 158 158 158 157 158 157 158 160 162 159 159 160 160 160 161 160 161 160 160 162 162 160 159 159 160 160 160 160 160 160 159 158 158 158 158 160 167 178 185 184 184 186 185 184 185 184 183 184 182 181 184 186 185 183 183 185 186 183 181 180 182 184 183 184 185 183 182 183 185 184 183 183 182 183 185 185 184 183 184 185 184 183 184 185 182 184 185 179 181 179 204 252 253 253 253 253 253
237 237 237 237 237 238 185 69 65 67 65 66 66 64 67 66 67 66 66 66 65 66 68 69 68 71 70 69 70 71 72 70 71 73 73 73 73 76 77 75 76 78 76 79 80 80 80 82 84 83 88 105 133 137 157 181 185 183 185 185 174 109 91 93 94 92 95 95 95 98 98 98 100 100 102 100 102 105 107 107 106 108 109 111 108 110 112 111 113 114 114 114 116 117 119 119 119 121 121 121 121 123 123 126 128 127 128 127 128 129 131 132 133 132 135 136 134 135 136 136 138 138 139 140 141 140 141 142 142 143 144 145 145 145 147 147 148 149 147 147 148 150 150 149 150 150 151 152 153 153 154 154 154 155 155 155 156 154 155 158 158 157 157 158 159 159 157 158 160 159 159 160 160 159 159 160 161 161 161 159 160 160 160 160 160 159 158 158 158 158 157 158 159 159 158 161 173 184 185 183 184 185 184 183 183 181 183 185 183 183 186 185 181 182 183 187 184 182 183 182 184 184 183 183 184 184 185 184 184 182 182 183 184 184 185 184 184 185 184 182 183 183 183 182 184 187 183 182 181 207 251 253 253 253 253 253
236 236 236 236 236 237 193 72 65 66 65 66 66 65 67 65 67 65 66 66 64 66 68 69 68 71 70 68 68 71 73 70 71 74 72 71 73 74 75 77 75 78 76 78 80 80 79 82 84 83 84 84 89 96 143 184 188 181 183 186 176 108 92 93 93 93 96 95 93 98 98 98 100 100 101 99 101 106 105 109 107 105 107 110 108 108 112 110 114 114 112 114 114 117 118 119 119 119 121 122 121 122 125 124 125 124 129 129 128 129 130 132 133 130 132 135 134 135 136 137 138 137 139 139 140 141 142 141 141 142 143 144 145 145 146 146 146 146 148 150 149 147 148 149 150 150 152 152 153 152 153 153 154 154 154 155 156 155 154 155 157 157 157 157 158 158 157 157 160 158 157 160 161 160 160 160 160 161 160 159 160 160 159 158 157 158 158 158 156 158 158 159 159 158 157 159 171 183 185 184 180 181 183 184 183 181 184 186 185 183 184 184 182 182 184 188 185 181 183 185 186 184 181 181 184 185 185 184 184 183 182 183 184 184 185 184 184 185 183 182 183 182 182 184 182 186 184 183 182 212 252 253 253 253 253 253
237 237 237 237 237 238 199 77 66 65 66 67 66 66 67 66 66 65 66 67 65 67 67 68 69 70 69 69 68 71 71 70 72 71 72 73 73 74 75 76 75 77 77 77 79 80 79 79 82 83 83 84 86 85 123 170 187 182 184 183 172 104 90 92 94 92 94 95 94 95 97 98 99 99 101 100 100 104 105 108 107 105 112 122 114 107 114 110 111 112 111 113 114 116 117 117 117 118 120 122 121 122 123 123 124 124 128 127 128 129 130 131 132 130 131 134 134 135 136 136 137 137 138 139 140 141 141 140 140 142 143 144 144 143 144 145 145 146 148 149 148 147 148 149 149 149 151 151 151 151 154 153 153 153 153 154 155 155 156 154 154 155 156 157 158 158 157 157 159 158 157 158 158 158 158 158 159 159 158 157 158 159 159 158 158 157 157 158 156 158 158 158 158 157 156 155 166 181 186 185 181 182 184 185 184 182 185 187 184 184 185 184 180 181 183 185 184 183 183 183 181 173 167 171 182 185 185 184 183 185 184 183 184 184 184 183 184 184 183 183 184 183 182 186 184 184 184 183 183 214 252 253 253 253 253 253
242 242 242 242 242 242 213 84 68 65 67 66 66 68 65 67 65 66 65 66 67 67 64 69 71 67 68 69 72 73 69 70 74 68 72 77 73 72 75 76 74 75 78 78 77 79 81 80 80 84 83 83 85 83 91 133 179 173 180 184 169 101 89 92 92 93 93 94 94 93 95 98 99 99 98 102 102 104 104 104 106 108 138 168 139 114 131 121 111 112 111 113 112 115 117 117 117 115 119 120 122 124 121 121 124 124 127 127 129 128 127 129 130 133 131 132 134 135 135 135 136 136 138 138 139 141 141 140 141 141 142 142 141 142 144 145 147 148 147 146 147 148 149 150 150 150 149 149 150 150 152 154 156 152 151 154 155 155 156 153 153 155 157 157 156 156 157 157 158 158 160 159 158 158 158 157 158 158 157 156 156 158 159 158 158 158 158 158 158 156 156 156 156 155 155 154 159 177 187 185 183 182 183 186 183 182 184 185 185 184 186 185 181 181 183 182 185 184 183 172 157 144 139 150 175 182 182 184 183 186 185 185 183 181 183 184 185 184 184 183 184 183 183 186 185 182 181 182 182 219 249 249 249 249 249 249
252 252 252 252 252 251 219 92 66 67 65 65 65 68 64 65 66 67 67 65 67 67 65 69 70 68 68 68 72 69 72 73 71 69 75 74 72 71 74 76 76 75 78 78 76 79 81 80 81 84 83 81 85 87 81 100 147 134 150 183 173 101 90 90 90 93 92 93 93 93 94 98 99 101 98 101 102 100 101 104 106 124 162 170 126 111 141 130 115 114 112 112 114 114 113 117 119 116 118 119 121 121 121 122 124 126 125 125 125 126 127 128 129 134 133 130 133 134 134 135 135 136 137 136 136 140 142 142 142 141 139 139 141 142 144 145 147 147 146 145 147 148 149 149 149 148 148 150 152 151 148 152 156 152 152 155 153 152 152 155 156 155 155 153 154 156 157 155 155 156 157 157 158 159 159 157 156 157 158 158 158 157 156 155 155 157 157 156 156 155 156 157 156 154 154 153 155 167 178 183 187 184 182 184 184 183 183 183 184 183 183 185 184 185 185 184 185 182 175 154 139 136 136 137 161 181 183 186 182 183 184 184 184 183 184 185 185 183 183 182 183 184 184 183 183 183 182 184 187 229 240 239 239 239 239 239
254 254 254 254 254 252 227 106 65 67 66 66 66 65 67 66 66 66 67 66 64 65 68 66 67 70 70 70 68 66 72 71 69 75 74 70 73 74 71 77 78 75 77 76 77 78 80 79 81 81 82 84 84 86 83 87 114 114 121 170 168 97 90 90 91 93 93 94 95 95 95 95 96 101 100 100 100 99 103 125 133 163 175 138 104 119 156 162 155 143 117 112 115 114 112 114 116 120 126 121 118 121 121 121 124 128 125 125 124 125 129 130 130 130 130 130 131 133 133 135 136 136 136 136 136 137 138 139 141 142 141 142 142 142 142 143 143 144 146 146 146 147 147 147 148 148 147 149 150 151 151 151 150 155 154 152 151 153 154 154 155 155 154 153 153 154 156 156 154 154 154 155 156 157 158 158 156 156 157 157 157 155 155 154 154 154 155 154 154 154 154 156 155 153 154 154 154 157 165 176 186 187 182 181 183 186 184 182 184 184 182 184 185 186 183 183 183 174 155 141 137 137 136 133 151 187 185 176 170 182 184 185 186 185 184 183 183 179 182 183 184 184 183 183 184 185 181 182 190 235 238 237 237 237 237 237
252 252 252 252 252 251 235 121 64 68 66 65 66 66 67 67 66 65 66 65 66 65 68 66 68 69 70 69 69 69 68 71 71 73 71 74 74 73 72 74 75 77 75 77 78 78 80 80 79 80 83 85 82 84 86 84 91 121 142 172 166 103 88 90 91 91 93 92 94 95 93 95 97 98 101 99 102 128 140 173 179 178 180 147 130 160 180 185 185 176 132 113 113 114 116 114 113 119 131 134 135 134 128 121 120 124 123 127 127 126 126 128 129 127 128 132 131 132 133 133 134 135 134 137 139 137 137 138 140 140 142 143 142 141 141 141 141 143 145 147 147 147 147 147 147 149 148 149 147 148 151 151 149 153 153 149 149 152 158 154 153 154 153 155 154 153 153 155 154 156 157 156 153 153 153 157 157 155 154 154 154 155 156 156 154 154 155 155 154 154 152 153 154 153 153 153 153 152 153 162 174 183 185 184 184 185 183 181 185 186 182 182 185 185 184 182 173 157 141 132 137 139 136 131 144 178 168 147 145 167 183 185 185 184 181 184 182 177 182 183 183 183 183 182 185 185 183 182 194 241 238 237 237 237 237 237
253 253 253 253 253 252 238 137 66 65 67 66 66 66 67 65 66 66 66 65 66 66 65 66 69 69 70 68 68 68 68 72 71 72 72 74 72 72 74 72 77 78 75 77 79 76 78 82 78 80 81 84 82 84 86 85 82 124 179 184 180 132 89 89 92 91 92 94 92 94 94 96 95 96 98 101 117 169 175 186 182 160 180 169 160 185 184 184 183 182 151 130 139 150 149 129 113 116 147 174 175 151 129 122 120 122 122 124 127 127 126 124 126 129 130 130 131 132 133 133 133 134 134 136 137 137 138 137 137 139 140 141 142 142 141 141 142 142 142 143 145 147 146 146 147 148 147 148 150 147 147 150 152 149 149 150 151 150 152 151 152 154 154 154 153 153 154 153 154 156 156 156 155 155 154 155 154 154 155 155 154 154 154 155 155 154 152 154 155 153 152 152 153 153 153 152 151 151 149 151 160 174 183 186 184 185 185 184 183 184 186 181 182 182 183 173 152 139 140 139 137 134 134 133 135 147 139 129 131 147 180 185 184 183 182 183 178 178 183 183 185 185 184 185 185 182 185 183 201 246 238 237 237 237 237 237
253 253 253 253 253 252 240 156 67 66 66 66 66 66 67 65 68 67 65 67 66 66 65 66 68 67 69 69 70 68 70 72 71 70 72 72 72 74 73 72 76 76 77 76 77 76 78 81 80 79 83 82 82 83 85 85 85 120 180 182 186 157 102 86 88 93 90 93 94 91 94 94 94 96 97 101 132 183 183 183 182 162 183 163 142 178 185 185 183 186 182 176 180 187 183 164 145 151 175 184 184 166 137 128 125 122 122 122 123 125 127 125 125 128 132 129 130 130 131 132 132 133 134 134 135 136 137 139 137 138 137 139 141 142 142 143 143 142 141 142 143 145 145 146 146 146 146 148 149 148 148 148 150 148 150 152 152 151 148 148 150 151 153 153 153 153 154 154 154 153 153 155 154 154 155 154 153 154 155 155 153 152 152 154 155 155 153 152 154 153 153 154 154 152 150 151 151 151 149 147 149 159 172 182 184 185 183 184 184 181 173 160 158 166 173 157 139 134 139 141 137 133 132 134 132 130 128 129 135 141 180 184 183 184 185 183 178 181 182 183 184 184 183 184 184 183 180 177 210 249 238 237 237 237 237 237
247 247 247 247 247 247 243 184 68 68 65 67 66 66 66 66 66 66 66 67 66 66 66 66 67 67 69 69 71 70 69 70 71 70 70 71 74 73 73 74 73 73 78 76 76 78 77 76 82 81 82 81 84 82 85 86 84 106 150 162 185 179 135 96 84 90 92 92 93 96 92 91 95 96 97 96 140 184 183 182 181 172 181 143 116 169 184 183 184 185 184 183 183 186 185 185 180 181 185 183 187 182 174 169 160 132 123 123 123 122 124 126 127 126 129 130 130 129 129 130 129 133 135 133 134 135 136 138 138 138 138 138 139 140 142 142 142 142 142 143 142 143 144 145 146 147 147 146 146 150 149 147 146 150 152 150 149 150 150 151 150 149 150 149 151 152 153 152 152 153 153 153 152 153 153 152 153 154 154 154 152 152 153 154 154 153 152 151 151 153 153 153 152 150 150 150 151 152 150 147 145 149 158 174 183 184 184 184 173 159 146 142 142 143 146 140 140 141 136 134 136 135 132 131 132 129 126 127 133 136 176 183 184 184 186 185 182 184 182 184 183 182 184 183 181 183 165 164 215 245 244 244 244 244 244 244
237 237 237 237 237 238 250 211 78 65 67 67 67 67 65 66 64 66 66 66 66 66 66 65 65 68 68 67 70 69 70 69 70 72 69 70 73 73 74 72 73 76 75 76 77 77 77 77 80 80 79 81 84 82 82 84 84 86 104 120 164 188 171 125 91 90 91 90 99 115 103 95 94 96 94 97 143 180 184 185 181 180 184 144 109 162 184 185 184 183 183 183 184 185 183 184 184 183 185 183 184 185 184 184 181 140 121 122 123 124 124 125 126 127 125 127 129 129 130 130 130 132 132 133 134 135 135 135 137 138 138 138 137 140 140 141 140 142 143 142 142 141 141 143 144 146 146 145 147 149 148 147 148 149 148 147 148 149 150 152 151 149 149 150 150 150 150 150 150 151 151 151 151 153 153 153 155 153 153 152 151 152 154 152 149 149 150 150 150 151 151 148 148 151 152 151 148 147 148 150 149 146 148 162 174 182 184 173 154 142 141 142 141 139 140 138 140 141 134 132 134 133 134 131 129 128 125 125 129 136 176 183 184 183 183 184 183 183 182 185 184 184 183 184 183 181 144 154 215 240 252 253 253 253 253 253
237 237 237 237 237 238 251 227 96 63 67 63 66 67 65 65 66 65 66 67 68 66 65 67 65 68 68 69 71 69 69 69 72 71 70 74 72 71 74 73 72 77 75 76 75 77 79 79 79 80 78 81 81 85 83 82 87 85 85 86 108 153 187 161 110 92 88 101 142 171 163 146 105 90 96 127 165 187 185 183 182 182 185 163 131 165 182 185 185 184 184 185 186 183 184 185 186 184 184 184 181 185 185 184 182 141 122 122 120 124 124 124 125 127 124 124 128 130 131 131 131 131 130 132 134 135 135 135 136 136 136 137 138 139 137 138 139 142 141 141 143 143 142 142 143 144 145 146 146 145 146 149 149 147 147 148 150 148 148 148 149 150 150 150 149 148 149 150 150 150 150 150 151 153 152 151 150 150 150 150 150 151 150 149 149 151 153 153 150 148 150 148 149 151 150 148 146 147 150 149 147 143 144 151 157 164 165 151 141 138 141 144 143 139 137 137 137 136 135 132 133 132 133 131 126 126 127 126 121 134 177 181 184 183 183 183 182 181 180 183 185 186 185 185 187 182 133 163 221 241 252 253 253 253 253 253
237 237 237 237 237 238 250 240 116 63 67 65 67 64 67 66 68 64 67 66 66 67 65 66 67 65 68 71 67 71 68 67 70 71 73 70 71 74 71 73 75 71 75 77 76 77 77 77 78 81 81 79 81 84 83 83 84 83 85 85 84 113 172 185 155 128 123 159 176 142 151 177 146 99 108 166 184 186 183 184 187 184 183 183 173 183 184 185 183 183 185 184 184 181 185 184 186 184 182 185 184 184 184 182 175 160 155 147 131 123 121 123 123 126 126 124 125 129 130 130 132 131 131 131 132 133 134 134 136 135 135 136 137 136 137 137 140 140 140 141 142 141 142 142 142 141 143 145 143 144 146 147 146 146 148 149 149 147 147 148 148 148 148 149 150 150 149 150 152 151 150 151 150 150 150 150 148 148 149 150 150 150 149 149 151 151 150 150 151 150 146 148 150 149 146 147 149 149 148 147 146 147 146 144 143 145 144 140 142 145 141 139 139 138 137 137 136 133 134 133 133 132 129 129 131 125 125 126 123 142 181 179 182 182 183 184 182 180 182 183 184 185 185 186 186 173 133 180 229 240 252 253 253 253 253 253
237 237 237 237 237 238 250 250 141 67 67 67 67 65 67 66 66 66 66 64 67 66 66 67 66 65 67 69 69 69 70 69 69 70 72 70 72 73 71 72 74 72 76 75 76 76 76 77 77 80 81 78 80 82 83 83 84 84 85 85 84 102 148 177 180 179 177 185 154 98 104 148 172 144 139 183 187 180 183 184 186 184 182 185 185 184 183 184 185 184 184 184 182 183 186 183 184 185 183 185 185 184 184 184 183 183 182 179 165 144 126 121 122 123 126 127 128 127 126 127 129 130 131 131 131 132 133 133 134 135 137 137 136 136 138 139 138 138 139 139 140 140 142 142 142 142 142 142 143 145 145 143 145 146 146 147 146 148 149 149 149 147 147 149 149 149 149 148 147 148 148 147 147 148 148 149 148 149 150 150 150 149 149 150 151 150 147 146 147 148 148 150 149 146 146 148 150 148 145 146 146 146 145 142 141 142 143 142 143 143 139 137 138 139 137 137 136 133 132 134 132 131 129 129 128 124 124 124 124 152 182 178 183 183 182 185 185 179 182 184 184 183 184 184 183 165 139 192 234 240 252 253 253 253 253 253
237 237 237 237 237 238 249 251 175 71 66 66 65 67 66 66 64 68 64 67 65 64 67 66 65 66 68 68 70 67 71 70 69 70 69 71 73 72 73 75 70 74 74 76 76 75 77 77 77 79 80 80 79 82 83 82 83 85 87 84 83 88 100 117 133 162 181 173 116 89 94 115 168 175 163 184 184 182 184 184 182 183 183 182 185 185 183 182 186 186 183 185 184 185 185 183 182 185 186 183 183 184 184 184 185 184 183 185 183 170 141 122 121 122 124 127 129 126 125 126 127 128 130 131 131 131 133 133 133 134 136 136 135 136 137 137 135 137 139 139 140 140 140 141 141 143 142 141 142 142 143 143 144 145 145 144 143 147 148 148 148 148 149 147 146 147 149 149 145 147 150 147 147 148 147 148 149 151 150 150 149 148 147 147 149 150 148 147 146 147 152 150 147 146 146 146 146 146 144 145 146 144 143 143 142 142 143 142 138 136 140 140 138 138 136 135 132 133 133 132 130 130 130 127 122 126 128 124 122 159 179 181 186 186 184 184 186 180 183 185 186 185 183 183 182 163 147 201 236 240 252 253 253 253 253 253
245 245 245 245 245 245 245 245 198 78 61 66 65 66 66 66 65 67 64 67 63 67 68 64 66 67 67 67 68 69 70 68 71 71 70 71 71 71 73 74 72 73 73 75 75 76 77 76 78 77 79 80 79 81 81 82 84 84 86 85 85 85 84 86 91 118 153 176 123 89 94 115 174 188 177 184 184 185 184 185 182 182 184 181 184 185 184 183 184 185 184 186 185 185 183 184 184 184 185 184 183 182 183 186 186 182 184 187 185 179 155 128 123 121 123 125 125 124 126 127 127 129 130 130 130 130 132 132 133 133 134 135 135 135 135 134 137 137 139 138 139 138 138 139 141 143 142 141 141 141 143 143 143 144 144 144 144 145 147 147 147 146 146 145 145 147 147 147 147 149 149 148 149 148 148 148 150 150 149 148 147 147 147 147 147 146 147 148 149 148 146 144 145 148 149 146 144 144 144 144 143 142 143 144 142 140 140 140 138 136 139 139 136 137 136 133 132 133 133 130 129 130 127 125 122 125 126 120 122 161 180 183 185 183 184 183 185 181 183 185 184 185 184 184 181 165 160 216 242 245 244 244 244 244 244 244
253 253 253 253 253 252 240 238 213 95 64 66 65 66 64 67 64 66 66 68 65 67 66 65 66 68 65 67 69 69 70 67 70 69 71 71 69 72 74 73 74 71 72 75 76 77 76 75 78 77 79 80 82 79 79 83 85 82 83 85 88 84 81 87 89 95 113 157 135 97 90 99 151 182 185 182 183 187 186 185 183 183 184 181 183 185 185 184 182 183 184 185 185 184 184 185 184 184 184 185 182 184 184 183 184 184 185 186 185 183 166 138 128 121 121 122 121 125 127 127 127 128 128 129 130 130 131 131 132 131 132 134 135 135 135 135 136 136 138 138 137 138 138 138 139 140 141 142 141 140 142 143 143 144 141 141 144 143 144 144 146 146 145 145 146 146 145 146 148 146 145 148 149 148 148 147 146 147 147 145 145 147 149 147 144 143 146 148 147 145 142 146 148 148 147 145 143 142 143 143 142 142 141 141 141 138 137 138 139 139 139 137 134 133 133 133 134 132 129 129 129 127 125 126 124 124 122 120 126 165 184 184 184 182 183 184 184 181 182 186 183 184 186 184 182 171 179 232 251 250 238 237 237 237 237 237
253 253 253 253 253 252 238 238 226 116 66 66 66 68 64 66 64 66 68 65 67 65 64 68 66 67 67 63 68 69 69 68 70 69 71 72 70 72 72 70 75 73 72 74 74 76 77 77 76 75 78 79 81 78 81 83 83 82 84 83 85 86 83 86 86 86 92 105 93 92 90 88 113 155 187 185 182 187 186 184 183 185 185 183 180 182 184 182 182 184 184 182 182 184 185 185 183 184 185 184 183 185 186 183 184 185 184 183 186 188 182 165 148 131 122 119 121 126 128 127 125 124 127 128 129 130 131 131 129 131 131 132 133 133 135 136 135 134 136 138 137 139 139 138 137 137 140 140 140 141 140 142 142 140 140 143 144 140 141 141 143 144 145 146 147 147 147 147 148 146 146 147 146 147 147 146 144 144 143 143 144 147 148 147 146 145 147 146 145 145 146 146 145 144 143 142 142 142 143 142 141 140 141 142 141 138 137 137 139 138 136 136 135 132 132 133 131 128 127 127 128 126 125 124 125 126 123 122 138 172 183 184 186 182 181 184 184 182 182 184 185 185 184 181 183 181 191 240 254 250 238 237 237 237 237 237
253 253 253 253 253 252 238 239 232 147 67 65 66 66 67 67 66 66 67 63 67 66 65 69 66 66 67 65 66 71 68 68 70 69 70 71 71 72 70 69 74 74 72 74 74 75 77 77 75 76 78 79 79 79 82 82 81 83 83 85 84 84 85 85 85 86 86 89 86 89 90 89 92 117 171 185 184 184 184 183 184 185 184 184 182 184 185 183 182 185 185 182 182 183 184 184 184 184 185 185 185 184 185 182 185 184 184 182 184 188 190 182 168 150 136 127 131 137 138 136 131 127 126 125 126 128 129 131 130 130 130 131 132 132 134 135 133 134 134 136 136 137 138 138 137 136 139 139 136 140 140 143 141 138 140 144 143 140 141 143 141 141 141 145 147 146 145 143 145 146 146 146 144 144 145 145 145 145 145 146 147 148 148 146 146 146 146 145 142 144 144 143 142 142 142 142 142 143 143 141 140 139 140 140 139 138 137 136 139 137 133 135 136 132 130 131 129 127 128 126 126 125 123 123 125 126 121 122 150 180 185 184 183 181 181 185 185 184 183 183 183 184 183 181 185 182 202 246 254 249 239 238 238 238 238 238
253 253 253 253 253 252 239 238 236 181 76 62 66 66 67 67 67 67 66 64 67 67 67 68 65 66 67 67 66 70 68 70 70 68 71 69 71 72 69 70 73 73 74 72 73 75 76 76 76 79 77 77 78 80 81 81 81 82 82 85 83 84 86 85 84 86 86 87 88 86 88 90 89 102 162 184 185 183 184 183 183 183 183 184 184 185 184 184 184 182 182 181 180 182 184 183 184 184 185 184 185 185 184 181 185 183 184 182 183 186 187 188 184 174 170 171 177 179 178 172 163 152 139 128 123 123 128 132 132 130 130 130 132 133 132 132 132 134 134 133 135 136 136 138 139 137 137 138 136 139 140 140 141 140 142 143 141 141 142 143 142 140 140 142 144 143 142 140 140 142 143 143 143 143 143 144 144 144 144 145 145 144 143 143 144 144 144 143 142 141 141 141 143 144 142 140 141 142 142 140 139 137 138 138 138 137 137 136 136 134 132 134 135 133 130 131 130 128 128 125 125 126 124 121 121 121 120 121 157 183 186 184 181 181 182 184 185 184 183 182 183 184 184 179 186 182 215 250 253 249 239 238 238 238 238 238
253 253 253 253 253 252 240 238 238 210 91 62 68 65 66 66 68 66 66 65 67 68 66 68 66 64 66 67 68 66 69 70 69 68 69 69 72 71 69 72 72 72 75 71 73 75 75 75 76 77 77 76 78 79 81 80 81 82 82 83 83 86 85 83 85 86 84 87 88 85 87 89 89 99 164 185 185 183 183 183 185 184 184 184 186 183 181 184 187 183 182 186 183 184 183 183 185 184 183 183 185 185 184 183 183 184 183 184 183 183 185 187 184 181 181 183 183 185 187 184 181 177 165 144 130 122 123 128 130 130 129 130 131 132 131 131 133 135 134 132 134 136 136 137 138 136 136 136 138 139 137 138 139 139 142 141 141 142 142 142 142 142 143 141 140 140 141 143 143 141 140 142 143 142 142 142 143 143 143 143 142 141 141 142 143 143 142 143 143 141 141 142 142 141 140 140 140 141 141 138 137 138 138 138 137 137 137 136 134 132 131 133 134 131 129 130 130 127 129 125 125 126 124 121 119 119 119 123 164 185 187 184 181 181 183 183 184 185 184 183 184 184 183 175 184 183 229 253 253 250 239 238 238 238 238 238
242 242 242 242 242 242 248 247 250 238 125 65 68 66 66 66 66 66 65 66 66 66 66 65 66 64 66 66 66 67 69 69 68 69 68 69 71 71 71 72 70 73 74 71 74 74 74 76 76 75 77 76 78 79 80 79 80 82 83 82 84 86 85 84 85 87 84 86 87 86 89 88 88 95 155 185 184 184 183 185 187 183 183 185 185 183 182 184 186 184 182 186 184 184 184 185 185 183 183 183 184 184 185 185 183 184 183 183 182 182 183 185 179 181 183 184 182 183 186 184 185 186 179 162 147 134 125 123 127 130 129 129 129 131 130 131 132 134 133 133 134 135 134 135 136 136 136 136 138 137 136 137 138 138 139 138 139 140 141 141 141 143 143 141 139 139 141 144 143 141 141 142 142 143 142 142 142 142 141 142 142 141 141 142 142 143 142 142 142 141 141 142 142 140 139 139 138 139 138 137 138 138 138 137 135 135 135 135 133 131 131 131 130 130 129 129 128 126 127 125 124 124 123 121 120 119 117 119 158 185 185 183 181 182 183 182 184 184 185 184 185 185 181 174 181 183 230 245 243 245 247 248 248 248 248 248
237 237 237 237 237 238 250 251 254 252 167 70 65 66 66 66 66 66 65 68 65 65 67 65 66 64 66 67 66 66 68 70 68 69 68 69 69 70 72 72 70 72 72 73 74 73 74 76 76 76 76 76 77 79 78 79 80 82 82 82 84 84 84 85 85 86 84 86 85 86 89 87 87 90 145 184 184 183 183 186 186 183 183 184 183 184 184 184 184 184 183 185 185 184 184 185 185 184 183 183 184 184 184 185 183 184 184 184 182 182 182 182 175 181 186 185 183 182 183 182 184 188 186 178 166 150 131 121 126 128 129 129 129 130 130 131 132 132 131 132 133 133 133 133 135 136 136 135 138 136 134 136 139 139 137 137 139 138 138 137 139 141 141 140 140 141 141 142 141 141 141 141 141 142 142 142 141 140 140 141 141 141 140 140 140 141 141 141 141 141 140 141 140 138 138 138 138 138 137 137 138 138 136 135 134 133 134 134 132 131 132 130 128 128 129 128 126 126 126 126 123 122 122 120 119 118 116 117 154 186 182 182 181 183 185 183 184 184 185 183 185 184 177 171 176 195 233 240 238 242 252 253 253 253 253 253
237 237 237 237 237 238 249 253 253 255 205 85 63 66 66 67 67 66 65 67 64 66 67 65 67 68 65 68 65 66 67 69 69 70 68 69 68 70 72 71 71 70 71 75 73 73 72 74 75 77 76 76 77 77 77 79 80 81 81 83 83 82 85 85 83 86 85 85 85 87 88 87 87 89 129 181 184 183 184 186 183 184 185 184 183 185 185 184 182 184 183 183 184 183 183 185 184 184 184 184 185 184 183 184 183 184 185 183 180 181 182 182 175 182 185 185 184 183 182 182 183 185 186 186 180 167 144 124 125 126 127 128 128 129 130 131 132 130 130 132 133 133 133 133 133 134 134 134 137 136 136 136 137 137 135 137 138 138 137 136 137 137 138 139 141 141 141 140 139 141 141 141 141 141 142 142 141 140 140 141 141 141 140 140 140 140 140 139 139 139 139 139 138 137 138 139 139 137 135 136 137 136 133 132 133 133 133 133 131 132 132 128 126 127 128 127 125 125 124 126 122 120 120 119 119 118 117 117 146 183 181 182 183 185 185 184 185 184 184 184 184 183 175 173 177 212 237 238 238 240 252 254 254 254 254 254
237 237 237 237 237 238 249 254 252 255 234 113 63 66 65 67 66 66 66 66 64 66 66 65 67 69 64 67 64 66 66 67 69 70 68 69 68 69 70 71 71 70 71 75 73 73 72 74 75 76 77 77 76 77 76 78 80 80 80 82 82 81 84 85 82 86 86 84 85 87 88 87 88 87 112 174 184 184 185 185 183 185 185 184 183 185 185 184 182 184 184 183 184 183 183 185 183 185 184 181 182 183 181 181 181 183 185 183 183 183 184 183 178 183 185 185 185 184 183 182 182 183 185 188 185 176 156 129 124 125 127 127 128 129 129 130 130 129 130 131 131 131 132 132 132 133 133 133 134 134 136 136 136 136 134 136 137 137 137 136 137 137 138 139 140 140 139 138 137 138 140 139 138 138 139 139 139 139 139 139 140 139 139 138 138 137 138 137 138 139 139 138 137 137 137 138 137 135 134 135 136 134 133 132 132 132 131 131 130 132 132 127 125 126 127 126 124 124 123 124 121 119 119 118 118 118 117 115 133 175 180 182 185 185 185 185 185 184 184 184 184 183 174 174 185 225 238 237 237 240 252 253 253 253 253 253
237 237 237 237 237 238 250 254 253 254 250 154 68 65 65 66 65 65 68 65 66 66 65 66 67 68 66 65 65 66 66 66 69 69 69 70 68 69 70 71 71 70 71 73 73 73 73 73 74 76 76 76 76 76 77 78 79 79 80 81 81 82 84 84 83 84 86 85 85 86 86 86 89 87 99 166 185 184 184 184 183 185 184 184 184 184 185 184 183 184 184 183 184 183 184 184 183 184 185 183 182 182 181 182 183 184 185 184 183 183 184 184 180 183 184 184 185 184 184 184 182 182 183 186 185 182 166 133 122 125 127 127 127 127 128 128 129 129 130 131 130 130 131 132 132 132 133 133 133 133 134 134 134 136 135 136 136 136 136 136 136 137 137 138 138 138 138 137 137 138 138 137 137 138 138 138 138 138 138 139 139 138 138 138 138 138 138 137 138 138 137 137 136 136 136 137 136 135 133 133 133 133 133 132 132 131 131 130 130 130 129 127 125 125 126 125 124 124 121 122 120 118 117 118 118 117 116 114 121 164 181 182 185 185 184 185 184 183 184 186 184 184 173 176 200 234 238 237 237 240 252 253 253 253 253 253
237 237 237 237 237 238 250 252 252 252 252 195 81 65 65 65 65 64 68 65 67 66 64 66 66 66 67 64 67 66 65 66 67 68 70 70 69 69 69 70 70 72 71 71 73 73 73 73 74 74 76 77 76 76 78 78 78 79 81 80 81 83 83 83 84 83 84 85 85 85 84 85 90 86 85 152 181 184 185 183 183 185 184 184 184 183 184 184 184 184 185 184 184 183 184 184 183 184 185 184 184 184 184 183 183 184 184 184 184 182 185 183 183 183 182 184 184 184 184 185 182 182 182 182 183 185 176 141 123 124 126 126 126 126 127 127 128 128 129 130 129 129 131 131 131 132 133 133 132 132 134 133 132 134 135 135 135 136 136 135 136 137 137 136 135 135 136 136 136 137 137 137 138 138 138 137 138 139 140 139 137 137 138 138 137 137 137 137 136 137 137 136 136 136 135 134 134 133 134 133 132 132 132 131 131 131 131 129 128 127 126 127 127 125 124 123 123 123 120 119 120 119 117 117 117 115 114 113 114 154 182 183 185 184 183 185 183 184 185 187 184 184 171 180 219 239 238 238 238 240 250 251 251 251 251 251
250 250 250 250 250 250 243 240 241 240 242 220 105 66 66 65 67 65 67 66 67 66 66 66 64 65 66 65 68 65 67 66 67 67 69 70 69 69 69 70 70 71 72 69 72 73 74 72 74 74 75 76 77 75 77 78 78 77 79 80 80 82 82 82 84 83 84 84 86 85 84 85 87 87 94 159 186 184 183 183 184 184 183 184 186 183 183 184 185 184 185 184 184 184 183 183 183 183 184 184 183 183 184 185 184 183 184 184 185 182 185 184 185 183 182 184 183 182 183 184 181 183 183 180 181 186 184 155 131 124 123 123 125 125 126 126 127 129 130 128 128 129 131 131 130 130 131 131 131 133 134 133 132 133 135 132 132 135 136 137 137 136 136 135 134 135 136 136 137 137 136 136 136 136 135 135 137 136 137 136 135 135 136 137 137 136 135 136 137 136 136 135 135 135 133 132 133 133 134 132 130 131 132 131 129 129 129 128 128 126 125 126 126 126 124 122 122 121 119 117 120 119 116 117 115 112 112 111 110 142 183 184 183 183 184 186 184 185 183 184 183 181 170 187 237 250 248 249 249 248 241 240 240 240 240 240
253 253 253 253 253 252 239 238 237 237 238 234 148 71 65 65 67 66 66 66 67 65 67 67 65 65 65 65 68 65 67 66 66 67 67 70 69 69 70 70 69 71 72 69 71 73 73 72 73 74 74 76 77 76 75 78 78 77 78 81 80 79 81 83 84 82 83 85 86 85 85 86 84 86 108 168 188 184 182 184 184 183 184 184 186 184 182 184 185 185 183 183 184 185 183 183 184 183 184 184 184 183 183 185 184 182 184 185 184 180 183 184 185 184 183 183 182 181 183 183 182 183 182 181 183 187 188 172 150 128 122 122 123 124 125 126 126 127 128 128 128 128 129 129 129 129 131 131 131 132 133 131 131 132 134 133 132 134 134 135 135 134 134 134 134 135 136 137 137 137 136 135 136 135 136 136 137 136 136 136 135 135 136 136 136 136 134 134 134 134 133 133 133 133 133 133 133 132 131 131 130 131 131 130 129 127 127 127 127 126 125 124 125 125 123 121 121 120 119 116 117 118 117 117 113 112 111 110 108 131 181 184 183 184 185 185 184 185 184 183 185 174 170 203 247 252 251 253 253 249 238 237 237 237 237 237
253 253 253 253 253 252 239 238 235 238 237 240 198 84 64 65 65 67 64 67 67 65 66 65 67 65 66 64 68 66 66 67 65 67 65 70 69 67 70 70 69 71 71 71 70 71 73 73 73 73 72 75 77 76 74 77 77 78 77 79 81 79 81 82 82 82 82 86 84 85 86 87 82 95 140 179 186 184 182 185 184 184 185 184 185 185 183 183 184 186 183 183 184 185 183 182 184 184 184 185 184 182 182 185 184 183 184 185 183 180 182 184 184 184 184 181 181 182 183 184 184 184 183 182 183 184 186 187 172 138 124 125 123 125 125 126 125 126 127 127 127 127 127 128 129 130 130 130 131 131 131 130 130 131 132 133 133 133 133 133 133 132 133 134 133 134 135 135 135 135 135 134 135 135 135 136 136 135 134 134 135 135 135 134 134 133 133 133 132 133 134 134 133 131 132 133 132 130 130 130 131 130 129 128 128 126 126 127 126 126 123 122 123 123 122 120 119 119 118 117 116 117 116 116 113 112 109 107 108 125 177 184 182 184 185 183 184 186 186 183 187 167 174 221 250 252 253 253 254 250 238 237 237 237 237 237
253 253 253 253 253 252 240 237 236 237 236 240 234 115 64 66 64 67 65 66 67 66 66 65 68 65 67 64 67 67 65 67 66 67 65 70 70 67 70 71 68 70 71 71 70 72 72 73 73 73 72 75 77 77 74 76 77 78 77 78 81 79 80 82 82 83 82 85 83 85 86 85 84 118 175 188 184 183 184 185 184 184 185 183 183 185 184 183 183 185 183 184 183 182 179 179 182 184 184 184 183 183 183 185 184 184 184 185 184 183 183 184 183 184 183 184 184 184 184 184 184 184 184 184 184 182 184 189 176 140 123 122 122 123 123 124 124 126 126 126 126 126 126 127 128 129 129 129 130 129 129 130 132 131 130 131 132 132 133 131 132 132 133 133 133 134 134 134 133 132 133 133 133 133 134 134 133 133 132 133 134 134 133 132 132 132 133 133 132 132 134 134 132 130 131 132 131 129 129 128 130 129 127 126 126 126 126 126 124 124 124 123 121 120 121 119 119 118 117 118 117 116 114 113 112 111 107 106 109 127 177 184 183 183 185 183 184 185 186 184 185 163 186 234 249 252 254 254 254 251 238 237 237 237 237 237
253 253 253 253 253 252 241 236 238 236 237 241 247 162 71 65 66 65 66 66 65 65 66 65 66 66 66 66 64 67 65 67 65 66 67 67 69 70 70 69 68 70 70 72 72 71 71 73 73 73 72 74 74 77 76 75 77 77 77 77 78 80 81 80 80 84 82 83 83 85 85 84 93 140 184 185 183 184 185 185 184 183 184 184 183 184 184 184 184 183 180 182 183 184 182 181 182 185 185 183 182 184 184 184 184 184 184 184 185 184 184 183 183 183 183 185 184 184 184 184 184 184 185 185 185 184 185 183 165 138 121 119 120 120 121 122 123 124 125 126 126 126 126 127 127 127 127 128 130 129 129 129 130 131 130 130 131 131 131 131 131 132 132 132 132 132 132 133 133 133 134 133 133 133 133 133 133 133 133 133 133 133 133 133 133 133 132 132 130 131 132 132 130 129 130 130 129 129 129 127 128 127 127 126 125 126 126 125 123 122 123 121 120 120 120 118 118 117 116 117 115 113 114 112 111 110 107 107 106 129 178 183 185 183 185 184 183 183 184 184 177 163 209 242 249 252 252 253 252 251 237 236 236 236 236 236
250 250 250 250 250 250 243 239 242 240 240 242 248 207 90 67 68 64 68 65 65 66 66 66 65 67 65 68 64 67 65 68 64 67 69 64 69 70 68 69 68 69 70 71 72 71 70 73 73 73 73 72 72 76 78 74 76 76 78 77 75 81 81 79 80 84 83 80 84 85 84 84 94 146 183 184 183 184 185 184 185 183 183 185 183 184 185 184 184 182 181 185 184 184 183 181 182 183 181 177 179 184 184 184 183 184 184 184 184 185 185 184 184 183 183 185 185 184 184 184 184 184 185 185 184 184 184 172 153 139 125 121 122 118 120 122 123 123 124 125 124 125 126 126 126 125 126 126 127 128 129 128 129 130 130 128 129 130 131 130 131 132 133 131 131 131 131 131 131 132 132 132 132 132 131 131 131 132 132 133 134 133 130 130 131 132 130 131 131 131 131 129 129 129 129 129 129 129 127 126 125 126 128 125 123 124 125 124 121 122 123 119 117 120 119 118 117 117 116 116 115 112 112 109 111 109 107 109 105 135 181 184 186 182 184 185 182 182 185 184 172 175 233 246 248 251 249 250 249 249 240 240 240 240 240 240
238 238 238 238 238 239 251 251 252 252 253 249 242 230 126 69 66 64 67 67 65 66 67 66 65 66 66 68 63 66 65 68 64 66 68 64 68 69 68 69 69 70 69 70 72 71 69 72 72 72 74 73 72 75 77 76 75 76 78 77 75 77 79 80 79 82 82 82 84 82 82 100 140 175 183 182 183 184 184 185 185 183 184 185 183 183 185 184 184 183 181 182 183 183 184 183 184 182 179 179 183 184 184 185 184 184 184 184 184 185 185 184 184 184 183 183 184 184 184 184 185 184 184 185 184 184 181 158 149 154 145 142 132 118 125 125 123 120 120 121 124 125 124 125 125 126 126 126 126 125 127 128 128 128 129 128 128 129 130 130 130 131 131 130 131 132 131 131 130 131 131 131 131 132 130 130 130 131 132 132 132 131 131 130 131 132 131 130 130 132 130 128 128 130 129 127 126 127 126 126 125 124 124 123 124 125 125 123 120 120 121 119 117 118 118 118 118 117 116 115 113 112 111 108 108 107 108 108 100 144 184 185 186 183 182 182 181 182 187 186 175 197 247 249 242 239 238 238 238 242 251 252 252 252 252 252
237 237 237 237 237 238 251 253 253 253 254 251 241 239 175 74 67 66 65 68 66 68 66 65 66 64 66 67 66 67 65 66 66 65 67 65 66 68 67 69 71 68 69 69 71 72 70 70 71 72 74 73 74 72 75 78 74 76 76 77 76 75 79 80 80 81 81 82 84 82 85 124 181 186 183 183 182 183 182 184 184 184 184 183 185 184 184 184 185 183 180 181 184 185 184 182 186 185 182 183 186 184 182 185 185 184 183 184 183 184 184 185 184 186 185 182 183 183 183 184 186 187 182 183 184 183 178 154 162 181 178 177 154 129 139 137 129 120 117 116 122 125 123 123 124 126 125 126 126 126 126 127 127 126 128 128 127 128 130 129 128 127 127 130 130 131 131 131 130 131 131 130 131 132 132 131 130 131 131 129 128 129 130 129 130 130 130 129 131 133 130 127 126 128 128 127 126 125 125 125 124 123 121 121 124 123 121 121 121 119 117 118 117 118 118 118 117 115 115 113 112 112 109 107 107 105 105 101 100 151 185 185 184 179 182 182 183 185 185 181 177 219 251 250 239 236 237 238 238 241 252 253 253 253 253 253
237 237 237 237 237 238 247 252 254 252 253 252 240 239 215 98 65 69 62 67 66 68 65 65 67 66 65 65 68 66 66 66 68 67 65 66 67 68 69 70 69 68 69 68 70 72 72 71 71 72 71 74 84 84 74 74 77 76 76 76 78 78 78 77 79 82 80 79 83 84 80 116 180 185 183 184 184 184 184 182 184 186 183 182 185 184 185 185 183 183 185 183 183 184 185 185 185 183 183 183 185 185 185 183 183 185 184 184 184 183 183 184 184 183 184 183 185 184 183 183 184 184 184 186 185 183 176 158 167 186 185 183 160 147 166 167 156 142 133 126 120 120 122 123 124 124 124 124 124 125 124 127 127 125 126 126 126 126 126 126 126 127 129 130 129 128 128 128 129 130 129 128 128 129 131 130 129 128 128 128 129 130 131 130 128 127 128 127 126 123 122 124 126 126 125 125 125 124 124 125 126 126 124 123 122 120 117 119 121 120 116 117 118 117 116 114 114 112 111 110 110 109 108 108 105 103 105 102 104 155 184 185 183 182 184 181 184 187 185 175 189 242 253 250 238 236 238 238 238 239 252 254 254 254 254 254
237 237 237 237 237 238 247 254 252 253 254 252 242 237 235 148 69 67 66 65 67 66 66 65 67 66 67 65 67 67 66 65 67 67 66 67 67 67 67 68 70 68 69 69 69 69 73 71 70 70 71 75 90 112 88 75 77 75 76 75 77 78 77 77 78 79 80 80 81 83 83 128 184 184 184 185 183 184 185 182 182 185 182 184 184 184 184 185 183 184 183 181 184 184 183 185 183 182 185 185 184 184 185 183 185 185 185 183 185 185 182 183 184 184 185 184 184 184 184 184 183 184 184 185 184 179 174 171 175 182 181 175 164 167 182 184 180 177 167 158 135 120 122 122 121 121 122 125 124 124 122 125 125 125 126 125 126 125 126 127 126 126 126 127 128 127 126 126 128 128 129 129 128 127 128 128 128 126 127 127 128 129 129 129 126 125 126 126 127 124 124 126 127 125 124 123 124 126 125 122 122 121 122 123 122 120 117 117 119 118 117 118 119 117 113 111 112 113 111 109 108 107 106 106 105 103 104 100 105 158 183 184 184 185 184 181 185 186 182 175 210 253 254 249 239 235 237 236 238 238 252 253 253 253 253 253
237 237 237 237 237 238 249 255 252 254 254 251 242 237 238 202 87 64 70 64 67 65 67 66 66 67 66 65 67 64 66 66 65 67 66 67 65 65 66 67 70 69 68 70 69 68 72 71 69 72 73 69 79 123 106 85 82 76 75 75 77 78 76 76 77 78 80 81 80 81 84 132 182 184 184 185 184 184 184 185 184 185 181 183 183 184 183 184 185 185 182 182 183 184 183 185 182 182 185 185 183 184 186 183 183 183 185 184 185 186 183 182 184 184 185 184 183 184 185 185 183 182 183 183 182 175 178 183 179 173 169 159 164 178 185 186 186 187 184 179 151 123 124 123 120 119 119 123 123 124 122 123 124 126 125 123 125 124 125 127 128 128 126 124 126 126 125 126 127 126 126 128 127 124 125 126 127 126 126 126 126 126 125 125 124 125 127 127 125 124 125 126 126 124 123 124 124 124 123 122 120 118 119 122 119 118 118 118 118 117 117 117 116 114 112 112 112 112 110 109 107 105 105 105 104 104 101 99 112 168 185 183 184 186 181 183 186 182 179 183 231 252 253 248 240 236 237 236 237 239 252 253 253 253 253 253
242 242 242 242 242 242 248 249 249 249 249 246 244 242 244 235 136 66 69 65 66 67 66 68 65 66 68 66 65 65 66 66 66 65 67 65 65 67 66 67 69 69 70 68 69 69 69 71 72 71 71 70 72 90 81 74 78 75 75 76 77 75 77 77 77 76 79 81 80 79 90 150 187 182 184 186 184 183 184 185 184 183 183 183 182 183 185 184 185 184 183 183 183 185 184 183 183 185 185 183 185 185 184 184 183 182 183 184 185 183 185 185 184 182 183 184 184 185 185 184 184 183 183 185 185 182 183 185 181 175 172 164 175 183 186 186 186 185 184 182 163 144 146 143 137 132 128 130 133 134 129 123 122 123 124 125 126 124 122 124 125 126 126 124 124 126 126 126 126 126 126 126 126 126 126 125 125 126 127 127 126 124 124 123 125 127 126 124 123 125 126 125 124 123 124 122 121 120 122 121 119 119 118 118 119 119 119 117 116 116 115 115 114 113 112 113 111 110 108 108 107 108 105 101 103 102 100 101 136 179 186 183 183 182 180 184 184 179 176 198 241 248 249 247 244 244 243 243 243 244 249 249 249 249 249 249
254 254 254 254 254 252 240 237 239 238 237 240 248 252 252 253 203 88 64 70 63 67 66 67 67 65 66 68 64 68 66 66 67 65 66 67 65 67 68 65 67 69 69 69 69 70 69 70 71 71 70 71 71 74 72 73 74 74 75 76 77 76 76 77 78 77 78 78 80 79 83 142 186 183 185 184 183 184 184 185 182 184 185 182 180 183 184 183 184 183 184 184 183 185 185 182 185 186 184 182 184 184 183 185 185 184 183 186 183 182 184 186 184 183 184 185 183 183 184 184 185 185 184 184 183 183 186 185 182 182 182 178 185 185 186 185 184 183 183 184 178 176 182 182 178 176 173 175 180 176 160 138 124 117 119 124 125 125 123 122 123 124 125 124 123 124 125 124 124 123 123 123 126 128 127 124 122 123 124 125 125 124 123 123 124 125 125 124 124 124 124 123 121 120 121 122 120 119 119 119 120 120 118 118 117 117 117 117 115 114 113 113 113 111 110 111 109 108 106 105 105 106 104 102 102 101 98 100 159 183 184 185 183 180 185 185 183 178 177 214 238 239 241 243 250 255 252 253 252 250 239 238 238 238 238 238
253 253 253 253 253 252 240 237 238 237 237 239 249 253 252 255 241 135 64 69 64 64 66 65 68 65 65 66 65 67 66 66 66 65 66 67 65 66 67 65 67 68 68 70 69 69 69 69 69 72 71 71 70 72 72 73 73 74 74 74 76 76 76 76 77 78 77 77 78 80 80 126 182 183 184 184 184 184 184 185 182 184 185 183 184 183 184 185 184 184 185 184 184 183 183 184 185 184 183 183 184 185 185 185 184 184 183 184 184 185 185 184 185 185 183 184 183 183 184 185 184 184 184 183 184 184 186 184 182 183 185 184 186 183 185 185 184 183 183 183 182 183 186 186 184 183 182 184 187 188 182 164 146 129 119 119 121 121 123 123 123 122 123 123 123 123 124 124 124 123 123 124 125 125 125 124 124 124 124 124 124 125 125 124 123 122 122 122 122 121 122 121 120 120 120 121 119 119 119 118 118 118 117 117 116 117 117 115 114 114 114 112 110 110 109 108 106 106 107 106 103 102 102 103 99 98 97 105 168 185 184 185 182 183 187 181 178 176 191 230 238 236 238 241 251 253 252 253 252 249 238 236 236 236 236 236
253 253 253 253 253 252 243 236 237 237 238 238 250 252 254 252 255 196 82 63 71 62 65 65 66 66 65 67 67 65 66 66 66 65 66 66 65 66 66 66 67 68 68 70 69 69 68 69 70 71 72 71 69 72 72 74 73 72 73 75 75 75 76 76 76 77 77 77 77 78 80 111 171 176 185 183 184 184 184 185 183 183 185 185 184 182 184 182 180 182 182 182 184 183 183 186 185 183 184 185 183 183 185 184 184 184 184 183 185 186 185 181 183 185 182 185 185 184 184 184 183 183 184 184 184 185 184 183 184 184 185 185 185 182 184 184 185 184 184 183 182 183 184 185 184 185 184 183 183 185 186 181 173 152 127 119 120 121 120 123 122 121 121 121 122 121 121 121 122 123 123 123 122 121 122 123 124 124 123 121 121 122 123 123 122 121 121 121 122 121 121 120 120 120 119 119 119 120 119 117 116 117 117 116 116 116 114 114 113 112 113 111 108 109 109 107 107 105 105 107 102 99 100 104 99 96 95 112 173 186 185 183 183 189 187 178 177 180 211 237 237 238 236 240 251 251 253 252 251 251 237 236 236 236 236 236
253 253 253 253 253 252 242 237 237 237 236 238 249 253 252 252 255 239 131 64 70 66 63 66 65 68 64 67 67 64 67 66 65 67 67 65 66 65 66 67 66 67 67 69 70 69 70 70 69 70 70 71 72 71 72 73 73 73 72 74 75 75 76 76 77 76 78 76 77 78 78 84 113 137 179 184 184 183 184 183 185 184 184 183 184 184 184 183 183 184 181 181 184 184 184 186 185 184 184 185 183 183 184 185 184 183 183 183 186 186 183 183 185 185 184 184 185 184 184 184 183 184 185 186 184 184 183 184 184 184 185 184 183 184 183 184 184 184 185 185 184 184 184 183 183 184 184 184 184 183 186 188 186 171 143 125 123 125 116 117 119 121 121 122 122 122 122 121 120 121 122 121 121 120 120 122 122 121 120 120 121 121 121 120 121 120 120 121 121 120 118 118 119 120 119 117 117 117 116 117 116 117 116 113 113 114 112 113 111 111 111 109 107 107 107 106 106 106 102 105 103 100 99 100 98 96 92 125 177 185 185 182 185 189 182 179 177 192 228 239 237 238 238 241 252 253 254 253 252 251 237 236 236 236 236 236
252 252 252 252 252 251 239 238 237 239 235 239 248 252 252 254 251 255 191 82 60 70 65 65 66 67 65 66 65 65 66 66 67 66 67 66 65 67 66 66 66 65 66 68 70 69 69 69 68 68 70 72 71 70 71 71 72 74 74 74 73 74 76 76 77 75 77 76 78 77 78 80 81 115 172 184 183 183 185 183 184 185 183 182 185 186 185 184 183 183 183 183 185 184 184 183 184 185 183 184 185 184 182 184 186 184 185 185 183 181 181 186 185 184 185 183 184 184 183 183 183 184 184 184 184 184 183 185 186 184 184 183 185 187 183 183 183 183 184 185 185 185 184 184 183 183 183 185 186 182 183 186 187 185 175 166 162 158 130 118 119 119 120 119 119 120 121 120 120 121 121 121 121 121 121 121 120 119 119 120 121 120 119 117 119 119 118 119 119 120 118 117 117 119 119 117 116 115 116 117 116 116 114 112 113 114 111 111 111 111 109 107 107 107 107 105 104 105 102 100 99 100 97 97 98 93 98 146 186 183 181 183 189 185 179 180 184 214 238 236 237 238 239 240 252 255 253 253 253 250 237 237 237 237 237 237
246 246 246 246 246 246 243 244 245 244 243 244 245 248 245 248 243 248 235 135 64 68 68 64 66 66 67 65 67 65 65 67 67 66 67 66 66 66 66 66 66 66 66 66 68 69 69 69 69 67 70 71 71 69 72 72 71 72 74 74 73 74 75 76 77 76 75 76 77 79 76 75 88 144 183 185 182 183 186 184 181 185 184 182 184 185 184 184 184 183 184 184 184 183 184 184 184 184 184 183 185 185 183 182 184 185 185 185 184 182 182 185 184 184 184 183 184 185 184 183 184 184 184 184 184 185 184 184 184 184 184 183 184 185 184 184 183 183 184 185 185 184 184 185 184 184 183 185 185 183 182 184 185 186 185 183 183 177 142 118 118 119 120 119 118 118 118 119 119 119 120 120 119 119 120 120 119 118 118 118 119 120 120 118 118 118 118 119 118 118 117 116 117 118 117 117 116 114 114 115 114 114 112 112 113 113 111 110 109 108 107 108 108 107 104 103 102 102 102 100 98 98 96 95 94 92 113 165 186 183 182 186 187 180 179 181 196 232 245 243 244 243 244 244 247 247 246 246 247 246 245 245 245 245 245 245
238 238 238 238 238 239 250 254 252 252 254 250 241 239 238 237 239 235 251 202 91 62 71 66 66 66 68 64 68 66 63 67 66 67 66 66 67 65 65 67 66 67 67 65 67 69 69 69 70 68 69 70 72 70 72 73 71 70 73 73 73 73 72 75 76 76 75 77 76 78 77 75 111 173 184 184 183 183 183 185 182 184 185 183 184 184 182 184 184 184 183 183 183 183 184 186 184 183 184 184 184 184 184 183 183 185 185 183 184 185 185 184 183 185 184 183 184 185 184 184 184 184 184 184 184 185 184 183 184 184 184 184 183 183 184 185 184 184 185 185 184 184 184 184 185 184 184 183 183 184 183 185 184 183 184 186 186 181 149 117 116 117 119 119 118 118 118 119 119 118 119 120 119 118 119 119 118 118 117 117 117 118 119 118 117 116 117 118 117 116 116 117 119 117 114 114 114 113 114 114 113 112 111 111 112 110 108 108 108 107 106 107 107 106 102 101 100 100 103 100 97 96 96 94 90 99 137 180 183 182 185 187 179 177 182 184 210 242 251 252 251 252 250 248 241 236 237 236 238 240 253 254 254 254 254 254
238 238 238 238 238 239 252 254 251 253 255 251 241 236 239 236 240 236 249 244 148 67 66 70 64 67 66 67 65 68 64 65 67 66 66 67 65 65 66 66 66 66 67 66 66 67 69 69 69 70 69 69 70 72 71 71 71 70 71 73 73 73 72 74 75 75 77 78 74 77 78 81 136 187 177 175 183 184 182 186 187 183 184 184 184 184 183 183 184 183 182 183 183 183 184 185 184 184 185 184 183 183 184 184 184 185 185 184 183 185 186 184 183 184 184 184 184 184 184 185 184 184 185 183 184 184 184 183 183 184 184 185 183 182 184 185 185 185 184 183 183 184 183 184 185 184 184 183 183 184 184 185 184 182 184 187 187 183 161 121 117 116 116 116 117 118 118 119 118 116 116 118 118 116 116 117 117 118 118 117 116 117 117 118 117 117 117 117 116 114 114 115 115 114 112 112 114 114 114 112 112 110 110 109 109 108 107 106 107 106 105 106 104 102 101 101 99 99 102 99 96 95 96 93 92 117 163 185 183 185 188 181 177 180 184 197 228 244 251 253 252 253 251 251 239 234 237 235 237 241 252 253 253 253 253 253
237 237 237 237 237 238 252 252 253 253 253 252 242 236 237 237 236 239 245 255 216 101 59 71 64 66 65 68 64 67 68 64 66 65 66 67 66 66 67 65 65 66 66 66 66 66 67 69 69 70 69 68 68 72 70 70 71 72 69 72 73 73 73 74 74 74 78 77 73 76 79 78 124 182 180 171 179 183 183 184 189 183 183 185 183 184 183 183 183 184 183 183 184 184 184 183 185 185 183 183 185 184 184 183 185 185 183 184 183 184 185 185 184 183 184 184 184 184 184 184 185 185 184 183 184 184 184 184 183 184 184 184 184 184 184 184 185 185 184 183 183 183 183 184 185 185 185 184 184 185 183 182 184 184 184 185 186 184 172 126 116 115 114 115 116 118 118 118 118 116 115 117 118 118 117 116 116 117 118 117 117 117 116 116 116 115 114 114 113 113 113 113 113 113 112 112 113 113 112 111 111 109 109 107 107 107 107 106 107 106 105 104 102 99 100 102 100 99 97 98 95 95 96 90 105 147 180 185 182 187 186 178 180 183 186 215 238 241 253 255 255 254 254 251 237 237 237 237 235 240 251 252 252 252 252 252
237 237 237 237 237 238 251 251 255 252 253 253 240 237 235 238 235 238 248 253 252 166 73 62 69 65 65 68 65 65 71 65 65 66 65 67 67 66 67 65 66 66 66 66 66 66 66 68 69 70 69 69 68 69 70 70 71 72 70 71 72 73 73 74 73 73 76 76 74 76 77 75 95 159 188 182 182 184 185 182 185 183 184 185 184 184 184 183 183 186 185 183 183 184 184 183 185 186 184 182 183 185 184 184 185 185 183 183 183 184 185 185 184 183 184 184 184 184 184 184 184 185 184 183 184 184 185 183 183 184 184 184 185 184 184 184 184 184 184 184 184 183 184 184 184 184 184 184 184 186 185 182 183 185 184 184 185 185 177 126 114 112 112 113 114 114 114 114 114 114 114 114 115 116 116 115 115 115 116 115 115 114 113 113 113 113 112 113 113 113 113 112 111 112 112 112 111 110 110 109 109 108 108 107 106 106 107 106 105 104 103 102 101 99 100 102 99 97 94 95 93 95 92 96 132 173 186 183 182 185 182 181 183 184 201 232 238 240 254 255 255 254 255 250 237 238 237 237 235 240 252 253 253 253 253 253
237 237 237 237 237 238 249 253 253 253 252 252 241 238 236 236 238 235 250 249 255 227 118 60 69 65 66 65 67 65 67 67 66 67 64 66 66 66 66 66 67 66 67 66 65 66 67 66 69 69 69 69 69 68 69 70 71 72 73 71 71 73 72 73 74 72 73 76 77 74 76 79 75 122 179 185 184 183 185 182 181 184 185 184 185 184 185 183 182 186 185 184 184 184 185 183 184 186 185 182 182 184 184 185 185 184 184 183 182 183 184 185 185 184 183 185 185 183 184 183 183 184 185 183 183 184 183 184 185 185 184 184 184 183 184 184 184 184 184 185 184 183 184 184 184 184 184 183 183 186 186 183 183 185 184 183 183 185 175 123 112 112 112 113 113 113 113 113 113 113 112 112 112 113 113 114 115 115 114 113 113 113 113 113 112 112 112 112 113 112 112 112 111 111 110 111 108 108 109 108 107 108 108 108 105 105 106 105 101 100 100 102 102 100 100 99 97 95 94 93 94 94 90 115 164 186 183 183 184 183 181 186 181 190 223 241 237 243 255 253 253 254 253 247 238 238 238 237 237 239 252 253 253 253 253 253
246 246 246 246 246 246 245 243 244 243 244 243 248 247 247 246 248 246 246 245 243 247 179 83 62 67 65 65 67 68 64 66 67 66 65 69 65 66 67 65 66 65 67 66 65 66 67 66 68 67 70 69 69 69 70 69 70 71 72 70 71 72 72 72 74 73 72 73 77 76 75 76 76 105 162 183 188 183 182 185 183 185 184 184 185 182 185 184 183 184 183 183 184 185 184 184 183 183 185 185 184 183 184 184 184 184 185 184 184 185 184 183 184 184 183 185 185 183 184 184 184 184 185 184 184 184 182 185 187 185 184 183 183 184 184 184 184 184 184 184 184 184 183 184 184 184 185 184 183 183 185 186 183 184 184 183 183 186 165 119 112 111 111 112 113 113 113 113 113 114 114 113 113 113 112 112 114 113 113 112 113 112 112 112 112 112 113 113 112 111 110 110 110 109 109 108 107 110 109 106 106 106 107 106 105 104 102 102 101 101 101 102 100 98 98 96 95 95 94 91 95 90 98 146 182 185 181 184 186 184 183 184 187 216 247 248 245 246 245 244 244 244 244 242 246 247 248 248 247 246 244 244 244 244 244 244
253 253 253 253 253 252 241 237 236 237 239 238 247 252 254 253 253 254 240 241 234 240 227 136 65 67 65 68 65 68 65 66 65 66 66 67 66 66 67 65 66 66 66 66 66 66 66 66 66 67 70 69 68 69 69 69 70 70 70 71 70 70 72 72 72 74 74 72 75 75 75 75 77 75 101 146 181 188 183 183 185 185 183 185 184 182 183 181 182 183 184 184 184 184 184 184 184 183 184 185 185 182 183 184 185 184 185 186 185 183 183 184 184 185 184 183 184 183 184 185 184 184 184 184 184 184 185 185 184 183 184 184 184 185 184 184 183 184 184 184 185 184 184 184 184 184 184 185 183 182 184 186 183 184 185 183 184 183 149 114 112 111 111 111 112 112 112 112 112 114 113 112 112 112 112 111 112 111 112 112 111 111 111 111 112 112 110 109 109 109 109 108 108 108 108 107 107 109 106 105 105 105 105 105 104 102 100 100 100 102 101 99 97 96 97 94 93 96 93 90 92 88 121 172 186 183 184 184 183 183 185 182 204 242 255 251 252 247 236 236 236 237 237 242 253 253 253 253 253 250 238 237 237 237 237 237
253 253 253 253 253 252 239 236 238 237 237 238 249 253 253 254 251 255 241 237 239 234 243 200 98 62 69 65 65 66 67 66 66 67 66 64 68 66 66 66 66 66 66 66 67 66 65 66 65 66 68 68 68 69 70 69 69 69 70 71 71 71 72 72 71 73 73 74 73 75 75 74 77 76 73 98 145 181 190 182 183 184 184 185 183 184 183 182 185 184 186 185 183 184 185 183 184 185 183 183 185 185 184 184 185 184 183 185 184 183 184 185 184 183 184 184 184 184 184 184 185 184 184 185 184 184 185 183 182 184 184 184 185 185 184 184 184 183 183 184 185 185 184 184 185 184 184 184 184 184 182 183 184 185 185 184 186 171 129 108 109 110 111 110 109 109 109 109 111 112 111 111 112 112 111 110 109 110 111 111 109 109 110 110 110 110 108 108 108 108 109 108 107 106 106 107 107 106 104 105 105 103 102 102 101 103 102 100 100 100 97 96 97 96 94 93 94 94 90 93 89 99 153 184 183 184 186 185 183 183 183 189 230 255 251 251 254 248 235 238 238 236 237 242 252 253 252 253 253 250 238 237 237 237 237 237
253 253 253 253 253 252 240 238 237 238 236 237 251 254 252 252 253 253 243 235 237 237 237 236 167 75 66 65 67 63 69 65 66 68 65 63 69 64 64 69 66 66 67 65 67 66 66 65 66 67 65 66 70 69 69 68 69 69 70 70 72 72 70 71 72 71 72 74 72 74 74 76 75 79 74 74 100 146 184 187 183 182 184 185 185 186 184 182 184 184 185 184 183 184 185 183 184 185 184 184 183 185 184 184 184 184 184 183 183 184 185 184 183 183 184 185 184 185 184 183 184 183 183 185 185 184 183 183 184 184 184 184 184 184 184 184 184 184 184 185 184 184 184 184 184 184 184 184 184 186 185 183 183 184 184 186 177 142 112 107 108 109 109 110 109 108 108 109 109 109 108 108 108 109 109 110 108 109 110 110 109 109 109 108 107 107 107 107 107 107 108 108 107 105 105 105 105 104 105 105 103 101 101 101 100 100 101 99 99 98 95 94 96 96 93 94 95 93 90 92 88 126 176 185 183 185 184 182 182 184 182 212 251 255 252 253 254 250 237 237 237 237 236 239 253 252 254 253 254 249 238 237 237 237 237 237
252 252 252 252 252 251 240 239 235 237 238 237 249 253 253 252 255 252 243 237 236 240 233 241 229 130 64 66 68 64 69 64 65 67 66 66 66 65 65 67 66 66 67 65 65 66 67 65 67 68 65 66 69 69 68 69 69 69 69 69 71 72 70 71 71 70 73 73 74 73 72 75 75 76 78 74 74 101 152 185 186 183 184 185 185 183 184 182 183 184 184 183 184 185 184 184 183 183 185 185 182 183 184 184 184 185 185 183 183 185 185 184 184 184 184 184 184 184 184 184 184 183 183 183 185 184 184 184 186 184 184 184 184 184 184 183 184 186 185 184 183 183 184 184 184 184 184 184 183 185 186 184 183 182 186 184 158 118 106 109 108 106 105 106 107 108 109 109 109 108 108 108 107 107 108 109 109 107 107 107 108 108 106 106 106 107 107 107 106 105 106 106 106 105 105 105 104 103 103 102 100 100 101 101 99 98 98 98 97 97 95 94 95 95 93 93 93 90 89 85 99 158 186 184 183 184 183 181 180 182 193 234 255 252 255 254 253 249 238 236 236 237 237 239 253 253 254 253 254 249 238 237 237 237 237 237
252 252 252 252 252 251 241 236 239 237 238 238 248 251 252 252 252 252 241 240 240 238 239 236 252 209 96 66 67 68 65 67 67 63 66 69 65 68 68 63 66 67 64 67 65 65 66 67 65 65 67 66 65 68 69 69 69 69 68 70 69 70 72 72 70 70 73 72 73 72 73 71 75 72 76 78 74 76 104 158 186 185 184 183 183 182 185 185 184 184 183 184 184 184 183 185 185 183 184 184 184 184 185 184 184 184 184 184 185 184 183 183 184 184 184 183 184 184 184 185 184 185 185 183 183 184 185 185 184 184 184 184 184 184 184 183 184 184 184 183 184 184 185 185 184 183 184 185 185 183 182 184 184 185 185 166 131 105 105 108 108 107 106 106 107 108 108 107 107 106 108 109 108 107 107 107 107 106 106 107 108 107 106 106 107 108 107 105 105 105 105 105 104 104 103 102 102 102 101 100 100 100 100 100 99 98 97 98 96 95 96 96 94 90 91 92 90 88 87 83 129 180 185 185 183 181 181 179 178 188 218 245 249 251 253 251 251 246 238 238 238 238 240 244 250 254 251 252 251 250 239 238 238 238 238 238
242 242 242 242 242 242 247 247 250 249 247 252 242 241 240 242 240 242 247 249 249 247 251 246 246 241 168 78 62 70 64 68 67 64 67 67 64 67 67 65 66 66 65 68 66 66 66 66 65 66 68 65 65 66 69 68 68 70 69 69 69 69 71 71 71 73 71 71 72 72 74 73 73 72 74 76 77 75 78 117 169 188 185 181 184 185 184 183 183 184 183 185 184 182 182 185 186 184 184 182 185 186 183 184 184 184 184 184 185 185 183 183 184 185 185 184 184 184 183 183 183 186 187 185 182 184 184 183 182 185 185 184 184 184 184 185 185 183 183 184 184 185 185 185 184 184 183 183 185 184 182 184 187 186 166 131 108 103 104 102 104 107 108 108 107 107 106 105 105 106 106 106 107 106 106 106 106 106 105 105 106 106 105 104 105 105 104 105 106 105 102 101 101 102 101 101 101 100 100 100 100 100 99 97 97 98 97 95 93 94 95 94 90 88 91 92 88 85 84 104 161 183 182 184 182 181 182 179 182 209 244 247 240 241 241 242 241 242 248 251 251 250 250 247 241 241 240 241 240 244 249 249 249 249 249 249
237 237 237 237 237 238 249 253 254 252 253 253 240 238 236 238 237 237 248 252 253 252 253 254 241 240 226 134 68 65 66 66 67 66 66 66 65 65 66 68 65 65 67 66 66 66 66 66 66 67 65 66 66 65 67 67 67 71 69 69 70 69 70 69 72 73 70 70 71 73 72 75 73 73 73 74 76 77 72 85 133 181 188 181 185 187 183 183 183 181 178 180 184 183 183 185 184 184 185 183 184 185 183 183 184 185 185 183 184 185 184 183 184 185 185 185 185 184 183 183 183 184 184 184 184 184 183 182 183 185 184 184 184 184 184 185 185 184 185 185 184 183 183 184 185 184 183 183 184 185 184 184 186 181 142 109 102 105 105 102 103 105 106 107 106 105 105 106 105 105 104 104 104 105 106 105 105 106 105 104 105 105 105 104 104 103 102 103 103 102 101 100 101 102 101 100 99 99 100 100 99 97 96 95 95 95 94 94 93 93 93 91 89 90 90 89 86 84 89 135 180 181 183 184 183 185 183 182 201 237 253 246 238 236 236 238 239 243 253 254 253 252 252 248 239 235 237 237 237 240 252 253 253 253 253 253
236 236 236 236 236 238 249 254 252 252 254 250 241 238 238 237 238 237 247 252 253 254 253 255 243 235 240 207 108 63 66 66 65 69 65 66 67 64 65 68 65 67 67 64 66 66 66 66 68 65 64 67 67 65 66 67 66 69 69 69 69 69 69 69 70 70 70 72 71 72 69 72 73 73 72 74 75 76 74 72 97 155 186 185 183 184 183 185 185 184 180 177 182 184 183 184 183 182 184 186 183 179 182 182 182 185 184 183 184 184 184 184 183 183 184 184 185 185 185 184 184 182 182 184 186 185 184 184 186 184 183 183 185 185 184 183 183 185 186 185 184 182 183 184 185 185 185 184 183 185 185 183 184 166 116 98 100 102 104 104 103 102 102 104 104 103 104 105 105 104 104 103 103 104 105 103 103 104 104 102 102 101 102 103 102 101 100 101 101 100 101 101 100 100 100 100 99 99 98 98 97 95 95 95 96 93 93 94 94 91 90 91 92 91 87 84 85 84 103 163 186 183 186 182 182 185 181 193 233 255 254 248 237 235 235 237 238 244 254 251 249 251 252 249 239 236 239 237 239 239 253 254 254 254 254 254
237 237 237 237 237 238 250 253 251 254 253 251 242 236 238 237 236 238 248 253 253 255 254 252 242 237 235 238 182 88 63 68 64 67 66 64 70 66 64 67 65 65 66 65 66 67 66 65 67 66 66 66 66 66 65 66 67 65 70 69 68 70 69 69 70 70 70 72 70 71 72 70 71 75 73 72 73 74 76 72 76 113 165 189 185 181 183 185 185 184 187 182 183 184 183 182 183 183 183 185 183 180 183 183 183 185 184 184 184 184 185 184 183 183 184 183 184 184 184 184 184 184 184 184 184 184 185 185 186 184 183 184 185 184 183 183 183 183 184 184 185 185 184 184 184 185 185 185 183 182 184 185 183 150 105 99 100 101 102 104 103 100 100 101 101 100 100 101 102 103 104 102 101 101 101 100 100 101 102 102 100 100 101 102 101 101 101 100 100 99 100 100 100 99 98 98 98 97 97 97 95 93 95 96 96 92 92 91 92 91 89 88 89 90 86 83 85 88 128 178 183 186 187 181 182 180 187 220 253 254 254 248 237 237 237 237 237 242 252 252 254 254 253 247 238 238 238 237 238 240 252 253 253 253 253 253
237 237 237 237 237 238 250 253 253 255 252 253 242 237 236 236 237 237 249 254 252 252 255 252 241 239 236 238 233 154 79 61 67 66 66 65 67 67 65 65 67 65 65 68 66 65 67 66 64 67 68 65 65 67 65 65 67 64 69 68 69 70 68 69 68 70 69 70 72 70 72 72 71 72 74 71 72 71 75 77 73 77 123 176 188 183 183 185 183 184 187 184 183 184 184 181 181 182 182 183 182 184 184 184 184 183 183 185 184 183 184 184 185 184 184 184 185 184 183 183 183 184 184 185 184 183 184 184 183 184 184 185 185 184 184 185 184 183 182 183 185 186 185 184 183 183 184 185 184 183 185 183 164 128 102 100 97 99 100 102 102 102 101 101 101 101 100 99 99 102 103 101 100 100 100 102 102 101 101 102 101 100 101 100 99 99 101 100 100 100 99 98 98 97 97 97 96 96 95 94 94 94 95 94 91 92 92 88 90 91 88 86 86 86 86 84 86 99 157 185 185 185 182 183 184 183 210 245 255 250 252 246 238 240 238 237 237 241 252 254 255 254 254 247 237 238 236 238 237 239 252 253 253 253 253 253
239 239 239 239 239 240 247 253 253 253 250 252 242 239 239 238 241 237 249 252 250 250 252 252 244 239 241 237 242 220 135 68 66 67 66 67 63 67 68 65 66 66 66 69 67 64 66 66 65 67 66 66 65 67 66 66 65 67 67 66 70 69 69 69 67 69 70 68 74 72 69 73 73 70 72 74 74 70 73 76 74 70 84 131 176 189 185 184 184 182 183 184 185 185 184 181 180 181 183 182 184 184 184 184 181 180 183 185 185 183 183 185 187 184 183 185 183 183 184 184 184 184 184 185 184 183 184 185 182 182 185 185 184 185 186 186 184 185 183 183 183 185 185 184 183 182 183 184 185 186 185 167 124 102 99 99 98 101 102 98 99 101 101 100 100 101 101 99 97 99 100 99 100 100 100 101 101 99 100 101 101 100 100 100 99 98 100 98 97 98 99 99 97 97 96 95 94 94 93 92 93 95 93 90 89 92 92 88 87 89 86 85 84 84 85 85 84 120 178 186 187 183 179 183 184 202 240 254 251 250 249 246 243 243 239 239 240 245 253 252 251 251 252 249 239 239 238 240 240 239 251 252 252 252 252 252
251 251 251 251 251 251 241 241 239 240 242 240 248 250 253 250 250 251 243 239 241 240 237 242 250 247 252 251 249 255 212 118 65 64 70 66 64 68 67 65 66 67 66 64 68 67 65 66 67 64 64 67 67 65 67 68 66 67 64 66 68 67 70 69 67 69 70 69 70 72 70 70 71 71 70 73 75 72 72 72 74 75 71 85 137 181 189 184 184 184 182 184 185 185 184 184 183 183 183 185 185 184 187 185 179 180 183 186 186 184 183 182 184 184 183 184 183 184 185 185 185 184 183 184 184 183 184 185 185 183 184 184 184 185 183 182 183 185 185 183 183 184 185 185 184 184 184 184 185 185 184 156 102 96 97 97 99 100 99 98 100 101 101 99 100 100 100 100 100 100 100 100 101 101 100 100 99 98 99 99 99 98 97 98 99 99 98 95 96 98 97 96 95 95 94 94 95 94 93 92 91 91 90 89 92 91 90 89 86 86 86 84 85 86 84 84 88 148 183 184 182 182 183 183 195 224 241 242 239 242 240 245 251 250 250 252 250 246 240 239 240 241 240 243 250 249 251 250 252 249 240 240 240 240 240 240
253 253 253 253 253 252 241 236 237 237 238 237 249 254 252 253 252 255 241 237 239 237 238 236 247 253 252 253 254 254 248 196 102 60 67 66 67 67 63 67 67 66 66 64 65 68 66 66 66 67 65 65 68 65 66 65 68 66 64 67 66 67 68 69 71 69 68 70 67 68 73 72 68 72 71 70 71 74 73 71 73 75 74 70 93 145 182 185 184 185 186 185 182 183 185 185 185 184 182 184 184 184 185 185 183 184 182 180 180 184 184 182 182 184 185 183 184 185 185 184 184 182 182 184 185 185 184 184 186 185 184 184 184 184 182 182 183 185 185 185 184 183 183 184 184 185 185 184 184 184 184 148 97 97 96 97 99 97 97 98 98 97 98 98 98 97 97 99 100 98 97 98 98 98 98 98 96 97 96 96 98 98 97 97 98 98 96 94 96 95 93 92 93 94 93 94 93 91 94 93 90 88 90 93 91 85 87 87 86 85 85 84 86 85 83 81 105 172 185 182 181 186 184 189 222 244 235 236 238 239 239 244 250 252 253 253 253 247 236 236 238 237 237 240 253 252 254 252 252 251 238 237 237 237 237 237
253 253 253 253 253 252 241 237 237 236 238 238 248 253 253 254 253 255 241 236 237 237 240 236 244 255 252 253 251 254 247 235 178 94 59 65 69 64 64 68 66 67 66 66 65 66 67 66 66 67 66 65 66 67 65 64 67 65 68 66 65 68 66 67 72 69 68 70 69 68 71 72 71 71 72 70 69 71 71 74 74 70 75 75 71 99 152 185 185 183 186 185 183 183 185 185 185 185 184 180 183 185 182 183 187 187 183 180 179 185 186 185 183 183 184 184 184 186 184 183 184 184 184 183 185 185 184 183 183 185 184 185 184 183 184 184 184 185 184 184 184 184 183 183 184 184 184 184 183 185 184 144 97 95 97 99 97 95 97 98 97 95 96 97 97 96 97 99 99 96 95 96 96 97 98 98 98 98 97 96 97 97 96 96 95 92 93 95 95 92 93 93 93 93 93 93 90 90 92 91 92 89 89 90 85 83 84 87 87 84 82 84 84 83 82 82 135 182 186 183 184 184 187 214 248 247 236 237 238 237 239 242 250 253 253 253 254 248 236 237 237 236 236 242 254 253 254 252 252 251 238 237 237 237 237 237
253 253 253 253 253 252 239 237 236 236 238 238 248 251 254 254 253 253 242 237 236 237 237 239 246 253 254 255 250 254 244 238 234 165 83 61 67 67 68 65 65 69 65 66 68 65 65 66 66 65 66 67 63 67 67 66 65 67 68 66 65 66 65 66 68 69 70 70 69 71 69 68 71 70 72 72 71 70 69 74 72 70 73 75 71 73 110 165 186 183 182 183 185 184 183 184 185 185 184 179 185 184 184 183 185 185 184 183 183 185 185 185 183 183 182 184 183 184 184 184 185 186 186 183 183 183 183 184 183 184 184 185 183 183 185 185 185 185 183 183 183 184 184 184 184 183 184 183 183 186 184 138 97 93 93 95 95 94 96 95 94 93 94 96 97 97 97 97 96 94 94 96 95 96 96 96 97 96 94 94 94 95 95 95 93 92 93 95 92 91 92 93 93 92 91 90 89 91 89 88 90 88 87 84 83 87 85 86 84 83 83 84 81 80 79 97 163 182 183 184 182 184 210 245 255 245 237 238 237 235 236 242 252 253 253 254 254 248 237 238 237 238 237 242 253 254 253 252 253 250 238 237 237 237 237 237
253 253 253 253 253 252 239 236 238 237 236 239 249 254 252 253 253 252 242 238 237 237 234 239 248 252 253 253 255 252 247 235 241 224 153 78 60 69 68 63 65 66 67 66 67 65 65 67 66 66 67 66 64 66 67 66 66 67 64 67 67 64 67 66 65 68 69 70 68 69 69 68 69 69 69 72 71 72 72 70 70 74 73 71 73 69 79 131 181 186 181 182 184 185 183 183 184 185 185 182 185 183 186 184 182 185 186 184 184 184 183 183 184 185 183 184 184 183 183 184 184 185 185 184 183 183 183 184 184 185 184 183 183 184 184 184 185 184 184 183 183 184 185 185 184 184 184 183 183 184 181 130 95 94 92 93 95 95 93 93 92 93 94 95 96 96 94 93 93 94 94 94 95 94 94 93 94 93 93 94 94 94 94 93 93 94 94 93 93 93 91 90 91 92 90 89 91 90 88 87 86 86 87 84 85 87 86 84 82 83 86 83 80 76 77 122 178 183 182 183 182 205 241 255 253 245 236 238 237 236 236 243 254 252 254 254 253 247 237 238 238 238 238 240 251 253 251 253 253 249 238 237 237 237 237 237
250 250 250 250 250 249 242 239 242 240 239 243 248 251 248 250 250 250 243 240 240 241 239 238 247 251 248 249 252 248 245 240 237 245 225 139 70 62 66 66 67 64 67 67 65 66 67 67 65 66 66 66 67 66 66 65 65 67 65 66 67 65 68 66 65 67 66 67 70 68 69 70 70 69 69 71 70 71 73 71 70 73 72 72 74 74 68 97 156 184 185 184 183 183 185 185 183 183 185 185 182 183 184 185 184 184 185 184 184 184 182 182 184 185 184 182 185 183 183 183 183 183 183 185 185 185 183 183 184 185 184 183 185 186 184 184 184 182 184 186 186 184 183 183 184 184 184 185 185 182 179 121 92 94 94 93 93 93 93 93 94 95 95 95 95 94 94 93 93 95 96 94 94 94 93 92 92 92 93 94 93 93 92 92 92 92 91 89 91 92 91 89 89 90 88 88 88 87 87 87 86 85 85 86 86 83 84 83 83 83 83 80 79 75 93 153 184 185 183 182 198 234 252 251 248 247 241 241 240 241 241 245 251 250 250 249 249 247 240 239 240 239 240 242 249 249 250 252 251 248 241 240 240 240 240 240
237 237 237 237 237 238 251 253 250 253 252 251 242 237 240 238 238 239 248 251 252 251 254 251 242 239 238 239 237 238 244 253 252 251 255 223 127 67 63 68 67 66 65 66 67 67 66 66 67 64 65 68 68 65 67 67 64 66 67 64 66 67 65 65 67 66 65 66 70 69 70 68 69 70 70 69 70 70 70 71 73 71 70 73 73 75 71 71 101 154 185 187 185 182 184 186 186 182 181 184 184 184 181 184 187 183 181 185 184 182 185 184 184 185 181 178 185 186 184 184 183 182 182 185 185 186 184 183 184 182 183 184 186 185 185 185 183 182 183 185 186 185 183 183 183 184 183 184 185 185 178 114 91 91 93 93 91 93 96 91 93 95 95 93 91 91 93 93 93 94 94 92 91 93 93 93 92 91 93 92 90 90 90 90 90 90 90 91 90 89 90 91 89 85 87 89 87 85 85 84 86 86 84 84 85 83 82 83 83 81 77 76 76 89 138 180 185 183 184 192 222 240 237 235 239 248 255 250 251 251 251 247 240 240 236 236 239 245 252 250 251 251 251 250 239 237 240 238 240 242 251 252 252 252 252 252
237 237 237 237 237 238 251 254 250 253 254 250 240 238 238 236 237 237 248 253 253 253 252 255 243 235 240 235 238 235 246 253 255 252 253 255 210 117 68 63 67 69 65 64 67 66 66 66 67 66 67 66 67 64 66 69 68 64 67 67 65 66 64 66 67 65 66 68 66 67 70 68 68 69 71 69 70 70 71 69 72 71 70 72 69 71 75 72 72 102 150 179 189 186 182 181 185 186 184 172 172 185 185 184 185 184 183 188 183 181 185 185 184 185 183 179 182 186 186 186 185 184 184 183 183 185 186 185 184 183 183 184 184 183 184 184 184 185 184 183 183 185 185 185 184 183 182 184 185 182 172 108 91 89 89 89 90 91 92 91 91 92 92 91 91 92 92 91 93 92 91 92 91 91 92 92 90 89 89 90 90 90 90 89 89 89 90 91 89 86 85 88 90 87 86 85 85 86 84 84 83 85 85 81 81 85 84 81 77 80 79 75 80 124 174 183 180 181 194 220 236 236 237 238 238 245 253 252 254 253 253 247 237 235 236 236 238 243 252 252 253 254 253 248 239 238 237 235 238 240 252 253 253 253 253 253
237 237 237 237 237 238 248 253 255 253 252 250 241 239 236 237 238 236 248 254 252 255 251 253 245 236 237 236 239 238 244 253 253 254 251 254 252 199 113 64 65 64 67 68 64 65 67 66 63 68 67 64 65 67 65 66 65 65 64 67 67 66 66 67 66 65 67 64 66 66 67 69 70 68 67 69 69 71 71 70 70 74 70 68 72 70 69 72 73 71 88 128 161 182 189 186 178 184 185 152 129 164 183 183 184 185 185 184 185 184 181 184 183 183 186 183 181 182 182 183 184 185 185 183 183 183 185 185 184 185 184 184 184 183 183 183 184 185 185 185 184 184 184 184 184 184 184 186 183 182 160 100 91 93 90 88 91 90 89 91 90 90 89 89 91 91 89 91 90 91 92 93 92 89 88 87 89 91 91 89 88 90 90 89 88 88 89 87 87 89 86 85 86 86 85 82 85 87 87 85 83 83 84 83 84 84 81 74 78 81 77 77 108 165 184 178 177 193 226 244 238 236 237 237 236 244 254 253 253 254 253 249 238 234 237 237 237 242 252 254 253 252 252 250 241 238 237 237 236 238 252 253 253 253 253 253
237 237 237 237 237 238 247 251 255 253 251 252 242 236 237 238 236 236 250 253 253 253 254 252 241 239 236 239 235 238 246 253 252 254 254 251 246 241 198 112 66 61 67 69 63 68 67 64 66 67 66 64 67 67 65 66 66 67 67 62 66 69 66 67 67 65 68 65 66 67 64 68 69 68 68 70 68 69 68 70 70 70 72 71 71 71 71 72 71 74 71 74 97 133 165 184 187 180 184 184 156 151 178 182 182 182 186 182 186 184 183 186 184 182 182 184 184 183 183 183 184 184 184 186 185 184 184 183 184 184 184 184 184 184 184 184 184 183 183 184 184 184 184 185 185 185 186 184 184 180 132 92 89 89 89 90 88 88 89 92 94 92 90 89 88 89 90 89 89 90 90 88 90 91 90 88 88 89 90 88 88 89 86 85 88 89 88 84 84 87 86 84 82 83 86 86 85 84 83 83 83 81 80 84 85 78 75 79 82 73 73 99 152 182 182 180 194 229 252 247 234 235 237 237 235 246 255 252 252 250 253 247 238 238 236 236 236 242 254 254 254 254 255 250 238 238 237 239 236 239 252 253 253 253 253 253
236 236 236 236 236 238 254 254 250 255 253 254 241 237 239 236 238 236 248 253 253 251 253 254 242 237 238 235 236 236 247 253 253 252 253 253 244 238 241 198 113 67 64 67 65 65 66 66 69 65 67 68 66 65 67 66 67 65 66 67 65 64 67 65 66 66 66 68 67 66 67 66 65 67 72 67 69 69 70 69 69 68 70 74 70 68 73 73 70 71 73 72 70 76 98 135 171 186 184 186 183 173 187 187 183 182 184 185 186 185 183 184 184 183 183 185 183 183 185 184 184 183 183 183 183 184 184 186 184 183 185 185 184 183 185 185 184 184 183 183 183 183 184 184 183 183 184 184 185 158 101 88 85 85 86 85 86 90 90 88 87 88 88 88 88 89 89 87 87 88 90 89 87 87 86 87 87 88 88 87 87 87 87 87 87 85 83 84 85 83 85 87 86 84 84 84 84 83 82 82 81 80 80 81 78 76 75 80 78 70 89 142 180 182 181 196 229 252 253 241 237 238 237 236 239 245 252 255 255 254 252 246 239 240 237 237 238 243 254 253 252 254 253 247 236 238 237 235 237 242 252 253 253 253 253 253
242 242 242 242 242 243 248 250 247 247 250 247 244 243 242 241 242 243 245 248 249 248 247 248 246 241 241 241 243 243 245 248 249 247 248 247 247 241 242 246 204 119 66 62 71 65 64 68 65 66 66 66 65 67 66 65 67 65 65 69 67 65 65 67 67 66 65 65 66 65 66 66 67 66 69 68 71 70 69 68 68 69 69 70 73 71 69 68 73 72 71 74 70 70 73 80 103 143 175 184 184 178 180 185 189 186 182 185 181 184 186 182 183 185 186 184 184 183 184 183 183 182 183 183 184 184 185 185 185 184 184 184 184 183 183 183 183 185 185 185 185 184 184 183 183 183 184 184 182 132 85 82 85 87 88 87 88 89 87 85 85 86 88 90 88 87 86 89 88 87 87 87 87 86 86 87 87 86 85 85 85 84 85 86 84 83 84 87 86 84 84 83 84 84 83 82 82 82 84 83 81 83 82 77 74 78 79 75 69 82 126 173 185 183 193 224 245 247 247 244 245 245 241 242 244 244 247 249 249 251 248 246 242 243 243 242 242 244 248 248 247 247 247 246 243 242 242 240 241 243 247 247 247 247 247 247
254 254 254 254 254 253 235 236 239 237 236 236 250 254 251 254 252 254 243 236 238 238 239 236 246 254 252 254 254 253 248 234 237 240 234 240 246 248 253 254 255 212 123 67 63 68 68 64 65 68 65 63 65 67 65 65 66 65 68 65 66 68 64 67 68 64 67 67 64 66 67 66 67 67 64 68 68 69 68 69 70 68 70 67 69 73 71 71 69 71 74 67 70 75 73 69 73 82 108 149 176 183 183 181 184 185 183 183 183 185 187 184 183 185 182 183 185 185 184 183 184 184 185 185 184 183 184 183 183 184 183 184 185 185 184 183 185 184 184 183 184 184 184 184 184 184 186 185 173 107 84 85 85 86 87 88 84 83 84 88 88 86 84 85 85 86 86 85 87 86 84 84 85 86 86 86 84 84 85 86 86 85 85 84 86 85 85 84 83 84 83 82 82 81 83 84 82 82 81 80 80 79 78 76 78 78 76 71 73 117 168 185 185 193 217 236 238 238 237 246 253 251 253 255 250 246 236 235 237 235 238 243 250 252 253 254 253 247 236 237 239 237 238 240 255 253 252 252 251 247 239 238 238 238 238 238
253 253 253 253 253 252 240 238 235 238 237 238 249 253 253 253 254 252 243 236 237 238 237 238 247 253 254 252 253 252 247 235 237 238 236 235 245 254 252 251 253 255 213 124 67 61 71 66 64 66 67 65 68 65 66 66 66 66 66 65 65 66 67 65 66 66 67 66 66 66 67 66 65 67 65 67 66 67 71 69 70 68 69 70 67 68 72 72 71 68 70 71 72 71 70 72 72 71 72 84 122 175 187 181 181 185 187 182 185 185 184 185 182 182 185 187 184 184 183 183 184 185 186 184 183 183 184 184 183 185 184 185 184 184 184 184 183 183 185 184 184 184 184 184 185 184 185 185 155 91 86 85 84 85 86 85 85 85 85 86 85 84 84 85 86 86 86 85 85 84 85 86 85 84 85 84 84 85 86 84 84 86 85 85 83 82 83 82 84 83 83 82 83 84 83 83 81 80 79 79 79 73 73 79 80 74 70 71 102 158 183 185 195 218 237 242 238 236 236 246 254 253 253 252 252 246 237 238 238 237 238 243 251 251 253 253 252 247 236 237 237 237 237 242 254 252 254 253 254 250 238 237 237 237 237 237
253 253 253 253 253 252 242 237 237 235 239 239 249 252 253 253 254 253 242 237 237 237 237 238 247 253 253 253 253 254 244 239 237 234 239 236 242 255 253 252 251 255 252 208 133 72 60 70 67 64 66 68 66 66 68 65 64 67 65 66 67 64 66 66 65 67 66 66 66 69 64 65 66 66 66 66 66 66 67 68 69 69 67 71 70 66 70 69 71 73 69 71 71 70 71 73 71 72 72 69 84 148 183 183 183 184 187 184 181 183 183 186 185 184 187 185 182 182 181 179 181 183 184 183 184 184 182 183 184 185 185 185 183 183 184 185 183 184 185 186 184 183 182 183 185 185 185 178 130 87 86 85 85 84 84 85 87 86 84 84 83 83 85 86 86 85 84 86 86 84 84 85 85 85 86 85 85 85 85 83 83 84 83 83 81 83 83 81 83 83 83 81 83 83 81 80 78 78 79 79 76 73 77 77 72 70 71 91 143 176 184 200 229 243 241 239 237 234 238 246 251 255 253 252 253 246 236 237 236 238 237 242 252 252 253 253 253 248 238 238 237 237 236 243 249 254 252 254 253 252 238 237 237 237 237 237
253 253 253 253 253 252 240 236 238 238 236 240 248 253 253 254 252 254 242 237 237 236 237 236 248 252 252 255 253 254 244 237 238 235 237 239 243 252 253 253 253 252 247 241 219 146 74 61 70 67 64 68 65 64 68 66 64 67 66 66 66 67 67 66 64 68 65 66 66 65 67 65 66 66 66 67 66 65 64 67 67 69 70 68 69 70 68 68 68 72 70 72 70 70 70 72 72 71 72 72 71 110 174 183 183 184 183 186 183 183 185 184 185 185 184 183 184 183 183 182 182 182 184 182 183 186 184 183 184 184 184 183 184 184 185 185 185 184 184 184 184 183 183 184 185 185 183 157 103 84 81 83 86 84 82 84 85 85 84 82 83 84 85 85 85 85 84 84 84 83 83 85 85 84 82 83 83 84 83 83 83 83 82 82 83 84 83 84 83 82 82 82 81 79 78 78 77 78 77 76 75 79 77 70 71 71 79 123 170 187 204 233 254 246 235 236 237 237 239 247 252 253 253 254 253 247 236 236 235 237 237 243 253 254 253 253 254 248 237 238 236 236 237 242 250 252 251 254 253 250 238 237 237 237 237 237
253 253 253 253 253 252 239 238 237 238 236 238 249 253 253 253 253 254 242 238 236 237 236 236 249 252 253 254 253 251 243 238 236 238 238 237 243 252 253 252 254 254 248 235 242 226 158 84 60 66 67 65 66 66 65 67 66 65 67 67 65 66 67 65 66 67 66 65 66 63 68 67 67 66 66 67 67 66 67 65 67 69 67 67 68 72 68 69 69 66 68 71 72 71 69 70 72 70 68 73 72 82 149 185 182 185 180 182 186 187 184 183 183 184 182 185 185 184 184 184 183 182 184 183 184 186 184 183 183 183 183 183 184 184 186 186 186 182 183 183 184 184 185 185 185 185 168 118 86 81 81 84 84 84 83 83 83 83 84 83 83 85 84 82 82 84 85 82 82 83 84 84 82 82 82 84 83 82 80 82 83 83 83 83 83 81 83 85 82 80 79 80 77 77 77 78 77 75 73 74 78 77 71 69 71 81 120 165 191 211 235 251 255 243 235 234 236 240 239 247 252 253 252 253 255 247 238 237 237 236 238 244 253 252 253 252 253 247 236 237 237 236 238 242 253 252 253 253 255 249 238 237 237 237 237 237
245 245 245 245 245 245 244 245 246 245 245 243 246 245 245 245 245 245 245 245 245 246 245 245 245 245 245 244 245 244 244 247 243 246 246 243 245 245 244 246 248 242 248 246 241 248 241 179 96 60 67 68 65 68 65 66 67 66 65 66 67 66 64 66 68 65 66 67 65 67 66 66 67 66 66 66 66 67 66 66 68 66 65 69 70 68 68 70 70 69 68 69 70 71 71 70 72 70 70 72 71 69 112 179 184 182 183 184 183 185 183 185 184 184 184 183 184 184 184 184 184 182 182 184 184 185 185 184 184 183 183 184 183 183 184 184 185 185 184 183 183 185 186 185 183 179 143 90 82 83 85 84 82 82 83 83 84 83 83 83 84 84 83 82 82 83 84 83 83 84 83 83 82 83 84 83 82 81 81 84 83 83 83 81 80 80 81 80 77 79 78 76 77 78 76 77 76 75 74 74 73 71 71 70 73 113 167 191 211 235 246 245 244 246 246 245 245 245 245 246 246 245 245 244 245 246 246 245 244 246 245 245 245 244 244 244 245 245 244 245 245 245 244 245 246 244 246 244 245 245 245 245 245 245 245 245
237 237 237 237 237 238 249 252 254 252 254 251 241 238 237 236 238 236 249 252 253 254 253 254 241 239 236 237 236 240 249 249 254 254 250 254 248 236 237 238 235 236 243 254 253 249 255 253 195 106 65 63 69 65 66 66 66 67 65 65 67 68 65 67 66 65 67 67 66 66 66 66 66 66 67 65 65 67 66 67 64 65 68 65 66 67 69 69 68 70 71 69 66 69 71 70 71 71 73 71 70 68 86 159 185 181 184 187 184 181 184 184 184 184 185 184 184 184 184 183 184 183 179 183 182 183 185 185 184 184 184 184 185 183 183 183 183 186 183 183 187 188 173 161 153 145 110 80 79 82 83 83 83 83 83 83 82 83 82 82 83 82 83 84 84 83 82 82 84 84 84 84 85 83 82 81 81 83 84 81 80 79 80 79 80 80 77 76 76 78 77 77 78 76 75 74 75 76 75 72 69 72 72 74 105 157 193 213 231 240 239 240 238 245 253 254 255 252 250 243 238 236 237 237 235 244 252 253 255 253 252 246 237 237 237 238 237 242 253 253 253 255 252 248 239 238 238 236 235 240 252 253 253 253 253 253
237 237 237 237 237 238 249 254 253 253 252 252 242 237 237 236 238 236 248 254 253 253 252 254 244 236 237 236 239 237 246 253 255 250 253 255 244 238 239 234 235 239 243 253 254 254 251 252 251 202 118 68 64 67 66 67 65 65 67 66 65 65 67 66 65 65 67 65 67 66 65 66 66 65 66 67 67 66 68 64 64 68 67 65 65 66 68 68 69 69 69 69 70 69 69 68 67 70 71 71 72 73 72 126 182 185 186 183 185 184 183 182 181 182 183 184 183 183 184 184 184 183 178 181 183 182 184 183 184 185 185 185 186 184 183 182 182 182 185 189 185 162 118 97 90 85 77 77 79 80 81 81 81 81 82 81 81 81 81 83 83 82 82 82 84 83 81 81 81 82 82 81 81 80 79 80 81 82 80 79 79 79 79 80 79 76 76 77 78 77 75 75 74 75 76 74 72 72 73 72 73 68 71 104 159 200 229 239 239 236 238 238 237 247 252 253 253 253 253 242 236 237 237 238 236 243 254 254 254 254 253 247 237 237 238 238 236 242 253 253 254 254 253 248 239 238 238 237 237 238 252 253 253 253 253 253
237 237 237 237 237 238 251 253 254 254 253 253 241 238 236 238 236 239 248 253 253 253 252 253 244 236 237 237 237 236 245 255 252 253 254 253 245 237 237 237 240 236 242 254 251 253 255 252 247 241 211 143 77 63 67 67 67 65 65 67 66 66 66 65 66 67 66 66 65 67 65 67 67 66 66 65 67 67 63 66 68 65 65 67 66 66 67 66 68 69 68 69 70 69 69 70 70 68 68 69 70 71 71 98 173 182 183 182 182 183 183 183 184 184 183 183 183 184 184 185 185 184 183 184 185 183 183 185 185 184 183 182 184 185 184 184 184 186 188 179 153 117 84 76 76 76 79 83 83 80 80 79 80 79 79 80 81 82 80 79 80 81 80 79 78 79 81 81 80 80 79 80 79 81 81 81 79 77 76 79 78 77 76 76 75 77 79 76 75 76 76 75 74 74 73 73 72 71 70 71 67 75 107 160 204 234 253 244 238 237 236 235 237 249 254 254 253 253 253 245 237 236 236 238 239 245 251 252 252 253 253 248 238 238 238 237 237 243 253 252 253 252 254 248 236 236 236 236 236 241 252 253 253 253 253 253
236 236 236 236 236 238 250 251 254 252 252 253 240 235 238 238 237 237 247 255 251 253 254 252 243 237 237 239 234 237 248 252 252 254 253 251 248 236 236 239 236 237 244 253 255 252 251 255 248 236 243 225 161 93 65 63 66 69 66 65 67 67 66 67 66 66 65 67 65 64 68 67 65 66 67 66 64 64 67 68 66 65 68 66 65 67 66 66 65 66 69 67 68 70 68 69 70 70 70 69 68 69 70 82 160 187 182 182 181 183 185 184 184 184 184 184 185 184 184 183 183 185 185 184 184 185 182 181 180 183 184 185 184 185 186 186 187 186 168 134 100 80 74 76 77 78 78 79 78 76 78 79 79 80 78 80 80 80 80 79 79 79 80 82 80 80 81 79 78 78 78 79 78 78 78 77 76 76 77 78 77 77 76 77 77 77 76 75 76 75 73 74 74 72 70 70 73 72 68 67 77 119 172 214 242 255 255 240 235 237 237 236 234 247 253 252 253 255 252 246 238 238 238 237 237 246 254 254 252 250 252 247 237 237 239 236 235 240 253 254 253 254 254 252 237 237 239 239 239 240 252 253 253 253 253 253
237 237 237 237 237 238 252 255 251 255 251 253 242 237 236 239 236 237 247 253 253 253 253 252 243 238 237 237 238 236 244 253 254 253 253 254 245 237 239 235 237 239 242 253 253 253 252 253 250 236 235 242 236 188 114 70 63 65 69 66 64 65 66 66 67 65 67 66 66 70 65 63 68 65 66 66 65 67 68 64 66 67 67 68 66 65 66 65 65 63 65 67 68 68 68 69 69 69 70 68 70 70 66 72 127 182 187 184 180 181 186 183 183 185 186 186 185 183 183 181 182 184 184 184 185 184 180 181 177 184 185 185 184 185 185 186 182 157 121 91 74 72 77 78 78 78 76 75 77 77 78 78 76 77 78 79 78 77 78 77 76 77 79 80 81 80 77 75 78 79 78 75 76 76 77 76 77 79 78 74 74 76 78 77 75 74 72 73 74 73 73 72 71 71 73 72 71 69 67 79 123 182 226 247 254 254 251 242 238 236 239 238 236 248 253 251 251 254 255 243 236 237 237 237 236 246 255 252 253 253 254 247 238 236 236 236 238 243 254 254 252 253 253 246 239 238 236 236 236 239 251 252 252 252 252 252
248 248 248 248 248 247 243 244 243 244 243 243 245 250 247 247 248 247 245 243 244 243 243 244 245 250 246 246 250 248 245 243 244 243 241 244 245 247 249 250 247 248 245 242 242 244 244 242 246 249 246 246 252 250 217 147 84 62 64 69 66 66 65 66 67 65 67 65 65 66 67 67 66 66 67 65 66 68 65 66 65 68 65 62 68 68 64 65 68 69 65 65 68 68 68 68 67 68 69 68 70 70 71 67 87 157 187 186 182 182 183 186 184 183 182 183 183 184 185 185 185 184 184 183 183 184 186 183 176 185 184 184 183 182 181 181 168 109 81 73 74 76 76 77 76 76 78 77 76 78 78 78 77 77 77 76 76 78 77 78 79 79 77 73 75 77 76 77 78 78 78 76 77 79 78 75 74 77 77 76 76 75 74 72 71 72 73 74 71 71 71 70 70 71 73 72 68 64 81 127 183 221 241 248 244 239 241 249 250 247 246 248 250 247 244 243 244 241 241 245 249 247 247 249 248 245 241 242 245 245 245 244 249 249 247 249 248 246 242 243 243 242 243 242 246 249 247 248 247 248 243 243 243 243 243 243
253 253 253 253 253 252 239 235 239 235 239 235 250 251 255 251 254 252 243 236 237 238 236 239 245 252 253 254 251 254 247 237 235 238 237 236 246 253 253 253 252 252 250 237 236 238 238 236 241 255 254 249 252 253 255 228 177 108 66 61 70 68 64 66 67 66 64 66 67 64 65 67 65 67 65 66 68 65 64 67 65 64 67 68 66 64 67 67 66 68 68 67 63 66 66 65 67 69 70 69 67 69 70 68 71 122 177 183 183 184 183 184 185 184 183 182 184 185 184 184 185 184 184 181 182 184 185 183 176 182 183 184 185 183 184 184 169 92 71 73 78 78 77 77 76 75 76 76 76 75 76 76 76 77 76 75 76 77 77 79 79 76 76 77 76 76 75 76 75 75 76 77 77 75 75 76 76 76 75 75 73 73 73 73 73 73 73 71 71 71 71 71 71 70 69 67 63 76 128 197 240 244 240 238 236 235 240 250 249 252 254 252 253 244 238 237 238 238 235 246 253 254 255 251 252 245 236 238 237 236 235 242 254 254 254 254 252 248 237 236 238 238 236 245 251 252 254 253 253 250 238 237 237 237 237 237
253 253 253 253 253 252 242 237 235 238 236 239 249 253 253 254 254 253 241 237 236 236 238 236 249 251 255 254 252 253 243 237 236 237 239 237 243 254 251 253 255 252 248 238 238 235 236 239 241 252 254 255 252 253 247 240 240 204 145 84 61 67 69 65 63 65 68 68 66 67 66 65 65 66 68 65 65 65 67 65 69 65 65 68 65 65 66 66 65 65 67 66 64 65 67 66 67 66 67 71 68 67 67 71 70 84 159 184 184 184 185 183 184 183 184 184 184 184 185 185 185 183 183 181 184 184 183 185 181 182 184 185 185 186 185 184 177 102 73 74 74 73 73 73 74 75 75 77 76 76 76 75 74 76 77 76 77 76 77 74 73 75 77 79 77 75 76 76 77 76 75 75 74 74 73 73 73 72 74 75 73 72 72 73 74 74 71 69 69 71 72 72 72 69 63 64 93 149 214 251 255 244 235 232 236 241 239 246 251 255 255 252 254 243 235 235 236 238 237 247 254 253 251 252 255 247 238 235 236 237 237 244 252 253 253 252 253 249 239 237 237 239 237 238 253 252 255 252 253 250 238 237 237 237 237 237
252 252 252 252 252 251 242 236 237 238 236 238 248 253 252 253 252 254 242 238 237 236 237 236 247 255 252 252 254 252 244 237 239 237 237 235 244 254 252 254 254 253 246 237 238 239 238 238 242 251 251 254 254 252 251 236 235 242 232 186 111 67 65 68 67 66 67 63 66 66 66 66 67 66 66 67 66 66 69 66 64 68 66 63 67 69 67 66 66 62 66 68 70 64 66 66 67 65 63 65 69 67 71 70 67 69 128 184 184 182 183 183 183 184 186 185 184 185 184 184 182 182 184 181 183 184 184 182 181 180 183 185 184 185 184 183 180 107 76 75 73 72 72 72 73 74 74 74 73 75 74 74 76 74 75 75 74 75 75 75 76 77 75 72 72 74 75 74 74 73 72 72 72 74 74 73 72 71 71 71 71 71 71 72 70 70 69 70 73 73 70 65 64 65 77 119 183 235 255 255 251 239 238 239 239 239 236 247 255 253 249 252 254 243 236 238 239 236 238 246 252 252 254 255 253 245 238 239 237 237 238 243 253 254 253 252 253 247 236 237 236 236 237 242 252 254 253 255 254 251 238 237 237 237 237 237
253 253 253 253 253 252 240 237 238 234 239 237 250 252 253 254 253 252 242 237 238 237 237 238 247 252 253 253 254 253 244 237 237 237 237 238 243 254 255 249 253 255 246 236 238 235 236 237 242 253 255 254 253 252 251 240 237 234 236 238 219 159 90 63 67 69 64 64 69 67 64 67 65 66 65 66 66 68 65 65 65 66 66 65 65 65 67 66 66 67 66 67 64 66 66 67 65 66 66 65 67 69 67 65 67 71 97 173 186 181 181 185 184 184 183 183 185 186 183 182 182 186 188 183 182 181 181 180 184 183 184 184 184 184 184 184 169 94 73 72 72 72 73 74 75 74 72 70 73 74 73 73 74 73 74 74 72 72 73 75 74 71 72 73 74 73 73 74 72 70 74 76 74 72 72 72 72 74 71 70 69 71 72 72 70 70 69 69 72 70 67 63 67 92 148 216 252 255 255 251 251 240 237 237 234 235 239 252 255 250 253 255 254 241 238 239 236 237 238 244 252 252 253 253 253 246 237 237 237 237 237 243 254 252 252 253 253 249 237 237 237 237 237 241 253 254 253 253 253 250 238 237 237 237 237 237
253 253 253 253 253 252 240 238 235 240 238 238 249 254 253 251 252 253 243 237 238 238 237 240 247 250 254 249 252 252 246 239 239 236 239 239 243 252 253 252 251 252 249 238 237 238 238 238 243 253 252 251 252 253 249 239 238 239 237 236 245 248 205 130 74 60 68 70 64 65 67 67 66 65 66 67 67 64 65 66 67 65 65 68 66 65 64 64 68 69 66 65 64 68 67 66 65 66 69 65 64 65 65 69 67 64 76 151 185 185 185 186 185 181 181 184 183 182 186 188 185 183 183 183 184 185 182 172 181 184 185 184 183 181 185 185 147 78 70 70 71 72 72 73 72 72 74 74 73 71 73 74 73 72 73 72 74 75 75 74 70 71 73 74 73 72 71 70 72 75 72 70 71 70 71 71 74 71 71 71 73 72 70 69 68 69 71 72 69 62 63 82 125 183 226 252 255 253 250 250 251 242 238 238 238 237 241 250 249 249 254 253 251 244 239 238 236 237 238 247 253 253 252 251 251 245 238 237 238 239 238 243 252 252 252 254 253 247 236 239 238 238 236 242 251 251 251 250 251 250 239 238 238 238 238 238
241 241 241 241 241 241 248 248 253 249 249 251 243 239 241 240 241 241 247 252 249 250 250 249 243 242 240 242 241 242 247 250 249 251 248 249 249 240 240 244 241 238 245 251 250 250 250 249 247 242 239 239 243 240 243 248 250 251 251 252 245 241 248 225 169 105 67 64 68 66 65 65 66 66 66 66 66 65 66 68 66 65 66 66 66 66 67 67 64 65 64 66 67 66 66 66 67 65 65 68 67 66 67 67 64 66 66 114 180 185 184 181 184 185 187 186 183 183 184 184 184 183 183 184 185 184 174 175 184 184 184 184 184 185 183 178 110 72 73 72 70 70 70 70 71 71 71 72 72 73 73 70 72 72 71 72 74 72 70 70 73 75 73 69 70 71 71 73 73 70 68 70 72 72 70 71 69 70 72 72 71 69 68 69 71 72 71 65 60 71 108 167 223 252 254 244 240 238 239 242 242 248 250 249 250 251 249 244 242 244 242 240 239 245 249 251 254 250 247 246 241 241 242 242 241 245 248 250 250 250 250 246 240 241 243 241 240 243 252 251 250 251 251 248 239 241 240 242 240 242 249 250 250 250 250 250
237 237 237 237 237 237 251 254 252 253 252 251 241 237 236 238 237 236 248 252 254 253 253 252 243 238 236 238 236 237 245 252 253 254 253 254 245 236 238 238 237 239 242 252 253 253 253 254 249 237 238 238 234 238 241 251 253 253 254 252 252 240 232 239 239 213 156 93 65 67 67 67 65 67 67 65 66 68 66 65 67 67 66 64 66 66 66 66 65 67 67 66 68 64 65 68 66 67 66 66 64 66 66 64 68 69 65 83 166 182 183 185 184 186 182 181 186 186 183 183 183 185 185 183 184 183 174 182 186 184 183 184 185 178 155 141 80 70 70 71 71 71 71 71 71 72 71 71 70 71 70 72 72 71 71 73 70 71 70 72 72 70 70 70 71 72 73 72 68 69 73 73 70 71 71 71 70 72 69 67 66 68 70 70 70 66 61 67 92 148 208 247 255 255 252 239 235 237 238 238 239 250 253 253 253 254 252 241 237 238 235 237 238 248 253 252 250 252 255 244 236 235 238 239 237 244 255 252 253 254 253 247 237 237 235 237 238 244 254 252 253 253 254 248 239 239 238 237 237 240 252 253 253 253 253 253
237 237 237 237 237 239 250 252 254 252 254 251 240 237 237 237 238 236 249 252 253 254 253 254 242 237 237 239 236 237 246 253 252 253 255 252 246 237 236 236 238 236 243 253 253 254 252 252 250 237 236 238 238 237 240 254 252 251 253 252 252 241 237 237 237 238 236 219 151 88 68 64 68 67 65 66 66 66 65 67 68 65 65 66 67 66 63 67 67 66 66 66 66 66 66 64 68 67 64 65 67 68 63 66 68 65 67 71 133 183 183 187 183 185 184 183 184 184 184 185 186 186 184 184 183 183 181 181 181 182 183 183 182 161 109 90 71 71 70 71 72 72 71 71 71 70 69 71 73 70 70 73 71 72 72 70 71 71 71 72 70 70 71 73 71 71 69 69 71 74 72 69 70 70 70 71 69 68 67 68 70 72 70 64 59 63 84 130 187 239 255 255 253 251 250 238 238 239 238 236 237 251 253 253 253 251 253 242 236 236 237 237 237 251 254 250 251 255 254 244 237 238 237 234 239 247 253 252 252 252 252 246 237 236 236 237 237 243 253 253 253 253 252 251 238 236 237 237 237 240 252 253 253 253 253 253
237 237 237 237 237 238 249 253 253 253 254 252 241 237 238 237 236 238 247 255 253 252 253 252 244 235 237 236 237 237 247 253 253 251 250 254 247 237 238 237 236 236 244 254 252 253 254 253 247 240 238 234 236 239 241 250 254 255 252 253 251 238 238 238 236 236 238 253 249 214 147 88 65 65 68 66 66 64 66 66 65 66 67 67 66 66 65 66 67 66 66 67 66 66 67 65 65 65 67 67 64 66 69 65 67 65 62 68 96 168 183 180 183 183 183 185 185 184 184 184 184 182 182 184 185 184 185 184 181 182 184 183 184 142 84 70 69 70 69 69 70 70 70 71 72 72 73 72 69 71 73 70 71 69 69 71 72 72 71 71 73 73 73 70 68 69 69 71 71 69 69 68 69 70 69 67 67 69 72 72 69 64 60 66 86 125 177 218 242 255 254 252 252 252 251 241 238 237 235 236 239 250 253 253 253 254 254 241 238 237 237 237 236 247 252 254 255 252 252 244 237 237 238 239 235 243 253 254 252 255 254 248 237 238 239 237 237 241 254 253 253 255 252 249 237 236 238 237 237 240 252 253 253 253 253 253
237 237 237 237 237 238 251 253 253 253 253 251 242 238 236 236 238 237 248 252 253 252 254 253 243 237 239 236 238 237 245 253 253 255 254 251 246 239 237 237 237 238 242 253 254 252 252 254 250 237 237 239 236 235 243 251 253 254 254 254 250 238 236 236 237 238 240 249 253 255 247 214 145 86 66 65 67 67 67 65 64 65 67 66 64 67 69 66 65 65 67 65 65 68 67 66 67 66 65 66 69 63 65 68 64 67 68 66 69 118 177 185 184 183 185 184 184 183 184 184 183 185 187 184 182 181 181 187 183 183 183 183 174 104 71 68 68 69 70 69 68 68 69 69 69 68 70 69 70 71 70 69 69 70 73 72 67 68 71 72 69 67 67 68 70 71 72 70 68 67 69 71 69 67 68 69 71 70 67 62 60 65 86 124 175 217 239 243 241 250 251 252 254 255 255 241 235 235 238 239 237 249 254 253 252 252 251 243 238 237 237 237 237 247 254 255 252 253 252 243 237 238 236 235 237 246 253 253 255 252 252 246 236 238 237 238 238 242 252 252 254 252 254 247 239 239 235 238 237 240 252 254 254 254 254 254
239 239 239 239 239 240 249 250 253 250 252 251 240 239 239 240 238 239 248 250 251 252 250 252 243 240 238 240 239 237 247 252 252 249 252 253 245 238 239 238 240 239 243 251 250 252 252 251 248 241 236 238 241 240 240 251 251 249 251 251 251 243 240 238 239 239 238 251 252 248 251 252 246 204 138 89 68 64 65 68 67 66 64 65 68 65 66 66 67 67 65 68 65 64 67 68 65 67 67 64 64 69 67 66 64 65 66 63 66 78 144 182 183 182 182 186 184 184 184 184 184 184 185 185 184 183 176 182 186 186 186 181 130 72 67 69 69 71 70 69 68 69 69 70 70 69 68 68 70 69 69 70 70 69 66 67 71 71 70 68 68 68 69 71 70 68 66 69 70 69 68 68 69 68 68 70 67 63 61 69 91 133 185 220 241 246 241 237 239 249 253 253 251 248 247 241 239 240 241 238 241 249 250 251 251 251 253 244 237 236 239 241 241 247 251 251 251 249 251 246 239 237 239 241 239 244 251 251 250 250 251 247 242 239 237 239 239 243 249 253 250 250 252 251 238 238 240 239 239 242 250 250 250 250 250 250
251 251 251 251 251 250 240 240 238 241 238 239 250 251 251 250 252 251 244 239 239 238 240 238 248 251 251 251 251 252 245 238 239 240 236 240 245 250 252 252 249 250 247 240 239 238 239 238 242 252 254 249 250 251 250 241 239 240 237 239 241 249 251 252 251 250 251 241 238 240 238 238 239 248 249 215 153 98 71 65 65 67 68 68 65 65 65 66 66 67 66 66 67 67 65 66 65 64 67 68 66 64 66 66 68 65 66 68 66 63 88 161 182 184 185 183 184 184 184 185 184 182 181 184 186 185 172 165 174 180 178 159 91 71 70 70 70 67 68 69 69 69 69 69 69 70 70 70 69 68 69 69 68 69 69 70 69 68 67 68 70 72 71 67 67 69 69 69 69 69 68 66 68 68 65 61 62 73 98 140 187 223 246 255 253 249 249 250 252 244 239 238 238 240 243 249 252 252 250 250 249 242 240 239 239 239 240 246 251 255 253 249 249 243 239 238 240 241 239 246 251 252 251 250 250 247 239 239 239 239 239 243 249 251 253 252 251 245 239 239 239 241 240 239 251 252 251 252 252 248 240 239 239 239 239 239
254 254 254 254 254 252 241 237 236 236 238 238 248 253 253 253 253 253 241 236 237 238 237 238 245 254 253 254 253 253 246 236 236 238 239 235 243 254 252 254 254 255 248 235 238 238 236 238 243 251 251 255 252 253 250 236 237 237 240 237 239 253 251 253 254 253 252 241 236 237 239 236 238 253 251 253 251 226 171 108 77 65 66 65 66 67 67 66 66 65 66 65 67 66 66 66 68 67 65 66 64 66 65 65 66 69 65 64 65 68 67 111 176 184 183 183 183 186 184 183 183 186 188 182 182 185 173 145 115 108 105 88 65 66 67 68 69 70 70 70 69 69 69 69 68 67 68 69 69 71 70 68 69 69 70 70 70 68 69 70 69 67 66 68 70 70 69 68 65 63 66 68 64 63 67 82 114 160 203 230 241 242 241 249 249 251 254 255 250 235 235 237 238 237 239 252 252 251 253 255 254 241 237 237 237 237 237 249 254 251 251 254 254 243 235 238 236 236 238 245 253 253 253 253 254 246 236 235 239 238 238 243 252 252 252 252 253 251 237 237 238 236 235 243 252 253 253 252 252 250 238 237 237 237 237 237
253 253 253 253 253 252 239 236 239 236 237 236 249 254 251 255 250 255 241 238 236 238 237 237 249 251 253 253 254 254 245 236 238 236 235 238 245 253 253 252 253 251 248 238 236 237 239 236 242 255 253 251 255 252 249 240 236 237 235 235 242 252 253 253 253 253 253 239 237 237 236 237 240 248 253 254 252 255 251 226 185 131 87 69 66 64 64 66 67 67 66 65 67 65 68 63 67 68 64 63 70 67 65 64 68 66 66 67 65 64 66 72 139 183 183 184 184 184 184 184 184 183 184 184 184 184 187 183 150 82 65 63 66 65 67 68 68 66 67 69 69 67 67 69 71 71 70 68 67 68 68 72 70 68 66 67 68 70 70 66 65 67 68 68 65 64 64 65 68 69 66 62 70 96 142 193 226 236 241 239 235 235 241 252 254 253 253 252 251 241 237 237 238 237 239 250 253 254 255 253 251 240 236 238 239 236 236 250 254 252 252 255 255 243 238 238 236 236 238 245 252 254 253 252 251 245 238 238 236 237 237 244 252 251 253 254 254 245 237 237 236 237 238 241 253 253 255 254 254 249 238 237 237 237 237 237
253 253 253 253 253 252 239 239 237 239 237 237 250 253 255 251 255 252 243 238 236 236 236 237 247 253 254 252 252 251 243 238 237 237 238 236 243 254 253 251 254 252 248 239 237 236 236 239 240 252 253 254 252 254 250 237 238 236 237 238 239 251 253 254 253 251 252 240 238 238 236 238 236 250 254 252 254 251 255 243 235 232 206 160 110 81 68 65 65 64 68 70 63 67 67 66 63 63 66 70 67 63 68 67 64 62 65 69 71 64 64 68 95 168 182 188 186 182 182 183 184 184 186 184 182 183 186 187 178 109 69 70 66 65 67 65 62 65 67 65 66 67 67 66 65 65 68 69 66 66 67 65 63 68 69 66 63 64 66 68 68 68 66 64 65 68 66 63 63 65 83 119 172 215 243 255 253 240 237 236 237 238 242 253 253 252 253 252 251 239 238 237 237 237 239 252 253 252 252 253 251 239 237 238 238 238 239 247 253 255 254 253 253 244 236 234 238 240 235 248 253 250 252 253 255 248 239 237 238 237 237 243 255 254 253 252 253 248 234 237 237 238 235 240 253 254 252 251 252 249 238 237 237 237 237 237
253 253 253 253 253 253 241 236 236 236 238 239 249 253 252 254 254 252 242 236 237 238 237 238 247 253 253 253 253 254 246 237 236 237 236 237 245 252 253 254 252 254 248 235 237 238 236 237 243 253 253 254 253 252 250 237 239 235 239 238 239 252 253 253 252 253 253 240 236 238 237 236 238 250 252 253 253 254 251 241 241 235 236 238 226 204 160 111 82 69 64 62 67 67 65 67 66 67 67 63 66 67 66 67 64 68 69 61 64 70 68 64 73 145 183 181 180 185 187 186 184 182 182 184 189 182 177 177 164 96 65 65 66 66 65 66 68 67 66 66 64 65 65 65 66 67 67 66 66 67 65 65 67 65 65 65 68 67 67 67 64 63 64 68 68 64 67 78 103 142 190 237 252 255 255 252 249 237 237 237 238 238 241 253 253 254 253 252 250 238 237 238 237 236 238 252 254 253 252 253 253 242 237 235 236 237 238 251 255 252 252 254 252 239 237 241 236 235 238 245 252 255 255 253 252 244 235 238 237 236 238 242 251 251 254 254 253 248 238 237 237 237 238 240 251 251 253 254 253 251 238 237 237 237 237 237
249 249 249 249 249 249 241 242 241 241 240 242 246 248 248 251 248 249 245 240 242 240 241 240 246 251 247 251 249 248 245 240 241 241 242 242 244 248 249 249 249 251 246 241 242 240 242 240 244 249 248 250 248 249 249 243 238 241 240 241 244 249 248 249 251 249 248 243 240 240 242 241 243 248 249 249 249 250 249 245 240 242 242 240 242 248 247 237 205 159 114 84 71 63 65 66 67 66 67 68 64 68 65 64 68 66 64 67 64 65 68 67 64 87 146 182 186 182 180 180 185 188 186 183 180 151 112 99 85 67 65 66 66 66 66 68 68 63 64 67 67 66 66 67 67 65 64 65 67 66 67 67 66 66 65 67 67 67 64 62 65 67 68 70 81 110 148 188 219 239 249 250 247 248 249 251 246 241 240 241 242 242 244 247 248 248 249 251 250 242 239 240 242 242 242 246 248 249 250 250 248 242 241 242 241 242 242 246 248 250 250 247 249 247 241 237 239 243 243 246 249 248 248 249 250 248 241 240 240 240 241 244 250 250 248 248 249 248 242 241 241 240 242 243 250 249 250 248 250 247 241 241 241 241 241 241
238 238 238 238 238 239 249 252 253 252 253 250 243 237 240 237 237 238 247 254 251 251 252 252 244 236 239 237 237 240 245 253 251 252 252 251 247 240 238 237 238 235 244 253 250 254 252 251 248 239 238 237 238 239 239 252 254 252 252 250 250 242 237 237 238 238 240 250 253 253 252 253 249 242 239 237 238 238 240 250 252 252 251 252 252 243 237 238 239 236 229 211 177 132 95 71 67 68 64 65 68 66 68 66 66 63 66 71 67 62 64 66 67 66 82 129 169 184 186 187 184 181 180 186 179 154 85 66 64 65 67 66 65 65 65 65 65 67 66 65 68 69 69 65 64 65 67 67 65 66 66 65 65 68 68 64 62 65 68 70 78 91 116 154 198 233 246 251 255 255 248 236 239 240 239 236 240 253 254 252 251 251 249 238 238 239 238 236 238 252 254 252 251 252 252 241 238 238 238 237 237 250 253 254 254 252 251 241 238 238 237 239 239 248 252 252 253 252 250 244 238 238 238 238 238 244 253 252 252 254 252 248 238 239 240 237 237 242 253 251 253 253 250 251 237 238 236 238 237 241 251 252 252 252 252 252
237 237 237 237 237 238 251 252 254 252 254 252 240 238 235 239 237 238 248 253 253 255 253 253 243 236 236 239 238 237 248 252 252 254 250 254 248 234 237 238 236 238 244 252 253 252 253 253 250 239 236 237 236 238 242 250 252 252 254 254 250 239 238 239 238 236 238 253 251 251 255 252 251 242 235 237 238 237 236 247 255 252 253 254 254 242 237 237 237 238 235 247 251 245 231 199 160 120 92 76 67 66 64 66 66 69 64 62 63 68 70 69 64 61 63 77 111 148 164 178 186 187 186 176 141 112 76 66 67 69 66 65 65 65 67 68 68 65 66 66 65 63 62 65 69 70 68 65 66 67 65 65 65 66 66 66 75 91 111 144 178 207 227 238 246 255 255 255 251 249 247 239 236 236 236 237 243 254 254 254 254 253 250 239 238 237 236 237 242 252 253 253 253 252 250 241 237 237 237 239 240 251 252 251 251 254 254 243 238 238 236 237 237 246 253 254 253 254 255 242 237 239 240 238 235 243 251 253 251 254 254 247 234 236 239 239 237 241 254 254 253 252 254 250 238 237 238 237 236 240 252 253 253 253 253 253
237 237 237 237 237 238 252 253 252 252 252 251 242 237 236 236 239 235 248 253 254 254 254 252 242 239 236 238 239 236 245 253 253 253 254 253 246 236 238 237 237 239 242 252 254 252 253 253 249 238 238 237 237 237 242 253 251 254 253 254 252 238 237 237 236 238 240 249 254 255 251 252 254 240 237 238 235 237 241 248 250 255 254 251 253 245 236 236 237 235 238 246 255 253 252 254 253 239 214 186 159 123 96 79 73 69 66 67 66 64 62 67 67 68 67 63 66 84 109 132 159 181 190 188 176 150 87 65 65 64 66 67 68 66 65 65 64 67 68 68 66 64 65 69 68 64 64 65 65 66 67 73 81 100 128 164 195 219 232 233 235 237 238 238 245 253 252 251 254 255 248 237 237 237 238 238 243 252 253 252 252 253 250 239 236 236 237 238 242 251 251 252 253 255 254 239 236 236 236 238 240 250 252 252 253 254 252 239 237 236 236 238 238 248 252 252 253 255 254 246 237 235 237 237 235 246 254 250 250 253 255 246 236 236 234 235 238 243 252 254 254 253 253 248 240 237 238 238 238 240 252 253 253 253 253 253
237 237 237 237 237 238 249 255 251 255 254 250 241 238 238 237 235 239 249 253 252 252 251 255 244 235 239 233 236 237 245 253 255 251 254 252 245 239 236 235 239 236 243 254 251 254 253 252 250 238 236 237 238 237 240 253 255 251 252 253 251 238 235 237 239 234 240 253 253 253 253 255 250 240 238 237 239 238 236 249 255 252 252 254 253 241 239 237 238 238 237 246 251 253 254 253 251 244 238 241 234 232 224 210 191 161 135 111 98 85 76 67 65 62 64 67 65 64 70 77 101 146 172 182 187 173 101 72 66 66 66 66 66 65 68 67 64 66 65 64 65 66 67 66 68 74 81 92 104 125 152 178 209 232 244 247 252 255 249 240 238 236 236 237 243 252 252 254 254 253 247 237 238 237 236 235 240 254 255 254 252 253 251 239 238 238 237 236 239 252 254 255 254 251 251 241 238 237 238 236 235 248 253 254 254 252 254 243 239 237 236 236 238 250 254 254 253 250 252 241 237 239 236 236 239 244 253 255 255 252 253 247 238 237 239 238 236 240 252 252 252 253 253 246 241 238 237 233 236 239 252 253 253 253 253 253
238 238 238 238 238 239 247 253 254 251 255 252 241 236 236 238 238 238 247 253 254 254 253 252 244 237 236 240 236 237 246 253 253 253 253 254 246 237 238 235 236 238 243 252 254 252 253 254 247 236 238 239 235 236 242 253 252 251 254 253 250 240 238 236 236 240 239 250 253 253 255 252 251 243 235 237 236 236 240 250 252 253 253 254 252 244 238 236 237 235 238 246 253 253 251 253 252 248 237 235 238 237 239 242 252 253 255 241 226 210 187 169 153 134 121 109 97 87 78 74 77 94 116 143 164 169 145 125 104 71 66 66 69 71 68 70 75 76 82 91 105 119 135 152 170 190 202 212 225 235 235 236 247 254 253 254 253 253 243 235 237 238 238 239 247 254 252 250 252 253 248 237 237 236 237 239 243 253 252 253 254 255 251 238 236 236 238 237 239 252 252 252 253 254 253 239 236 239 239 238 237 249 254 254 253 254 253 242 238 237 237 238 237 245 251 254 252 254 253 244 237 236 236 238 238 245 253 253 251 252 255 248 235 236 236 235 237 242 253 251 255 254 252 251 241 234 237 237 238 239 252 253 253 253 253 253
243 243 243 243 243 243 248 246 247 248 246 246 245 243 241 245 243 243 244 249 247 248 248 246 244 244 244 245 241 243 247 247 247 247 247 247 245 242 244 243 244 243 244 248 247 247 245 247 247 245 243 241 243 245 244 245 248 244 248 249 246 243 243 244 243 242 246 246 247 247 246 250 245 244 243 243 242 242 244 247 246 245 247 247 247 245 245 243 243 242 242 246 244 245 249 248 245 246 247 242 243 245 243 246 246 245 247 249 251 248 245 244 243 237 230 229 228 220 212 205 197 189 183 182 184 190 195 203 193 171 167 166 173 184 184 189 196 206 215 222 229 233 240 247 251 250 246 243 241 242 245 243 246 248 248 247 247 246 245 243 242 242 242 243 246 248 246 246 245 245 245 243 244 244 243 244 246 248 248 247 246 247 248 246 245 244 242 243 246 247 245 245 247 247 247 244 243 243 242 243 244 245 244 245 246 248 250 246 243 244 244 242 240 246 247 247 249 248 247 245 243 243 244 243 242 244 248 246 247 245 246 245 242 243 244 240 241 246 249 244 250 249 248 245 245 245 243 243 242 244 247 247 247 247 247 247
253 253 253 253 253 252 240 237 237 237 237 238 249 253 253 253 253 253 242 237 237 237 237 237 247 253 253 253 253 253 245 237 237 237 237 237 244 253 253 253 253 253 248 237 237 237 237 237 242 253 253 253 253 253 250 238 237 237 237 237 240 252 253 253 253 253 252 240 237 237 237 237 238 250 253 253 253 253 253 242 237 237 237 237 237 248 253 253 253 253 253 244 237 237 237 237 237 245 253 253 253 253 253 247 237 237 237 237 236 242 253 253 253 253 253 249 238 237 237 237 237 240 251 253 253 253 253 250 239 237 237 237 237 238 250 253 253 253 253 252 241 237 237 237 237 237 248 253 253 253 253 253 243 237 237 237 237 237 246 253 253 253 253 253 246 237 237 237 237 237 243 253 253 253 253 253 249 238 237 237 237 237 241 252 253 253 253 253 251 239 237 237 237 237 239 251 253 253 253 253 252 241 237 237 237 237 238 249 253 253 253 253 253 243 237 237 237 237 237 246 253 253 253 253 253 246 238 237 237 237 237 243 253 253 253 253 253 248 237 237 237 237 237 241 252 253 253 253 253 250 238 237 237 237 237 237
253 253 253 253 253 252 240 237 237 237 237 238 249 253 253 253 253 253 242 237 237 237 237 237 247 253 253 253 253 253 245 237 237 237 237 237 244 253 253 253 253 253 248 237 237 237 237 237 242 253 253 253 253 253 250 238 237 237 237 237 240 252 253 253 253 253 252 240 237 237 237 237 238 250 253 253 253 253 253 242 237 237 237 237 237 248 253 253 253 253 253 244 237 237 237 237 237 245 253 253 253 253 253 247 237 237 237 237 236 242 253 253 253 253 253 249 238 237 237 237 237 240 251 253 253 253 253 250 239 237 237 237 237 238 250 253 253 253 253 252 241 237 237 237 237 237 248 253 253 253 253 253 243 237 237 237 237 237 246 253 253 253 253 253 246 237 237 237 237 237 243 253 253 253 253 253 249 238 237 237 237 237 241 252 253 253 253 253 251 239 237 237 237 237 239 251 253 253 253 253 252 241 237 237 237 237 238 249 253 253 253 253 253 243 237 237 237 237 237 246 253 253 253 253 253 246 238 237 237 237 237 243 253 253 253 253 253 248 237 237 237 237 237 241 252 253 253 253 253 250 238 237 237 237 237 237
253 253 253 253 253 252 240 237 237 237 237 238 249 253 253 253 253 253 242 237 237 237 237 237 247 253 253 253 253 253 245 237 237 237 237 237 244 253 253 253 253 253 248 237 237 237 237 237 242 253 253 253 253 253 250 238 237 237 237 237 240 252 253 253 253 253 252 240 237 237 237 237 238 250 253 253 253 253 253 242 237 237 237 237 237 248 253 253 253 253 253 244 237 237 237 237 237 245 253 253 253 253 253 247 237 237 237 237 236 242 253 253 253 253 253 249 238 237 237 237 237 240 251 253 253 253 253 250 239 237 237 237 237 238 250 253 253 253 253 252 241 237 237 237 237 237 248 253 253 253 253 253 243 237 237 237 237 237 246 253 253 253 253 253 246 237 237 237 237 237 243 253 253 253 253 253 249 238 237 237 237 237 241 252 253 253 253 253 251 239 237 237 237 237 239 251 253 253 253 253 252 241 237 237 237 237 238 249 253 253 253 253 253 243 237 237 237 237 237 246 253 253 253 253 253 246 238 237 237 237 237 243 253 253 253 253 253 248 237 237 237 237 237 241 252 253 253 253 253 250 238 237 237 237 237 237
253 253 253 253 253 252 240 237 237 237 237 238 249 253 253 253 253 253 242 237 237 237 237 237 247 253 253 253 253 253 245 237 237 237 237 237 244 253 253 253 253 253 248 237 237 237 237 237 242 253 253 253 253 253 250 238 237 237 237 237 240 252 253 253 253 253 252 240 237 237 237 237 238 250 253 253 253 253 253 242 237 237 237 237 237 248 253 253 253 253 253 244 237 237 237 237 237 245 253 253 253 253 253 247 237 237 237 237 236 242 253 253 253 253 253 249 238 237 237 237 237 240 251 253 253 253 253 250 239 237 237 237 237 238 250 253 253 253 253 252 241 237 237 237 237 237 248 253 253 253 253 253 243 237 237 237 237 237 246 253 253 253 253 253 246 237 237 237 237 237 243 253 253 253 253 253 249 238 237 237 237 237 241 252 253 253 253 253 251 239 237 237 237 237 239 251 253 253 253 253 252 241 237 237 237 237 238 249 253 253 253 253 253 243 237 237 237 237 237 246 253 253 253 253 253 246 238 237 237 237 237 243 253 253 253 253 253 248 237 237 237 237 237 241 252 253 253 253 253 250 238 237 237 237 237 237
253 253 253 253 253 252 240 237 237 237 237 238 249 253 253 253 253 253 242 237 237 237 237 237 247 253 253 253 253 253 245 237 237 237 237 237 244 253 253 253 253 253 248 237 237 237 237 237 242 253 253 253 253 253 250 238 237 237 237 237 240 252 253 253 253 253 252 240 237 237 237 237 238 250 253 253 253 253 253 242 237 237 237 237 237 248 253 253 253 253 253 244 237 237 237 237 237 245 253 253 253 253 253 247 237 237 237 237 236 242 253 253 253 253 253 249 238 237 237 237 237 240 251 253 253 253 253 250 239 237 237 237 237 238 250 253 253 253 253 252 241 237 237 237 237 237 248 253 253 253 253 253 243 237 237 237 237 237 246 253 253 253 253 253 246 237 237 237 237 237 243 253 253 253 253 253 249 238 237 237 237 237 241 252 253 253 253 253 251 239 237 237 237 237 239 251 253 253 253 253 252 241 237 237 237 237 238 249 253 253 253 253 253 243 237 237 237 237 237 246 253 253 253 253 253 246 238 237 237 237 237 243 253 253 253 253 253 248 237 237 237 237 237 241 252 253 253 253 253 250 238 237 237 237 237 237
245 245 245 245 245 245 246 246 246 246 246 246 245 245 245 245 245 245 245 246 246 246 246 246 245 245 245 245 245 245 246 246 246 246 246 246 245 245 245 245 245 245 245 246 246 246 246 246 246 245 245 245 245 245 245 246 246 246 246 246 246 245 245 245 245 245 245 246 246 246 246 246 246 245 245 245 245 245 245 246 246 246 246 246 246 246 245 245 245 245 245 245 246 246 246 246 246 246 245 245 245 245 245 245 246 246 246 246 246 245 245 245 245 245 245 245 246 246 246 246 246 246 245 245 245 245 245 245 246 246 246 246 246 246 245 245 245 245 245 245 246 246 246 246 246 246 245 245 245 245 245 245 245 246 246 246 246 246 246 245 245 245 245 245 245 246 246 246 246 246 246 245 245 245 245 245 245 246 246 246 246 246 246 245 245 245 245 245 245 246 246 246 246 246 246 245 245 245 245 245 245 246 246 246 246 246 246 245 245 245 245 245 245 246 246 246 246 246 246 245 245 245 245 245 245 246 246 246 246 246 246 245 245 245 245 245 245 245 246 246 246 246 246 245 245 245 245 245 245 245 246 246 246 246 246 246
237 237 237 237 237 238 250 253 253 253 253 252 241 237 237 237 237 237 248 253 253 253 253 253 243 237 237 237 237 237 246 253 253 253 253 253 246 237 237 237 237 237 243 253 253 253 253 253 249 238 237 237 237 237 241 252 253 253 253 253 251 239 237 237 237 237 239 251 253 253 253 253 253 241 237 237 237 237 238 249 253 253 253 253 253 243 237 237 237 237 237 246 253 254 253 253 253 246 237 237 237 237 237 243 253 253 253 253 253 248 237 237 237 237 238 242 252 253 253 253 253 250 238 237 237 237 237 239 251 253 253 253 253 251 240 238 237 237 237 238 249 253 253 253 253 253 242 237 237 237 237 237 247 253 253 253 253 253 245 237 237 237 237 237 244 253 253 253 253 253 248 237 237 237 237 237 242 253 253 253 253 253 250 238 237 237 237 237 240 252 253 253 253 253 252 240 237 237 237 237 238 250 253 253 253 253 253 242 237 237 237 237 237 248 253 254 253 253 253 244 237 237 237 237 237 245 252 253 253 253 253 247 237 237 237 238 237 241 253 253 253 253 253 249 238 237 237 237 237 240 252 253 253 253 253 253
237 237 237 237 237 238 250 253 253 253 253 252 241 237 237 237 237 237 248 253 253 253 253 253 243 237 237 237 237 237 246 253 253 253 253 253 246 237 237 237 237 237 243 253 253 253 253 253 249 238 237 237 237 237 241 252 253 253 253 253 251 239 237 237 237 237 239 251 253 253 253 253 253 241 237 237 237 237 238 249 253 253 253 253 253 243 237 237 237 237 237 246 253 254 253 253 253 246 237 237 237 237 237 243 253 253 253 253 253 248 237 237 237 237 238 242 252 253 253 253 253 250 238 237 237 237 237 239 251 253 253 253 253 251 240 238 237 237 237 238 249 253 253 253 253 253 242 237 237 237 237 237 247 253 253 253 253 253 245 237 237 237 237 237 244 253 253 253 253 253 248 237 237 237 237 237 242 253 253 253 253 253 250 238 237 237 237 237 240 252 253 253 253 253 252 240 237 237 237 237 238 250 253 253 253 253 253 242 237 237 237 237 237 248 253 254 253 253 253 244 237 237 237 237 237 245 252 253 253 253 253 247 237 237 237 238 237 241 253 253 253 253 253 249 238 237 237 237 237 240 252 253 253 253 253 253
237 237 237 237 237 238 250 253 253 253 253 252 241 237 237 237 237 237 248 253 253 253 253 253 243 237 237 237 237 237 246 253 253 253 253 253 246 237 237 237 237 237 243 253 253 253 253 253 249 238 237 237 237 237 241 252 253 253 253 253 251 239 237 237 237 237 239 251 253 253 253 253 253 241 237 237 237 237 238 249 253 253 253 253 253 243 237 237 237 237 237 246 253 254 253 253 253 246 237 237 237 237 237 243 253 253 253 253 253 248 237 237 237 237 238 242 252 253 253 253 253 250 238 237 237 237 237 239 251 253 253 253 253 251 240 238 237 237 237 238 249 253 253 253 253 253 242 237 237 237 237 237 247 253 253 253 253 253 245 237 237 237 237 237 244 253 253 253 253 253 248 237 237 237 237 237 242 253 253 253 253 253 250 238 237 237 237 237 240 252 253 253 253 253 252 240 237 237 237 237 238 250 253 253 253 253 253 242 237 237 237 237 237 248 253 254 253 253 253 244 237 237 237 237 237 245 252 253 253 253 253 247 237 237 237 238 237 241 253 253 253 253 253 249 238 237 237 237 237 240 252 253 253 253 253 253
237 237 237 237 237 238 250 253 253 253 253 252 241 237 237 237 237 237 248 253 253 253 253 253 243 237 237 237 237 237 246 253 253 253 253 253 246 237 237 237 237 237 243 253 253 253 253 253 249 238 237 237 237 237 241 252 253 253 253 253 251 239 237 237 237 237 239 251 253 253 253 253 253 241 237 237 237 237 238 249 253 253 253 253 253 243 237 237 237 237 237 246 253 254 253 253 253 246 237 237 237 237 237 243 253 253 253 253 253 248 237 237 237 237 238 242 252 253 253 253 253 250 238 237 237 237 237 239 251 253 253 253 253 251 240 238 237 237 237 238 249 253 253 253 253 253 242 237 237 237 237 237 247 253 253 253 253 253 245 237 237 237 237 237 244 253 253 253 253 253 248 237 237 237 237 237 242 253 253 253 253 253 250 238 237 237 237 237 240 252 253 253 253 253 252 240 237 237 237 237 238 250 253 253 253 253 253 242 237 237 237 237 237 248 253 254 253 253 253 244 237 237 237 237 237 245 252 253 253 253 253 247 237 237 237 238 237 241 253 253 253 253 253 249 238 237 237 237 237 240 252 253 253 253 253 253
237 237 237 237 237 238 250 253 253 253 253 252 241 237 237 237 237 237 248 253 253 253 253 253 243 237 237 237 237 237 246 253 253 253 253 253 246 237 237 237 237 237 243 253 253 253 253 253 249 238 237 237 237 237 241 252 253 253 253 253 251 239 237 237 237 237 239 251 253 253 253 253 253 241 237 237 237 237 238 249 253 253 253 253 253 243 237 237 237 237 237 246 253 254 253 253 253 246 237 237 237 237 237 243 253 253 253 253 253 248 237 237 237 237 238 242 252 253 253 253 253 250 238 237 237 237 237 239 251 253 253 253 253 251 240 238 237 237 237 238 249 253 253 253 253 253 242 237 237 237 237 237 247 253 253 253 253 253 245 237 237 237 237 237 244 253 253 253 253 253 248 237 237 237 237 237 242 253 253 253 253 253 250 238 237 237 237 237 240 252 253 253 253 253 252 240 237 237 237 237 238 250 253 253 253 253 253 242 237 237 237 237 237 248 253 254 253 253 253 244 237 237 237 237 237 245 252 253 253 253 253 247 237 237 237 238 237 241 253 253 253 253 253 249 238 237 237 237 237 240 252 253 253 253 253 253
