P2
256 256
255
255 255 255 255 255 255 255 255 255 255 255 255 255 255 255 255 255 255 255 255 255 255 255 255 255 255 255 255 255 255 255 255 255 255 255 255 255 255 255 255 255 255 255 255 255 255 255 255 255 255 255 255 255 255 255 255 255 255 255 255 255 255 255 255 255 255 255 255 255 255 255 255 255 255 255 255 255 255 255 255 255 255 255 255 255 255 255 255 255 255 255 255 255 255 255 255 255 255 255 255 255 255 255 255 255 255 255 255 255 255 255 255 255 255 255 255 255 255 255 255 255 255 255 255 255 255 255 255 255 255 255 255 255 255 255 255 255 255 255 255 255 255 255 255 255 255 255 255 255 255 255 255 255 255 255 255 255 255 255 255 255 255 255 255 255 255 255 255 255 255 255 255 255 255 255 255 255 255 255 255 255 255 255 255 255 255 255 255 255 255 255 255 255 255 255 255 255 255 255 255 255 255 255 255 255 255 255 255 255 255 255 255 255 255 255 255 255 255 255 255 255 255 255 255 255 255 255 255 255 255 255 255 255 255 255 255 255 255 255 255 255 255 255 255 255 255 255 255 255 255 255 255 255 255 255 255
255 255 255 255 255 255 255 255 255 255 255 255 255 255 255 255 255 255 255 255 255 255 255 255 255 255 255 255 255 255 255 255 255 255 255 255 255 255 255 255 255 255 255 255 255 255 255 255 255 255 255 255 255 255 255 255 255 255 255 255 255 255 255 255 255 255 255 255 255 255 255 255 255 255 255 255 255 255 255 255 255 255 255 255 255 255 255 255 255 255 255 255 255 255 255 255 255 255 255 255 255 255 255 255 255 255 255 255 255 255 255 255 255 255 255 255 255 255 255 255 255 255 255 255 255 255 255 255 255 255 255 255 255 255 255 255 255 255 255 255 255 255 255 255 255 255 255 255 255 255 255 255 255 255 255 255 255 255 255 255 255 255 255 255 255 255 255 255 255 255 255 255 255 255 255 255 255 255 255 255 255 255 255 255 255 255 255 255 255 255 255 255 255 255 255 255 255 255 255 255 255 255 255 255 255 255 255 255 255 255 255 255 255 255 255 255 255 255 255 255 255 255 255 255 255 255 255 255 255 255 255 255 255 255 255 255 255 255 255 255 255 255 255 255 255 255 255 255 255 255 255 255 255 255 255 255
255 255 255 255 255 255 255 255 255 255 255 255 255 255 255 255 255 255 255 255 255 255 255 255 255 255 255 255 255 255 255 255 255 255 255 255 255 255 255 255 255 255 255 255 255 255 255 255 255 255 255 255 255 255 255 255 255 255 255 255 255 255 255 255 255 255 255 255 255 255 255 255 255 255 255 255 255 255 255 255 255 255 255 255 255 255 255 255 255 255 255 255 255 255 255 255 255 255 255 255 255 255 255 255 255 255 255 255 255 255 255 255 255 255 255 255 255 255 255 255 255 255 255 255 255 255 255 255 255 255 255 255 255 255 255 255 255 255 255 255 255 255 255 255 255 255 255 255 255 255 255 255 255 255 255 255 255 255 255 255 255 255 255 255 255 255 255 255 255 255 255 255 255 255 255 255 255 255 255 255 255 255 255 255 255 255 255 255 255 255 255 255 255 255 255 255 255 255 255 255 255 255 255 255 255 255 255 255 255 255 255 255 255 255 255 255 255 255 255 255 255 255 255 255 255 255 255 255 255 255 255 255 255 255 255 255 255 255 255 255 255 255 255 255 255 255 255 255 255 255 255 255 255 255 255 255
255 255 255 255 255 255 255 255 255 255 255 255 255 255 255 255 255 255 255 255 255 255 255 255 255 255 255 255 255 255 255 255 255 255 255 255 255 255 255 255 255 255 255 255 255 255 255 255 255 255 255 255 255 255 255 255 255 255 255 255 255 255 255 255 255 255 255 255 255 255 255 255 255 255 255 255 255 255 255 255 255 255 255 255 255 255 255 255 255 255 255 255 255 255 255 255 255 255 255 255 255 255 255 255 255 255 255 255 255 255 255 255 255 255 255 255 255 255 255 255 255 255 255 255 255 255 255 255 255 255 255 255 255 255 255 255 255 255 255 255 255 255 255 255 255 255 255 255 255 255 255 255 255 255 255 255 255 255 255 255 255 255 255 255 255 255 255 255 255 255 255 255 255 255 255 255 255 255 255 255 255 255 255 255 255 255 255 255 255 255 255 255 255 255 255 255 255 255 255 255 255 255 255 255 255 255 255 255 255 255 255 255 255 255 255 255 255 255 255 255 255 255 255 255 255 255 255 255 255 255 255 255 255 255 255 255 255 255 255 255 255 255 255 255 255 255 255 255 255 255 255 255 255 255 255 255
255 255 255 255 255 255 255 255 255 255 255 255 255 255 255 255 255 255 255 255 255 255 255 255 255 255 255 255 255 255 255 255 255 255 255 255 255 255 255 255 255 255 255 255 255 255 255 255 255 255 255 255 255 255 255 255 255 255 255 255 255 255 255 255 255 255 255 255 255 255 255 255 255 255 255 255 255 255 255 255 255 255 255 255 255 255 255 255 255 255 255 255 255 255 255 255 255 255 255 255 255 255 255 255 255 255 255 255 255 255 255 255 255 255 255 255 255 255 255 255 255 255 255 255 255 255 255 255 255 255 255 255 255 255 255 255 255 255 255 255 255 255 255 255 255 255 255 255 255 255 255 255 255 255 255 255 255 255 255 255 255 255 255 255 255 255 255 255 255 255 255 255 255 255 255 255 255 255 255 255 255 255 255 255 255 255 255 255 255 255 255 255 255 255 255 255 255 255 255 255 255 255 255 255 255 255 255 255 255 255 255 255 255 255 255 255 255 255 255 255 255 255 255 255 255 255 255 255 255 255 255 255 255 255 255 255 255 255 255 255 255 255 255 255 255 255 255 255 255 255 255 255 255 255 255 255
255 255 255 255 255 255 255 255 255 255 255 255 255 255 255 255 255 255 255 255 255 255 255 255 255 255 255 255 255 255 255 255 255 255 255 255 255 255 255 255 255 255 255 255 255 255 255 255 255 255 255 255 255 255 255 255 255 255 255 255 255 255 255 255 255 255 255 255 255 255 255 255 255 255 255 255 255 255 255 255 255 255 255 255 255 255 255 255 255 255 255 255 255 255 255 255 255 255 255 255 255 255 255 255 255 255 255 255 255 255 255 255 255 255 255 255 255 255 255 255 255 255 255 255 255 255 255 255 255 255 255 255 255 255 255 255 255 255 255 255 255 255 255 255 255 255 255 255 255 255 255 255 255 255 255 255 255 255 255 255 255 255 255 255 255 255 255 255 255 255 255 255 255 255 255 255 255 255 255 255 255 255 255 255 255 255 255 255 255 255 255 255 255 255 255 255 255 255 255 255 255 255 255 255 255 255 255 255 255 255 255 255 255 255 255 255 255 255 255 255 255 255 255 255 255 255 255 255 255 255 255 255 255 255 255 255 255 255 255 255 255 255 255 255 255 255 255 255 255 255 255 255 255 255 255 255
255 255 255 255 255 255 255 255 255 255 255 255 255 255 255 255 255 255 255 255 255 255 255 255 255 255 255 255 255 255 255 255 255 255 255 255 255 255 255 255 255 255 255 255 255 255 255 255 255 255 255 255 255 255 255 255 255 255 255 255 255 255 255 255 255 255 255 255 255 255 255 255 255 255 255 255 255 255 255 255 255 255 255 255 255 255 255 255 255 255 255 255 255 255 255 255 255 255 255 255 255 255 255 255 255 255 255 255 255 255 255 255 255 255 255 255 255 255 255 255 255 255 255 255 255 255 255 255 255 255 255 255 255 255 255 255 255 255 255 255 255 255 255 255 255 255 255 255 255 255 255 255 255 255 255 255 255 255 255 255 255 255 255 255 255 255 255 255 255 255 255 255 255 255 255 255 255 255 255 255 255 255 255 255 255 255 255 255 255 255 255 255 255 255 255 255 255 255 255 255 255 255 255 255 255 255 255 255 255 255 255 255 255 255 255 255 255 255 255 255 255 255 255 255 255 255 255 255 255 255 255 255 255 255 255 255 255 255 255 255 255 255 255 255 255 255 255 255 255 255 255 255 255 255 255 255
255 255 255 255 255 255 255 255 255 255 255 255 255 255 255 255 255 255 255 255 255 255 255 255 255 255 255 255 255 255 255 255 255 255 255 255 255 255 255 255 255 255 255 255 255 255 255 255 255 255 255 255 255 255 255 255 255 255 255 255 255 255 255 255 255 255 255 255 255 255 255 255 255 255 255 255 255 255 255 255 255 255 255 255 255 255 255 255 255 255 255 255 255 255 255 255 255 255 255 255 255 255 255 255 255 255 255 255 255 255 255 255 255 255 255 255 255 255 255 255 255 255 255 255 255 255 255 255 255 255 255 255 255 255 255 255 255 255 255 255 255 255 255 255 255 255 255 255 255 255 255 255 255 255 255 255 255 255 255 255 255 255 255 255 255 255 255 255 255 255 255 255 255 255 255 255 255 255 255 255 255 255 255 255 255 255 255 255 255 255 255 255 255 255 255 255 255 255 255 255 255 255 255 255 255 255 255 255 255 255 255 255 255 255 255 255 255 255 255 255 255 255 255 255 255 255 255 255 255 255 255 255 255 255 255 255 255 255 255 255 255 255 255 255 255 255 255 255 255 255 255 255 255 255 255 255
255 255 255 255 255 255 255 255 255 255 255 255 255 255 255 255 255 255 255 255 255 255 255 255 255 255 255 255 255 255 255 255 255 255 255 255 255 255 255 255 255 255 255 255 255 255 255 255 255 255 255 255 255 255 255 255 255 255 255 255 255 255 255 255 255 255 255 255 255 255 255 255 255 255 255 255 255 255 255 255 255 255 255 255 255 255 255 255 255 255 255 255 255 255 255 255 255 255 255 255 255 255 255 255 255 255 255 255 255 255 255 255 255 255 255 255 255 255 255 255 255 255 255 255 255 255 255 255 255 255 255 255 255 255 255 255 255 255 255 255 255 255 255 255 255 255 255 255 255 255 255 255 255 255 255 255 255 255 255 255 255 255 255 255 255 255 255 255 255 255 255 255 255 255 255 255 255 255 255 255 255 255 255 255 255 255 255 255 255 255 255 255 255 255 255 255 255 255 255 255 255 255 255 255 255 255 255 255 255 255 255 255 255 255 255 255 255 255 255 255 255 255 255 255 255 255 255 255 255 255 255 255 255 255 255 255 255 255 255 255 255 255 255 255 255 255 255 255 255 255 255 255 255 255 255 255
255 255 255 255 255 255 255 255 255 255 255 255 255 255 255 255 255 255 255 255 255 255 255 255 255 255 255 255 255 255 255 255 255 255 255 255 255 255 255 255 255 255 255 255 255 255 255 255 255 255 255 255 255 255 255 255 255 255 255 255 255 255 255 255 255 255 255 255 255 255 255 255 255 255 255 255 255 255 255 255 255 255 255 255 255 255 255 255 255 255 255 255 255 255 255 255 255 255 255 255 255 255 255 255 255 255 255 255 255 255 255 255 255 255 255 255 255 255 255 255 255 255 255 255 255 255 255 255 255 255 255 255 255 255 255 255 255 255 255 255 255 255 255 255 255 255 255 255 255 255 255 255 255 255 255 255 255 255 255 255 255 255 255 255 255 255 255 255 255 255 255 255 255 255 255 255 255 255 255 255 255 255 255 255 255 255 255 255 255 255 255 255 255 255 255 255 255 255 255 255 255 255 255 255 255 255 255 255 255 255 255 255 255 255 255 255 255 255 255 255 255 255 255 255 255 255 255 255 255 255 255 255 255 255 255 255 255 255 255 255 255 255 255 255 255 255 255 255 255 255 255 255 255 255 255 255
255 255 255 255 255 255 255 255 255 255 255 255 255 255 255 255 255 255 255 255 255 255 255 255 255 255 255 255 255 255 255 255 255 255 255 255 255 255 255 255 255 255 255 255 255 255 255 255 255 255 255 255 255 255 255 255 255 255 255 255 255 255 255 255 255 255 255 255 255 255 255 255 255 255 255 255 255 255 255 255 255 255 255 255 255 255 255 255 255 255 255 255 255 255 255 255 255 255 255 255 255 255 255 255 255 255 255 255 255 255 255 255 255 255 255 255 255 255 255 255 255 255 255 255 255 255 255 255 255 255 255 255 255 255 255 255 255 255 255 255 255 255 255 255 255 255 255 255 255 255 255 255 255 255 255 255 255 255 255 255 255 255 255 255 255 255 255 255 255 255 255 255 255 255 255 255 255 255 255 255 255 255 255 255 255 255 255 255 255 255 255 255 255 255 255 255 255 255 255 255 255 255 255 255 255 255 255 255 255 255 255 255 255 255 255 255 255 255 255 255 255 255 255 255 255 255 255 255 255 255 255 255 255 255 255 255 255 255 255 255 255 255 255 255 255 255 255 255 255 255 255 255 255 255 255 255
255 255 255 255 255 255 255 255 255 255 255 255 255 255 255 255 255 255 255 255 255 255 255 255 255 255 255 255 255 255 255 255 255 255 255 255 255 255 255 255 255 255 255 255 255 255 255 255 255 255 255 255 255 255 255 255 255 255 255 255 255 255 255 255 255 255 255 255 255 255 255 255 255 255 255 255 255 255 255 255 255 255 255 255 255 255 255 255 255 255 255 255 255 255 255 255 255 255 255 255 255 255 255 255 255 255 255 255 255 255 255 255 255 255 255 255 255 255 255 255 255 255 255 255 255 255 255 255 255 255 255 255 255 255 255 255 255 255 255 255 255 255 255 255 255 255 255 255 255 255 255 255 255 255 255 255 255 255 255 255 255 255 255 255 255 255 255 255 255 255 255 255 255 255 255 255 255 255 255 255 255 255 255 255 255 255 255 255 255 255 255 255 255 255 255 255 255 255 255 255 255 255 255 255 255 255 255 255 255 255 255 255 255 255 255 255 255 255 255 255 255 255 255 255 255 255 255 255 255 255 255 255 255 255 255 255 255 255 255 255 255 255 255 255 255 255 255 255 255 255 255 255 255 255 255 255
255 255 255 255 255 255 255 255 255 255 255 255 255 255 255 255 255 255 255 255 255 255 255 255 255 255 255 255 255 255 255 255 255 255 255 255 255 255 255 255 255 255 255 255 255 255 255 255 255 255 255 255 255 255 255 255 255 255 255 255 255 255 255 255 255 255 255 255 255 255 255 255 255 255 255 255 255 255 255 255 255 255 255 255 255 255 255 255 255 255 255 255 255 255 255 255 255 255 255 255 255 255 255 255 255 255 255 255 255 255 255 255 255 255 255 255 255 255 255 255 255 255 255 255 255 255 255 255 255 255 255 255 255 255 255 255 255 255 255 255 255 255 255 255 255 255 255 255 255 255 255 255 255 255 255 255 255 255 255 255 255 255 255 255 255 255 255 255 255 255 255 255 255 255 255 255 255 255 255 255 255 255 255 255 255 255 255 255 255 255 255 255 255 255 255 255 255 255 255 255 255 255 255 255 255 255 255 255 255 255 255 255 255 255 255 255 255 255 255 255 255 255 255 255 255 255 255 255 255 255 255 255 255 255 255 255 255 255 255 255 255 255 255 255 255 255 255 255 255 255 255 255 255 255 255 255
255 255 255 255 255 255 255 255 254 255 253 255 253 255 253 254 253 255 224 202 213 255 255 255 253 252 253 255 255 255 255 255 255 255 255 255 255 255 255 255 255 255 255 255 255 255 255 255 255 255 255 255 255 255 255 255 255 255 255 255 255 255 255 255 255 255 255 255 255 255 255 255 255 255 255 255 255 255 255 255 255 255 255 255 255 255 255 255 255 255 255 255 255 255 255 255 255 255 255 255 255 255 255 255 255 255 255 255 255 255 255 255 255 255 255 255 255 255 255 255 255 255 255 255 255 255 255 255 255 255 255 255 255 255 255 255 255 255 255 255 255 255 255 255 255 255 255 255 255 255 255 255 255 255 255 255 255 255 255 255 255 255 255 255 255 255 255 255 255 255 255 255 255 255 255 255 255 255 255 255 255 255 255 255 255 255 255 255 255 255 255 255 255 255 255 255 255 255 255 255 255 255 255 255 255 255 255 255 255 255 255 255 255 255 255 255 255 255 255 255 255 255 255 255 255 255 255 255 255 255 255 255 255 255 255 255 255 255 255 255 255 255 255 255 254 255 255 255 255 255 255 255 255 255 255 255
255 255 255 255 255 255 255 255 254 255 254 255 255 255 252 255 254 239 118 165 120 209 255 255 255 255 253 255 255 255 255 255 255 255 255 255 255 255 255 255 255 255 255 255 255 255 255 255 255 255 255 255 255 255 255 255 255 255 255 255 255 255 255 255 255 255 255 255 255 255 255 255 255 255 255 255 255 255 255 255 255 255 255 255 255 255 255 255 255 255 255 255 255 255 254 255 255 255 255 255 255 255 255 255 254 255 255 255 255 255 255 255 255 255 255 255 255 255 255 255 255 255 255 255 255 255 255 255 254 254 254 255 255 255 255 255 255 255 255 255 255 255 255 255 254 255 255 255 255 255 254 255 254 255 255 255 254 254 255 255 255 254 254 255 255 255 254 254 255 254 254 255 255 255 255 255 255 255 255 255 255 255 255 255 255 255 255 255 255 255 255 255 255 255 255 255 255 255 255 255 255 255 255 255 255 255 255 255 255 255 255 255 255 255 255 255 255 255 255 255 255 255 255 255 255 255 255 255 255 255 255 255 255 255 255 255 255 255 255 255 255 255 255 255 250 254 255 255 255 255 255 255 255 255 255 255
255 255 255 255 255 255 255 255 255 254 255 254 255 253 255 255 254 194 124 250 161 155 255 252 229 224 222 224 224 224 224 224 224 224 224 224 224 224 224 224 224 224 224 224 224 224 224 224 224 224 223 223 223 223 224 223 223 223 223 224 223 223 223 223 223 223 223 223 223 223 223 223 223 223 223 223 223 223 223 223 223 223 223 223 223 222 223 223 222 223 223 223 223 223 222 222 223 222 222 222 222 222 222 222 222 223 222 222 222 223 222 222 222 222 222 223 222 222 222 222 222 222 222 222 222 222 222 222 222 222 222 222 223 222 222 222 223 223 223 223 222 223 223 223 223 223 223 223 223 223 222 223 223 223 223 223 223 223 223 223 223 223 223 222 223 223 223 223 223 223 223 223 223 223 223 223 223 223 224 224 223 224 224 224 224 224 224 224 224 224 224 224 224 224 224 224 224 224 224 224 224 224 224 224 224 224 223 223 223 223 224 223 224 223 223 223 223 223 223 223 223 223 224 223 223 223 223 223 223 223 223 223 223 223 223 223 222 222 222 222 222 222 223 222 224 250 255 255 255 255 255 255 255 255 255 255
255 255 255 255 255 255 255 255 253 255 255 255 253 255 255 255 255 179 134 253 182 135 254 244 164 143 89 35 36 37 37 37 38 37 38 38 39 39 39 39 40 39 40 40 40 40 40 41 41 41 41 42 42 42 43 43 43 43 43 45 45 44 44 45 46 46 47 46 46 47 47 48 48 49 48 49 49 49 49 49 50 51 51 51 51 51 52 52 52 53 53 54 54 55 54 55 56 56 56 57 57 58 58 58 58 59 59 60 60 60 61 62 62 63 63 64 64 65 65 65 66 66 67 67 68 69 69 69 70 70 71 71 72 72 73 73 74 74 75 76 76 76 77 78 78 79 79 79 80 80 81 82 82 82 83 84 84 84 85 85 86 86 87 87 88 88 89 90 91 91 91 92 93 94 94 95 95 96 97 98 98 98 100 100 101 101 101 102 102 103 103 104 104 104 105 105 106 107 107 107 108 108 108 108 108 109 109 110 110 110 110 111 112 112 112 113 113 113 114 114 115 116 117 117 117 118 118 118 120 119 119 120 121 122 122 123 122 122 123 123 124 125 126 129 118 226 255 255 255 255 255 255 255 255 255 255
255 255 255 255 255 255 255 255 255 254 255 253 255 252 255 255 252 195 121 255 158 156 255 254 249 249 128 4 5 6 7 7 8 9 10 11 11 12 13 14 15 15 16 17 17 18 18 19 20 20 21 22 23 24 24 25 25 26 26 27 28 28 29 30 30 31 31 32 33 34 34 35 36 37 37 38 38 39 40 41 41 42 43 44 45 45 46 47 48 49 50 50 51 52 52 53 54 55 56 57 57 59 59 59 61 61 63 63 64 66 67 68 69 69 70 72 72 74 74 75 76 77 78 79 80 81 82 82 83 84 85 87 87 88 89 90 91 92 93 94 94 95 97 98 99 100 100 100 102 103 103 105 106 107 108 109 110 111 112 113 114 115 116 117 118 119 120 121 123 124 124 126 126 127 128 129 130 132 132 133 134 135 137 138 139 140 140 141 142 143 144 145 146 147 148 149 151 151 152 153 154 154 155 156 157 158 159 160 161 162 163 164 165 166 167 168 169 170 171 172 174 175 176 177 178 179 180 181 182 183 184 185 186 187 189 190 191 192 193 194 196 196 198 201 144 223 255 255 255 255 255 255 255 255 255 255
255 255 255 255 255 255 255 255 254 255 255 255 255 255 253 255 254 235 114 170 120 203 255 255 255 255 130 3 5 5 6 7 8 8 9 10 11 12 12 13 14 14 15 16 17 17 18 18 18 19 20 21 22 23 23 24 24 25 25 26 27 27 28 29 30 30 31 32 32 33 34 34 35 36 36 37 37 38 39 40 40 41 42 43 44 44 45 46 47 48 48 50 50 51 51 52 53 54 55 56 56 57 58 59 60 61 62 63 63 65 66 67 68 69 70 71 72 73 73 74 75 76 77 78 79 80 81 81 82 83 84 85 86 87 88 89 89 91 92 93 93 94 95 96 97 99 99 100 101 102 102 104 105 106 107 108 108 109 111 112 113 114 115 116 117 118 119 120 122 123 123 124 125 126 127 128 129 130 131 132 133 134 136 136 138 138 139 140 141 142 143 144 145 146 147 148 149 150 151 151 152 153 154 155 156 157 158 159 159 160 161 162 164 165 166 167 167 168 169 170 172 173 174 175 176 177 178 179 181 182 183 184 184 185 187 188 190 191 192 193 194 195 197 200 143 223 255 255 255 255 255 255 255 255 255 255
255 255 255 255 255 255 255 255 254 255 253 255 252 255 252 254 253 255 215 191 203 255 255 254 252 251 129 4 5 5 6 7 8 9 9 10 11 12 12 13 14 14 15 16 17 17 18 18 19 20 20 21 22 23 23 24 24 25 25 26 27 28 28 29 30 30 31 32 33 33 34 35 35 36 37 37 38 39 40 40 41 42 42 43 44 45 46 47 47 48 49 50 51 51 52 53 54 55 55 56 57 58 59 60 61 61 62 64 64 65 67 68 69 69 70 72 72 73 74 75 76 77 78 79 79 80 81 82 83 84 85 86 87 88 89 89 90 91 92 93 94 95 96 97 98 99 100 100 101 103 103 104 106 107 108 108 109 111 112 113 114 115 116 117 118 119 120 121 123 123 124 125 126 127 128 129 130 131 132 133 134 134 136 137 138 139 139 140 141 142 143 145 145 146 148 148 149 150 151 152 152 153 154 155 156 157 158 159 160 160 161 163 164 165 166 167 167 168 169 170 172 173 174 175 176 177 178 179 181 182 183 184 185 185 186 188 190 191 192 193 194 195 197 201 146 223 255 255 255 255 255 255 255 255 255 255
255 255 255 255 255 255 255 255 255 255 255 255 255 255 255 255 255 255 255 254 255 254 255 255 254 254 131 3 4 5 6 7 8 9 10 10 11 12 12 13 14 15 15 16 17 17 18 18 19 20 21 21 22 23 24 24 24 25 26 26 27 28 29 29 30 30 31 32 33 34 34 35 36 37 37 38 39 39 40 41 42 42 43 44 45 45 46 47 48 49 49 50 51 52 53 54 54 55 56 57 58 59 60 60 61 61 63 64 65 66 67 68 69 70 71 72 73 74 75 75 76 77 78 79 80 81 82 83 84 85 86 87 88 89 89 90 91 92 93 94 95 96 97 98 99 100 101 101 102 104 104 105 106 108 108 109 110 111 112 113 114 116 117 118 119 120 121 122 123 124 125 126 127 128 129 130 131 132 133 134 134 135 137 138 138 139 140 141 142 143 144 145 146 147 148 149 150 151 152 153 153 154 155 156 157 158 159 160 160 161 162 163 164 165 166 167 168 169 170 171 172 174 174 175 177 178 179 179 181 182 183 184 185 186 187 188 190 191 192 193 194 196 197 201 146 223 255 255 255 255 255 255 255 255 255 255
255 255 255 255 255 255 255 255 255 255 255 255 255 255 255 255 255 255 255 255 255 254 255 255 255 254 131 3 5 6 7 7 8 9 10 10 11 12 12 13 14 15 16 16 17 18 18 19 19 20 21 22 23 23 24 25 25 25 26 27 28 28 29 30 30 31 32 33 33 34 35 35 36 37 38 38 39 40 41 41 42 43 44 45 45 46 47 48 48 49 50 51 52 53 53 54 55 56 57 58 59 59 60 61 62 63 64 65 65 66 68 69 69 70 71 73 73 74 75 76 77 78 79 80 81 82 83 84 85 85 86 87 88 89 90 91 92 93 94 95 96 97 97 99 100 101 102 102 103 104 105 106 107 108 109 110 111 112 113 114 115 116 118 119 119 120 121 122 124 125 126 127 128 128 129 130 131 132 133 134 135 136 137 138 139 140 141 141 143 143 145 146 146 147 149 150 150 151 152 153 154 155 155 156 157 158 159 160 161 162 162 163 165 166 166 167 168 169 170 171 173 174 175 176 177 178 179 180 181 183 183 184 185 186 187 189 190 191 192 193 195 196 197 201 146 223 255 255 255 255 255 255 255 255 255 255
255 255 255 255 255 255 255 255 255 255 255 255 255 255 255 255 255 255 255 255 255 254 255 255 254 254 130 3 5 6 7 7 8 9 10 11 11 12 13 14 14 15 16 16 17 18 18 19 20 20 21 22 23 24 24 25 25 26 26 27 28 29 29 30 30 31 32 33 33 34 35 36 37 37 38 39 40 40 41 42 42 43 44 45 46 46 47 48 49 50 50 51 52 53 54 54 55 56 57 58 59 60 61 61 62 63 64 65 66 67 68 69 70 71 72 73 74 75 75 76 77 78 79 80 81 82 83 84 85 86 87 88 89 90 90 91 92 93 94 95 96 97 98 99 100 101 102 103 103 104 105 106 107 109 109 110 111 112 113 114 115 117 118 119 120 121 122 123 124 125 126 127 128 129 130 131 132 133 133 134 135 136 137 138 139 140 141 142 143 144 145 146 146 147 149 150 150 151 152 153 154 155 156 157 157 158 159 160 161 162 163 163 165 166 167 168 168 169 170 171 173 174 175 176 177 178 179 180 181 183 184 185 185 186 187 189 190 191 192 193 195 196 197 201 145 223 255 255 255 255 255 255 255 255 255 255
255 255 255 255 255 255 255 255 255 255 255 255 255 255 255 255 255 255 255 255 255 254 255 255 255 254 130 4 5 6 7 8 9 9 10 11 12 12 13 14 15 15 16 17 17 18 19 19 20 21 21 22 23 24 25 25 25 26 27 27 28 29 30 30 31 31 32 33 34 35 35 36 37 38 39 39 40 41 41 42 43 44 44 45 46 47 47 48 49 50 51 52 52 53 54 55 56 57 57 58 59 60 61 62 62 63 65 65 66 67 68 69 70 71 72 73 74 75 76 77 78 79 80 81 82 82 83 84 85 86 87 88 89 90 91 92 92 93 94 95 96 97 98 99 101 101 102 103 104 105 106 107 108 109 110 111 112 113 114 115 116 117 118 119 120 121 122 123 125 126 126 127 128 129 130 131 132 133 134 135 135 136 138 139 140 140 141 142 143 144 145 146 147 148 149 150 151 152 153 154 154 155 156 157 158 159 160 161 161 162 163 164 165 166 167 168 169 170 171 172 173 174 175 176 177 178 179 180 182 183 184 185 185 186 187 189 190 191 192 194 195 196 197 201 145 223 255 255 255 255 255 255 255 255 255 255
255 255 255 255 255 255 255 255 255 255 255 255 255 255 255 255 255 255 255 255 255 254 255 255 255 255 130 3 5 6 7 8 8 9 10 11 12 12 13 14 15 15 16 17 17 18 19 19 20 21 21 22 23 24 25 25 25 26 27 28 28 29 30 30 31 32 32 33 34 35 35 36 37 38 39 39 40 41 41 42 43 44 45 45 46 47 48 49 49 50 51 52 53 54 54 55 56 57 58 59 59 60 61 62 63 63 65 66 66 67 69 70 70 71 72 74 74 75 76 77 78 79 80 81 82 83 84 85 86 86 87 88 89 90 91 92 93 94 95 96 97 98 98 100 101 102 102 103 104 105 106 107 108 109 110 111 112 113 114 115 116 117 119 120 120 121 122 123 125 126 127 128 129 129 130 131 132 133 134 135 136 137 138 139 140 141 142 142 143 144 146 147 147 148 150 150 151 152 153 154 155 156 156 157 158 159 160 161 162 163 163 164 165 167 167 168 169 170 171 172 173 175 176 176 178 179 180 181 182 183 184 185 186 187 188 189 190 192 193 194 195 196 197 201 145 223 255 255 255 255 255 255 255 255 255 255
255 255 255 255 255 255 255 255 255 255 255 255 255 255 255 255 255 255 255 255 255 254 255 255 255 255 130 4 5 6 7 8 9 10 10 11 12 13 13 14 15 16 16 17 18 18 19 19 20 21 22 22 23 24 25 25 26 26 27 28 29 29 30 31 31 32 32 33 34 35 36 36 37 38 39 40 40 41 42 43 43 44 45 46 46 47 48 49 50 50 51 52 53 54 55 55 56 57 58 59 60 61 61 62 63 64 65 66 67 68 69 70 71 72 73 74 75 76 76 77 78 79 80 81 82 83 84 85 86 87 88 89 90 91 91 92 93 94 95 96 97 98 99 100 101 102 103 104 105 105 106 107 108 110 110 111 112 113 114 115 116 118 119 120 121 122 123 124 125 126 127 128 129 130 131 132 133 134 135 135 136 137 138 140 140 141 142 143 144 144 146 147 148 149 150 151 151 152 153 154 155 156 157 158 158 160 160 161 162 163 164 165 166 167 168 169 169 170 171 172 174 175 176 177 178 179 180 181 182 183 184 185 186 187 188 189 191 192 193 194 195 196 198 201 145 223 255 255 255 255 255 255 255 255 255 255
255 255 255 255 255 255 255 255 255 255 255 255 255 255 255 255 255 255 255 255 255 254 255 255 255 255 130 4 5 6 7 8 9 10 11 11 12 13 13 14 15 16 16 17 18 19 19 20 20 21 22 23 24 24 25 26 26 27 27 28 29 30 30 31 31 32 33 34 35 35 36 36 38 38 39 40 41 41 42 43 43 44 45 46 47 47 48 49 50 51 52 52 53 54 55 56 57 58 58 59 60 61 62 62 63 64 65 66 67 68 69 70 71 72 73 74 75 76 77 78 79 80 80 82 82 83 84 85 86 87 88 89 90 91 92 92 93 94 95 96 97 98 99 100 102 102 103 103 105 106 107 107 109 110 110 112 112 114 115 116 117 118 119 120 121 122 123 124 126 127 128 128 129 130 131 132 133 134 135 136 137 137 139 140 141 142 142 143 144 145 146 147 148 149 150 151 152 153 154 154 155 156 157 158 159 160 161 162 162 163 164 165 166 167 168 169 170 171 171 172 174 175 176 177 178 179 180 181 182 184 184 185 186 187 188 189 191 192 193 194 195 196 198 201 145 223 255 255 255 255 255 255 255 255 255 255
255 255 255 255 255 255 255 255 255 255 255 255 255 255 255 255 255 255 255 255 255 255 255 255 255 255 129 4 6 7 7 8 9 10 11 11 12 13 14 14 15 16 17 17 18 19 19 20 21 21 22 23 24 25 25 26 26 27 27 28 29 30 31 31 32 32 33 34 35 36 36 37 38 39 40 40 41 42 42 43 44 45 45 46 47 48 49 49 50 51 52 53 54 55 55 56 57 58 59 59 60 61 62 63 64 64 66 67 67 68 69 70 71 72 73 74 75 76 77 78 79 80 81 82 83 84 85 86 87 87 88 89 90 91 92 93 94 95 96 97 98 99 99 101 102 103 103 104 105 106 107 108 109 110 111 112 113 114 115 116 117 118 120 121 121 122 123 124 126 127 128 129 130 130 131 132 133 134 135 136 137 138 139 140 141 142 143 143 144 145 146 147 148 149 150 151 152 153 154 155 155 156 157 158 159 160 161 162 162 163 164 165 166 167 168 169 170 171 172 173 174 175 176 177 178 179 180 181 183 184 185 186 186 187 188 190 191 192 193 194 195 197 198 201 144 223 255 255 255 255 255 255 255 255 255 255
255 255 255 255 255 255 255 255 255 255 255 255 255 255 255 255 255 255 255 255 255 254 255 255 255 254 129 3 5 7 7 8 9 10 11 11 12 13 14 14 15 16 17 17 18 19 19 20 21 21 22 23 24 25 25 26 26 27 27 28 29 30 31 31 32 32 33 34 34 36 36 37 38 39 40 40 41 42 42 43 44 45 45 46 47 48 49 50 50 51 52 53 54 55 55 56 57 58 59 60 61 62 62 63 64 65 66 67 67 68 69 71 71 73 73 74 75 76 77 78 79 80 81 82 83 84 85 86 87 88 89 90 90 91 92 93 94 95 96 97 98 99 100 101 102 103 103 104 105 106 107 108 109 110 111 112 113 114 115 116 117 118 120 121 122 123 124 125 126 127 128 129 130 131 132 133 133 135 135 136 137 138 139 140 141 142 143 143 145 145 147 148 148 149 150 152 152 153 154 155 156 157 158 158 159 160 161 162 163 164 164 165 166 168 168 169 170 171 172 173 174 176 177 177 179 180 181 182 183 184 185 186 187 187 188 190 191 192 194 195 196 197 198 202 145 223 255 255 255 255 255 255 255 255 255 255
255 255 255 255 255 255 255 255 255 255 255 255 255 255 255 255 255 255 255 255 255 254 255 255 255 255 129 4 6 7 8 8 9 10 11 12 12 13 14 15 16 16 17 18 18 19 20 20 21 22 22 23 24 25 26 26 27 27 28 29 30 30 31 32 32 32 33 34 35 36 37 37 38 39 40 41 41 42 43 44 44 45 46 47 47 48 49 50 51 52 52 53 54 55 56 57 57 58 59 60 61 62 63 63 64 65 66 67 68 69 70 71 72 73 74 75 76 77 78 79 80 80 81 82 83 84 85 86 87 88 89 90 91 92 93 93 94 95 96 97 98 99 100 101 103 103 104 105 106 107 107 108 110 111 112 112 113 115 116 117 118 119 120 121 122 123 124 125 127 128 128 129 130 131 132 133 134 135 136 137 137 138 140 141 142 142 143 144 145 146 147 148 149 149 151 152 153 154 155 155 156 157 158 159 160 161 161 162 163 164 165 166 167 168 169 170 171 171 172 173 175 176 177 178 179 180 181 182 183 184 185 186 187 188 188 190 191 193 194 195 196 197 198 202 144 223 255 255 255 255 255 255 255 255 255 255
255 255 255 255 255 255 255 255 255 255 255 255 255 255 255 255 255 255 255 255 255 255 255 255 255 255 129 4 6 7 8 8 9 10 11 12 12 13 14 15 16 16 17 18 18 19 20 20 21 22 23 23 24 25 26 26 27 27 28 29 30 30 31 32 32 33 34 35 35 36 37 38 38 39 40 41 41 42 43 44 44 45 46 47 48 48 49 50 51 52 53 53 54 55 56 57 58 58 59 60 61 62 63 64 64 65 66 67 68 69 70 71 72 73 74 75 76 77 78 79 80 81 82 83 84 84 85 86 87 88 89 90 91 92 93 94 95 96 96 97 98 99 100 101 103 104 104 105 106 107 108 109 110 111 112 113 114 115 116 117 118 119 120 121 122 123 124 125 127 128 129 130 131 131 132 133 134 135 136 137 138 139 140 141 142 143 144 144 145 146 147 148 149 150 151 152 153 154 155 156 156 157 158 159 160 161 162 163 163 164 165 166 167 168 169 170 171 172 173 174 175 176 177 178 179 180 181 182 183 185 186 187 187 188 189 191 192 193 194 195 196 197 199 202 144 223 255 255 255 255 255 255 255 255 255 255
255 255 255 255 255 255 255 255 255 255 255 255 255 255 255 255 255 255 255 255 255 255 255 255 255 255 129 4 6 7 8 9 10 10 11 12 13 14 14 15 16 17 17 18 19 19 20 20 21 22 23 24 25 25 26 27 27 28 28 29 30 31 31 32 32 33 34 35 35 36 37 38 39 40 40 41 42 43 43 44 45 46 46 47 48 49 50 50 51 52 53 54 55 56 56 57 58 59 60 61 61 62 63 64 64 65 67 67 68 69 70 72 72 73 74 75 76 77 78 79 80 81 82 83 84 85 86 87 88 88 90 90 91 92 93 94 95 96 97 98 99 100 101 102 103 104 104 105 106 107 108 109 110 111 112 113 114 115 116 117 118 119 121 122 123 124 125 126 127 128 129 130 131 132 133 134 134 136 136 137 138 139 140 141 142 143 144 145 146 146 148 149 149 150 151 152 153 154 155 156 157 158 158 159 160 161 162 163 164 165 165 166 167 169 169 170 171 172 173 174 175 177 177 178 179 180 181 182 184 185 186 187 187 188 189 191 192 193 194 195 196 198 199 202 144 223 255 255 255 255 255 255 255 255 255 255
255 255 255 255 255 255 255 255 255 255 255 255 255 255 255 255 255 255 255 255 255 255 255 255 255 255 129 4 6 7 8 9 10 10 11 12 13 14 14 15 16 17 17 18 19 19 20 21 21 22 23 24 25 25 26 27 27 28 28 29 30 31 31 32 33 33 34 35 36 36 37 38 39 40 40 41 42 43 43 44 45 46 46 47 48 49 50 51 51 52 53 54 55 56 56 57 58 59 60 61 62 63 63 64 65 66 67 68 69 70 71 72 72 74 74 76 77 77 78 79 80 81 82 83 84 85 86 87 88 89 90 91 92 93 93 94 95 96 97 98 99 100 101 102 103 104 105 106 107 108 108 109 110 112 112 113 114 115 116 117 118 120 121 122 123 124 125 126 127 128 129 130 131 132 133 134 135 136 137 137 138 139 140 142 142 143 144 145 146 147 148 149 150 151 152 153 153 154 155 156 157 158 159 160 160 161 162 163 164 165 166 166 168 169 169 170 171 172 173 174 176 177 178 179 180 181 182 183 184 185 186 187 188 189 190 191 192 193 195 196 197 198 199 203 144 223 255 255 255 255 255 255 255 255 255 255
255 255 255 255 255 255 255 255 255 255 255 255 255 255 255 255 255 255 255 255 255 255 255 255 255 255 129 4 6 7 8 9 10 11 12 12 13 14 14 15 16 17 18 18 19 20 20 21 22 22 23 24 25 26 26 27 27 28 28 29 30 31 32 32 33 33 34 35 36 37 38 38 39 40 41 41 42 43 44 44 45 46 47 48 48 49 50 51 52 53 53 54 55 56 57 58 58 59 60 61 62 63 64 64 65 66 67 68 69 70 71 72 73 74 75 76 77 78 79 80 81 82 82 84 84 85 86 87 88 89 90 91 92 93 94 95 95 96 97 98 99 100 101 102 104 105 105 106 107 108 109 110 111 112 113 114 115 116 117 118 119 120 121 122 123 124 125 126 128 129 130 131 132 132 133 134 135 136 137 138 139 140 141 142 143 144 145 145 146 147 148 149 150 151 152 153 154 155 156 157 157 158 159 160 161 162 163 164 164 165 166 167 168 169 170 171 172 172 173 174 176 177 178 179 180 181 182 183 184 185 186 187 188 189 190 191 192 194 195 196 197 198 199 203 144 222 255 255 255 255 255 255 255 255 255 255
255 255 255 255 255 255 255 255 255 255 255 255 255 255 255 255 255 255 255 255 255 255 255 255 255 255 129 4 6 8 8 9 10 11 12 12 13 14 15 16 16 17 18 19 19 20 20 21 22 23 23 24 25 26 27 27 28 28 29 30 31 31 32 33 33 34 35 35 36 37 38 38 39 40 41 42 42 43 44 45 45 46 47 48 49 49 50 51 52 53 54 55 55 56 57 58 59 60 60 61 62 63 64 65 65 66 68 68 69 70 71 72 73 74 75 76 77 78 79 80 81 82 83 84 85 86 87 88 88 89 90 91 92 93 94 95 96 97 98 99 100 100 101 102 104 105 105 106 107 108 109 110 111 112 113 114 115 116 117 118 119 120 122 123 123 124 125 126 128 129 130 131 132 132 133 134 135 136 137 138 139 140 141 142 143 144 145 145 146 147 148 149 150 151 152 153 154 155 156 157 157 158 159 160 161 162 163 164 164 165 166 167 168 169 170 171 172 173 174 174 176 177 178 179 180 181 182 183 184 185 186 187 188 189 190 191 192 194 195 196 197 198 199 203 144 222 255 255 255 255 255 255 255 255 255 255
255 255 255 255 255 255 255 255 255 255 255 255 255 255 255 255 255 255 255 255 255 255 255 255 255 255 129 4 6 8 9 9 10 11 12 13 13 14 15 16 17 17 18 19 19 20 21 21 22 23 24 24 25 26 27 27 28 28 29 30 31 31 32 33 33 34 35 36 36 37 38 39 40 41 41 42 43 44 44 45 46 47 47 48 49 50 51 51 52 53 54 55 56 57 57 58 59 60 61 62 63 63 64 65 66 67 68 69 70 71 72 73 73 75 76 76 77 78 79 80 81 82 83 84 85 86 87 88 89 90 91 92 93 93 94 95 96 97 98 99 100 101 102 103 104 105 106 107 108 108 109 110 111 112 113 114 115 116 117 118 119 121 122 123 124 125 126 127 128 129 130 131 132 133 134 135 136 137 138 138 139 140 141 142 143 144 145 146 147 147 149 150 151 151 153 153 154 155 156 157 158 159 160 160 161 162 163 164 165 166 166 167 168 170 170 171 172 173 174 175 176 177 178 179 180 181 182 183 185 186 187 188 188 189 190 191 193 194 195 196 197 198 200 203 144 222 255 255 255 255 255 255 255 255 255 255
255 255 255 255 255 255 255 255 255 255 255 255 255 255 255 255 255 255 255 255 255 255 255 255 255 255 129 4 6 8 9 9 10 11 12 13 13 14 15 16 17 17 18 19 19 20 21 21 22 23 24 24 25 26 27 27 28 28 29 30 31 32 32 33 33 34 35 36 37 37 38 39 40 41 41 42 43 44 44 45 46 47 47 48 49 50 51 52 52 53 54 55 56 57 57 58 59 60 61 62 63 64 64 65 66 67 68 69 70 71 72 73 73 75 76 77 78 79 79 80 81 82 83 84 85 86 87 88 89 90 91 92 93 94 94 95 96 97 98 99 100 101 102 103 104 105 106 107 108 109 110 111 111 113 113 115 115 116 118 119 119 121 122 123 124 125 126 127 128 130 130 131 132 133 134 135 136 137 138 139 139 140 142 143 143 144 145 146 147 148 149 150 151 152 153 154 154 156 156 157 158 159 160 161 161 163 163 164 165 166 167 167 169 170 170 171 172 173 174 175 177 178 179 180 181 182 183 184 185 186 187 188 189 190 191 192 193 194 195 196 197 199 200 203 144 222 255 255 255 255 255 255 255 255 255 255
255 255 255 255 255 255 255 255 255 255 255 255 255 255 255 255 255 255 255 255 255 255 255 255 255 255 129 4 7 8 9 10 10 11 12 13 14 15 15 16 17 18 18 19 20 21 21 22 22 23 24 25 26 26 27 28 28 29 29 30 31 32 33 33 34 34 35 36 37 38 38 39 40 41 42 42 43 44 45 45 46 47 48 49 49 50 51 52 53 54 54 55 56 57 58 59 59 60 61 62 63 64 65 65 66 67 68 69 70 71 72 73 74 75 76 77 78 79 80 81 82 83 83 85 85 86 87 88 89 90 91 92 93 94 95 96 96 98 98 99 100 101 102 103 105 106 106 107 108 109 110 111 112 113 114 115 116 117 118 119 120 121 123 124 124 125 126 127 129 130 131 132 133 133 134 135 136 137 138 139 140 141 142 143 144 145 146 146 147 148 150 150 151 152 153 154 155 156 157 158 158 159 160 161 162 163 164 165 165 166 167 168 169 170 171 172 173 174 174 175 177 178 179 180 181 182 183 184 185 186 188 188 189 190 191 192 193 195 196 197 198 199 200 204 144 222 255 255 255 255 255 255 255 255 255 255
255 255 255 255 255 255 255 255 255 255 255 255 255 255 255 255 255 255 255 255 255 255 255 255 255 255 129 5 7 8 9 10 11 12 12 13 14 15 15 16 17 18 18 19 20 21 21 22 23 23 24 25 26 27 27 28 28 29 30 31 31 32 33 34 34 35 36 36 37 38 39 39 40 41 42 43 43 44 45 46 46 47 48 49 50 50 51 52 53 54 55 56 56 57 58 59 60 61 61 62 63 64 65 66 67 68 69 69 70 71 72 73 74 75 76 77 78 79 80 81 82 83 84 85 86 87 88 89 90 90 91 92 93 94 95 96 97 98 99 100 101 102 102 104 105 106 107 108 108 109 110 111 112 113 114 115 116 117 118 119 120 121 123 124 125 125 127 128 129 130 131 132 133 134 135 135 136 137 138 139 140 141 142 143 144 145 146 147 148 148 150 151 151 152 153 154 155 156 157 158 159 160 160 161 162 163 164 165 166 166 167 168 169 170 171 172 173 174 175 176 177 178 179 180 181 182 183 184 186 187 187 188 189 190 191 192 193 195 196 197 198 199 200 204 144 222 255 255 255 255 255 255 255 255 255 255
255 255 255 255 255 255 255 255 255 255 255 255 255 255 255 255 255 255 255 255 255 255 255 255 255 255 129 5 7 8 9 10 11 12 13 13 14 15 16 17 17 18 19 20 20 21 22 22 23 24 24 25 26 27 28 28 29 29 30 31 32 32 33 34 34 35 36 37 37 38 39 40 41 42 42 43 44 45 45 46 47 48 48 49 50 51 52 53 53 54 55 56 57 58 58 59 60 61 62 63 64 65 65 66 67 68 69 70 71 72 73 74 74 76 77 78 79 80 80 81 82 83 84 85 86 87 88 89 90 91 92 93 94 95 95 96 97 98 99 100 101 102 103 104 105 106 107 108 109 109 110 111 113 114 114 116 116 117 119 119 120 122 123 124 125 126 127 128 129 131 131 132 133 134 135 136 137 138 139 140 140 141 143 144 144 145 146 147 148 149 150 151 152 152 154 155 155 157 157 158 159 160 161 162 162 163 164 165 166 167 167 168 169 171 171 172 173 174 175 176 177 179 179 180 181 182 183 185 186 187 188 189 189 190 191 193 194 195 196 197 198 199 201 204 144 222 255 255 255 255 255 255 255 255 255 255
255 255 255 255 255 255 255 255 255 255 255 255 255 255 255 255 255 255 255 255 255 255 255 255 255 255 128 5 7 8 9 10 11 12 13 13 14 15 16 17 17 18 19 20 20 21 22 22 23 24 25 25 26 27 28 28 29 29 30 31 32 33 33 34 34 35 36 37 38 38 39 40 41 42 43 43 44 45 45 46 47 48 49 49 50 51 52 53 53 54 55 56 57 58 58 59 60 61 62 63 64 65 66 66 67 68 69 70 71 72 73 74 75 76 77 78 79 80 81 82 83 84 84 85 86 87 88 89 90 91 92 93 94 95 96 96 97 98 99 100 101 102 103 104 106 107 107 108 109 110 111 111 113 114 115 116 117 118 119 120 121 122 123 124 125 126 127 128 130 131 132 133 134 134 135 136 137 138 139 140 141 142 143 144 145 146 147 147 148 149 150 151 152 153 154 155 156 157 158 158 159 160 161 162 163 164 165 166 166 167 168 169 170 171 172 173 174 174 175 176 178 179 180 181 182 183 184 185 186 187 188 189 190 190 191 193 194 195 196 197 198 200 201 204 144 222 255 255 255 255 255 255 255 255 255 255
255 255 255 255 255 255 255 255 255 255 255 255 255 255 255 255 255 255 255 255 255 255 255 255 255 255 129 5 8 9 10 10 11 12 13 14 14 15 16 17 18 18 19 20 21 21 22 23 23 24 25 26 27 27 28 29 29 30 30 31 32 33 34 34 35 35 36 37 38 39 39 40 41 42 43 43 44 45 46 47 47 48 49 50 51 51 52 53 54 55 55 56 57 58 59 60 61 62 62 63 64 65 66 67 67 69 70 70 71 73 73 74 75 76 77 78 79 80 81 82 83 84 85 86 87 88 89 90 90 91 92 93 94 95 96 97 98 99 100 101 102 103 103 105 106 107 108 109 109 110 111 112 113 114 115 116 117 118 119 120 121 122 124 125 126 126 128 129 130 131 132 133 134 135 136 136 137 138 139 140 141 142 143 144 145 146 147 148 148 149 151 152 153 154 155 155 156 157 158 159 160 161 161 162 163 164 165 166 167 167 168 169 170 171 172 173 174 175 176 177 178 179 180 181 182 183 184 185 186 187 188 189 190 191 192 193 194 196 197 198 199 200 201 205 144 222 255 255 255 255 255 255 255 255 255 255
255 255 255 255 255 255 255 255 255 255 255 255 255 255 255 255 255 255 255 255 255 255 255 255 255 255 128 5 8 9 10 10 11 12 13 14 15 15 16 17 18 18 19 20 21 22 22 23 23 24 25 26 27 28 28 29 29 30 30 31 32 33 34 34 35 36 36 37 38 39 40 40 41 42 43 44 44 45 46 47 47 48 49 50 51 51 52 53 54 55 56 57 57 58 59 60 61 62 62 63 64 65 66 67 68 69 70 70 72 73 73 74 75 76 77 78 79 80 81 82 83 84 85 86 87 88 89 90 91 92 93 93 94 95 96 97 98 99 100 101 102 103 104 105 106 107 108 109 110 110 111 112 113 114 115 116 117 118 119 120 121 123 124 125 126 127 128 129 130 131 132 133 134 135 136 137 138 139 140 140 141 142 143 145 145 146 147 148 149 150 151 152 153 154 155 155 156 157 158 159 160 161 162 162 163 164 165 166 167 168 168 169 170 172 172 173 174 175 176 177 178 179 180 181 182 183 184 185 187 187 189 190 190 191 192 193 194 196 197 198 199 200 201 205 144 222 255 255 255 255 255 255 255 255 255 255
255 255 255 255 255 255 255 255 255 255 255 255 255 255 255 255 255 255 255 255 255 255 255 255 255 255 129 6 8 9 10 11 12 13 14 14 15 16 16 17 18 19 20 20 21 22 22 23 24 24 25 26 27 28 29 29 30 30 31 32 33 33 34 35 35 36 37 38 39 39 40 41 42 43 43 44 45 46 46 47 48 49 49 50 51 52 53 54 54 55 56 57 58 59 59 60 61 62 63 64 65 66 66 67 68 69 70 71 72 73 74 75 76 77 78 79 80 81 81 82 83 84 85 86 87 88 89 90 91 92 93 94 95 96 96 97 98 99 100 101 102 103 104 105 107 108 108 109 110 111 112 113 114 115 116 117 118 119 120 121 122 123 124 125 126 127 128 129 131 132 132 133 134 135 136 137 138 139 140 141 141 142 144 145 146 146 147 148 149 150 151 152 153 154 155 156 157 158 159 159 160 161 162 163 163 165 165 166 167 168 169 169 171 172 172 173 174 175 176 177 178 180 181 181 182 183 184 186 187 188 189 190 191 191 192 194 195 196 197 198 199 200 202 205 144 222 255 255 255 255 255 255 255 255 255 255
255 255 255 255 255 255 255 255 255 255 255 255 255 255 255 255 255 255 255 255 255 255 255 255 255 255 128 6 8 9 10 11 12 13 14 14 15 16 17 17 18 19 20 21 21 22 23 23 24 25 26 26 27 28 29 29 30 30 31 32 33 34 34 35 35 36 37 38 39 40 40 41 42 43 44 44 45 46 46 47 48 49 50 51 51 52 53 54 54 55 56 57 58 59 60 61 61 62 63 64 65 66 67 68 68 70 71 71 72 73 74 75 76 77 78 79 80 81 82 83 84 85 86 87 88 88 89 90 91 92 93 94 95 96 97 98 99 100 100 101 103 103 104 105 107 108 108 110 110 111 112 113 114 115 116 117 118 119 120 121 122 123 125 126 126 127 128 129 131 132 133 134 135 135 136 137 138 139 140 141 142 143 144 145 146 147 148 149 150 150 152 152 153 154 155 156 157 158 159 160 160 161 162 163 164 165 166 167 167 168 169 170 171 172 173 174 175 176 176 177 179 180 181 182 183 184 185 186 187 188 189 190 191 191 192 194 195 196 198 199 199 201 202 205 144 222 255 255 255 255 255 255 255 255 255 255
255 255 255 255 255 255 255 255 255 255 255 255 255 255 255 255 255 255 255 255 255 255 255 255 255 255 128 6 8 10 10 11 12 13 14 15 15 16 17 18 19 19 20 21 22 22 23 23 24 25 26 27 28 28 29 30 30 31 31 32 33 34 35 35 36 36 37 38 39 40 40 41 42 43 44 45 45 46 47 48 48 49 50 51 52 52 53 54 55 56 57 58 58 59 60 61 62 63 63 64 65 66 67 68 68 70 71 72 72 74 74 76 76 77 78 80 80 81 82 83 84 85 86 87 88 89 90 91 92 92 94 94 95 96 97 98 99 100 101 102 103 104 105 106 107 108 109 110 111 111 113 113 114 116 116 117 118 119 120 121 122 124 125 126 127 128 129 130 131 132 133 134 135 136 137 138 139 140 141 141 142 143 144 145 146 147 148 149 149 151 152 153 154 155 156 157 157 158 159 160 161 162 162 163 164 165 166 167 168 169 169 170 171 172 173 174 175 176 177 178 179 180 181 182 183 184 185 186 187 188 189 190 191 192 193 194 195 197 198 199 200 201 202 205 144 222 255 255 255 255 255 255 255 255 255 255
255 255 255 255 255 255 255 255 255 255 255 255 255 255 255 255 255 255 255 255 255 255 255 255 255 255 128 6 9 10 11 11 12 13 14 15 15 16 17 18 19 19 20 21 22 22 23 24 24 25 26 27 28 29 29 30 30 31 31 32 33 34 35 36 36 36 38 39 40 40 41 42 42 43 44 45 46 46 47 48 48 49 50 51 52 53 53 54 55 56 57 58 59 60 60 61 62 63 64 65 66 66 67 68 69 70 71 72 73 74 75 76 77 78 79 80 81 81 82 83 84 85 86 87 88 89 90 91 92 93 94 95 96 97 97 98 99 100 101 102 103 104 105 106 107 108 109 111 111 112 113 114 115 116 117 118 119 120 121 122 123 124 125 126 127 128 129 130 132 133 133 134 135 136 137 138 139 140 141 142 142 143 145 146 146 147 148 149 150 151 152 153 154 155 156 157 158 159 160 160 161 162 163 164 164 165 166 167 168 169 169 170 171 173 173 174 175 176 177 178 179 180 181 182 183 184 185 186 188 189 190 191 191 192 193 194 195 197 198 199 200 201 202 206 144 222 255 255 255 255 255 255 255 255 255 255
255 255 255 255 255 255 255 255 255 255 255 255 255 255 255 255 255 255 255 255 255 255 255 255 255 255 128 6 9 10 11 11 12 13 14 15 16 17 17 18 19 20 20 21 22 23 23 24 25 25 26 27 28 29 30 30 31 31 32 33 34 34 35 36 36 37 38 39 40 41 41 42 43 44 44 45 46 47 47 48 49 50 50 51 52 53 54 55 55 56 57 58 59 60 61 61 62 63 64 65 66 67 68 69 69 71 72 72 73 74 75 76 77 78 79 80 81 82 83 84 85 86 86 88 88 89 90 91 92 93 94 95 96 97 98 99 99 101 101 102 103 104 105 106 108 109 110 111 111 112 113 114 115 116 117 118 119 120 121 122 123 124 126 127 127 128 129 130 132 133 134 135 136 136 137 138 139 140 141 142 143 144 145 146 147 148 149 150 151 151 153 154 154 155 156 157 158 159 160 161 161 162 163 164 165 166 167 168 168 169 170 171 172 173 174 175 175 176 177 178 180 181 182 183 184 185 186 187 188 189 190 191 192 192 193 195 196 197 198 199 200 201 202 206 144 222 255 255 255 255 255 255 255 255 255 255
255 255 255 255 255 255 255 255 255 255 255 255 255 255 255 255 255 255 255 255 255 255 255 255 255 255 128 6 9 10 11 11 12 13 14 15 16 17 17 18 19 20 20 21 22 23 23 24 25 25 26 27 28 29 30 30 31 31 32 33 34 34 35 36 36 37 38 39 40 40 41 42 43 44 45 45 46 47 47 48 49 50 51 52 52 53 54 55 56 57 57 58 59 60 61 62 63 63 64 65 66 67 68 69 69 70 72 72 73 75 75 76 77 78 79 80 81 82 83 84 85 86 87 88 89 90 91 92 93 93 94 95 96 97 98 99 100 101 102 103 104 105 106 107 108 109 110 111 111 112 114 115 115 116 117 118 119 120 121 122 123 125 126 127 128 129 130 131 132 133 134 135 136 137 138 139 140 141 142 142 143 144 145 146 147 148 149 150 151 151 153 154 155 156 157 158 158 159 160 161 162 163 163 164 165 166 167 168 169 170 170 171 172 173 174 175 176 177 178 179 180 181 182 183 184 185 186 187 188 189 190 191 192 193 194 195 196 197 198 200 201 202 203 206 144 222 255 255 255 255 255 255 255 255 255 255
255 255 255 255 255 255 255 255 255 255 255 255 255 255 255 255 255 255 255 255 255 255 255 255 255 255 128 6 9 10 11 12 13 14 15 15 16 17 17 18 19 20 21 22 22 23 24 24 25 26 27 27 28 29 30 31 31 32 32 33 34 35 36 36 37 37 38 39 40 41 42 42 43 44 45 46 46 47 48 49 49 50 51 52 53 54 54 55 56 57 58 59 60 60 61 62 63 64 65 66 66 67 68 69 70 71 72 73 74 75 76 77 77 79 80 81 82 82 83 84 85 86 87 88 89 90 91 92 93 94 95 96 97 98 98 99 100 101 102 103 104 105 106 107 108 109 110 111 112 113 114 115 116 117 118 119 120 120 122 123 124 125 126 127 128 129 130 131 133 134 134 135 136 137 138 139 140 141 142 143 143 144 146 147 148 148 149 150 151 152 153 154 155 156 157 158 158 160 160 161 162 163 164 165 165 166 167 168 169 170 170 171 172 174 174 175 176 177 178 179 180 181 182 183 184 185 186 187 188 190 190 191 192 193 194 195 196 197 199 200 201 202 203 206 144 222 255 255 255 255 255 255 255 255 255 255
255 255 255 255 255 255 255 255 255 255 254 254 255 219 187 192 231 255 228 199 212 255 255 255 253 253 128 7 10 11 12 13 13 14 15 16 16 17 18 19 20 20 21 22 22 23 24 24 25 26 27 28 28 29 30 31 31 32 32 33 34 35 35 36 36 37 38 39 40 41 41 43 43 44 45 45 46 47 48 48 49 50 51 52 52 53 54 55 56 57 57 58 59 60 61 62 63 64 64 65 66 67 68 69 70 71 72 73 74 75 76 77 78 79 80 81 82 82 84 85 85 86 87 88 89 90 91 92 93 94 95 96 97 98 99 100 100 101 102 103 105 106 106 107 109 110 111 112 112 113 114 115 116 117 118 119 120 121 122 123 124 125 127 128 128 129 130 131 133 134 135 136 137 137 139 139 140 141 142 143 144 145 146 147 148 149 150 151 152 152 154 155 156 157 158 159 159 160 161 162 162 164 164 165 166 167 168 169 169 170 171 172 173 174 175 175 176 177 178 179 180 182 182 184 184 185 186 187 189 190 191 191 192 193 194 195 197 198 199 200 201 202 203 207 147 222 255 255 255 255 255 255 255 255 255 255
255 255 255 255 255 255 255 255 255 254 255 255 253 141 138 177 231 232 119 163 123 202 255 255 255 255 129 7 10 11 12 13 14 15 15 16 17 18 18 19 20 21 21 22 23 24 24 25 25 26 27 28 29 30 30 31 31 32 32 33 34 35 35 36 37 38 39 39 40 41 42 42 43 44 45 46 47 47 48 49 49 50 51 52 53 53 54 55 56 57 58 59 60 61 61 62 63 64 65 66 67 67 68 69 69 71 72 73 74 75 76 77 78 79 80 81 82 83 84 85 86 87 88 89 90 91 92 93 93 94 95 97 97 98 99 100 101 102 103 104 105 106 107 108 109 110 111 112 113 114 115 116 116 117 118 120 120 121 122 123 124 125 127 128 129 130 131 132 134 134 135 136 137 138 139 140 141 142 143 144 145 146 147 148 149 150 150 152 152 153 154 155 156 157 158 159 160 161 162 162 163 164 165 166 167 168 168 169 170 170 171 172 173 174 175 176 177 178 179 180 181 182 183 184 185 186 187 188 189 190 191 192 192 193 195 195 197 198 199 200 201 202 203 207 145 222 255 255 255 255 255 255 255 255 255 255
255 255 255 255 255 255 255 255 255 254 255 254 255 133 143 185 241 187 129 255 168 149 254 253 237 234 118 7 10 11 12 13 13 14 16 16 17 18 18 19 20 21 21 22 23 24 24 25 26 27 28 28 29 30 31 31 31 32 33 34 34 35 36 37 37 38 39 40 41 41 42 43 44 44 45 46 47 47 48 49 50 51 52 53 53 54 55 56 56 57 58 59 60 61 62 62 64 64 65 66 67 68 68 69 70 72 73 73 74 75 77 77 78 79 80 81 82 83 84 85 86 87 88 89 90 91 92 93 94 95 95 97 98 98 99 100 101 102 103 104 105 106 107 108 110 111 112 113 113 114 115 116 117 118 119 120 121 122 122 123 124 126 127 128 129 130 131 132 134 135 135 136 137 138 139 140 141 142 143 144 144 146 147 148 149 150 150 151 152 153 154 156 156 157 158 159 160 161 162 163 163 164 165 166 167 167 168 169 170 171 171 172 173 174 175 176 177 178 179 180 181 182 183 184 185 186 187 188 189 190 191 192 193 194 195 196 197 198 199 200 201 202 204 207 144 222 255 255 255 255 255 255 255 255 255 255
255 255 255 255 255 255 255 255 255 253 255 255 252 195 174 138 139 162 146 250 194 118 252 246 160 136 68 7 10 11 12 13 14 15 16 17 17 18 18 20 20 21 22 23 23 24 24 25 26 27 28 28 29 30 31 31 32 32 33 34 35 36 36 37 37 38 39 40 41 42 42 43 44 45 46 46 48 48 49 49 50 51 52 53 53 54 55 56 57 58 59 60 61 62 62 63 64 65 65 67 67 68 69 70 70 72 73 74 75 76 77 78 79 80 81 82 83 84 86 86 87 88 89 90 91 92 93 94 94 95 96 97 98 99 99 100 101 102 103 105 106 107 108 109 110 111 112 113 114 114 115 116 117 118 119 120 121 122 123 124 125 126 128 128 129 130 131 132 134 135 136 137 138 138 139 140 141 142 142 144 145 146 147 148 149 149 150 151 152 153 154 155 156 158 158 159 160 161 162 163 164 165 165 166 167 168 169 170 170 171 172 173 174 175 176 177 177 178 179 181 182 183 184 185 186 187 188 189 190 191 191 192 193 194 195 196 198 198 200 200 201 202 204 207 142 222 255 255 255 255 255 255 255 255 255 255
254 254 254 254 254 254 254 254 255 255 255 255 251 248 255 202 115 187 127 255 176 140 253 254 248 245 123 8 11 12 13 14 15 15 16 17 18 19 19 20 21 21 22 23 24 24 25 25 26 27 28 28 30 31 31 31 32 33 33 34 35 36 37 37 38 39 39 40 41 42 43 43 44 45 46 46 48 48 49 50 50 51 52 53 54 55 55 56 57 58 59 60 61 62 62 63 64 65 66 67 67 68 69 70 71 72 73 74 75 76 77 78 79 80 81 82 83 84 85 86 87 88 89 90 91 92 92 93 94 95 96 97 98 99 100 101 102 102 103 105 106 106 107 109 110 111 112 113 113 115 115 117 117 118 119 120 121 122 123 124 125 126 128 128 129 130 131 132 134 135 136 137 138 139 140 140 141 143 144 144 145 146 147 149 149 150 151 152 153 154 155 156 157 158 159 160 161 162 162 163 164 165 166 166 167 168 169 170 170 172 172 173 174 175 176 177 178 178 180 180 182 183 184 185 186 187 188 189 190 191 192 193 193 194 195 196 197 199 200 201 202 203 204 207 144 221 254 254 254 254 254 254 254 254 254 254
255 255 255 255 255 255 255 255 255 252 255 255 251 190 185 151 135 220 119 173 132 186 255 255 255 255 129 8 11 12 14 14 15 16 16 17 18 19 19 20 21 22 22 23 24 25 25 26 26 27 28 29 30 31 31 32 32 33 33 34 35 36 37 37 38 39 40 40 40 42 43 43 44 45 46 47 48 48 49 50 50 51 52 53 54 55 55 56 57 58 59 60 61 62 63 64 64 65 66 67 68 68 69 70 71 72 74 74 75 76 77 78 79 81 82 82 83 84 86 86 87 88 89 90 91 92 93 94 95 96 97 98 99 100 101 101 102 103 104 105 107 107 108 109 111 112 113 114 114 115 116 117 118 119 120 121 121 122 124 125 126 127 129 129 130 131 132 133 135 136 137 138 139 139 141 141 142 143 145 145 146 147 148 149 150 151 152 153 154 154 156 157 158 158 160 160 161 163 163 163 164 166 166 167 168 169 170 171 171 172 172 173 174 175 176 177 178 179 180 181 182 183 184 185 185 187 188 189 190 191 192 192 193 194 195 196 197 198 199 200 201 203 204 208 146 222 255 255 255 255 255 255 255 255 255 255
255 255 255 255 255 255 255 255 254 255 254 254 255 204 166 180 236 255 219 187 199 255 255 255 253 253 127 8 11 12 13 14 15 16 16 17 18 19 19 20 21 22 22 23 24 25 25 26 26 27 28 29 30 31 31 32 33 33 34 34 35 36 37 38 38 39 40 41 42 43 43 44 45 46 47 47 48 49 50 50 51 52 53 54 54 55 56 57 58 59 59 60 61 62 63 64 65 66 66 67 68 69 70 71 72 73 74 75 76 77 78 79 80 81 82 83 84 85 86 87 87 89 90 91 92 92 93 94 95 96 97 98 99 100 101 102 102 103 105 106 107 108 109 110 111 112 113 114 115 116 117 117 118 119 120 121 122 123 124 125 126 127 129 130 131 132 133 134 135 136 137 138 139 140 141 141 143 143 144 145 146 147 148 149 150 151 152 153 154 154 156 157 158 159 160 161 161 162 163 164 164 166 166 167 168 169 170 171 171 172 173 173 174 176 176 177 178 179 180 181 182 183 184 185 186 187 188 189 190 192 192 193 194 194 196 197 198 199 200 202 203 203 204 209 147 222 255 255 255 255 255 255 255 255 255 255
255 255 255 255 255 255 255 255 255 255 255 255 255 255 254 255 255 255 255 255 255 255 255 255 255 255 128 7 10 12 13 13 14 15 16 17 18 19 19 20 21 22 22 23 24 25 25 26 27 28 29 29 30 31 32 33 33 34 34 35 36 37 38 38 39 39 40 41 42 43 44 45 45 46 47 48 49 49 50 51 52 53 53 54 55 56 57 58 58 59 60 61 62 63 64 64 65 66 67 68 69 70 71 72 72 73 75 75 77 78 78 79 80 81 82 83 84 85 86 87 88 89 90 91 92 93 94 95 95 96 97 98 99 100 101 102 103 104 105 106 107 108 109 110 111 112 113 114 115 116 116 117 118 119 121 121 122 123 124 125 126 128 129 130 131 132 133 134 135 136 137 138 139 140 141 142 143 144 145 145 146 147 148 150 150 151 152 153 154 155 156 157 158 159 160 161 161 162 163 164 165 166 166 167 168 169 170 171 172 173 173 174 175 176 177 178 179 180 181 181 183 184 185 186 187 188 189 190 191 192 193 194 195 195 196 198 199 200 201 202 203 204 205 209 144 222 255 255 255 255 255 255 255 255 255 255
255 255 255 255 255 255 255 255 255 255 255 255 255 255 255 255 255 255 255 255 255 255 255 255 255 255 127 7 11 12 13 14 14 15 16 17 18 19 19 20 21 22 23 24 24 25 26 26 27 28 29 30 31 31 32 33 33 34 34 35 36 37 38 39 39 40 41 42 42 43 44 45 46 47 47 48 49 50 50 51 52 53 54 55 55 56 57 58 59 60 60 61 62 63 64 65 66 67 67 68 69 70 71 72 73 74 75 76 77 77 79 80 81 82 83 84 84 85 86 87 88 89 90 91 92 93 94 95 96 97 98 99 100 100 101 102 103 104 105 106 107 108 109 110 111 112 113 114 115 116 117 118 119 120 121 122 123 124 125 126 127 128 129 130 131 132 133 134 136 137 137 138 139 140 141 142 143 144 145 146 146 147 149 150 151 151 152 153 154 155 156 157 158 159 160 161 162 163 164 164 165 166 167 168 168 169 170 171 172 173 173 174 175 177 177 178 179 180 181 182 183 184 185 186 187 188 189 190 192 192 193 194 195 196 197 198 199 200 201 203 203 204 206 209 144 222 255 255 255 255 255 255 255 255 255 255
255 255 255 255 255 255 255 255 255 255 255 255 255 255 255 255 255 255 255 255 255 255 255 255 255 255 128 8 11 12 13 14 15 16 17 17 18 19 20 21 22 22 23 24 25 25 26 27 27 28 29 30 31 32 32 33 34 34 35 36 37 37 38 39 39 40 41 42 43 44 44 45 46 47 48 48 49 50 51 52 52 53 54 55 56 57 57 58 59 60 61 62 63 64 64 65 66 67 68 69 70 71 71 72 73 75 75 76 77 78 79 80 81 82 83 84 85 86 87 88 89 90 90 92 92 93 94 95 96 97 98 99 100 101 102 103 103 105 105 106 107 108 109 110 112 113 114 115 115 116 117 118 119 120 121 122 123 124 125 126 127 128 130 131 131 132 134 134 136 137 138 139 140 141 142 142 143 144 145 146 147 148 149 150 151 152 153 154 155 156 157 158 158 160 161 161 162 163 164 165 165 166 167 168 169 170 171 172 172 173 174 175 176 177 178 179 179 180 181 182 184 185 185 186 187 188 189 190 192 193 194 195 195 196 197 198 199 201 202 203 204 205 206 209 144 222 255 255 255 255 255 255 255 255 255 255
255 255 255 255 255 255 255 255 255 255 255 255 255 255 255 255 255 255 255 255 255 255 255 255 255 255 128 8 11 12 13 14 15 16 17 18 18 19 20 21 22 23 23 24 25 26 26 27 28 28 29 30 31 32 33 33 34 34 35 36 37 38 38 39 40 40 41 42 43 44 45 45 46 47 48 49 50 50 51 52 53 53 54 55 56 57 58 59 59 60 61 62 63 64 65 65 66 67 68 69 70 71 72 73 73 74 76 76 77 79 79 80 81 82 83 84 85 86 87 88 89 90 91 92 93 94 95 96 97 97 98 99 100 101 102 103 104 105 106 107 108 109 110 111 112 113 114 115 116 117 117 118 119 121 122 122 123 124 125 126 127 129 130 131 132 133 134 135 136 138 138 139 140 141 142 143 144 145 146 147 147 148 150 151 151 152 153 154 155 156 157 158 159 160 161 162 162 163 164 165 166 167 168 168 169 170 171 172 173 174 174 175 176 177 178 179 180 181 182 182 184 185 186 187 188 189 190 191 192 193 194 195 196 196 197 198 200 201 202 203 204 205 206 209 145 222 255 255 255 255 255 255 255 255 255 255
255 255 255 255 255 255 255 255 255 255 255 255 255 255 255 255 255 255 255 255 255 255 255 255 255 255 128 8 12 13 14 14 15 16 17 18 19 20 20 21 22 23 24 24 25 26 26 27 28 29 30 30 31 32 33 34 34 35 35 36 37 38 39 40 40 41 42 43 44 44 45 46 47 48 48 49 50 51 51 52 53 54 55 56 56 57 58 59 60 61 61 62 63 64 65 66 67 68 68 69 70 71 72 73 74 75 76 77 78 79 80 81 82 83 84 85 85 86 87 88 89 90 91 92 93 94 95 96 97 98 99 100 101 102 102 103 104 105 106 107 108 109 110 111 113 114 114 116 116 117 118 119 120 121 122 123 124 125 126 127 128 129 130 131 132 133 134 135 137 138 139 139 140 141 142 143 144 145 146 147 148 149 150 151 152 153 154 154 155 156 157 158 159 160 161 162 163 164 165 165 166 167 168 169 169 171 171 172 173 174 175 175 177 178 178 179 180 181 182 183 184 185 186 187 188 189 190 191 192 194 195 195 196 197 198 199 200 201 203 204 204 206 207 210 145 222 255 255 255 255 255 255 255 255 255 255
255 255 255 255 255 255 255 255 255 255 255 255 255 255 255 255 255 255 255 255 255 255 255 255 255 255 127 8 12 13 14 14 15 16 17 18 19 20 20 21 22 23 24 25 25 26 27 27 28 29 30 31 32 32 33 34 34 35 36 37 38 38 39 40 41 41 42 43 44 45 45 46 47 48 49 49 50 51 52 52 53 54 55 56 57 57 58 59 60 61 62 63 64 64 65 66 67 68 69 70 71 72 72 73 74 75 76 77 78 79 80 81 82 83 84 85 86 87 88 89 90 91 91 93 93 94 95 96 97 98 99 100 101 102 103 104 105 106 106 107 109 109 110 112 113 114 115 116 116 118 118 119 120 121 122 123 124 125 126 127 128 129 131 132 133 134 135 136 137 138 139 140 141 142 143 144 144 146 146 147 148 149 150 151 152 153 154 155 155 157 158 159 159 160 162 162 163 164 165 166 167 167 168 169 170 171 172 173 173 174 175 176 177 178 179 180 181 182 182 183 185 186 187 188 189 190 191 192 193 194 195 196 197 198 198 199 201 202 203 204 205 206 207 210 145 222 255 255 255 255 255 255 255 255 255 255
255 255 255 255 255 255 255 255 255 255 255 255 255 255 255 255 255 255 255 255 255 255 255 255 255 255 128 9 12 13 14 15 16 17 18 18 19 20 21 22 23 23 24 25 26 26 27 28 28 29 30 31 32 33 34 34 35 35 36 37 38 39 39 40 41 41 42 43 44 45 46 46 47 48 49 50 51 51 52 53 54 54 55 56 57 58 59 60 60 61 62 63 64 65 66 66 67 68 69 70 71 72 73 74 74 76 77 77 78 80 80 81 82 83 84 85 86 87 88 89 90 91 92 93 94 95 96 97 98 99 100 101 101 102 103 104 105 106 107 108 109 110 111 112 113 114 115 116 117 118 119 120 121 122 123 124 125 126 127 128 129 130 131 132 133 134 135 136 138 139 139 140 141 142 143 144 145 146 147 148 149 149 151 152 153 154 154 155 156 157 158 159 160 161 162 163 164 165 166 166 167 168 169 170 170 171 172 173 174 175 176 176 178 179 179 180 181 182 183 184 185 186 187 188 189 190 191 192 193 194 195 196 197 198 199 200 201 202 203 204 205 206 207 211 145 222 255 255 255 255 255 255 255 255 255 255
255 255 255 255 255 255 255 255 255 255 255 255 255 255 255 255 255 255 255 255 255 255 255 255 255 255 127 9 12 13 14 15 16 17 18 18 19 20 21 22 23 24 24 25 26 27 27 28 29 29 30 31 32 33 34 35 35 36 36 37 38 39 40 41 41 42 43 43 44 45 46 47 48 48 49 50 51 52 52 53 54 55 56 57 57 58 59 60 61 62 63 63 64 65 66 67 68 69 69 70 71 72 73 74 75 76 77 78 79 80 81 82 83 84 85 86 87 88 88 89 90 91 92 93 94 95 96 97 98 99 100 101 102 103 104 104 105 106 107 108 109 110 111 112 114 115 115 116 117 118 119 120 121 122 123 124 125 126 127 128 129 130 132 133 133 134 135 136 138 139 140 141 142 143 143 144 145 146 147 148 149 150 151 152 153 154 155 156 157 157 159 159 160 161 162 163 164 165 166 167 167 168 169 170 171 172 173 174 174 175 176 177 178 179 180 181 181 182 183 184 186 187 187 188 189 190 191 192 194 195 195 196 197 198 199 200 201 202 204 205 205 207 208 211 145 222 255 255 255 255 255 255 255 255 255 255
255 255 255 255 255 255 255 255 255 255 255 255 255 255 255 255 255 255 255 255 255 255 255 255 255 255 128 9 13 14 15 15 16 17 18 19 20 21 21 22 23 24 25 26 26 27 28 28 29 30 31 32 33 34 34 35 35 36 37 38 39 39 40 41 42 42 43 44 45 46 47 47 48 49 50 50 51 52 53 54 54 55 56 57 58 59 59 60 61 62 63 64 65 66 66 67 68 69 70 71 72 73 74 75 75 76 77 78 80 81 81 82 83 84 85 86 87 88 89 90 91 92 93 94 95 96 97 98 98 99 100 101 102 103 104 105 106 107 108 109 110 111 112 113 114 115 116 117 118 119 120 121 121 123 124 125 126 126 127 128 129 131 132 133 134 135 136 137 138 140 140 141 142 143 144 145 146 147 148 149 149 150 152 153 153 154 155 156 157 158 159 160 161 162 163 164 165 166 167 167 168 169 170 170 171 172 173 174 175 176 176 177 178 179 180 181 182 183 184 185 186 187 188 189 190 191 192 193 194 195 196 197 198 198 200 200 202 203 204 205 206 207 208 211 145 222 255 255 255 255 255 255 255 255 255 255
255 255 255 255 255 255 255 255 255 255 255 255 255 255 255 255 255 255 255 255 255 255 255 255 255 255 128 9 13 14 15 16 17 17 18 19 20 21 22 23 23 24 25 26 27 27 28 29 29 30 31 32 33 34 35 35 36 36 37 38 39 40 40 41 42 42 43 44 46 46 47 48 48 49 50 51 52 52 53 54 55 56 56 57 58 59 60 61 61 62 63 64 65 66 67 68 69 69 70 71 72 73 74 75 76 77 78 79 80 81 82 83 84 85 86 87 87 88 89 90 91 92 93 94 95 96 97 98 99 100 101 102 103 104 104 105 106 107 108 109 110 111 112 113 114 115 116 117 118 119 120 121 122 123 124 125 126 127 128 129 130 131 132 133 134 135 136 137 139 140 141 142 142 143 144 145 146 147 148 149 150 151 152 153 154 155 155 156 157 158 159 160 161 162 163 164 165 166 167 167 168 169 170 171 171 173 173 174 175 176 177 177 179 180 180 181 182 183 184 185 186 187 188 189 190 191 192 193 194 195 196 197 198 199 200 201 202 203 204 205 206 207 208 211 145 222 255 255 255 255 255 255 255 255 255 255
255 255 255 255 255 255 255 255 255 255 255 255 255 255 255 255 255 255 255 255 255 255 255 255 255 255 127 9 13 14 15 16 17 18 19 19 20 21 22 23 24 24 25 26 27 28 28 29 30 31 31 32 33 34 35 36 36 37 37 38 39 40 41 42 42 43 44 45 46 47 47 48 49 50 51 51 52 53 54 54 55 56 57 58 59 59 60 61 62 63 64 65 66 67 67 68 69 70 71 72 73 74 74 76 76 78 78 79 80 82 82 83 84 85 86 87 88 89 90 91 92 93 94 95 96 97 97 98 99 100 101 102 103 104 105 106 107 108 109 110 111 112 113 114 115 116 117 118 119 120 121 121 122 124 125 126 127 127 128 129 130 132 133 134 135 136 137 138 139 140 141 142 143 144 145 146 147 148 149 149 150 151 152 154 154 155 156 157 158 159 160 161 162 163 164 165 166 166 167 168 169 170 170 171 172 173 174 175 176 176 177 178 179 180 181 182 183 184 184 185 187 188 189 190 191 192 192 194 195 196 197 198 199 199 200 201 202 204 205 206 207 208 209 212 145 222 255 255 255 255 255 255 255 255 255 255
255 255 255 255 255 255 255 255 255 255 255 255 255 255 255 255 255 255 255 255 255 255 255 255 255 255 127 9 13 14 15 16 17 18 19 20 20 21 22 23 24 25 25 26 27 28 29 29 30 31 32 33 34 34 35 36 36 37 38 39 40 40 41 42 43 43 44 45 46 47 47 48 49 50 51 51 52 53 54 55 55 56 57 58 59 60 61 62 62 63 64 65 66 67 68 68 69 70 71 72 73 74 75 76 76 78 79 79 80 82 82 83 84 85 86 87 88 89 90 91 92 93 94 95 96 97 98 99 100 101 102 103 104 104 105 106 107 108 109 110 111 112 113 114 115 116 117 118 119 120 121 122 123 124 125 126 127 128 129 130 131 132 133 134 135 136 137 138 140 141 142 142 143 144 145 146 147 148 149 150 151 152 153 154 155 156 157 157 158 159 160 161 162 163 164 165 166 167 168 168 169 170 171 172 173 174 174 175 176 177 178 178 180 181 181 182 183 184 185 186 187 188 189 190 191 192 193 194 195 196 197 198 199 200 201 202 203 204 205 206 207 208 209 212 145 222 255 255 255 255 255 255 255 255 255 255
255 255 255 255 255 255 255 255 255 255 255 255 255 255 255 255 255 255 255 255 255 255 255 255 255 255 127 10 14 15 16 17 18 19 20 20 21 22 23 24 25 25 26 27 28 29 29 30 31 32 32 33 34 35 36 37 37 38 38 39 40 41 42 43 43 44 45 46 46 47 48 49 50 51 52 52 53 54 55 55 56 57 58 59 60 61 61 62 63 64 65 66 67 68 68 69 70 71 72 73 74 75 76 76 77 78 79 80 81 82 83 84 85 86 87 88 89 90 91 92 93 94 95 96 97 98 99 100 101 101 102 103 104 105 106 107 108 109 110 111 112 113 114 115 116 117 118 119 120 121 122 123 124 125 126 127 128 129 130 131 132 133 134 135 136 137 138 139 141 142 143 143 144 145 146 147 148 149 150 151 152 152 154 155 156 157 157 158 159 160 161 162 163 164 165 166 167 168 169 169 170 171 172 173 173 174 175 176 177 178 179 179 181 182 182 183 184 185 186 187 188 189 190 191 192 193 194 195 196 197 198 199 200 201 202 203 204 205 206 207 208 209 210 213 146 222 255 255 255 255 255 255 255 255 255 255
255 255 255 255 255 255 255 255 255 255 255 255 255 255 255 255 255 255 255 255 255 255 255 255 255 255 127 10 14 15 16 17 18 19 20 21 21 22 23 24 25 26 26 27 28 29 30 30 31 32 33 34 35 35 36 37 37 38 39 40 41 41 42 43 43 44 45 46 47 48 49 49 50 51 52 53 53 54 55 56 57 57 58 59 60 61 62 63 63 64 65 66 67 68 69 70 71 71 72 73 74 75 76 77 78 79 80 81 82 83 84 85 86 87 88 89 90 90 91 92 93 94 95 96 97 98 99 100 101 102 103 104 105 106 106 107 108 109 110 111 112 113 114 115 117 118 118 119 120 121 122 123 124 125 126 127 128 129 130 131 132 133 135 136 136 137 138 139 141 142 143 144 145 146 146 147 148 149 150 151 152 153 154 155 156 157 158 159 159 160 161 162 163 164 165 166 167 168 169 170 170 171 172 173 174 175 176 177 177 178 179 180 181 182 183 184 184 185 186 187 189 190 190 191 192 193 194 195 197 198 198 199 200 201 202 203 204 205 206 207 208 209 210 213 146 222 255 255 255 255 255 255 255 255 255 255
255 255 255 255 255 255 255 255 255 255 255 255 255 255 255 255 255 255 255 255 255 255 255 255 255 255 127 10 14 15 16 17 18 19 20 21 22 23 23 24 25 26 27 28 28 29 30 30 31 32 33 34 35 36 36 37 38 38 39 40 41 42 42 43 44 44 45 46 48 48 49 50 50 51 52 53 54 55 55 56 57 58 59 60 60 61 62 63 64 65 66 67 68 68 69 70 71 72 73 74 75 76 76 77 78 79 80 81 82 83 84 85 86 87 88 89 90 91 92 93 94 95 96 97 98 99 100 101 101 102 103 104 105 106 107 108 109 110 111 112 113 114 115 116 117 118 119 120 121 122 123 123 124 126 127 128 128 129 131 132 133 134 135 136 137 138 139 140 142 143 143 144 145 146 147 148 149 150 151 152 152 153 155 156 156 157 158 159 160 161 162 163 164 165 166 167 167 168 169 170 171 172 173 174 174 175 176 177 178 179 179 180 181 182 183 184 185 186 187 188 189 190 191 192 193 194 195 196 197 198 199 200 200 201 202 203 204 206 207 208 209 210 211 214 145 222 255 255 255 255 255 255 255 255 255 255
255 255 255 255 255 255 255 255 255 255 255 255 255 255 255 255 255 255 255 255 255 255 255 255 255 255 128 11 14 16 17 17 18 19 20 21 22 23 24 25 26 26 27 28 29 30 30 31 32 32 33 34 35 36 37 38 38 39 39 40 41 42 43 44 44 44 45 46 48 49 49 50 51 52 53 53 54 55 56 57 57 58 59 60 61 62 62 63 64 65 66 67 68 69 69 70 71 72 73 74 75 76 77 78 78 80 81 81 83 84 84 85 86 88 88 89 90 91 92 93 94 95 96 97 98 99 100 101 102 103 104 105 106 106 107 108 109 110 111 112 113 114 115 116 117 119 119 120 121 122 123 124 124 126 127 128 129 130 131 132 133 134 135 136 137 138 139 140 142 143 144 145 145 146 147 148 149 150 151 152 153 154 155 156 157 158 159 159 160 161 162 163 164 166 166 167 168 169 170 170 171 172 173 174 174 176 176 177 178 179 180 180 182 183 183 184 185 186 187 188 189 190 191 192 193 194 195 196 197 198 199 200 201 201 202 203 205 206 207 208 209 210 211 214 146 222 255 255 255 255 255 255 255 255 255 255
255 255 255 255 255 255 255 255 255 255 255 255 255 255 255 255 255 255 255 255 255 255 255 255 255 255 127 11 15 16 17 18 19 20 21 21 22 23 24 25 26 27 27 28 29 30 30 31 32 33 34 35 36 36 37 38 38 39 40 41 42 42 43 44 45 45 46 47 48 49 50 50 51 52 53 54 55 55 56 57 58 59 59 60 61 62 63 64 65 66 66 67 68 69 70 71 72 73 73 74 75 76 77 78 79 80 81 82 83 84 85 86 87 88 89 90 91 92 93 94 95 96 96 97 98 99 100 101 102 103 104 105 106 107 108 109 110 111 111 112 114 115 115 117 118 119 119 120 121 122 123 124 125 126 127 128 129 130 131 132 133 135 136 137 138 139 140 141 142 143 144 145 146 147 148 149 150 151 151 152 153 154 155 156 157 158 159 160 160 161 163 164 165 166 167 167 168 169 170 171 171 172 173 174 175 176 177 178 178 179 180 181 182 183 184 185 185 186 187 188 190 191 191 192 193 194 195 196 197 198 199 200 201 202 203 204 205 206 207 208 209 210 211 214 146 222 255 255 255 255 255 255 255 255 255 255
255 255 255 255 255 255 255 255 255 255 255 255 255 255 255 255 255 255 255 255 255 255 255 255 255 255 127 11 15 16 17 18 19 20 21 22 22 23 24 25 26 27 28 28 29 30 31 31 32 33 34 35 36 37 37 38 39 39 40 41 42 43 43 44 45 45 46 47 49 49 50 51 51 52 53 54 55 56 56 57 58 59 60 61 61 62 63 64 65 66 67 68 69 70 70 71 72 73 74 75 76 77 78 79 79 81 82 82 83 85 85 86 87 88 89 90 91 92 93 94 95 96 97 98 99 100 101 102 102 103 104 105 106 107 108 109 110 111 112 113 114 115 116 117 118 119 120 121 122 123 124 125 126 127 128 129 130 130 132 133 134 135 136 137 138 139 140 141 143 144 144 145 146 147 148 149 150 151 152 153 153 154 156 157 158 158 159 160 161 162 163 164 165 166 167 168 168 170 170 171 172 173 174 174 175 176 177 178 179 180 180 181 182 183 184 185 186 187 187 188 190 191 192 193 194 195 195 197 198 199 200 201 201 202 203 204 205 206 208 209 209 210 211 214 145 221 255 255 255 255 255 255 255 255 255 255
255 255 255 255 255 255 255 255 255 255 255 255 255 255 255 255 255 255 255 255 255 255 255 255 255 255 127 11 16 17 18 18 19 20 21 22 23 24 25 26 26 27 28 29 30 31 31 32 33 33 34 35 36 37 38 39 39 40 40 41 42 43 44 45 45 46 47 48 49 50 50 51 52 53 54 55 55 56 57 58 58 59 60 61 62 63 64 65 65 66 67 68 69 70 71 72 73 73 74 75 76 77 78 79 80 81 82 83 84 85 86 87 88 89 90 91 92 93 93 94 95 96 97 98 99 100 101 102 103 104 105 106 107 108 108 109 110 111 112 113 114 115 116 117 119 120 120 122 122 123 124 125 126 127 128 129 130 131 132 133 134 135 137 138 139 139 141 142 143 144 145 146 147 148 149 149 150 151 152 153 154 155 156 157 158 159 160 161 161 162 164 164 165 166 167 168 169 170 171 172 172 173 174 175 176 177 178 178 179 180 181 182 183 184 184 185 186 187 188 189 190 191 192 193 194 195 196 197 198 199 200 201 202 202 204 205 206 207 208 209 210 211 212 215 146 221 255 255 255 255 255 255 255 255 255 255
255 255 255 255 255 255 255 255 255 255 255 255 255 255 255 255 255 255 255 255 255 255 255 255 255 255 127 12 16 17 18 19 20 21 22 22 23 24 25 26 27 28 28 29 30 31 31 32 33 34 35 36 37 37 38 39 39 40 41 42 43 43 44 45 46 46 47 48 49 50 51 51 52 53 54 55 56 57 57 58 59 60 61 62 62 63 64 65 66 67 68 69 69 70 71 72 73 74 75 76 77 78 78 79 80 81 82 83 84 85 86 87 88 89 90 91 92 93 94 95 96 97 98 99 100 101 101 102 103 104 105 106 107 108 109 110 111 112 113 114 115 116 117 118 119 120 121 122 123 123 124 126 127 128 129 130 130 131 132 133 134 136 137 138 139 140 141 142 143 145 145 146 147 148 149 150 151 152 153 154 154 155 156 158 158 159 160 161 162 163 164 165 166 167 168 169 169 170 171 172 173 174 174 175 176 177 178 179 179 180 181 182 183 184 185 186 187 187 188 189 191 192 193 193 194 195 196 197 199 200 200 201 202 203 204 205 206 207 208 209 210 211 212 215 146 222 255 255 255 255 255 255 255 255 255 255
255 255 255 255 255 255 255 255 255 255 255 255 255 255 255 255 255 255 255 255 255 255 255 255 255 255 128 12 16 18 18 19 20 21 22 23 24 25 25 26 27 28 29 30 31 31 32 33 33 34 35 36 37 38 39 39 40 41 41 42 43 44 45 46 46 47 48 49 50 51 51 52 53 54 55 55 56 57 58 59 59 60 61 62 63 64 65 66 66 67 68 69 70 71 72 73 73 74 75 76 77 78 79 80 81 82 83 84 85 86 87 88 89 90 91 92 92 93 94 95 96 97 98 99 100 101 102 103 104 105 106 107 108 109 109 110 111 112 113 114 115 116 117 118 120 121 121 122 123 124 125 126 127 128 129 130 131 132 133 134 135 136 138 139 139 140 141 142 144 145 146 147 148 148 149 150 151 152 153 154 155 156 157 158 159 160 161 161 162 163 164 165 166 167 168 169 170 171 172 172 173 174 175 176 176 178 178 179 180 181 182 182 183 185 185 186 187 188 189 190 191 192 193 194 195 196 197 198 199 200 201 202 203 203 204 206 207 208 209 210 211 212 213 216 146 222 255 255 255 255 255 255 255 255 255 255
255 255 255 255 255 255 255 255 255 255 255 255 255 255 255 255 255 255 255 255 255 255 255 255 255 255 128 13 17 18 19 20 21 22 22 23 24 25 26 27 28 28 29 30 31 32 32 33 34 35 36 36 37 38 39 40 40 41 42 43 44 44 45 46 47 47 48 49 50 51 52 52 53 54 55 56 57 57 58 59 60 61 62 63 63 64 65 66 67 68 69 70 70 71 72 73 74 75 76 77 78 79 79 80 81 83 83 84 85 87 87 88 89 90 91 92 93 94 95 96 97 98 99 100 101 102 102 103 104 105 106 107 108 109 110 111 112 113 114 115 116 117 118 119 120 121 122 123 124 125 126 127 127 129 130 131 132 132 133 134 135 137 138 139 140 141 142 143 144 145 146 147 148 149 150 151 152 153 154 154 155 156 157 158 159 160 161 162 163 164 165 166 167 168 169 169 170 171 172 173 174 174 175 176 177 178 179 180 180 181 182 183 184 185 186 187 187 188 189 190 191 193 193 194 195 196 197 198 200 201 201 202 203 204 205 206 207 208 209 210 211 212 213 216 146 222 255 255 255 255 255 255 255 255 255 255
255 255 255 255 255 255 255 255 255 255 255 255 255 255 255 255 255 255 255 255 255 255 255 255 255 255 128 13 17 18 19 20 21 22 23 24 24 25 26 27 28 29 30 31 31 32 33 33 34 35 36 37 38 39 40 40 41 41 42 43 44 45 46 46 47 48 49 50 51 52 52 53 54 55 56 56 57 58 59 60 60 61 62 63 64 65 66 67 67 68 69 70 71 72 73 73 74 75 76 77 78 79 80 81 82 83 84 85 86 87 88 89 90 91 92 93 93 94 95 96 97 98 99 100 101 102 103 104 105 106 107 108 109 110 110 111 112 113 114 115 116 117 118 119 121 122 123 123 124 125 126 127 128 129 130 131 132 133 134 135 136 137 139 140 140 141 142 143 145 146 147 148 149 149 150 151 152 153 154 155 156 157 158 159 160 161 162 163 164 164 165 166 167 168 169 170 171 172 173 173 174 175 176 177 177 178 179 180 181 182 182 183 184 185 186 187 188 189 190 190 192 193 194 195 196 197 197 199 200 201 202 202 203 204 205 206 207 208 210 211 211 212 213 216 146 221 255 255 255 255 255 255 255 255 255 255
255 255 255 255 255 255 255 255 255 255 255 255 255 255 255 255 255 255 255 255 255 255 255 255 255 255 128 13 17 18 19 20 21 22 23 24 25 26 26 27 28 29 30 31 32 32 33 34 34 35 36 37 38 39 40 41 41 42 42 43 44 45 46 47 48 48 49 50 51 52 53 53 54 55 56 57 57 58 59 60 61 62 62 63 64 65 66 67 68 69 69 70 71 72 73 74 75 76 76 77 78 79 80 81 82 83 84 85 86 88 88 89 90 91 92 93 94 95 96 97 98 99 99 101 101 102 103 104 105 106 107 108 109 110 111 112 113 114 115 116 117 118 118 120 121 122 123 124 125 126 127 128 128 130 131 132 132 133 134 135 136 138 139 140 141 142 143 144 145 146 147 148 149 150 151 152 153 154 155 155 156 157 158 159 160 161 162 163 164 165 166 167 168 169 170 171 171 172 173 174 175 175 176 177 178 179 180 181 181 182 183 184 185 186 187 188 188 189 190 191 192 194 194 195 196 197 198 199 200 201 202 203 204 205 206 207 208 209 210 211 212 213 214 217 146 221 255 255 255 255 255 255 255 255 255 255
255 255 255 255 255 255 255 255 255 255 255 255 255 255 255 255 255 255 255 255 255 255 255 255 255 255 127 13 18 19 20 21 22 23 24 24 25 26 27 28 29 30 30 31 32 33 34 34 35 36 37 38 39 40 40 41 42 42 43 44 45 46 46 47 48 49 50 51 52 52 53 54 55 56 57 57 58 59 60 60 61 62 63 64 65 66 66 67 68 69 70 71 72 73 74 74 75 76 77 78 79 80 81 82 83 84 85 86 87 88 89 90 91 92 93 94 94 95 96 97 98 99 100 101 102 103 104 105 106 107 108 109 110 111 111 112 113 114 115 116 117 118 119 120 122 123 123 124 125 126 127 128 129 130 131 132 133 134 135 136 137 138 140 141 141 142 143 144 146 147 148 149 150 150 151 152 153 154 155 156 157 158 159 160 161 162 163 163 164 165 166 167 168 169 170 171 172 173 174 174 175 176 177 178 178 179 180 181 182 183 183 184 185 186 187 188 189 190 191 191 193 194 195 196 197 197 198 199 201 202 202 203 204 205 206 207 208 209 210 211 212 213 214 217 146 221 255 255 255 255 255 255 255 255 255 255
255 255 255 255 255 255 255 255 255 255 255 255 255 255 255 255 255 255 255 255 255 255 255 255 255 255 127 13 18 19 20 21 22 23 24 25 26 27 27 28 29 30 31 32 32 33 34 35 35 36 37 38 39 40 41 41 42 43 43 44 45 46 47 48 48 49 50 51 52 53 54 54 55 56 57 58 58 59 60 61 62 62 63 64 65 66 67 68 69 70 70 71 72 73 74 75 76 77 77 78 79 80 81 82 83 84 85 86 87 88 89 90 91 92 93 94 95 96 97 98 99 100 100 101 102 103 104 105 106 107 108 109 110 111 112 113 114 115 115 116 118 119 119 121 122 123 124 125 126 126 127 128 129 131 132 132 133 134 135 136 137 139 140 141 142 143 144 145 146 147 148 149 150 151 152 152 153 155 155 156 157 158 159 160 161 162 163 164 165 166 167 168 168 169 171 171 172 173 174 175 175 176 177 178 179 180 181 181 182 183 184 185 186 187 187 188 189 190 191 192 193 194 195 196 197 198 199 200 201 202 203 204 205 205 206 207 208 210 211 212 213 213 214 217 146 221 255 255 255 255 255 255 255 255 255 255
255 255 255 255 255 255 255 255 255 255 255 255 255 255 255 255 255 255 255 255 255 255 255 255 255 255 127 14 18 20 20 21 22 23 24 25 26 27 28 29 30 30 31 32 33 34 34 35 36 37 38 39 40 40 41 42 42 43 44 45 46 47 47 48 49 49 50 51 53 53 54 55 56 56 57 58 59 60 61 61 62 63 64 65 66 67 67 68 69 70 71 72 73 74 74 75 76 77 78 79 80 81 82 83 84 85 86 87 88 89 90 91 91 93 94 95 95 96 97 98 99 100 101 102 103 104 105 106 107 108 109 110 111 112 112 113 114 115 116 117 118 119 120 121 123 124 124 125 126 127 128 129 130 131 132 133 134 135 136 137 138 139 141 142 142 143 144 145 147 148 149 150 150 151 152 153 154 155 156 157 158 159 160 161 162 163 163 164 165 166 167 168 169 170 171 172 173 174 175 175 176 177 178 179 179 180 181 182 183 184 184 185 186 187 188 189 190 191 191 192 194 195 196 196 197 198 199 200 202 203 203 204 205 206 207 208 209 210 211 212 213 214 215 218 146 221 255 255 255 255 255 255 255 255 255 255
255 255 255 255 255 255 255 255 255 255 255 255 255 255 255 255 255 255 255 255 255 255 255 255 255 255 127 14 18 20 21 22 23 24 24 25 26 27 28 29 30 31 31 32 33 34 35 35 36 37 38 39 40 41 41 42 43 43 44 45 46 47 48 48 49 50 51 52 53 54 54 55 56 57 58 58 59 60 61 62 62 63 64 65 66 67 68 69 69 70 71 72 73 74 75 76 77 78 78 79 80 81 82 83 84 85 86 87 88 89 90 91 92 93 94 95 96 97 98 99 99 100 101 102 103 104 105 106 107 108 109 110 111 112 113 113 114 115 116 117 118 119 120 121 123 124 125 126 126 127 128 129 130 131 132 133 134 135 136 137 138 139 141 142 143 144 145 146 147 148 149 150 151 152 153 153 154 155 156 157 158 159 160 161 162 163 164 165 165 166 168 168 169 170 171 172 173 174 175 175 176 177 178 179 180 181 181 182 183 184 185 185 186 188 188 189 190 191 192 193 194 195 196 197 198 199 199 201 202 202 204 205 205 206 207 208 209 210 211 212 213 214 215 218 146 221 255 255 255 255 255 255 255 255 255 255
255 255 255 255 255 255 255 255 255 255 255 255 255 255 255 255 255 255 255 255 255 255 255 255 255 255 127 14 19 20 21 22 23 24 25 26 27 28 28 29 30 31 32 33 34 34 35 36 37 37 38 39 40 41 42 43 43 44 44 45 46 47 48 49 50 50 51 52 53 54 55 56 56 57 58 59 60 61 61 62 63 64 65 66 66 67 68 69 70 71 72 73 74 75 75 76 77 78 79 80 81 82 83 84 85 85 87 88 89 90 91 91 92 93 94 96 96 97 98 99 100 101 102 103 104 105 106 107 108 108 110 110 111 112 113 114 115 116 117 118 119 120 121 122 123 124 125 126 127 128 129 130 131 132 133 134 135 136 137 138 139 140 141 142 143 144 145 146 148 149 150 150 151 152 153 154 155 156 157 158 158 159 161 162 163 163 164 165 166 167 168 169 170 171 172 173 174 174 175 176 177 178 178 179 180 181 182 183 183 184 185 186 187 188 189 190 191 191 192 193 195 196 196 197 198 199 200 201 202 203 204 205 206 207 208 209 210 211 212 213 214 215 216 218 147 221 255 255 255 255 255 255 255 255 255 255
255 255 255 255 255 255 255 255 255 255 255 255 255 255 255 255 255 255 255 255 255 255 255 255 255 255 127 15 20 21 22 22 23 24 25 26 27 28 29 30 31 31 32 33 34 35 35 36 37 38 39 40 41 42 42 43 44 44 45 46 47 48 49 49 50 51 52 53 54 55 55 56 57 58 59 59 60 61 62 63 63 64 65 66 67 68 69 70 70 71 72 73 74 75 76 77 78 79 79 80 81 82 83 84 85 86 87 88 89 90 91 92 93 94 95 96 97 98 99 99 100 101 102 103 104 105 106 107 108 109 110 111 112 113 114 114 115 116 117 118 119 120 121 122 124 125 126 126 127 128 129 130 131 132 133 134 135 136 137 138 139 140 142 143 144 144 146 146 148 149 150 151 152 152 153 154 155 156 157 158 159 160 161 162 163 164 165 166 166 167 168 169 170 171 172 173 174 175 176 176 177 178 179 180 180 181 182 183 184 185 185 186 187 188 189 190 191 192 192 193 195 196 197 197 198 199 200 201 203 203 204 205 206 207 208 209 210 211 212 213 214 215 216 218 147 221 255 255 255 255 255 255 255 255 255 255
255 255 255 255 255 255 255 255 241 216 208 254 255 236 204 204 253 255 229 201 210 255 255 254 253 253 127 16 20 21 22 23 24 25 26 27 28 29 29 30 31 32 33 34 34 35 36 37 38 38 39 40 41 42 43 44 44 45 45 46 48 48 49 50 51 51 52 53 55 55 56 57 57 58 59 60 61 62 62 63 64 65 66 67 67 68 69 70 71 72 73 74 75 76 76 77 78 79 80 81 82 83 84 85 86 86 87 88 90 91 91 92 93 95 96 96 97 98 99 100 101 102 103 104 105 106 107 108 108 109 110 111 112 113 114 115 116 117 118 119 120 121 122 123 124 125 126 127 128 129 130 131 132 133 134 135 136 137 138 139 140 141 142 143 144 145 146 147 149 150 150 151 152 153 154 155 156 157 158 159 159 160 161 162 163 164 165 166 167 168 169 170 171 172 173 173 175 175 176 177 177 178 179 180 181 182 183 184 184 185 186 187 188 189 190 190 191 192 193 194 195 196 197 198 199 200 201 202 203 204 205 206 206 207 209 210 210 212 213 214 215 215 216 219 148 221 255 255 255 255 255 255 255 255 255 255
255 255 255 255 255 255 255 255 211 119 96 248 244 138 152 133 190 228 124 160 123 200 255 255 255 255 129 16 20 21 22 23 24 25 26 26 27 28 29 30 31 32 33 33 34 35 36 37 38 38 39 40 41 42 43 44 44 45 46 47 48 49 50 51 51 52 53 54 54 56 57 57 58 59 60 61 61 62 63 64 65 65 66 67 68 69 70 71 72 73 73 74 75 76 77 78 79 79 81 82 82 83 84 85 86 87 88 89 90 91 91 93 93 95 96 96 98 99 100 101 101 103 103 104 106 106 107 108 109 110 111 112 113 114 115 116 116 117 119 119 121 122 122 123 125 126 126 128 128 129 130 131 132 133 134 135 136 137 138 139 140 142 143 144 145 146 147 147 149 150 151 152 153 153 154 155 156 157 158 159 160 161 162 163 164 165 166 167 167 168 169 170 171 172 173 174 174 176 176 177 178 179 180 181 181 182 183 184 185 186 186 187 188 189 190 191 192 192 193 194 196 196 197 198 199 200 201 202 204 204 205 206 207 208 209 210 211 212 213 214 215 216 217 220 149 222 255 255 255 255 255 255 255 255 255 255
255 255 255 255 255 255 255 255 255 215 104 244 224 107 238 199 124 186 129 249 182 135 252 254 235 229 116 17 20 21 22 23 24 25 26 27 28 29 29 31 32 32 33 34 35 36 36 37 38 39 40 41 42 43 44 44 45 46 46 47 48 49 50 51 52 53 54 54 55 56 57 58 59 60 61 61 62 63 64 64 65 66 67 68 69 70 71 71 72 73 74 75 76 77 78 78 80 80 81 82 83 84 85 86 87 88 89 90 90 91 93 93 94 96 97 97 98 99 100 101 102 103 104 105 106 107 108 109 110 111 111 113 113 114 115 116 117 118 119 120 121 122 123 124 125 127 127 128 129 130 131 132 133 134 135 136 137 138 139 140 141 142 144 145 146 146 147 148 150 151 151 152 153 154 155 156 157 158 159 159 160 161 162 164 164 165 166 167 168 169 170 171 172 172 173 174 175 176 177 178 178 179 180 181 182 183 183 184 185 186 186 187 188 189 190 191 192 193 193 194 196 197 198 198 199 200 201 202 204 205 206 207 207 208 209 210 211 213 213 215 216 217 218 221 150 222 255 255 255 255 255 255 255 255 255 255
254 254 254 254 254 254 254 254 255 221 104 244 215 106 254 211 110 170 138 251 207 110 249 246 166 141 71 16 20 21 22 23 24 25 26 27 28 29 29 31 32 32 33 34 35 36 37 38 38 39 40 41 42 43 44 44 45 46 47 48 49 50 51 52 53 53 54 55 56 57 57 58 59 60 61 62 63 64 64 65 66 67 67 68 69 70 71 72 73 74 75 76 77 78 78 79 80 81 82 83 84 84 86 87 87 89 89 90 91 92 93 94 95 96 97 98 99 100 101 102 102 104 105 105 106 108 108 110 110 111 112 113 114 114 115 116 118 119 119 120 122 122 123 124 125 126 127 128 129 129 131 132 133 135 135 136 137 138 139 140 141 142 144 145 146 146 147 148 150 150 151 152 153 154 155 156 157 158 158 160 160 161 162 164 164 165 166 166 167 169 170 170 171 173 173 174 174 176 177 177 178 179 180 181 182 183 184 185 186 186 187 188 189 190 191 192 192 193 194 195 197 198 199 199 200 201 202 203 204 205 207 207 208 209 210 211 213 213 214 215 216 218 219 221 147 221 254 254 254 254 254 254 254 254 254 254
254 254 254 254 254 254 254 255 255 220 103 243 224 105 244 202 117 185 129 255 185 133 251 255 249 247 126 18 21 22 23 24 25 26 27 28 29 30 30 31 33 33 33 35 36 36 37 38 39 40 41 41 43 43 44 45 46 46 47 48 49 50 51 52 53 54 54 55 56 57 58 59 59 61 61 62 63 64 64 65 66 67 68 68 70 71 71 72 73 74 75 76 77 78 79 79 80 81 82 83 84 85 86 86 88 88 89 91 92 92 94 94 95 96 98 98 99 100 101 102 103 104 105 105 107 108 108 110 110 111 112 113 114 115 116 117 118 119 120 121 122 123 124 125 126 127 128 129 130 131 132 133 134 135 136 137 138 139 140 141 142 143 144 145 146 147 148 149 151 151 152 153 154 155 156 157 158 159 160 160 161 162 163 165 165 166 167 167 169 169 170 172 173 173 174 175 176 177 178 179 179 180 181 181 182 184 184 185 186 187 187 188 189 190 191 192 193 194 194 195 196 197 198 199 200 201 202 203 204 205 206 207 208 209 210 211 212 214 214 215 216 218 218 222 152 222 254 254 254 254 254 254 254 254 254 254
255 255 255 255 255 255 255 255 227 165 82 191 231 122 174 146 173 211 121 183 133 177 255 255 255 255 130 17 21 23 24 24 25 26 27 28 29 30 31 32 33 34 34 35 36 37 38 39 39 40 41 42 43 44 45 46 46 47 48 49 50 51 52 52 53 54 55 55 56 57 58 59 60 61 62 63 63 64 65 66 66 67 68 69 70 71 72 73 74 74 75 76 77 78 79 80 81 81 82 84 84 85 86 87 88 89 90 91 91 92 93 95 95 97 98 98 100 101 101 102 103 104 105 106 107 108 109 110 111 112 113 114 115 116 117 118 118 120 121 121 123 123 124 125 127 128 128 130 130 131 132 133 134 135 136 137 138 139 140 141 142 144 145 146 147 147 149 149 151 152 153 154 155 155 156 157 158 159 160 161 162 163 164 165 166 167 167 168 169 170 171 172 173 173 175 175 176 177 178 179 180 180 181 182 183 184 185 186 186 187 188 189 190 191 191 193 193 194 195 196 197 198 199 200 201 202 203 203 205 206 207 208 208 209 210 211 212 213 214 215 216 217 218 221 150 223 255 255 255 255 255 255 255 255 255 255
255 255 255 255 255 255 255 255 226 197 186 199 249 221 183 179 250 255 213 178 189 255 255 254 253 253 127 18 23 24 25 26 27 28 29 29 30 31 32 33 34 35 36 37 37 38 39 40 40 41 42 43 44 45 46 47 47 48 49 50 51 52 52 53 54 54 55 56 57 58 59 60 61 62 62 63 64 65 66 67 67 68 69 70 71 72 72 73 74 75 76 77 78 79 79 80 81 82 83 84 85 86 87 88 89 89 91 92 93 94 94 96 96 98 99 100 100 101 102 103 104 105 106 107 108 109 110 111 112 112 114 115 116 116 117 118 119 120 121 122 123 124 125 126 127 128 129 130 131 132 133 134 135 136 137 138 139 140 141 142 143 144 145 146 147 148 149 150 152 153 154 154 155 156 157 158 159 160 161 162 162 163 164 165 166 167 168 169 170 171 172 173 174 175 176 176 177 178 179 180 180 181 182 183 184 185 186 187 187 188 189 190 191 192 193 194 194 195 196 197 198 199 200 201 202 203 204 205 206 207 208 208 209 210 211 212 213 214 215 216 217 218 219 222 149 221 255 255 255 255 255 255 255 255 255 255
255 255 255 255 255 255 255 255 255 255 255 255 255 255 255 255 255 255 255 255 255 255 255 255 255 255 128 18 23 24 25 26 27 28 29 30 31 32 33 34 35 35 36 37 38 39 39 40 41 42 43 44 45 46 46 47 48 48 49 50 51 52 53 54 54 55 56 57 58 59 60 60 61 62 63 64 65 65 66 67 68 69 70 71 71 72 73 74 75 76 77 78 79 79 80 81 82 83 84 85 86 87 88 88 89 90 92 92 93 95 95 96 97 98 99 100 101 102 103 104 105 106 107 108 109 110 111 112 112 113 114 115 116 117 118 119 120 121 122 123 124 125 126 127 128 129 130 131 132 133 134 135 136 137 138 139 140 141 142 143 144 145 146 147 148 149 150 151 152 154 154 155 156 157 158 159 160 161 162 162 163 164 165 166 167 168 169 170 171 171 173 173 174 175 176 177 178 179 180 180 181 182 183 184 185 186 186 187 188 189 190 190 192 193 193 194 195 196 197 198 199 200 201 202 202 203 204 205 207 207 208 209 210 211 212 213 214 215 216 217 218 219 220 222 148 222 255 255 255 255 255 255 255 255 255 255
255 255 255 255 255 255 255 255 255 255 255 255 255 255 255 255 255 255 255 255 255 255 255 255 255 255 128 19 24 25 26 27 28 29 30 31 31 33 33 34 35 36 37 38 39 39 40 41 42 43 44 44 45 46 47 48 48 49 50 51 52 53 53 54 55 56 57 57 58 59 60 61 62 63 64 64 65 66 67 68 68 69 70 71 72 73 74 75 75 77 77 78 79 80 81 82 83 84 84 85 86 87 88 89 90 91 92 93 94 95 96 97 98 99 100 101 102 103 104 105 106 107 107 108 109 110 111 112 113 114 115 116 117 118 119 119 120 122 122 123 125 126 126 128 129 130 130 131 132 133 134 135 136 137 138 139 140 141 142 143 144 145 147 148 149 149 151 152 153 154 155 156 157 157 158 159 160 161 162 163 164 165 166 167 168 169 169 170 171 172 173 174 175 176 177 178 178 179 180 181 182 183 184 184 185 186 187 188 189 189 190 191 192 193 194 195 195 196 197 198 199 200 201 202 203 204 205 206 207 208 208 210 210 211 212 213 214 215 216 217 218 219 220 222 149 222 255 255 255 255 255 255 255 255 255 255
255 255 255 255 255 255 255 255 255 255 255 255 255 255 255 255 255 255 255 255 255 255 255 255 255 255 128 19 24 25 26 27 28 29 30 31 32 33 34 35 36 36 37 38 39 40 40 41 42 43 44 45 46 47 47 48 49 49 50 51 52 53 54 55 55 56 57 58 59 60 60 61 62 63 64 65 66 66 67 68 69 70 71 72 72 73 74 75 76 77 78 79 80 81 81 82 83 84 85 86 87 88 89 89 90 92 93 93 94 96 96 97 98 99 100 101 102 103 104 105 106 107 108 109 110 111 112 113 114 114 115 116 117 118 119 120 121 122 123 124 125 126 127 128 129 130 131 132 133 134 134 135 137 138 139 140 141 142 143 144 145 146 147 148 149 150 151 152 153 154 155 156 157 158 159 160 161 162 162 163 164 165 166 167 168 169 170 171 172 172 174 174 175 176 177 178 179 180 181 181 182 183 184 185 185 186 187 188 189 190 190 191 192 193 194 195 196 197 197 198 200 201 201 202 203 204 205 206 207 208 209 210 210 211 212 213 214 215 216 217 218 219 220 223 148 221 255 255 255 255 255 255 255 255 255 255
255 255 255 255 255 255 255 255 255 255 255 255 255 255 255 255 255 255 255 255 255 255 255 255 255 255 128 19 25 26 27 28 29 30 31 32 32 34 34 35 36 37 38 39 40 40 41 42 43 44 45 45 46 47 48 49 49 50 51 52 53 54 54 55 56 57 58 58 59 60 61 62 63 64 65 65 66 67 68 69 69 70 71 72 73 74 75 76 77 78 78 79 80 81 82 83 84 85 85 87 87 88 89 90 91 92 93 94 95 96 97 98 99 100 101 102 103 104 105 106 107 108 108 109 110 111 112 113 114 115 116 117 118 119 120 120 121 123 123 124 126 126 127 128 130 131 131 133 133 134 135 136 137 138 139 140 141 142 143 144 145 146 148 149 150 150 151 152 154 155 156 157 158 158 159 160 161 162 163 164 165 166 167 168 169 170 170 171 172 173 174 175 176 177 178 179 179 180 181 182 183 184 184 185 186 187 188 189 189 190 191 192 193 194 195 196 196 197 198 199 200 201 202 203 204 205 206 207 208 209 210 210 211 212 213 214 215 216 217 218 219 220 221 223 149 222 255 255 255 255 255 255 255 255 255 255
255 255 255 255 255 255 255 255 255 255 255 255 255 255 255 255 255 255 255 255 255 255 255 255 255 255 128 20 25 26 27 28 29 30 31 32 33 34 35 36 37 38 38 39 40 41 42 42 43 44 45 46 47 48 49 49 50 51 51 52 53 54 55 56 57 58 59 59 59 61 62 62 63 64 65 66 67 68 68 69 70 71 72 73 74 75 75 76 77 78 79 80 81 82 83 84 84 85 86 87 88 89 90 91 92 93 94 95 96 96 98 99 99 101 102 103 103 104 105 106 107 108 109 110 111 112 113 114 115 116 117 118 119 120 120 121 122 123 124 125 126 127 128 129 130 131 132 133 134 135 136 137 138 139 140 141 142 143 144 145 146 147 148 149 150 151 152 153 155 156 156 157 158 159 160 161 162 163 164 165 165 166 167 169 169 170 171 172 173 173 175 175 176 177 178 179 180 181 182 182 183 184 185 186 187 188 188 189 190 191 192 192 193 195 195 196 197 198 198 199 201 202 203 203 204 205 206 207 209 209 210 211 212 212 213 214 215 216 217 218 219 220 221 224 149 222 255 255 255 255 255 255 255 255 255 255
255 255 255 255 255 255 255 255 255 255 255 255 255 255 255 255 255 255 255 255 255 255 255 255 255 255 128 20 26 27 28 29 30 31 32 33 34 35 35 36 37 38 39 40 41 42 42 43 44 45 46 47 48 49 49 50 51 51 52 53 54 55 56 57 57 58 59 60 60 61 62 63 64 65 66 67 67 68 69 70 71 72 72 73 74 75 76 77 78 79 80 81 81 82 83 84 85 86 87 88 89 90 91 91 92 94 95 95 96 97 98 99 100 101 102 103 104 105 106 107 108 109 110 111 112 113 114 115 115 116 117 118 119 120 121 122 123 124 125 126 127 128 129 130 131 132 133 134 135 135 136 137 138 140 140 141 142 143 144 145 146 148 149 150 151 152 153 154 155 156 157 158 159 160 160 161 162 163 164 165 166 167 168 169 170 171 172 172 173 174 175 176 177 178 179 180 180 181 182 183 184 185 186 186 187 188 189 190 190 191 192 193 194 195 196 197 197 198 199 200 201 202 203 204 205 206 207 208 209 209 210 211 212 213 214 215 216 217 218 219 220 221 222 224 149 222 255 255 255 255 255 255 255 255 255 255
255 255 255 255 255 255 255 255 255 255 255 255 255 255 255 255 255 255 255 255 255 255 255 255 255 255 128 20 26 27 28 29 30 31 32 33 34 35 36 37 38 38 39 40 41 42 43 43 44 45 46 47 48 49 50 50 51 52 52 53 54 55 56 57 58 59 60 60 61 62 63 63 64 65 66 67 68 69 69 70 71 72 73 74 75 76 76 77 78 79 80 81 82 83 84 85 85 86 87 88 89 90 91 92 93 94 95 96 97 97 99 100 101 102 103 104 105 105 106 107 108 109 110 111 112 113 114 115 116 117 118 119 120 121 121 122 123 124 125 126 127 128 129 130 131 132 133 134 135 136 137 138 139 140 141 142 143 144 145 146 147 148 149 150 151 152 153 154 156 157 157 158 159 160 161 162 163 164 165 166 166 167 168 169 170 171 172 173 174 174 175 176 177 178 179 180 181 182 183 183 184 185 186 187 188 189 189 190 191 192 192 193 194 195 196 197 198 199 199 200 202 203 203 204 205 206 207 208 209 210 211 212 212 214 214 216 216 217 218 219 220 221 222 224 149 222 255 255 255 255 255 255 255 255 255 255
255 255 255 255 255 255 255 255 255 255 255 255 255 255 255 255 255 255 255 255 255 255 255 255 255 255 129 21 27 28 29 30 31 32 33 34 35 36 36 38 38 39 40 41 42 43 43 44 45 46 47 48 49 50 50 51 52 52 53 54 55 56 57 58 58 59 60 61 62 63 63 64 65 66 67 68 69 69 70 71 72 73 74 75 75 76 77 78 79 80 81 82 83 84 84 85 86 87 88 89 90 91 92 93 93 95 96 96 97 98 99 100 101 102 103 104 105 106 107 108 109 110 111 112 113 114 115 116 116 117 118 119 120 121 122 123 124 125 126 127 128 129 130 131 132 133 134 135 136 137 138 139 140 141 142 143 143 145 145 146 147 149 150 151 152 153 154 155 156 157 158 159 160 161 162 162 163 164 165 166 167 168 169 170 171 172 173 174 174 175 176 177 178 179 180 181 182 182 183 184 185 186 187 187 188 189 190 191 191 192 193 194 195 196 197 198 198 199 200 201 202 203 204 205 206 207 208 209 210 211 212 212 213 214 215 216 217 218 219 220 221 222 223 225 150 222 255 255 255 255 255 255 255 255 255 255
255 255 255 255 255 255 255 255 255 255 255 255 255 255 255 255 255 255 255 255 255 255 255 255 255 255 128 21 27 28 29 30 31 32 33 34 35 36 37 38 39 40 40 41 42 43 44 45 45 46 47 48 49 50 51 52 52 53 53 54 56 56 57 58 59 60 61 61 62 63 64 65 66 66 67 68 69 70 71 71 72 73 74 75 76 77 78 79 79 80 81 82 83 84 85 86 87 88 88 89 90 91 92 93 94 95 96 97 98 99 100 101 102 103 104 105 106 107 108 109 109 110 111 112 113 114 115 116 117 118 119 120 121 122 122 123 124 125 126 127 128 129 130 131 133 133 134 135 136 137 138 140 140 141 142 143 144 145 146 147 148 149 151 152 152 153 154 155 157 158 159 159 160 161 162 163 164 165 166 167 167 168 169 171 171 172 173 174 174 175 177 178 178 179 180 181 182 183 184 185 185 186 187 188 189 190 190 191 192 193 194 194 195 197 197 198 199 200 201 201 203 204 205 205 206 207 208 209 210 211 212 213 213 215 216 217 217 218 219 220 221 222 223 225 150 222 255 255 255 255 255 255 255 255 255 255
255 255 255 255 255 255 255 255 255 255 255 255 255 255 255 255 255 255 255 255 255 255 255 255 255 255 129 22 28 29 30 31 32 33 34 35 36 37 37 38 39 40 41 42 43 44 44 45 46 47 48 49 50 51 51 52 53 53 54 55 56 57 58 59 60 61 62 62 62 64 65 65 66 67 68 69 70 71 71 72 73 74 75 76 77 77 78 79 80 81 82 83 84 85 85 86 87 88 89 90 91 92 93 94 95 95 97 98 98 99 100 102 102 104 104 105 106 107 108 109 110 111 112 113 114 115 116 117 118 118 120 121 121 122 123 124 125 126 127 128 129 130 131 132 133 134 135 136 137 138 139 140 141 142 143 144 145 146 147 148 149 150 151 152 153 154 155 156 157 158 159 160 161 162 163 163 164 166 166 167 168 169 170 171 172 173 174 175 175 176 177 178 179 180 181 182 183 184 184 185 186 187 188 188 189 190 191 192 193 193 194 195 196 197 198 199 199 200 201 202 203 204 205 206 207 208 209 210 211 212 212 213 214 215 216 217 218 219 220 221 222 223 223 226 150 222 255 255 255 255 255 255 255 255 255 255
255 255 255 255 255 255 255 255 255 255 255 255 255 255 255 255 255 255 255 255 255 255 255 255 255 255 129 22 28 29 30 31 32 33 34 35 36 37 38 39 40 41 41 42 43 44 45 46 46 47 48 49 50 51 52 53 53 54 55 56 57 57 58 59 60 61 62 62 63 64 65 66 67 68 69 69 70 71 72 73 73 74 75 76 77 78 79 80 81 82 82 83 84 85 86 87 88 89 90 91 91 92 93 94 95 96 97 98 99 100 101 102 103 104 105 106 107 108 109 110 111 112 112 114 114 115 116 117 118 119 120 121 122 123 124 124 126 127 127 128 130 131 131 132 134 135 135 137 137 138 139 141 141 142 143 144 145 146 147 148 149 150 152 153 153 154 155 156 158 159 160 161 161 162 163 164 165 166 167 168 169 169 171 172 172 173 174 175 176 177 178 179 180 181 182 183 183 184 185 186 186 187 188 189 190 191 192 192 193 194 195 196 197 198 198 199 200 201 202 203 204 205 206 206 207 208 209 210 212 212 213 214 215 216 217 218 218 219 220 221 222 223 224 226 151 222 255 255 255 255 255 255 255 255 255 255
255 255 255 255 255 255 255 255 255 255 255 255 255 255 255 255 255 255 255 255 255 255 255 255 255 255 129 23 29 30 31 32 33 34 35 36 37 38 38 40 40 41 42 43 44 45 45 46 47 48 49 50 51 52 53 53 54 55 55 56 57 58 59 60 61 62 63 63 64 65 66 66 67 68 69 70 71 72 72 73 74 75 76 77 78 79 80 81 81 82 83 84 85 86 87 88 89 89 90 91 92 93 94 95 96 97 98 99 100 101 102 103 104 105 106 107 108 109 110 110 111 112 113 114 115 116 117 118 119 120 121 122 123 124 124 125 126 127 128 129 130 131 132 133 134 135 136 137 138 139 140 141 142 143 144 145 146 147 148 149 150 151 152 153 154 155 156 157 159 160 160 161 162 163 164 165 166 167 168 168 169 170 171 172 173 174 175 176 176 177 178 179 180 181 182 183 184 185 185 186 187 188 189 190 190 191 192 193 194 195 195 196 197 198 199 200 201 201 202 203 204 205 206 207 208 209 210 211 212 213 213 214 215 216 217 218 219 220 221 222 223 224 224 227 151 222 255 255 255 255 255 255 255 255 255 255
255 255 255 255 255 255 255 255 255 255 255 255 255 255 255 255 255 255 255 255 255 255 255 255 255 255 129 23 29 30 31 32 33 34 35 36 37 38 39 40 41 42 43 44 44 45 46 47 47 48 49 50 51 52 53 54 54 55 56 57 58 59 59 60 61 62 63 64 64 66 66 67 68 69 70 71 71 72 73 74 75 76 76 77 78 79 80 81 82 83 84 85 86 86 87 88 89 90 91 92 93 94 95 95 96 97 99 99 100 101 102 103 104 105 106 107 108 109 110 111 112 113 114 115 116 117 118 119 119 120 121 122 123 124 125 126 127 128 129 130 131 132 133 134 135 136 137 138 139 140 141 142 143 144 145 146 147 147 149 150 150 152 153 154 155 156 157 158 159 160 161 162 163 164 165 165 166 167 168 169 170 171 172 173 174 175 175 177 177 178 179 180 181 182 183 184 185 185 186 187 188 189 189 190 191 192 193 194 194 195 196 197 198 199 200 200 201 202 203 204 205 206 207 208 209 209 210 211 213 213 214 215 216 217 218 219 219 221 222 223 223 224 225 227 151 222 255 255 255 255 255 255 255 255 255 255
255 255 255 255 255 255 255 255 255 255 255 255 255 255 255 255 255 255 255 255 255 255 255 255 255 255 129 24 30 31 32 33 34 35 36 37 38 39 39 41 41 42 43 44 45 46 47 47 48 49 50 51 52 53 54 54 55 56 56 57 58 59 60 61 62 63 64 64 65 66 67 68 69 69 70 71 72 73 74 75 75 76 77 78 79 80 81 82 82 84 84 85 86 87 88 89 90 91 92 93 93 94 95 96 97 98 99 100 101 102 103 104 105 106 107 108 109 110 111 112 113 114 114 116 116 117 118 119 120 121 122 123 124 125 126 126 127 128 129 130 131 132 133 134 136 137 138 138 139 140 142 143 143 144 145 146 147 148 149 150 151 152 154 155 155 156 157 158 160 161 162 162 163 164 165 166 167 168 169 170 170 171 173 174 174 175 176 177 178 179 180 181 181 182 183 184 185 186 187 188 188 189 190 191 192 193 193 194 195 196 196 197 198 199 200 201 202 203 203 204 206 207 207 208 209 210 211 212 213 214 214 215 216 217 218 219 220 221 222 223 224 225 225 228 151 222 255 255 255 255 255 255 255 255 255 255
255 255 255 255 255 255 255 255 255 255 255 255 255 255 255 255 255 255 255 255 255 255 255 255 255 255 129 24 30 31 32 33 34 35 36 37 38 39 40 41 42 43 44 45 45 46 47 48 49 49 50 51 52 53 54 55 55 56 57 58 59 60 61 61 62 64 65 65 66 66 67 68 69 70 71 72 73 73 74 75 76 77 78 79 79 80 81 82 83 84 85 86 87 88 88 89 90 91 92 93 94 95 96 97 97 99 100 101 101 103 103 105 105 107 107 109 109 110 111 112 113 114 115 116 117 118 119 120 121 121 122 123 124 125 126 127 128 129 130 131 132 133 134 135 136 137 138 139 140 140 142 143 144 145 146 147 147 149 150 151 151 153 154 155 156 157 158 159 160 161 162 163 164 165 165 166 167 168 169 170 171 172 173 174 175 176 176 177 178 179 180 181 182 183 184 185 185 186 187 188 189 189 190 191 192 193 194 195 195 196 197 198 199 200 200 201 202 203 204 205 206 207 208 208 209 210 211 212 213 214 215 216 216 218 219 220 220 221 222 223 224 225 226 228 151 222 255 255 255 255 255 255 255 255 255 255
255 255 255 255 255 255 255 255 255 255 255 255 255 255 255 255 255 255 255 255 255 255 255 255 255 255 130 25 31 32 33 34 35 36 37 38 39 40 41 42 43 43 44 45 46 47 48 49 49 50 51 52 53 54 55 56 56 57 58 59 60 60 61 62 63 64 65 65 66 67 68 69 70 71 72 72 73 74 75 76 76 77 78 79 80 81 82 83 84 85 85 86 87 88 89 90 91 92 93 94 95 95 96 97 98 99 100 101 102 103 104 105 106 107 108 109 110 111 112 113 114 115 115 117 117 118 119 120 121 122 123 124 125 126 127 127 128 129 130 131 132 133 134 135 137 138 138 140 140 141 142 143 144 145 146 147 148 149 150 151 152 153 155 156 156 157 158 159 161 162 163 163 164 165 166 167 168 169 170 171 171 172 173 174 175 176 177 178 179 179 181 181 182 183 184 185 186 187 188 188 189 190 191 192 192 193 194 195 196 197 197 198 199 200 201 202 203 203 204 205 207 208 208 209 210 211 212 213 214 215 216 216 217 218 219 220 221 222 223 224 225 226 226 229 152 222 255 255 255 255 255 255 255 255 255 255
255 255 255 255 255 255 255 255 255 255 255 255 255 255 255 255 255 255 255 255 255 255 255 255 255 255 129 25 31 32 33 34 35 36 37 38 39 40 41 42 43 44 45 46 46 47 48 49 50 50 51 52 53 54 55 56 57 57 58 59 60 61 62 63 63 65 66 66 67 68 69 69 70 71 72 73 74 75 75 76 77 78 79 80 81 81 82 83 84 85 86 87 88 89 90 90 91 92 93 94 95 96 97 98 99 100 101 102 103 104 105 106 107 108 108 110 110 111 112 113 114 115 116 117 118 119 120 121 122 123 124 125 126 126 127 128 129 130 131 132 133 134 135 136 137 138 139 140 141 142 143 145 145 146 147 148 149 150 151 152 153 154 155 156 157 158 159 160 161 162 163 164 165 166 167 167 168 170 170 171 172 173 174 175 176 177 178 179 179 180 181 182 183 184 185 186 187 187 188 189 190 191 192 192 193 194 195 196 196 197 198 199 200 201 202 203 203 204 205 206 207 208 209 210 211 211 212 213 215 215 216 217 218 219 220 221 221 222 223 224 225 226 227 229 152 222 255 255 255 255 255 255 255 255 255 255
255 255 255 255 255 255 255 255 255 255 255 255 255 255 255 255 255 255 255 255 255 255 255 255 255 255 129 26 32 33 34 35 36 37 38 39 40 41 42 43 44 44 45 46 47 48 49 50 50 51 52 53 54 55 56 57 57 58 59 60 61 62 62 63 64 66 66 66 67 68 69 70 71 72 73 74 74 75 76 77 78 79 79 80 81 82 83 84 85 86 87 88 89 89 90 91 92 93 94 95 96 97 98 99 99 100 102 102 103 104 105 106 107 109 109 110 111 112 113 114 115 116 117 118 119 120 121 122 122 123 124 125 126 127 128 129 130 131 132 133 134 135 136 137 138 139 140 141 142 143 144 145 145 147 147 149 149 150 151 152 153 155 156 157 158 159 160 161 162 163 164 165 166 166 167 168 169 170 171 172 173 173 175 176 176 177 178 179 180 181 182 183 183 184 185 186 187 188 189 189 190 191 192 193 194 195 195 196 197 198 199 199 200 202 202 203 204 205 205 206 208 209 209 210 211 212 213 214 215 215 217 217 218 220 220 221 222 223 224 225 225 227 227 230 152 222 255 255 255 255 255 255 255 255 255 255
255 255 255 255 255 255 255 255 255 255 255 255 255 255 255 255 255 255 255 255 255 255 255 255 255 255 129 26 32 33 34 35 36 37 38 39 40 41 42 43 44 45 46 47 47 48 49 50 51 51 52 53 54 55 56 57 58 58 59 60 61 62 63 64 65 66 67 67 68 69 70 70 71 72 73 74 75 76 76 77 78 79 80 81 82 83 84 85 85 86 87 88 89 90 91 92 93 94 94 95 96 97 98 99 100 101 102 103 104 105 106 107 108 109 110 111 112 113 114 115 115 117 117 118 119 120 121 122 123 124 125 126 127 128 128 129 130 131 132 133 134 135 136 137 139 139 141 141 142 143 145 146 146 147 148 149 150 151 152 153 154 155 157 158 158 159 160 161 163 164 164 165 166 167 168 169 170 171 172 172 173 174 175 176 177 178 179 180 181 181 182 184 184 185 186 187 188 189 190 190 191 192 193 194 194 195 196 197 198 198 199 200 201 202 203 204 204 205 206 207 208 209 210 211 212 212 213 214 216 216 217 218 219 220 221 222 222 223 224 225 226 227 228 230 152 222 255 255 255 255 255 255 255 255 255 255
255 255 255 255 255 255 255 255 255 255 255 255 255 255 255 255 255 255 255 255 255 255 255 255 255 255 129 26 33 34 35 36 37 38 39 40 41 42 43 44 45 45 46 47 48 49 50 51 51 52 53 54 55 56 57 58 58 59 60 61 62 63 64 64 65 66 67 68 69 70 70 71 72 73 74 75 76 76 77 78 79 80 81 82 82 83 84 85 86 87 88 89 90 91 91 92 93 94 95 96 97 98 99 100 101 102 103 104 105 106 107 108 109 110 110 112 112 113 114 115 116 117 118 119 120 121 122 123 124 125 126 127 127 128 129 130 131 132 133 134 135 136 137 138 139 140 141 142 143 144 145 146 147 148 149 150 151 152 153 154 155 156 157 158 159 160 161 162 163 164 165 166 167 168 168 169 170 171 172 173 174 175 176 177 178 179 179 180 181 182 183 184 185 185 187 188 188 189 190 191 191 192 193 194 195 196 197 197 198 199 200 200 202 203 203 204 205 206 206 207 209 210 210 211 212 213 214 215 216 217 217 218 219 220 221 222 223 224 225 226 226 227 228 230 152 222 255 255 255 255 255 255 255 255 255 255
255 255 255 255 255 255 255 255 255 255 255 255 255 255 255 255 255 255 255 255 255 255 255 255 255 255 129 27 33 34 35 36 37 38 39 40 41 42 43 44 45 46 47 48 49 50 50 51 52 53 54 55 56 57 57 58 59 60 60 61 62 63 64 65 66 67 68 68 69 70 71 72 73 74 75 75 76 77 78 79 79 80 81 82 83 84 85 86 87 88 89 90 90 91 92 93 94 95 96 97 98 99 100 100 101 102 104 104 105 106 107 108 109 110 111 112 113 114 115 116 117 118 119 120 121 122 123 124 124 125 126 127 128 129 130 131 132 133 134 135 136 137 138 139 140 141 142 143 144 145 146 147 148 149 149 150 151 152 153 154 155 157 158 159 160 161 162 163 164 165 166 167 168 168 169 170 171 172 173 174 175 175 177 178 178 179 180 181 181 182 184 184 185 186 187 188 189 190 191 191 192 193 194 195 196 197 197 198 199 200 200 201 202 203 204 205 206 206 207 208 209 210 211 212 213 214 214 215 217 217 218 219 220 221 222 223 223 224 225 226 227 228 229 231 152 222 255 255 255 255 255 255 255 255 255 255
255 255 255 255 255 255 255 255 255 255 255 255 255 255 255 255 255 255 255 255 255 255 255 255 255 255 129 27 34 35 36 37 38 39 40 41 42 43 44 45 46 47 47 48 49 50 51 52 52 53 54 55 56 57 58 59 60 60 61 62 63 64 65 66 66 68 69 69 69 71 72 72 73 74 75 76 77 78 78 79 80 81 82 83 84 85 86 87 87 88 89 90 91 92 93 94 95 96 96 97 98 99 100 101 102 103 104 105 106 107 108 109 110 111 112 113 114 115 116 117 118 119 119 120 121 122 123 124 125 126 127 128 129 130 130 131 132 133 134 135 136 137 138 139 141 141 142 143 144 145 146 148 148 149 150 151 152 153 154 155 156 157 158 159 160 161 162 163 165 166 166 167 168 169 170 171 172 173 173 174 175 176 177 178 179 180 181 182 182 183 184 185 186 186 188 189 189 191 191 192 193 194 194 195 196 197 198 199 199 200 201 202 203 204 204 205 206 207 208 209 210 211 212 212 213 214 215 216 217 217 218 219 220 221 222 223 224 225 226 227 227 228 229 231 152 222 255 255 255 255 255 255 255 255 255 255
255 255 255 255 255 255 255 255 255 255 255 255 255 255 255 255 255 255 255 255 255 255 255 255 255 255 129 27 34 35 36 37 38 39 40 41 42 43 44 45 46 47 48 49 49 50 51 52 53 54 55 56 57 58 58 59 60 60 61 62 63 64 65 66 67 68 69 69 70 71 72 73 74 75 76 76 77 78 79 80 80 81 82 83 84 85 86 87 88 89 90 91 92 92 93 94 95 96 97 98 99 100 101 101 102 104 105 105 106 107 108 109 110 111 112 113 114 115 116 117 118 119 120 121 122 123 124 125 125 126 127 128 129 130 131 132 133 134 135 136 137 138 139 140 141 142 143 144 145 146 147 148 149 150 151 152 152 153 155 156 156 158 159 160 161 162 163 164 165 166 167 168 169 169 170 171 172 173 174 175 176 177 178 179 180 180 181 182 183 184 185 186 186 187 188 189 190 191 192 192 193 194 195 196 197 198 198 199 200 201 201 202 203 204 205 206 207 207 208 209 210 211 212 213 214 215 215 216 218 218 219 220 221 222 223 223 224 225 226 227 228 229 230 232 152 222 255 255 255 255 255 255 255 255 255 255
255 255 255 255 255 255 255 255 255 255 255 255 255 255 255 255 255 255 255 255 255 255 255 255 255 255 129 28 35 36 37 38 39 40 41 42 43 44 45 46 47 48 49 50 51 52 52 53 54 55 56 57 58 59 60 60 61 62 62 63 64 65 66 67 68 69 70 70 71 72 73 74 75 76 77 78 78 79 80 81 82 83 84 85 85 86 87 88 89 90 91 92 93 94 94 95 96 97 98 99 100 101 102 103 104 105 106 107 108 109 110 111 112 113 114 115 115 116 117 118 119 120 121 122 123 124 125 126 127 128 129 130 131 131 132 133 134 135 136 137 138 139 140 141 142 143 144 145 146 147 148 149 150 151 152 153 154 155 156 157 158 159 160 161 162 163 164 165 166 167 168 169 170 171 172 172 173 174 175 176 177 178 179 180 181 182 182 184 184 185 186 187 188 188 190 191 191 192 193 194 194 195 196 197 198 199 200 200 201 202 203 204 205 206 206 207 208 209 209 210 212 213 213 214 215 216 217 218 219 219 220 221 222 223 224 225 225 227 227 228 229 230 231 233 153 222 255 255 255 255 255 255 255 255 255 255
255 255 255 255 255 255 255 255 255 255 255 255 255 255 255 255 255 255 255 255 255 255 255 255 255 255 129 29 36 37 38 39 40 41 42 43 44 45 46 47 48 49 50 51 51 52 53 54 55 56 57 58 59 60 60 61 62 63 63 64 65 66 67 68 69 70 71 71 72 73 74 75 76 77 78 78 79 80 81 82 83 84 84 86 86 87 88 89 90 91 92 93 94 95 95 96 97 98 99 100 101 102 103 104 105 106 107 108 109 110 111 112 113 114 115 116 116 117 118 119 120 121 122 123 124 125 126 127 128 129 130 131 132 132 133 134 135 136 137 138 139 140 141 142 143 144 145 146 147 148 149 151 151 152 153 154 155 156 157 158 159 160 161 162 163 164 165 166 167 168 169 170 171 172 173 173 174 175 176 177 178 179 180 181 182 183 183 185 185 186 187 188 189 189 191 192 192 193 194 195 195 196 197 198 199 200 200 201 202 203 204 204 205 207 207 208 209 210 210 211 213 213 214 215 216 217 217 219 220 220 221 222 223 224 225 226 226 227 228 229 230 231 232 233 153 222 255 255 255 255 255 255 255 255 255 255
255 255 255 255 255 255 255 255 255 255 255 255 255 255 255 255 255 255 255 255 255 255 255 255 255 255 129 29 36 38 39 40 41 42 43 44 45 46 46 48 48 49 50 51 52 53 54 55 55 56 57 58 59 60 61 62 63 63 64 65 66 67 68 69 70 71 72 72 73 74 75 75 76 77 78 79 80 81 82 83 83 84 85 86 87 88 89 90 91 92 93 94 94 95 96 97 98 99 100 101 102 103 104 104 105 106 108 108 109 110 111 112 113 114 115 116 117 118 119 120 121 122 123 124 125 126 127 128 128 129 130 131 132 133 134 135 136 137 138 139 140 141 142 143 144 145 146 146 147 148 150 151 152 153 153 154 155 156 157 158 159 161 162 163 164 164 165 166 168 169 170 171 171 172 173 174 175 176 177 178 178 179 180 182 182 183 184 185 185 186 187 188 189 190 191 192 193 194 194 195 196 197 198 199 199 200 201 202 203 203 204 205 206 207 208 208 209 210 211 212 213 214 215 215 216 217 218 219 220 221 221 222 223 224 225 226 227 228 229 229 230 231 232 234 153 222 255 255 255 255 255 255 255 255 255 255
255 255 255 255 255 255 255 255 255 255 255 255 255 255 255 255 255 255 255 255 255 255 255 255 255 255 130 30 37 38 39 40 41 42 43 44 45 46 47 48 49 50 51 52 53 54 54 55 56 57 58 59 60 61 62 62 63 64 64 66 67 67 68 69 70 72 73 73 74 74 75 76 77 78 79 80 81 81 82 83 84 85 86 87 88 89 89 90 91 92 93 94 95 96 97 98 99 100 100 101 102 103 104 105 106 107 108 109 110 111 112 113 114 115 116 117 118 119 120 121 121 123 123 124 125 126 127 128 129 130 131 132 133 134 134 135 136 137 138 139 140 141 142 143 144 145 146 147 148 149 151 152 152 153 154 155 156 157 158 159 160 161 162 163 164 165 166 167 168 169 170 171 172 173 174 174 175 176 177 178 179 180 181 182 183 184 184 185 186 187 188 189 190 191 192 193 193 194 195 196 196 197 198 199 200 201 201 202 203 204 204 205 206 207 208 209 210 210 211 212 213 214 215 216 217 217 218 219 221 221 222 223 224 225 226 226 227 228 229 230 231 231 232 234 153 222 255 255 255 255 255 255 255 255 255 255
255 255 255 255 255 255 255 255 255 255 255 255 255 255 255 255 255 255 255 255 255 255 255 255 255 255 130 31 38 39 40 41 42 43 44 45 46 47 48 49 50 51 51 52 53 54 55 56 57 57 58 59 61 61 62 63 64 64 65 66 67 68 69 70 71 72 73 73 74 75 76 77 78 79 80 80 81 82 83 84 84 85 86 87 88 89 90 91 92 93 94 95 96 97 97 98 99 100 101 102 103 104 105 106 107 108 109 110 110 112 112 114 114 116 116 118 118 119 120 121 122 123 124 125 126 127 128 129 129 130 131 132 133 134 135 136 137 138 139 140 141 142 143 144 145 146 147 148 149 150 151 152 153 154 155 156 156 158 159 159 160 162 163 164 165 166 167 168 169 170 171 172 173 173 174 175 176 177 178 179 179 180 182 183 183 184 185 186 187 188 189 189 190 191 192 193 194 195 196 196 197 198 199 200 200 201 202 203 204 204 205 206 207 208 209 210 210 211 212 213 214 215 216 216 217 218 219 220 221 222 223 223 224 225 226 227 228 229 230 231 231 232 233 235 154 222 255 255 255 255 255 255 255 255 255 255
255 255 255 255 255 255 255 255 255 255 255 255 255 255 255 255 255 255 255 255 255 255 255 255 255 255 130 31 38 39 40 41 42 43 44 45 46 47 48 49 50 51 52 53 54 55 55 56 57 58 59 60 61 62 63 64 64 65 66 67 68 69 70 71 72 73 74 74 75 76 77 77 78 79 80 81 82 83 83 84 85 86 87 88 89 90 91 92 92 93 94 95 96 97 98 99 100 101 102 103 103 104 105 106 107 108 109 110 111 112 113 114 115 116 117 118 119 120 121 122 123 124 124 125 126 127 128 129 130 131 132 133 134 135 135 136 137 138 139 140 141 142 143 144 146 146 147 148 149 151 152 153 153 154 155 156 157 158 159 160 161 162 163 164 165 166 167 168 169 170 171 172 173 174 175 175 176 178 178 179 180 181 182 183 184 185 185 187 187 188 189 190 191 192 193 194 194 195 196 197 197 198 199 200 201 202 202 203 204 205 206 206 207 208 209 210 211 211 212 213 214 215 216 217 218 219 219 220 222 222 223 224 225 226 227 227 228 229 230 231 232 232 233 235 154 222 255 255 255 255 255 255 255 255 255 255
255 255 255 255 255 255 255 255 255 255 255 255 255 255 255 255 255 255 255 255 255 255 255 255 255 255 130 32 39 40 41 42 43 44 45 46 47 48 49 50 51 52 53 54 55 56 56 57 58 59 60 61 62 63 63 64 65 66 66 67 68 69 70 71 72 73 74 75 75 76 77 78 79 80 81 82 82 83 84 85 86 87 88 89 89 90 91 92 93 94 95 96 97 98 99 100 100 101 102 103 104 105 106 107 108 109 110 111 112 113 114 115 116 117 118 119 120 120 121 122 123 124 125 126 127 128 129 130 131 132 133 134 134 135 136 137 138 139 140 141 142 143 144 145 146 147 148 149 150 151 152 153 154 155 156 157 158 159 160 161 161 163 164 165 166 167 168 169 170 171 172 173 174 174 175 176 177 178 179 180 180 181 183 184 184 185 186 187 188 189 190 191 191 192 193 194 195 196 196 197 198 199 200 201 201 202 203 204 205 205 206 207 208 209 210 211 211 212 213 214 215 216 217 217 218 219 220 221 222 223 224 224 225 226 227 228 229 230 231 231 232 233 234 236 155 222 255 255 255 255 255 255 255 255 255 255
255 255 255 255 255 255 255 255 240 213 204 253 252 203 190 195 242 255 229 201 213 255 255 255 253 253 130 33 40 41 42 43 44 45 46 47 48 49 49 51 52 52 53 54 55 56 57 58 58 59 60 61 62 63 64 65 66 66 67 68 69 70 71 72 73 74 75 75 76 77 78 79 80 81 82 82 83 84 85 86 87 87 88 89 90 91 92 93 94 95 96 97 97 99 99 100 101 102 103 104 105 106 107 107 108 109 110 112 112 113 114 116 116 117 118 119 120 121 122 123 124 125 126 127 128 129 130 131 131 132 133 134 135 136 137 138 139 140 141 142 143 144 145 146 147 148 149 149 150 152 153 154 155 156 157 157 158 159 160 161 162 163 165 166 167 167 168 169 171 172 173 173 174 175 176 177 178 179 179 180 181 182 183 184 185 186 186 187 188 189 190 191 192 192 194 195 195 196 197 198 198 199 200 201 202 203 203 204 205 206 206 207 208 209 210 211 211 212 213 214 215 216 217 218 219 219 220 221 222 223 224 225 226 227 228 228 229 230 231 232 233 234 234 237 157 222 255 255 255 255 255 255 255 255 255 255
255 255 255 255 255 255 255 255 210 121 94 248 238 112 168 190 245 236 118 166 125 202 255 255 255 255 132 33 40 40 42 43 43 44 46 47 48 49 50 51 52 53 54 55 56 57 58 59 59 60 61 62 63 64 65 66 67 67 68 69 70 71 72 73 74 75 76 76 78 78 79 80 81 82 83 84 84 85 86 87 88 89 89 90 91 92 93 94 95 96 97 98 99 100 101 101 102 103 104 105 106 107 108 109 109 111 112 113 113 114 115 116 117 118 119 120 121 123 123 124 125 126 126 127 129 130 130 131 132 133 134 135 136 136 137 138 139 140 141 142 143 144 145 146 147 148 149 150 151 152 153 154 155 156 157 158 159 160 161 162 163 164 165 166 167 168 169 170 171 172 172 174 174 175 176 177 178 179 180 181 182 183 184 185 185 186 187 188 188 189 190 191 192 193 194 195 196 196 197 198 199 199 201 201 202 203 204 205 206 206 207 208 209 210 211 212 212 213 214 214 216 217 218 218 220 220 221 221 223 224 225 226 227 228 229 229 230 231 232 233 234 234 235 237 154 222 255 255 255 255 255 255 255 255 255 255
255 255 255 255 255 255 255 255 255 218 105 247 244 101 153 183 251 179 138 255 169 148 254 252 235 232 121 34 40 41 42 43 44 45 46 47 48 50 50 51 52 54 54 55 56 57 58 59 60 61 62 63 64 65 66 67 67 68 69 70 71 72 73 74 74 76 76 77 78 79 80 81 82 82 84 84 85 86 87 88 88 89 90 91 92 93 94 95 95 96 97 98 99 100 101 102 103 104 104 106 107 108 108 109 110 112 112 113 114 115 116 117 117 118 119 120 121 123 123 125 125 126 127 128 129 130 131 132 133 133 135 136 137 138 138 139 140 141 142 143 144 145 146 147 149 150 150 151 152 153 153 155 156 157 158 159 160 161 162 163 163 165 166 167 168 169 170 171 172 173 173 174 175 176 177 178 179 180 181 181 182 183 184 185 186 187 187 188 189 190 191 192 193 193 194 195 197 197 198 199 199 200 201 202 203 204 204 205 206 206 207 208 209 210 211 212 213 214 214 215 216 217 218 219 220 220 221 222 223 224 225 226 226 227 228 229 230 231 232 233 234 235 236 238 157 222 255 255 255 255 255 255 255 255 255 255
255 255 255 255 255 255 255 255 255 221 103 245 249 199 179 128 173 148 162 250 191 121 253 244 158 136 72 34 41 42 43 44 45 45 47 48 49 50 51 52 53 54 55 56 57 58 59 60 61 62 63 64 64 65 66 67 68 69 70 71 72 73 74 75 75 76 77 78 79 80 81 82 82 83 84 85 86 87 87 88 89 90 91 92 93 94 94 95 96 98 98 99 100 101 102 102 104 104 105 106 107 108 109 110 111 112 113 114 115 116 117 118 119 120 121 121 122 124 125 126 126 128 128 129 130 131 132 133 134 134 135 136 138 138 139 140 141 142 143 144 145 146 147 148 149 150 151 151 153 153 154 155 157 158 159 160 160 161 163 163 164 165 167 167 168 169 170 171 172 173 174 175 176 176 177 178 179 180 181 182 182 183 184 185 186 187 188 189 189 190 191 192 193 194 195 196 197 198 199 199 200 201 201 202 203 204 205 206 206 207 208 209 210 211 212 213 213 214 215 216 217 218 219 220 220 221 222 223 225 225 226 226 227 229 230 230 231 232 233 234 235 236 236 238 155 222 255 255 255 255 255 255 255 255 255 255
255 255 255 255 255 255 255 255 255 220 106 246 250 251 255 172 140 172 146 255 173 144 254 253 248 247 128 35 42 43 44 45 46 46 48 48 49 51 52 52 54 55 55 57 58 58 59 60 61 62 63 64 65 66 66 68 68 69 70 71 72 73 74 75 76 76 77 78 79 81 81 82 83 84 85 85 86 87 88 89 89 90 91 92 93 94 95 96 97 98 99 99 100 101 102 103 104 104 106 107 108 109 109 110 111 112 113 114 115 116 117 118 119 120 121 122 123 124 125 126 126 128 128 129 131 131 132 133 134 135 136 137 138 139 140 141 141 143 144 144 146 146 147 148 150 151 151 152 153 154 155 156 157 158 159 160 161 162 163 164 165 166 168 168 169 170 171 172 173 174 175 176 177 177 179 179 180 181 182 182 184 184 185 187 187 188 189 190 190 192 192 194 195 195 196 197 198 199 199 200 201 202 202 203 204 205 206 206 207 208 209 210 211 212 212 214 214 215 216 216 217 218 219 220 221 222 222 224 225 225 226 227 227 228 229 230 231 233 233 234 235 236 237 239 158 222 255 255 255 255 255 255 255 255 255 255
255 255 255 255 255 255 255 255 225 163 82 189 241 181 181 131 176 208 128 175 126 184 255 255 255 255 133 35 42 43 45 45 46 47 48 49 50 51 52 53 55 55 56 57 58 59 60 61 61 62 63 65 66 67 67 69 69 70 70 71 73 74 75 76 76 78 78 79 79 81 82 82 84 85 85 86 87 88 89 90 90 91 92 93 94 95 96 97 98 99 99 100 101 102 103 104 105 105 107 108 108 110 110 111 112 114 114 115 115 116 118 119 120 121 122 123 124 125 125 127 127 128 129 130 131 132 133 134 135 136 137 138 139 140 141 141 142 143 144 145 146 147 148 149 150 151 152 154 154 155 156 157 158 159 160 161 161 163 164 165 166 167 168 169 170 171 172 173 174 175 176 177 178 178 179 180 181 182 183 183 184 185 186 187 188 189 190 191 191 192 193 194 195 195 197 198 198 199 200 201 202 202 203 204 205 206 206 207 208 209 209 210 211 212 213 214 215 215 216 217 218 219 219 220 221 222 223 224 225 226 227 227 228 229 230 230 231 232 233 234 235 236 237 239 157 222 255 255 255 255 255 255 255 255 255 255
255 255 255 255 255 255 255 254 226 197 186 199 244 183 172 184 252 255 214 182 195 255 255 254 253 253 130 36 43 44 45 46 47 48 49 50 51 52 53 54 55 56 57 58 59 60 61 62 62 63 64 65 66 67 68 69 69 70 71 72 73 74 75 76 77 78 79 79 80 81 82 83 84 85 86 87 87 88 89 90 91 92 92 93 94 95 96 97 98 99 100 101 102 103 103 104 105 106 107 108 109 110 111 112 113 113 114 116 116 117 119 120 121 121 122 124 124 125 126 127 128 129 130 131 132 133 133 134 135 136 137 138 139 140 141 142 142 144 145 145 147 148 148 149 151 152 153 153 154 156 156 157 158 160 160 161 162 163 164 165 166 167 169 169 170 171 172 173 174 175 176 177 178 179 179 180 181 182 183 184 185 186 187 188 188 189 190 191 192 193 194 195 195 196 198 198 199 200 201 202 202 203 204 205 205 206 207 208 209 209 210 211 212 213 214 214 215 216 217 218 219 220 220 221 222 223 224 224 226 226 227 228 229 230 230 231 232 233 234 235 236 236 237 239 157 222 255 255 255 255 255 255 255 255 255 255
255 255 255 255 255 255 255 255 255 255 255 255 255 255 254 255 255 255 255 254 255 255 255 255 255 255 131 36 44 45 46 47 48 49 50 51 52 53 54 55 56 57 58 59 60 61 61 62 63 64 65 66 67 68 69 70 70 71 72 73 74 75 76 77 78 79 79 80 81 82 83 84 84 85 86 87 88 89 90 90 91 92 93 94 95 96 97 98 99 100 101 102 102 103 104 105 106 107 108 109 110 111 112 112 113 114 116 117 117 118 119 120 121 122 123 124 125 126 127 128 129 130 131 132 133 134 134 135 136 137 138 139 140 141 141 142 143 144 145 146 147 148 149 150 152 152 153 154 155 156 157 158 159 160 161 162 163 164 165 166 167 168 169 170 171 172 173 174 175 176 177 178 179 180 180 181 182 183 184 185 186 186 188 189 189 190 191 192 192 193 195 196 196 197 198 199 200 200 201 202 203 204 204 205 206 207 208 209 209 210 211 212 213 214 214 215 216 217 217 218 219 220 221 222 223 223 224 225 226 227 228 228 229 230 231 232 233 234 234 235 236 237 238 239 156 222 255 255 255 255 255 255 255 255 255 255
255 255 255 255 255 255 255 255 255 255 255 255 255 255 255 255 255 255 255 255 255 255 255 255 255 255 131 37 44 46 47 48 49 50 51 52 53 54 55 56 57 57 58 59 60 61 62 63 64 65 66 67 68 69 69 70 71 72 72 73 74 75 76 77 78 79 80 80 81 83 83 84 85 86 87 88 89 89 90 91 92 93 94 95 96 97 98 99 99 100 101 102 103 104 105 106 107 108 108 109 110 111 112 113 114 115 116 117 118 119 120 121 122 123 124 125 126 127 128 129 129 130 131 132 133 134 135 136 137 138 139 140 140 141 142 143 144 145 146 147 148 149 150 151 152 153 154 155 156 157 158 159 160 161 162 163 164 164 165 166 167 169 170 171 171 172 173 174 176 177 177 178 179 180 181 182 183 184 184 185 186 187 188 189 190 191 192 193 193 194 195 196 197 197 199 199 200 201 202 202 203 204 205 206 206 207 208 209 210 210 211 212 213 214 215 215 216 217 218 219 220 221 221 222 223 224 225 226 227 227 228 229 230 230 231 232 233 234 235 236 236 237 238 239 156 222 255 255 255 255 255 255 255 255 255 255
255 255 255 255 255 255 255 255 255 255 255 255 255 255 255 255 255 255 255 255 255 255 255 255 255 255 132 38 45 46 47 48 49 50 51 52 53 54 55 56 57 58 59 60 61 62 63 64 64 65 66 67 68 69 70 71 72 72 73 74 75 76 77 78 79 80 81 81 82 83 84 85 86 87 88 88 89 90 91 92 93 94 94 96 96 97 98 99 100 101 102 103 104 105 105 106 107 108 109 110 111 112 113 114 115 115 117 118 119 120 121 122 123 124 125 126 126 127 128 129 130 131 132 133 134 135 136 137 137 138 139 140 141 142 143 144 145 146 147 148 149 150 150 152 153 154 155 155 156 158 159 160 160 161 163 163 164 165 166 167 168 169 171 171 172 173 174 175 176 177 178 179 180 181 182 182 183 184 185 186 187 188 189 190 191 191 192 193 194 195 196 197 198 199 199 200 201 202 203 203 204 205 206 206 207 208 209 210 210 211 212 213 214 215 215 216 217 218 218 219 220 221 222 223 224 224 225 226 227 228 229 229 230 231 232 233 234 235 236 236 237 238 239 240 156 222 255 255 255 255 255 255 255 255 255 255
255 255 255 255 255 255 255 255 255 255 255 255 255 255 255 255 255 255 255 255 255 255 255 255 255 255 131 37 45 47 48 49 50 51 52 53 54 55 56 57 58 59 60 61 62 62 63 64 65 66 67 68 69 70 71 71 72 73 74 75 76 77 78 78 79 80 81 82 82 84 85 85 86 87 88 89 90 91 92 92 93 94 95 96 97 98 99 100 101 102 103 104 104 105 106 107 108 109 110 111 112 113 114 114 115 116 118 118 119 120 121 122 123 124 125 126 127 128 129 130 131 132 133 134 135 135 136 137 138 139 140 141 142 143 143 144 145 146 147 148 149 150 151 152 153 154 155 156 157 158 159 160 161 162 163 164 165 166 167 168 169 170 171 172 173 174 175 176 177 178 179 180 181 181 182 183 184 185 186 187 187 188 189 190 191 192 193 194 194 195 196 197 198 198 200 201 201 202 203 204 204 205 206 207 208 209 209 210 211 212 212 213 214 215 216 217 217 218 219 220 221 222 223 223 224 225 226 227 228 228 229 230 231 232 232 233 234 235 236 237 237 238 239 240 156 222 255 255 255 255 255 255 255 255 255 255
255 255 255 255 255 255 255 255 255 255 255 255 255 255 255 255 255 255 255 255 255 255 255 255 255 255 132 38 46 47 48 49 50 52 53 53 54 56 56 58 58 59 60 61 62 63 64 65 66 67 68 69 70 71 71 72 73 74 74 75 76 77 78 79 80 81 82 83 83 85 85 86 87 88 89 90 91 92 92 93 94 95 96 97 98 99 100 101 101 103 103 104 105 106 107 108 109 110 111 112 112 113 114 115 116 117 118 119 120 121 122 123 124 125 126 127 128 129 130 131 132 133 133 134 135 136 137 138 139 140 141 142 143 143 144 145 146 147 148 149 150 151 152 153 154 155 156 157 158 159 160 161 162 163 164 165 165 167 167 168 169 171 172 173 174 174 175 176 178 179 179 180 181 182 183 184 185 186 186 187 188 189 190 191 192 193 193 194 195 196 197 198 198 199 201 202 202 203 204 204 205 206 207 208 208 209 210 211 211 212 213 214 215 216 216 217 218 219 219 220 222 222 223 224 225 225 226 227 228 229 230 230 231 232 233 234 235 235 236 237 238 239 239 241 157 222 255 255 255 255 255 255 255 255 255 255
255 255 255 255 255 255 255 255 255 255 255 255 255 255 255 255 255 255 255 255 255 255 255 255 255 255 132 39 47 48 49 50 51 52 53 54 55 56 57 58 59 60 61 62 63 64 64 65 66 67 68 69 70 71 72 73 73 74 75 76 77 78 79 80 81 82 83 83 84 85 86 87 88 89 90 91 91 92 93 94 95 96 97 98 98 99 100 101 102 103 104 105 106 107 108 109 109 110 111 112 113 114 115 116 117 118 119 120 121 122 123 124 125 126 127 128 128 129 130 131 132 133 134 135 136 137 138 139 139 140 141 142 143 144 145 146 147 148 149 150 151 152 153 154 155 156 157 158 158 160 161 162 162 164 165 165 166 167 168 169 170 171 173 173 174 175 176 177 178 179 180 181 182 183 183 184 185 186 187 188 189 190 191 192 192 193 194 195 196 197 197 199 199 200 201 202 203 204 204 205 206 207 207 208 209 210 211 211 212 213 214 214 215 216 217 218 218 219 220 221 222 223 224 224 225 226 227 228 229 229 230 231 232 233 233 234 235 236 237 238 238 239 240 241 156 222 255 255 255 255 255 255 255 255 255 255
255 255 255 255 255 255 255 255 255 255 255 255 255 255 255 255 255 255 255 255 255 255 255 255 255 255 132 40 48 49 50 51 52 53 54 55 56 57 58 59 60 61 62 63 64 65 65 66 67 68 69 70 71 72 73 74 74 75 76 77 78 79 80 81 82 83 84 84 85 86 87 88 89 90 91 91 92 93 94 95 96 97 97 99 99 100 101 102 103 104 105 106 107 108 108 109 110 111 112 113 114 115 116 117 118 119 120 121 122 123 124 125 126 127 127 129 129 130 131 132 133 134 135 136 137 138 139 139 140 141 142 143 144 145 146 146 148 149 149 150 152 153 153 154 156 157 158 159 159 160 161 163 163 164 165 166 167 168 169 170 171 172 173 174 175 176 177 178 179 180 181 182 183 183 184 185 186 187 188 189 189 190 191 192 193 194 195 196 196 197 198 199 200 200 202 203 203 204 205 206 206 207 208 209 210 210 211 212 213 213 214 215 216 217 218 218 219 220 221 221 223 223 224 225 226 226 227 228 229 230 231 231 232 233 234 235 236 236 237 238 239 239 240 242 157 222 255 255 255 255 255 255 255 255 255 255
255 255 255 255 255 255 255 255 255 255 255 255 255 255 255 255 255 255 255 255 255 255 255 255 255 255 132 40 48 49 50 51 53 54 55 56 57 58 59 60 61 62 62 64 64 65 66 67 68 69 70 71 72 73 74 74 75 76 77 78 79 80 81 82 83 84 84 85 86 87 88 89 89 90 91 92 93 94 95 96 96 97 98 99 100 101 102 103 104 105 106 107 107 108 109 110 111 112 113 114 115 116 117 118 119 120 121 122 122 123 124 125 126 127 128 129 130 131 132 133 134 135 136 137 137 138 139 140 141 142 143 144 145 146 146 147 148 149 150 151 152 153 154 155 156 157 158 159 160 161 162 163 164 165 166 167 168 169 170 171 171 173 174 175 176 176 177 178 180 181 181 182 183 184 185 186 187 188 188 189 190 191 192 193 194 195 195 196 197 198 199 200 200 201 202 203 204 205 206 206 207 208 209 209 210 211 212 213 213 214 215 215 216 217 218 219 220 220 221 222 223 224 225 225 226 227 228 229 230 231 231 232 233 234 234 235 236 237 238 238 239 240 240 242 157 222 255 255 255 255 255 255 255 255 255 255
255 255 255 255 255 255 255 255 255 255 255 255 255 255 255 255 255 255 255 255 255 255 255 255 255 255 132 41 49 50 51 52 53 54 55 56 57 58 59 60 61 62 63 64 65 66 67 68 68 69 70 71 72 73 74 75 76 77 77 78 79 80 81 82 83 84 85 86 87 88 89 89 90 91 92 93 94 95 95 96 97 98 99 100 101 102 103 104 104 106 106 107 108 109 110 111 112 113 114 115 115 116 117 118 119 121 122 122 123 124 125 126 127 128 129 130 131 132 133 134 134 136 136 137 138 139 140 141 142 143 144 145 145 146 147 148 149 150 151 152 153 154 155 156 157 158 159 160 161 162 163 164 165 166 167 168 168 169 170 171 172 173 175 176 176 177 178 179 180 182 182 183 184 185 186 186 187 188 189 190 191 192 193 194 194 195 196 197 198 199 200 200 201 202 203 204 205 205 206 207 208 208 209 210 211 212 212 213 214 215 215 216 217 218 219 220 220 221 222 223 224 225 225 226 227 228 228 229 230 231 232 232 233 234 235 236 237 237 238 239 240 240 241 242 157 222 255 255 255 255 255 255 255 255 255 255
255 255 255 255 255 255 255 255 255 255 255 255 255 255 255 255 255 255 255 255 255 255 255 255 255 255 132 41 50 51 52 53 54 55 56 57 58 59 60 61 62 63 64 65 66 67 67 68 69 70 71 72 73 74 75 76 77 77 78 79 80 81 82 83 84 85 86 86 87 88 89 90 91 92 93 94 94 95 96 97 98 99 100 101 102 103 103 104 105 106 107 108 109 110 111 112 113 114 114 115 116 117 118 119 120 121 122 123 124 125 126 127 128 129 130 131 131 132 133 134 135 136 137 138 139 140 141 142 142 143 144 145 146 147 148 149 150 151 152 153 154 155 155 157 158 159 160 161 161 163 163 164 165 166 167 168 169 170 171 172 173 174 175 176 177 178 179 180 181 182 183 184 185 185 186 187 188 189 190 191 191 192 193 194 195 196 197 198 198 199 200 201 202 202 204 205 205 206 207 208 208 209 210 211 211 212 213 214 214 215 216 217 218 219 219 220 221 222 222 223 224 225 226 226 227 228 229 230 231 232 232 233 234 235 235 236 237 238 239 240 240 241 242 243 157 222 255 255 255 255 255 255 255 255 255 255
255 255 255 255 255 255 255 255 255 255 255 255 255 255 255 255 255 255 255 255 255 255 255 255 255 255 132 42 51 52 53 54 55 56 57 58 59 60 61 62 63 64 65 66 67 68 68 69 70 71 72 73 74 75 76 77 77 78 79 80 81 82 83 84 85 86 87 87 88 89 90 91 92 93 94 95 95 96 97 98 99 100 101 102 102 103 104 105 106 107 108 109 110 111 112 113 113 114 115 116 117 118 119 120 121 122 123 124 125 126 127 128 129 130 131 132 132 133 134 135 136 137 138 139 140 141 142 142 143 144 145 146 147 148 149 149 151 152 152 153 154 155 156 157 159 160 161 162 162 163 164 165 166 167 168 169 170 171 172 173 174 175 176 177 178 179 180 180 182 183 184 184 185 186 187 188 189 190 190 191 192 193 194 195 196 197 197 199 199 200 201 202 202 203 204 205 206 207 207 208 209 210 210 211 212 213 214 214 215 216 217 217 218 219 220 221 221 222 223 224 225 226 226 227 228 229 229 230 232 232 233 233 234 235 236 237 237 238 239 240 241 241 242 243 157 222 255 255 255 255 255 255 255 255 255 255
255 255 255 255 255 255 255 255 255 255 255 255 255 255 255 255 255 255 255 255 255 255 255 255 255 255 132 43 52 53 54 55 56 57 58 59 60 61 62 63 64 65 66 67 68 69 70 71 71 72 73 74 76 77 77 78 79 80 80 81 83 84 84 86 87 87 88 89 90 91 92 93 93 94 95 96 97 98 99 100 100 101 102 103 104 105 106 107 108 109 110 111 112 113 113 114 115 116 117 118 119 120 121 122 123 124 125 126 127 128 129 130 131 132 132 134 134 135 136 137 138 139 140 141 142 143 143 144 145 146 147 148 149 150 150 151 152 153 154 155 156 157 158 159 160 161 162 164 164 165 166 167 168 169 170 171 172 173 174 174 175 177 178 179 179 180 181 182 184 185 185 186 187 188 189 189 190 191 192 193 194 195 196 197 197 198 199 200 201 202 203 203 204 205 206 207 208 208 209 210 210 211 212 213 214 214 215 216 217 217 218 219 220 221 221 222 223 223 224 225 226 227 228 228 229 230 231 232 232 233 234 235 235 236 237 238 238 240 240 241 242 242 243 244 157 222 255 255 255 255 255 255 255 255 255 255
255 255 255 255 255 255 255 255 255 255 255 255 255 255 255 255 255 255 255 255 255 255 255 255 255 255 131 44 53 54 55 56 57 58 59 60 61 62 63 64 65 66 67 68 69 70 71 72 73 73 75 75 77 78 78 79 80 81 81 83 84 85 86 87 87 88 89 90 91 92 93 94 94 95 96 97 98 99 100 101 102 102 103 104 105 106 107 108 109 110 111 112 113 114 115 115 116 117 118 119 120 121 122 123 124 125 126 127 128 128 130 131 132 133 133 135 135 136 137 138 139 140 141 142 143 144 144 145 146 147 148 149 150 151 151 152 153 154 155 156 157 158 159 160 161 162 163 165 165 166 167 168 169 170 171 172 173 174 175 176 176 178 179 180 180 181 182 183 185 186 186 187 188 189 190 190 191 192 193 194 195 196 197 198 198 199 200 201 202 202 203 204 205 206 207 208 208 209 210 211 211 212 213 214 214 215 216 217 217 218 219 220 221 222 222 223 224 224 225 226 227 228 228 229 230 231 231 232 233 234 235 235 236 237 237 238 239 240 241 241 242 243 243 245 157 222 255 255 255 255 255 255 255 255 255 255
255 255 255 255 255 255 255 255 255 255 255 255 255 255 255 255 255 255 255 255 255 255 255 255 255 255 132 44 53 54 55 56 57 59 60 61 62 63 64 65 66 67 68 69 70 71 71 72 73 74 75 76 77 78 79 80 81 81 82 83 84 85 86 87 88 89 90 91 91 93 94 94 95 96 97 98 99 100 100 101 102 103 104 105 106 107 108 109 110 111 111 112 113 114 115 116 117 118 119 120 121 122 122 124 125 126 127 127 128 129 130 131 132 133 134 135 136 137 138 139 139 141 141 142 143 144 145 146 147 147 148 149 150 151 152 153 154 155 156 157 158 159 160 161 162 163 164 165 166 166 167 169 170 170 171 172 173 174 175 176 177 178 179 180 181 182 183 184 185 186 187 188 188 189 190 191 192 193 194 194 195 196 197 198 199 200 201 202 202 203 204 205 205 206 207 208 209 210 210 211 212 212 213 214 215 216 216 217 218 219 219 220 221 222 222 223 224 225 225 226 227 228 229 229 230 231 232 233 234 234 235 236 236 237 238 239 239 240 241 242 242 243 244 245 157 222 255 255 255 255 255 255 255 255 255 255
255 255 255 255 255 255 255 255 255 255 255 255 255 255 255 255 255 255 255 255 255 255 255 255 255 255 132 45 54 55 56 57 58 59 60 61 62 64 64 66 67 67 68 70 70 71 72 73 74 75 76 77 78 79 80 81 81 82 83 84 85 86 87 88 89 90 91 91 92 93 94 95 96 97 98 99 99 100 101 102 103 104 105 106 107 108 109 110 110 111 112 113 114 115 116 117 118 119 119 120 121 122 123 124 125 126 127 128 129 130 131 132 133 134 135 136 136 137 138 139 140 141 142 143 144 145 146 147 147 148 149 150 151 152 153 153 154 155 156 157 158 159 160 161 163 163 164 166 166 167 168 169 170 171 172 173 174 175 176 177 177 179 180 181 181 182 183 184 186 187 187 188 189 190 191 191 192 193 194 195 196 197 198 199 199 200 201 202 202 203 204 205 206 206 208 209 209 210 211 211 212 213 214 215 215 216 217 218 218 219 220 220 221 222 223 224 224 225 226 227 228 229 229 230 231 231 232 233 234 234 235 236 237 238 238 239 240 240 241 242 243 243 244 245 158 222 255 255 255 255 255 255 255 255 255 255
255 255 255 255 255 255 255 255 255 255 255 255 255 255 255 255 255 255 255 254 255 255 255 255 255 255 132 46 55 56 57 58 59 60 61 62 63 64 65 66 67 68 69 70 71 72 73 74 75 76 77 78 79 80 80 81 82 83 84 85 86 87 88 89 89 90 91 92 93 94 95 96 97 97 99 99 100 101 102 103 104 105 105 106 107 108 109 110 111 112 113 114 115 116 117 117 118 119 120 121 122 123 124 125 126 127 128 129 130 131 132 133 133 134 135 136 137 138 139 140 141 142 143 144 145 145 146 147 148 149 150 151 152 153 153 154 155 156 157 158 159 160 161 162 163 164 165 166 167 168 169 170 171 172 173 173 174 175 176 177 178 179 181 181 182 183 184 185 186 187 188 189 190 190 191 192 193 194 195 196 196 197 198 199 200 201 202 202 203 204 205 206 206 207 208 209 210 211 211 212 213 214 214 215 216 217 217 218 219 220 220 221 222 223 224 224 225 226 226 227 228 229 230 230 231 232 233 233 234 235 236 236 237 238 239 239 240 241 242 242 243 244 244 246 158 222 255 255 255 255 255 255 255 255 255 255
255 255 255 255 255 255 255 255 255 255 255 255 255 255 255 255 255 255 255 255 255 255 255 255 255 255 132 46 55 57 58 59 60 61 62 63 64 65 66 67 68 69 70 71 72 73 74 75 75 76 77 78 79 81 81 82 83 84 84 85 87 87 88 89 90 91 92 93 94 95 96 97 97 98 99 100 101 102 103 104 104 105 106 107 108 109 110 111 112 113 114 115 116 117 117 118 119 120 121 122 123 124 125 126 127 128 129 130 131 131 132 133 134 135 136 137 138 139 140 141 142 143 143 144 145 146 147 148 149 150 151 152 152 153 154 155 156 157 158 159 160 161 162 163 164 165 166 167 168 168 169 171 171 172 174 174 175 176 177 178 179 180 181 182 183 184 185 186 187 188 189 190 190 191 192 193 194 195 195 196 197 198 199 200 201 202 202 203 204 204 206 206 207 208 209 210 210 211 212 213 213 214 215 216 216 217 218 219 219 220 221 222 223 223 224 225 225 226 227 228 229 230 230 231 232 232 233 234 235 235 236 237 238 238 239 240 241 242 242 243 243 244 245 246 158 222 255 255 255 255 255 255 255 255 255 255
255 255 255 255 255 255 255 255 255 255 255 255 255 255 255 255 255 255 255 255 255 255 255 255 255 255 133 47 56 57 59 60 61 62 63 64 65 66 67 68 69 70 71 72 73 74 74 75 76 77 78 79 80 81 82 83 84 84 85 86 87 88 89 90 91 92 93 93 94 96 97 97 98 99 100 101 102 103 103 104 105 106 107 108 109 110 111 112 113 114 115 116 116 117 118 119 120 121 122 123 124 125 125 126 127 128 129 130 131 132 133 134 135 136 137 138 139 140 141 142 142 143 144 145 146 147 148 149 149 150 151 152 153 154 155 156 157 158 158 159 161 162 162 163 165 165 166 167 168 169 170 171 172 173 174 175 176 177 178 179 179 181 182 183 183 184 185 186 188 189 189 190 191 192 193 193 194 195 196 197 198 198 199 200 201 202 203 204 204 205 206 207 208 209 209 210 211 212 212 213 214 215 215 216 217 218 218 219 220 221 221 222 223 224 225 225 226 227 227 228 229 230 231 231 232 233 233 234 235 236 237 237 238 239 240 240 241 242 243 243 244 245 245 246 158 222 255 255 255 255 255 255 255 255 255 255
255 255 255 255 255 255 255 255 255 255 255 255 255 255 255 255 255 255 255 255 255 255 255 255 255 255 133 48 57 58 59 60 61 62 63 64 65 67 67 69 69 70 71 73 73 74 75 76 77 78 79 80 81 82 83 84 84 85 86 87 88 89 90 91 92 93 94 94 95 96 97 98 99 100 101 102 103 104 104 105 106 107 108 109 110 111 112 113 113 115 115 116 117 118 119 120 121 122 123 124 124 125 126 127 128 129 130 131 132 133 134 135 136 137 138 139 139 140 141 142 143 144 145 146 147 148 149 149 150 151 152 153 154 155 155 156 157 158 159 160 161 162 163 164 165 166 167 168 169 170 171 172 173 174 175 176 176 177 178 179 180 181 183 184 184 185 186 187 188 189 190 191 192 192 193 194 195 196 197 198 198 199 200 201 202 203 203 204 205 206 207 207 208 209 210 211 212 212 213 214 214 215 216 217 218 218 219 220 220 221 222 223 224 225 225 226 227 227 228 229 230 231 231 232 233 233 234 235 236 236 237 238 239 239 240 241 241 242 243 244 244 245 246 247 158 222 255 255 255 255 255 255 255 255 255 255
255 255 255 255 255 255 255 255 255 255 255 255 255 255 255 255 255 255 255 255 255 255 255 255 255 255 133 48 57 59 60 61 62 63 64 65 66 67 68 69 70 71 72 73 74 75 76 77 77 78 79 80 82 83 83 84 85 86 86 88 89 90 91 92 92 94 95 95 96 97 98 99 100 100 102 102 103 104 105 106 107 108 108 110 110 111 112 113 114 115 116 117 118 119 120 120 121 122 123 124 125 126 127 128 129 130 131 132 132 133 134 136 136 138 138 139 140 141 142 143 144 145 146 147 147 148 149 150 151 152 153 154 155 155 156 157 158 159 160 161 162 163 164 165 166 167 168 169 170 170 171 173 174 175 175 176 177 178 179 180 181 182 183 184 185 186 187 188 189 190 191 191 192 193 194 195 195 197 197 198 199 200 201 202 202 203 204 205 206 206 207 208 209 210 211 212 212 213 214 214 215 216 217 217 218 219 220 220 221 222 223 223 224 225 226 226 227 228 228 229 230 231 232 232 233 234 235 235 236 237 238 238 239 240 241 242 242 243 244 244 245 245 246 247 159 222 255 255 255 255 255 255 255 255 255 255
255 255 255 255 255 255 255 255 255 255 255 255 255 255 255 255 255 255 255 254 255 255 255 255 255 255 133 49 58 60 61 62 63 64 65 66 67 68 69 70 71 72 73 74 75 76 77 78 78 79 80 81 83 84 84 85 86 87 87 89 90 91 92 93 93 94 95 96 97 98 99 100 100 101 102 103 104 105 106 107 108 109 109 110 111 112 113 114 115 116 117 118 119 120 120 121 122 123 124 125 126 127 128 129 130 131 132 133 133 134 135 136 137 138 139 140 141 142 143 144 145 146 146 147 148 149 150 151 152 153 154 155 155 156 157 158 159 160 161 162 163 164 164 166 167 168 169 170 170 171 172 173 174 175 176 177 178 179 180 181 182 183 184 185 186 186 187 188 190 191 191 192 193 194 195 195 196 197 198 199 199 200 201 202 203 204 205 205 206 207 208 209 209 210 211 212 213 214 214 215 216 216 217 218 219 220 220 221 222 222 223 224 225 226 226 227 228 228 229 230 231 232 232 233 234 234 235 236 237 238 238 239 239 240 241 242 242 243 244 245 245 246 247 247 159 222 255 255 255 255 255 255 255 255 255 255
255 255 255 255 255 255 255 255 255 255 255 255 255 255 255 255 255 255 255 255 255 255 255 255 255 255 133 50 59 60 61 63 64 65 66 67 68 69 70 71 72 73 74 75 76 77 77 78 79 80 81 82 83 84 85 86 87 88 88 89 90 91 92 93 94 95 96 97 98 99 100 100 101 102 103 104 105 106 107 108 108 109 110 111 112 113 114 115 116 117 118 119 120 121 121 122 123 124 125 126 127 128 129 130 130 131 133 133 134 135 136 137 138 139 140 141 142 143 144 145 145 147 147 148 149 150 151 152 152 153 154 155 156 157 158 159 160 161 161 162 164 165 165 166 168 168 169 170 171 172 173 174 175 176 177 178 179 180 181 181 182 183 185 186 186 187 188 189 190 191 192 193 194 194 195 196 197 198 199 200 200 201 202 203 204 205 205 206 207 208 209 209 210 211 212 213 213 214 215 216 216 217 218 219 219 220 221 222 222 223 224 224 225 226 227 228 228 229 229 230 231 232 233 233 234 235 235 236 237 238 238 239 240 241 241 242 243 244 244 245 246 246 247 248 159 222 255 255 255 255 255 255 255 255 255 255
255 255 255 255 255 255 255 255 255 255 255 255 255 255 255 255 255 255 255 255 255 255 255 255 255 255 133 50 60 61 62 63 64 65 66 67 68 70 71 72 73 74 75 76 77 78 78 79 80 81 82 83 84 85 86 87 88 88 89 90 91 92 93 94 95 96 97 98 98 99 100 101 102 103 104 105 106 107 107 108 109 110 111 112 113 114 115 116 117 118 119 119 120 121 122 123 124 125 126 127 128 128 129 130 131 132 133 134 135 136 137 138 139 140 141 142 142 143 144 145 146 147 148 149 150 151 151 152 153 154 155 156 157 158 158 159 160 161 162 163 164 165 166 167 168 169 170 171 172 173 174 175 176 177 177 178 179 180 181 182 183 184 185 186 187 188 189 190 191 192 193 193 194 195 196 197 197 199 199 200 201 202 203 204 204 205 206 207 208 208 209 210 210 211 213 214 214 215 215 216 217 218 218 219 220 221 221 222 223 224 224 225 226 227 227 228 229 229 230 231 232 233 233 234 235 235 236 237 238 238 239 240 240 241 242 243 243 244 245 245 246 247 247 248 159 222 255 255 255 255 255 255 255 255 255 255
255 255 255 255 255 255 255 255 255 255 255 255 255 255 255 255 255 254 255 254 255 255 255 255 255 255 133 51 61 62 63 64 65 66 67 68 69 70 71 72 73 74 75 76 77 78 79 80 81 82 83 84 85 86 87 87 88 89 90 91 92 93 94 95 96 97 98 98 99 100 101 102 103 104 105 106 106 107 108 109 110 111 112 113 114 115 116 117 117 118 119 120 121 122 123 124 125 126 126 127 128 129 130 131 132 133 134 135 136 137 138 139 140 141 141 143 143 144 145 146 147 148 149 150 150 151 152 153 154 155 156 157 158 158 159 160 161 162 163 164 165 166 167 168 169 170 171 172 172 173 174 176 177 177 178 179 180 181 182 183 184 185 186 187 188 188 189 190 192 193 193 194 195 196 196 197 198 199 200 201 201 202 203 204 205 206 207 207 208 209 210 211 211 212 213 214 215 215 216 217 217 218 219 220 220 221 222 223 223 224 225 225 226 227 228 229 229 230 230 231 232 233 234 234 235 236 236 237 238 239 239 240 241 242 243 243 244 244 245 246 246 247 248 248 159 222 255 255 255 255 255 255 255 255 255 255
255 255 255 255 255 255 255 255 255 255 255 255 255 255 255 255 255 254 255 254 255 255 255 255 255 255 133 52 62 63 64 65 66 67 68 69 70 71 72 73 74 75 76 77 78 79 80 81 82 83 84 85 86 87 88 88 89 90 91 92 93 94 95 96 96 98 99 99 100 101 102 103 104 105 106 107 107 108 109 110 111 112 113 114 115 116 116 118 118 119 120 121 122 123 124 125 126 127 127 128 129 130 131 132 133 134 135 136 137 137 139 140 141 141 142 143 144 145 146 147 148 149 149 150 151 152 153 154 155 156 157 158 158 159 160 161 162 163 164 165 166 167 167 169 170 170 172 173 173 174 175 176 177 178 179 180 181 182 183 184 184 186 187 188 188 189 190 191 192 193 194 195 196 196 197 198 199 200 201 201 202 203 204 205 206 207 207 208 209 209 210 211 212 212 214 215 215 216 217 217 218 219 220 220 221 222 223 223 224 225 225 226 227 228 228 229 230 230 231 232 233 234 234 235 236 236 237 238 239 239 240 241 241 242 242 244 244 245 246 246 247 247 248 249 159 222 255 255 255 255 255 255 255 255 255 255
255 255 255 255 255 255 255 255 255 255 255 255 255 255 255 255 255 254 255 254 255 255 255 255 255 255 134 52 62 63 65 66 67 68 69 70 71 72 73 74 75 76 77 78 79 80 81 82 82 83 84 85 86 87 88 89 90 91 91 92 94 94 95 96 97 98 99 100 101 102 103 104 104 105 106 107 108 109 110 111 111 112 113 114 115 116 117 118 119 120 121 122 123 124 124 125 126 127 128 129 130 131 132 133 134 135 136 137 137 138 139 140 141 142 143 144 145 146 147 148 148 149 150 151 152 153 154 154 155 156 157 158 159 160 160 161 162 163 164 165 166 167 168 169 170 171 172 173 174 175 176 177 178 179 180 180 181 182 183 184 185 186 187 188 189 190 191 191 193 194 194 195 196 197 198 198 199 200 201 202 203 203 204 205 206 207 208 208 209 210 211 212 212 213 214 215 216 216 217 218 218 219 220 221 221 222 223 224 224 225 226 226 227 228 229 229 230 231 231 232 233 234 234 235 236 237 237 238 239 240 240 241 242 242 243 244 244 245 246 247 247 248 248 249 160 222 255 255 255 255 255 255 255 255 255 255
255 255 255 255 255 255 255 255 255 255 255 255 255 255 255 255 255 254 255 254 255 255 255 255 255 255 134 53 63 64 65 66 68 69 70 71 72 73 74 75 76 77 78 79 80 81 81 82 83 84 85 86 87 88 89 90 91 92 92 93 94 95 96 97 98 99 100 101 102 103 104 105 105 106 107 108 109 110 111 112 112 113 114 115 116 117 118 119 120 121 122 123 124 124 125 126 127 128 129 130 131 132 133 134 134 136 137 137 138 139 140 141 142 143 144 145 146 146 148 148 149 150 151 152 153 154 154 155 156 157 158 159 160 161 161 162 163 164 165 166 167 168 169 170 171 172 173 174 175 175 176 178 179 179 180 181 182 183 184 185 186 187 188 189 190 190 191 192 194 195 195 196 197 198 198 199 200 201 202 203 203 204 205 206 207 208 208 210 210 211 212 212 213 214 215 216 216 217 218 218 219 220 221 221 222 223 223 224 225 226 226 227 228 229 229 230 231 231 232 233 234 235 235 236 236 237 238 239 240 240 241 241 242 243 244 244 245 246 246 247 247 248 249 249 160 222 255 255 255 255 255 255 255 255 255 255
255 255 255 255 255 255 255 255 255 255 255 255 255 255 255 255 255 254 255 254 255 255 255 255 255 255 133 54 64 65 66 67 68 69 70 71 72 74 74 76 76 77 78 80 80 81 82 83 84 85 86 87 88 89 90 91 92 92 93 94 95 96 97 98 99 100 101 102 102 103 105 105 106 107 108 109 110 111 111 112 113 114 115 116 117 118 119 120 121 122 123 124 124 125 126 127 128 129 130 131 132 132 133 134 135 136 137 138 139 140 141 142 143 144 144 146 146 147 148 149 150 151 152 153 154 155 155 156 157 158 159 160 161 161 162 163 164 165 166 167 168 169 170 171 172 173 174 175 175 176 177 178 179 180 181 182 183 184 185 186 186 187 189 190 190 191 192 193 194 195 196 197 197 198 199 200 201 202 202 203 204 205 206 207 207 208 209 210 211 211 212 213 213 214 215 216 217 218 218 219 220 220 221 222 223 223 224 225 225 226 227 228 228 229 230 231 231 232 232 233 234 235 236 236 237 238 238 239 240 240 241 242 242 243 244 244 245 246 247 247 248 248 249 250 160 222 255 255 255 255 255 255 255 255 255 255
255 255 255 255 255 255 255 255 255 255 255 255 255 255 255 255 255 254 255 255 255 255 255 255 255 255 134 54 65 66 67 68 69 70 71 72 73 74 75 76 77 78 79 80 81 82 83 84 85 86 87 88 89 90 91 92 92 93 94 95 96 97 98 99 100 101 102 102 103 104 105 106 107 108 109 110 111 112 112 113 114 115 116 117 118 119 120 121 122 123 123 124 125 126 127 128 129 130 131 132 132 133 134 135 136 137 138 139 140 141 142 143 144 145 145 146 147 148 149 150 151 152 152 153 154 155 156 157 158 159 159 160 161 162 163 164 165 166 166 167 169 170 170 171 173 173 174 175 176 177 178 179 180 181 182 183 183 184 185 186 187 188 189 190 191 192 193 194 195 196 197 197 198 199 200 200 201 202 203 204 205 205 206 207 208 209 210 210 211 212 213 214 214 215 216 217 217 218 219 220 220 221 222 223 223 224 225 225 226 227 227 228 229 230 230 231 232 232 233 234 235 235 236 237 237 238 239 239 240 241 242 242 243 244 244 245 246 246 247 248 248 249 249 250 160 222 255 255 255 255 255 255 255 255 255 255
255 255 255 255 255 255 255 255 255 255 255 255 255 255 255 255 255 254 255 255 255 255 255 255 255 255 134 55 65 66 68 69 70 71 72 73 74 75 76 77 78 79 80 81 82 83 84 85 86 86 88 88 90 91 91 92 93 94 95 96 97 98 99 100 101 101 102 103 104 105 106 107 108 109 110 111 111 112 113 114 115 116 117 118 119 120 120 122 122 123 124 125 126 127 128 129 130 131 131 132 133 134 135 136 137 138 139 140 141 142 142 143 144 145 146 147 148 149 150 151 152 153 153 154 155 156 157 158 158 159 160 161 162 163 164 164 165 166 167 168 169 170 171 172 173 174 175 176 177 178 178 180 181 182 183 183 184 185 186 187 188 189 190 191 192 192 193 194 196 197 197 198 199 200 200 201 202 203 204 205 205 206 207 208 209 210 210 211 212 213 213 214 215 216 217 218 218 219 220 220 221 222 222 223 224 225 225 226 227 227 228 229 229 230 231 232 232 233 233 234 235 236 236 237 238 238 239 240 241 242 242 243 243 244 244 245 246 247 247 248 248 249 250 250 160 222 255 255 255 255 255 255 255 255 255 255
255 255 255 255 255 255 255 255 227 188 185 229 253 234 194 186 252 255 222 189 198 255 255 254 253 253 133 56 66 67 68 69 70 71 72 74 74 76 77 78 79 80 81 82 83 84 85 86 86 87 88 90 90 91 92 93 94 95 96 97 98 99 100 101 101 102 103 104 105 106 107 108 109 110 111 112 112 113 114 115 116 117 118 119 119 120 121 122 123 124 125 126 127 128 129 129 130 131 132 133 134 135 136 137 138 139 140 141 141 143 143 144 145 146 147 148 149 150 151 152 152 153 154 155 156 157 158 158 159 160 161 162 163 164 164 165 166 167 168 169 170 171 172 173 174 175 176 177 177 178 179 180 181 182 183 184 185 186 187 188 189 190 191 192 192 193 194 195 196 197 198 199 199 200 201 202 203 203 204 205 206 207 207 208 209 210 211 212 212 213 214 215 215 216 217 218 219 219 220 221 221 222 223 224 224 225 226 226 227 228 228 229 230 231 231 232 233 233 234 235 236 236 237 237 238 239 240 240 241 242 242 243 243 244 245 246 246 247 248 248 249 249 250 251 160 222 255 255 255 255 255 255 255 255 255 255
255 255 255 255 255 255 255 255 205 165 171 113 229 140 156 135 179 223 120 168 130 188 255 255 255 255 135 57 67 69 70 71 72 73 74 75 76 77 78 79 80 81 82 83 84 85 86 86 87 88 89 90 91 93 93 94 94 95 96 97 98 99 100 101 102 103 104 105 105 107 108 108 109 111 111 112 113 114 115 116 117 118 119 119 120 121 122 123 124 125 126 127 128 128 129 130 131 132 133 134 134 136 136 138 138 140 141 141 142 143 144 145 146 147 148 149 149 150 152 152 153 154 155 156 156 157 158 159 160 161 162 163 164 164 165 166 167 168 169 170 171 172 172 173 175 176 176 178 178 179 180 181 182 183 184 185 186 186 187 188 189 190 192 192 193 194 194 195 197 198 199 200 200 201 202 203 203 204 205 206 207 208 209 210 210 211 212 213 214 214 215 216 216 217 218 219 219 220 221 221 222 223 223 224 225 226 226 228 228 229 229 230 231 231 232 233 234 234 235 235 236 237 237 238 239 240 240 241 242 243 243 244 244 245 245 246 246 247 247 248 249 249 250 250 159 222 255 255 255 255 255 255 255 255 255 255
255 255 255 255 255 255 255 255 244 255 234 106 209 101 232 208 115 189 125 253 195 124 251 253 220 209 112 59 68 70 71 72 73 74 75 76 77 78 79 81 81 82 83 84 85 86 86 87 88 89 90 91 92 94 94 95 95 96 97 98 99 100 101 102 103 104 105 105 106 108 108 109 110 111 112 113 114 115 115 116 117 118 119 120 121 122 123 124 125 126 127 128 129 129 130 131 132 133 134 135 135 136 137 138 139 140 141 142 143 144 145 146 147 148 149 150 150 151 152 153 154 155 156 157 157 158 159 160 161 162 162 163 164 165 166 166 168 168 169 170 171 172 173 174 175 176 177 178 178 180 181 182 183 184 185 185 186 187 188 189 190 191 192 193 193 194 195 196 197 198 199 200 201 202 202 203 204 205 206 206 207 208 209 210 211 211 212 213 214 215 216 216 217 218 219 220 220 221 221 222 223 223 224 224 225 226 227 228 229 229 229 230 231 231 233 233 234 234 235 236 237 238 238 239 239 240 240 241 243 243 243 244 244 245 245 246 247 248 248 248 249 249 250 250 159 223 255 255 255 255 255 255 255 255 255 255
255 255 255 255 255 255 255 255 255 247 156 164 208 101 252 213 106 172 137 255 212 108 249 248 178 156 86 59 68 69 70 71 73 74 75 76 77 78 79 81 81 82 83 84 85 86 87 88 89 90 91 92 93 94 95 95 96 97 98 99 100 101 102 103 104 105 106 106 108 109 110 110 111 112 113 114 115 116 117 118 118 119 120 121 122 123 124 125 126 127 128 129 130 131 131 132 133 134 135 136 137 138 139 140 140 142 143 144 144 146 146 147 148 149 150 151 151 152 153 154 155 156 157 157 158 160 160 161 162 163 163 164 165 166 167 167 169 170 170 171 172 173 174 175 176 177 178 179 179 180 181 182 183 185 186 186 187 188 189 190 190 191 193 194 195 195 196 197 198 199 200 201 201 202 203 204 204 206 206 207 208 208 210 211 211 212 212 213 214 215 216 216 217 218 219 220 220 221 222 222 223 224 224 225 226 227 228 228 229 229 230 231 231 232 233 234 234 235 235 236 237 238 239 239 239 240 241 242 243 243 244 245 245 246 246 247 248 249 249 249 250 251 252 252 159 223 255 255 255 255 255 255 255 255 255 255
255 255 255 255 255 255 255 255 233 167 151 247 228 104 235 198 113 194 121 255 186 135 252 255 252 250 134 60 70 70 72 73 74 75 76 77 78 79 80 81 82 83 84 85 86 87 87 88 89 90 91 92 93 94 96 96 97 98 99 100 101 102 103 104 105 106 107 107 108 110 111 111 112 113 114 115 116 117 117 118 119 120 121 122 123 124 125 126 127 128 129 129 131 132 133 133 134 135 136 137 137 138 139 140 141 142 143 144 145 146 147 148 149 150 151 152 152 153 154 155 156 157 158 158 159 160 161 162 162 164 164 165 166 167 168 168 170 170 171 172 173 174 175 176 177 178 179 180 180 181 182 183 185 186 187 187 188 189 190 190 191 193 194 194 195 196 197 198 199 200 201 202 202 203 204 205 205 207 207 208 209 209 210 212 212 213 213 214 215 215 216 218 218 219 220 221 221 222 222 223 224 224 225 226 226 227 228 228 229 230 230 231 232 232 233 234 235 235 236 236 238 238 239 239 240 240 241 242 243 243 244 245 245 246 246 247 248 249 249 250 250 251 251 252 162 223 255 255 255 255 255 255 255 255 255 255
255 255 255 255 255 255 255 254 175 77 151 170 236 144 149 126 180 231 116 168 128 193 255 255 255 255 134 60 71 72 73 74 75 76 78 79 79 80 82 83 84 85 86 87 88 89 90 90 91 92 93 94 95 96 97 98 99 99 100 101 103 104 105 105 107 107 108 109 110 111 112 112 114 115 116 117 118 118 119 120 121 122 123 124 124 125 126 128 128 130 130 131 132 133 134 134 135 136 137 139 139 140 141 142 143 144 145 146 147 148 148 150 150 151 152 153 154 155 156 156 158 158 159 160 161 162 162 163 164 165 166 167 168 168 169 170 171 171 173 173 174 176 176 177 178 179 180 181 181 182 184 185 186 187 188 188 189 190 191 192 193 194 195 195 196 197 198 199 200 201 202 203 204 204 204 206 206 207 208 209 210 211 212 213 213 214 215 216 216 217 218 218 219 220 221 222 222 223 223 224 225 226 226 227 227 228 229 230 231 232 232 233 233 234 235 235 236 236 237 238 239 240 240 240 241 242 243 243 244 244 245 246 247 247 247 248 248 249 249 250 251 250 251 251 158 222 255 255 255 255 255 255 255 255 255 255
254 254 254 254 254 254 254 254 222 189 194 199 249 237 206 197 252 255 226 197 206 255 255 254 253 253 134 61 72 73 74 75 76 77 78 80 81 82 83 84 85 86 87 88 89 90 91 92 93 94 95 96 97 98 98 100 100 101 102 103 104 105 106 107 108 108 109 111 112 113 113 115 115 116 117 118 119 120 121 122 122 123 124 125 126 127 128 129 130 131 131 133 133 134 135 136 137 138 139 140 140 141 142 143 144 145 146 147 148 149 150 151 152 152 153 154 155 156 157 158 158 159 160 161 162 163 163 164 165 166 167 168 169 169 170 171 172 173 174 175 176 177 177 178 180 180 181 182 183 184 185 186 187 188 189 190 191 191 192 193 194 195 196 197 197 198 199 200 201 202 203 204 205 205 206 207 208 209 209 210 211 212 213 214 214 215 216 217 217 218 219 220 220 222 222 223 223 224 225 225 226 227 227 228 228 229 230 231 231 232 233 233 234 235 236 236 237 237 238 239 240 240 241 241 242 243 243 244 245 246 246 246 247 247 248 249 249 250 250 251 252 252 252 252 160 222 254 254 254 254 254 254 254 254 254 254
255 255 255 255 255 255 255 255 255 255 255 255 255 255 255 255 255 254 255 254 255 255 255 255 255 255 135 62 73 74 75 76 77 78 79 80 81 83 83 85 85 87 88 89 90 91 91 92 93 94 95 96 97 98 99 100 101 102 102 103 105 106 107 108 108 109 110 111 112 113 114 115 116 117 118 118 119 120 121 122 123 124 125 126 126 127 128 129 130 131 132 133 134 135 136 136 137 138 139 140 141 142 143 144 145 146 147 147 148 149 150 151 152 153 154 155 155 156 157 158 159 160 161 162 162 163 164 165 166 167 167 168 169 170 171 172 173 173 174 175 176 177 178 179 180 181 182 183 184 185 185 186 187 188 189 190 191 192 193 194 194 196 197 198 198 199 200 201 202 203 204 204 205 206 207 207 208 209 210 211 211 212 213 214 215 216 216 217 218 218 219 220 221 222 223 223 224 225 225 226 226 227 228 229 229 230 230 231 232 233 233 234 234 235 236 237 237 238 238 239 240 241 241 242 242 243 243 244 245 245 246 247 247 247 248 249 250 250 251 251 252 252 253 253 161 222 255 255 255 255 255 255 255 255 255 255
255 255 255 255 255 255 255 255 255 255 255 255 255 255 255 255 255 254 255 254 255 255 255 255 255 255 135 63 73 75 76 77 78 79 80 81 82 83 84 85 86 87 88 89 90 91 92 93 94 95 96 97 98 99 100 101 102 102 103 104 105 106 107 108 109 110 111 112 113 114 115 116 116 117 118 119 120 121 122 123 124 125 125 126 127 128 129 130 131 132 133 134 135 136 136 137 138 139 140 141 142 143 144 145 145 147 148 148 149 150 151 152 153 154 155 155 156 157 158 159 160 161 161 162 163 164 165 166 166 167 168 169 170 171 172 172 173 174 175 176 177 178 179 180 181 182 183 184 185 185 186 187 188 189 190 191 192 193 193 194 195 196 197 198 199 200 201 201 203 204 204 205 206 207 207 208 209 210 211 211 212 213 214 215 215 216 217 218 219 219 220 221 222 222 223 224 224 225 226 226 227 228 228 229 230 230 231 232 232 233 234 234 235 236 236 237 238 238 239 239 240 241 241 242 243 243 244 245 245 246 246 247 247 248 248 249 250 251 251 252 252 253 253 253 161 222 255 255 255 255 255 255 255 255 255 255
255 255 255 255 255 255 255 255 255 255 255 255 255 255 255 255 255 254 255 254 255 255 255 255 255 255 135 63 74 76 77 78 79 80 81 82 83 84 85 86 87 88 89 90 91 92 93 94 95 96 97 98 99 100 101 102 103 103 104 105 106 107 108 109 110 110 111 113 114 115 116 116 117 118 119 120 121 122 123 124 124 125 126 127 128 129 130 131 132 133 134 135 135 136 137 138 139 140 141 142 143 143 144 145 146 147 148 149 150 151 152 153 153 154 155 156 157 158 159 160 160 161 162 163 164 165 165 166 167 168 169 170 171 171 172 173 174 175 176 177 178 179 179 180 182 182 183 184 185 186 186 187 189 190 191 191 192 193 194 195 196 197 198 199 199 200 201 202 203 204 205 206 206 207 208 209 209 210 211 212 213 213 214 215 216 217 217 218 219 219 220 221 222 223 223 224 225 225 226 227 227 228 229 229 230 231 231 232 233 233 234 235 235 236 237 237 238 238 239 240 241 241 242 242 243 243 244 245 245 246 246 247 247 248 248 249 250 251 251 252 252 253 253 253 161 222 255 255 255 255 255 255 255 255 255 255
255 255 255 255 255 255 255 255 255 255 255 255 255 255 255 255 255 254 255 254 255 255 255 255 255 255 136 64 75 77 78 79 80 81 82 83 84 85 86 87 88 89 90 91 92 93 94 95 96 97 98 99 100 101 102 103 103 104 105 106 107 108 109 110 111 111 113 114 115 116 116 117 118 119 120 121 122 123 124 124 125 126 127 128 129 130 131 132 133 134 135 135 136 137 138 139 140 141 142 143 143 144 145 146 147 148 149 150 151 152 152 153 154 155 156 157 158 159 160 160 161 162 163 164 165 166 166 167 168 169 170 171 171 172 173 174 175 176 176 177 178 179 180 181 182 183 184 185 186 186 187 188 189 190 191 192 193 194 195 196 196 197 199 199 200 201 202 203 204 205 205 206 207 208 208 209 210 211 212 213 213 214 215 216 216 217 218 219 220 220 221 222 222 223 224 225 225 226 227 227 228 229 229 230 231 231 232 233 233 234 234 235 236 237 237 238 238 239 239 240 241 242 242 243 243 244 245 245 246 247 247 248 248 248 249 250 251 251 252 252 253 253 254 254 162 222 255 255 255 255 255 255 255 255 255 255
255 255 255 255 255 255 255 255 255 255 255 255 255 255 255 255 255 254 255 254 255 255 255 255 255 255 136 65 76 77 78 80 81 82 83 84 85 86 87 88 89 90 91 92 93 94 95 96 97 98 99 100 101 102 103 103 104 105 106 107 108 109 110 111 112 112 113 114 116 117 117 118 119 120 121 122 123 124 124 125 126 127 128 129 130 131 132 133 133 135 135 136 137 138 139 140 141 142 142 143 144 145 146 147 148 149 150 151 152 153 153 154 155 156 157 158 158 159 160 161 162 163 164 165 165 166 167 168 169 169 170 171 172 173 174 174 175 176 177 178 179 180 181 182 183 184 185 186 186 187 188 189 190 191 192 193 194 194 195 196 197 198 199 200 201 202 202 203 205 205 206 207 208 208 209 210 211 212 212 213 214 215 216 216 217 218 219 219 220 221 222 222 223 224 225 225 226 227 227 228 228 229 230 230 231 232 232 233 234 234 235 236 236 237 238 238 239 239 240 241 241 242 243 243 244 244 245 246 246 247 247 248 248 249 249 250 251 251 252 253 253 253 254 254 161 222 255 255 255 255 255 255 255 255 255 255
255 255 255 255 255 255 255 255 255 255 255 255 255 255 255 255 255 254 255 254 255 255 255 255 255 255 136 66 77 78 79 80 81 82 83 84 85 87 88 89 90 91 92 93 94 95 96 97 97 98 99 100 101 103 103 104 105 106 107 108 109 110 111 112 113 113 114 115 116 117 118 119 120 121 122 123 123 124 125 126 127 128 129 130 131 132 132 134 134 135 136 137 138 139 140 141 141 142 143 144 145 146 147 148 149 150 151 151 152 153 154 155 156 157 158 158 159 160 161 162 163 164 164 165 166 167 168 169 169 170 171 172 173 174 174 175 176 177 178 179 180 181 182 183 184 185 186 187 187 188 189 190 191 192 193 193 194 195 196 197 198 199 200 201 201 202 203 204 205 206 207 207 208 209 210 210 211 212 213 214 214 215 216 217 218 218 219 220 220 221 222 223 223 224 225 226 226 227 228 228 229 230 230 231 232 232 233 234 234 235 235 236 237 237 238 239 239 240 240 241 242 242 243 243 244 245 245 246 247 247 248 248 249 249 250 250 251 252 252 253 253 253 254 254 161 222 255 255 255 255 255 255 255 255 255 255
255 255 255 255 255 255 255 255 255 255 255 255 255 255 255 255 255 254 255 254 255 255 255 255 255 255 136 67 78 79 80 81 82 83 84 85 86 88 88 90 90 91 93 94 95 96 96 97 98 99 100 101 102 103 104 105 106 107 107 108 110 111 112 113 113 114 115 116 117 118 119 120 121 122 123 123 124 125 126 127 128 129 130 131 131 132 133 134 135 136 137 138 139 140 140 141 142 143 144 145 146 147 148 149 150 151 151 152 153 154 155 156 157 158 158 159 160 161 162 163 163 164 165 166 167 168 168 169 170 171 172 173 174 174 175 176 177 178 179 179 181 182 182 183 184 185 186 188 188 189 189 190 191 192 193 194 195 196 197 197 198 199 200 201 202 203 204 204 206 207 207 208 209 210 210 211 212 213 213 214 215 216 217 218 218 219 220 221 221 222 223 223 224 225 226 226 227 228 228 229 229 230 231 231 232 233 233 234 235 235 236 236 237 238 239 239 240 240 241 241 242 243 243 244 244 245 246 247 247 248 248 249 249 249 250 251 251 252 253 253 253 254 254 254 162 222 255 255 255 255 255 255 255 255 255 255
255 255 255 255 255 255 255 255 255 255 255 255 255 255 255 255 255 254 255 254 255 255 255 255 255 255 136 67 79 80 81 82 83 84 85 86 87 88 89 91 91 92 93 95 95 96 97 98 99 100 101 102 103 104 105 106 107 108 108 109 111 112 113 114 114 115 116 117 118 119 120 121 122 123 124 124 125 126 127 128 129 130 131 132 132 133 134 135 136 137 138 139 140 141 141 142 143 144 145 146 147 148 149 150 151 152 152 153 154 155 156 157 158 159 159 160 161 162 163 164 164 165 166 167 168 169 169 170 171 172 173 174 174 175 176 177 178 179 179 180 181 182 183 184 185 186 187 189 189 189 190 191 192 193 194 195 196 197 197 198 199 200 201 202 203 203 204 205 206 207 208 209 209 210 211 212 212 214 214 215 216 216 217 218 219 220 220 221 222 223 223 224 225 225 226 227 228 228 229 229 230 231 231 232 233 233 234 235 235 236 236 237 238 238 239 240 240 241 241 242 243 243 244 244 245 245 246 247 248 248 248 249 249 250 250 251 252 252 253 253 254 254 254 255 162 222 255 255 255 255 255 255 255 255 255 255
255 255 255 255 255 255 255 255 255 255 255 255 255 255 255 255 255 254 255 254 255 255 255 255 255 255 136 68 80 81 82 83 84 85 86 87 88 89 90 91 92 93 94 96 96 97 98 99 100 101 102 103 104 105 106 107 108 109 109 110 111 112 113 114 116 116 117 118 119 120 121 122 122 123 124 125 126 127 128 129 129 130 131 132 133 134 135 136 137 138 139 140 141 141 142 143 144 145 146 147 148 148 149 151 151 152 153 154 155 156 156 157 158 159 160 161 162 163 164 164 165 166 167 168 168 169 170 171 172 172 173 174 175 176 177 177 178 179 180 181 182 183 184 185 186 187 188 189 189 190 191 191 193 194 195 196 196 197 198 199 200 201 202 203 203 204 205 206 207 208 209 209 210 211 212 212 213 214 215 216 216 217 218 219 219 220 221 221 223 223 224 224 225 226 227 228 228 229 229 230 230 231 232 232 233 234 234 235 236 236 237 237 238 239 239 240 240 241 241 242 243 244 244 245 245 246 246 247 248 248 249 249 250 250 250 251 252 252 253 254 254 254 255 255 162 222 255 255 255 255 255 255 255 255 255 255
255 255 255 255 255 255 255 255 255 255 255 255 255 255 255 255 255 254 255 254 255 255 255 255 255 255 136 68 81 82 83 84 85 86 87 88 89 90 91 92 93 94 95 96 97 98 99 100 101 102 103 104 105 106 107 108 109 109 110 111 112 113 114 115 116 117 118 119 119 121 122 123 123 124 125 126 127 128 129 130 130 131 132 133 134 135 136 137 138 139 140 141 141 142 143 144 145 146 147 148 148 149 150 151 152 153 154 155 155 156 157 158 159 160 161 162 162 163 164 165 166 167 168 168 169 170 171 172 172 173 174 175 176 177 177 178 179 180 181 182 183 184 184 186 187 187 188 190 190 191 191 192 193 195 195 196 197 198 199 200 200 201 202 203 204 205 206 206 208 209 209 210 211 211 212 213 214 215 215 216 217 217 218 219 220 221 221 222 223 224 224 225 225 226 227 228 228 229 230 230 231 232 232 233 234 234 235 235 236 237 237 238 238 239 240 240 241 241 242 242 243 244 244 245 245 246 246 247 248 248 249 249 250 250 251 251 252 253 253 254 254 254 255 255 162 222 255 255 255 255 255 255 255 255 255 255
255 255 255 255 255 255 255 255 255 255 255 255 255 255 255 255 255 254 255 254 255 255 255 255 255 255 136 69 81 82 83 84 85 86 87 88 89 91 92 93 94 95 96 97 98 99 100 101 101 102 104 104 106 107 107 108 109 110 111 112 113 114 115 116 117 117 118 119 120 122 123 123 124 125 126 127 128 129 129 130 131 132 133 134 135 136 137 138 139 140 140 141 142 143 144 145 146 147 147 148 149 150 151 152 153 154 155 156 156 157 158 159 160 161 162 162 163 164 165 166 167 168 168 169 170 171 172 172 173 174 175 176 177 177 178 179 180 181 182 182 184 184 185 186 187 188 189 190 191 192 192 193 194 195 196 197 198 199 199 200 201 202 203 204 205 205 206 207 208 209 210 211 211 212 213 214 214 215 216 217 217 218 219 220 221 221 222 223 224 224 225 226 226 227 228 229 229 230 230 231 231 232 233 233 234 235 235 236 236 237 238 238 239 240 240 241 241 242 242 243 244 244 245 245 246 246 247 247 248 249 249 249 250 250 251 251 252 253 253 254 254 254 255 255 161 222 255 255 255 255 255 255 255 255 255 255
255 255 255 255 255 255 255 255 255 255 255 255 255 255 255 255 255 254 255 254 255 255 255 255 255 255 136 70 82 83 84 85 86 87 88 89 90 92 92 94 94 96 97 98 99 100 100 101 102 103 104 105 106 108 108 109 110 111 112 113 114 115 116 117 118 118 119 120 121 122 123 124 125 126 127 128 129 129 130 131 132 133 134 135 136 137 138 139 139 140 141 142 143 144 145 146 146 147 148 149 150 151 152 153 154 155 156 156 157 158 159 160 161 162 162 163 164 165 166 167 167 168 169 170 171 172 172 173 174 175 175 176 177 178 179 179 180 181 182 183 184 185 186 187 188 189 190 191 191 192 193 194 195 196 197 198 198 199 200 201 202 203 204 205 205 206 207 208 209 210 210 211 212 213 213 214 215 216 216 217 218 219 220 220 221 222 223 223 224 225 225 226 227 227 228 229 229 230 231 231 232 232 233 234 234 235 236 236 237 237 238 239 239 240 240 241 241 242 242 243 244 244 245 245 246 246 247 248 248 249 249 250 250 250 251 252 252 253 253 254 254 254 255 255 161 222 255 255 255 255 255 255 255 255 255 255
255 255 255 255 255 255 255 255 255 255 255 255 255 255 255 255 255 254 255 254 255 255 255 255 255 255 136 70 83 84 85 86 87 88 89 90 91 92 93 94 95 96 97 99 99 100 101 102 103 104 105 106 107 108 109 110 111 112 112 114 115 116 117 118 119 119 120 121 122 123 124 125 126 127 128 129 129 130 131 132 133 134 135 136 136 137 138 139 140 141 142 143 144 145 145 146 147 148 149 150 151 152 153 154 154 156 156 157 158 159 160 161 161 162 163 164 165 166 167 167 168 169 170 171 171 172 173 174 174 175 176 177 178 179 179 180 181 182 183 184 185 186 187 188 189 189 191 192 192 193 194 194 195 197 197 198 199 200 201 201 202 203 204 205 206 207 207 208 209 210 211 212 212 213 214 215 215 216 217 218 218 219 220 221 222 222 223 223 224 225 226 227 227 228 229 230 230 230 231 232 232 233 234 234 235 235 236 237 237 238 238 239 240 240 241 241 242 242 243 243 244 245 245 246 246 247 247 248 248 249 250 250 250 251 251 251 252 253 253 254 254 254 255 255 161 222 255 255 255 255 255 255 255 255 255 255
255 255 255 255 255 255 255 255 255 255 255 255 255 255 255 255 255 254 255 254 255 255 255 255 255 255 136 71 84 85 86 87 88 89 90 91 92 93 94 95 96 97 98 99 100 101 102 103 104 105 106 107 108 109 110 111 112 113 113 114 116 117 117 119 119 120 121 122 123 124 125 126 127 128 129 129 130 131 132 133 134 135 135 136 137 138 139 140 141 142 143 144 145 145 146 147 148 149 150 151 152 152 153 154 155 156 157 158 159 160 160 161 162 163 164 165 165 166 167 168 169 170 170 171 172 173 174 175 175 176 177 178 179 179 180 181 182 183 184 185 186 186 187 188 189 190 191 192 193 194 194 195 196 197 198 199 199 201 201 202 203 204 205 206 206 207 208 209 210 211 212 212 213 214 214 215 216 217 218 218 219 220 221 222 222 223 224 224 225 226 226 227 228 228 229 230 230 231 231 232 233 233 234 235 235 236 236 237 237 238 239 239 240 241 241 242 242 243 243 244 245 245 245 246 246 247 247 248 248 249 250 250 250 251 251 252 252 253 253 254 254 255 255 255 161 222 255 255 255 255 255 255 255 255 255 255
255 255 255 255 255 255 255 255 255 255 255 255 255 255 255 255 255 254 255 254 255 255 255 255 255 255 136 72 84 85 87 88 89 90 91 92 93 94 95 96 97 98 99 100 101 102 103 104 105 106 107 108 109 110 111 112 113 113 114 115 116 117 118 119 120 121 122 123 124 125 126 127 127 128 129 130 131 132 133 134 134 135 136 137 138 139 140 141 142 143 144 145 145 146 147 148 149 150 151 152 152 153 154 155 156 157 158 159 159 160 161 162 163 164 164 165 166 167 168 169 170 171 171 172 173 174 174 175 176 177 178 179 179 180 181 182 183 183 184 185 186 187 188 189 190 191 192 193 193 194 195 196 197 198 199 199 200 201 202 203 203 204 206 206 207 208 209 209 211 211 212 213 214 214 215 216 217 218 218 219 220 220 221 222 223 223 224 225 226 226 227 227 228 229 230 230 231 232 232 233 233 234 234 235 236 236 237 237 238 239 239 240 240 241 241 242 242 243 243 244 245 245 246 246 247 247 248 248 249 250 250 250 250 251 251 252 253 253 254 254 254 255 255 255 161 222 255 255 255 255 255 255 255 255 255 255
255 255 255 255 255 255 255 255 255 255 255 255 255 255 255 255 255 254 255 254 255 255 255 255 255 255 136 72 85 86 87 89 90 91 92 93 94 95 96 97 98 99 100 101 102 103 104 105 106 107 108 109 110 111 112 113 113 114 115 116 117 118 119 120 121 121 122 124 125 126 127 128 128 129 130 131 132 133 134 134 135 136 137 138 139 140 141 142 143 144 144 145 146 147 148 149 150 151 151 152 153 154 155 156 157 158 159 159 160 161 162 163 164 165 165 166 167 168 169 170 170 171 172 173 174 175 175 176 177 178 178 179 180 181 182 182 183 184 185 186 187 188 189 190 191 192 192 194 194 195 195 196 197 198 199 200 201 202 202 203 204 205 206 207 208 208 209 210 211 212 213 214 214 215 216 216 217 218 219 220 220 221 222 223 223 224 225 225 226 227 227 228 229 229 230 231 231 232 232 233 234 234 235 236 236 237 237 238 238 239 239 240 241 241 242 242 243 243 244 244 245 246 246 246 247 247 248 249 249 250 250 250 251 251 251 252 253 253 254 254 254 255 255 255 161 222 255 255 255 255 255 255 255 255 255 255
255 255 255 255 255 255 255 255 255 255 255 255 255 255 255 255 255 254 255 255 255 255 255 255 255 255 136 73 86 87 88 89 90 92 92 94 95 96 97 98 99 100 101 102 103 104 105 106 106 107 109 110 111 112 113 113 114 115 116 117 118 119 120 121 122 122 124 125 126 127 127 129 129 130 131 132 133 134 134 135 136 137 138 139 140 141 142 143 144 145 145 146 147 148 149 150 151 151 152 153 154 155 156 157 158 159 160 160 161 162 163 164 165 165 166 167 168 169 170 170 171 172 173 174 174 175 176 177 177 178 179 180 181 182 182 183 184 185 186 187 188 189 189 190 191 192 193 195 195 195 196 197 198 199 200 201 202 202 203 204 205 206 207 208 208 209 210 211 212 213 213 214 215 216 216 217 218 219 219 220 221 221 222 223 224 225 225 226 226 227 228 229 229 230 231 231 232 232 233 234 234 235 235 236 237 237 238 238 239 239 240 240 241 242 242 243 243 244 244 245 245 246 246 247 247 248 248 249 250 250 250 251 251 251 252 252 253 254 254 254 255 255 255 255 161 222 255 255 255 255 255 255 255 255 255 255
255 255 255 255 255 255 255 255 255 255 255 255 255 255 255 255 255 254 255 255 255 255 255 255 255 255 136 74 87 88 89 90 91 92 93 94 95 97 98 99 100 101 102 103 104 105 106 107 107 108 109 110 112 113 114 114 115 116 117 118 119 120 121 122 123 123 125 126 127 128 128 129 130 131 132 133 134 135 135 136 137 138 139 140 141 142 143 144 144 145 146 147 148 149 150 151 151 152 153 154 155 156 157 158 158 160 160 161 162 163 164 164 165 166 167 168 169 169 170 171 172 173 174 174 175 176 177 178 178 179 180 181 182 182 183 184 185 186 186 187 188 189 190 191 192 193 194 195 196 196 197 198 199 200 201 201 202 203 204 205 205 206 207 208 209 210 210 211 213 213 214 215 215 216 217 218 218 219 220 221 221 222 223 224 224 225 226 227 227 228 228 229 230 230 231 232 232 233 234 234 235 235 236 236 237 238 238 239 239 240 240 241 241 242 243 243 244 244 244 245 246 246 247 247 247 248 248 249 250 250 250 251 251 251 252 253 253 254 254 255 255 255 255 255 161 222 255 255 255 255 255 255 255 255 255 255
255 255 255 255 255 255 255 255 255 255 255 255 255 255 255 255 255 254 255 255 255 255 255 255 255 255 136 75 88 89 90 91 92 93 94 95 96 97 98 99 100 101 102 103 104 105 106 107 108 109 110 111 112 113 114 115 116 117 117 118 120 121 122 123 124 124 125 126 127 128 129 130 131 132 133 134 134 135 136 137 138 139 140 141 141 142 143 144 145 146 147 148 149 149 150 151 152 153 154 155 155 156 157 158 159 160 161 162 163 163 164 165 166 167 168 168 169 170 171 172 172 173 174 175 176 177 177 178 179 180 180 181 182 183 184 184 185 186 187 188 189 190 191 192 193 194 195 195 196 197 197 198 199 200 201 202 203 204 204 205 206 207 208 209 209 210 211 212 213 214 214 215 216 217 217 218 219 220 220 221 222 222 223 224 225 225 226 227 228 228 229 229 230 231 232 232 233 233 234 234 235 235 236 237 237 238 238 239 239 240 240 241 242 242 243 243 244 244 245 245 246 246 247 247 248 248 249 249 250 251 251 251 251 252 252 253 253 254 254 255 255 255 255 255 161 222 255 255 255 255 255 255 255 255 255 255
255 255 255 255 255 255 255 255 255 255 255 255 255 255 255 255 255 254 255 255 255 255 255 255 255 255 136 75 89 90 91 92 93 94 95 96 97 98 99 100 101 102 103 104 105 106 107 108 109 110 111 112 113 114 115 116 117 118 118 119 121 122 123 123 124 125 126 127 128 129 130 131 132 133 134 134 135 136 137 138 139 140 140 141 142 143 144 145 146 147 148 149 149 150 151 152 153 154 155 156 156 157 158 159 160 161 162 163 163 164 165 166 167 167 168 169 170 171 172 173 173 174 175 176 176 177 178 179 179 180 181 182 183 184 184 185 186 187 188 189 190 191 191 192 193 194 195 196 197 197 198 199 200 201 202 203 203 204 205 206 207 208 209 209 210 211 212 212 214 214 215 216 216 217 218 219 219 220 221 222 222 223 224 225 225 226 227 227 228 229 229 230 230 231 232 233 233 234 234 235 235 236 237 237 238 238 239 239 240 240 241 242 242 243 243 244 244 245 245 246 246 247 247 248 248 248 249 249 250 251 251 251 252 252 252 253 253 254 254 255 255 255 255 255 160 222 255 255 255 255 255 255 255 255 255 255
255 255 255 255 255 255 255 255 255 255 255 255 255 255 255 255 255 254 255 255 255 255 255 255 255 255 136 76 89 90 92 93 94 95 96 97 98 99 100 101 102 103 104 105 106 107 108 109 110 111 112 113 114 115 116 117 118 118 119 120 121 122 123 124 125 126 127 128 129 130 131 132 132 133 134 135 136 137 138 139 139 140 141 142 143 144 145 146 147 148 149 149 150 151 152 153 154 155 155 156 157 158 159 160 161 162 163 163 164 165 166 167 167 168 169 170 171 172 173 173 174 175 176 176 177 178 179 180 180 181 182 183 184 184 185 186 187 188 188 189 190 191 192 193 194 195 196 197 197 198 199 200 201 202 203 203 204 205 206 206 207 208 209 210 211 211 212 213 214 215 216 216 217 218 218 219 220 221 221 222 223 224 224 225 226 227 227 228 229 229 230 230 231 232 233 233 234 234 235 235 236 236 237 238 238 239 239 240 240 241 241 242 242 243 244 244 244 245 245 246 247 247 247 248 248 249 249 250 250 251 251 251 252 252 253 253 254 254 254 255 255 255 255 255 160 222 255 255 255 255 255 255 255 255 255 255
255 255 255 255 255 255 255 255 255 255 255 255 255 255 255 255 255 254 255 255 255 255 255 255 255 255 136 77 90 91 92 94 95 96 97 98 99 100 101 102 103 104 105 106 107 108 109 110 111 112 113 114 115 116 117 118 119 119 120 121 122 123 124 125 126 127 128 129 130 131 132 133 133 134 135 136 137 138 139 140 140 141 142 143 144 145 146 147 148 149 150 150 151 152 153 154 155 156 156 157 158 159 160 161 162 163 164 164 165 166 167 167 168 169 170 171 172 172 173 174 175 176 176 177 178 179 180 180 181 182 183 184 184 185 186 187 188 188 189 190 191 192 193 194 195 196 197 198 198 199 199 200 201 202 203 204 205 206 206 207 208 209 210 211 211 212 213 214 215 216 216 217 218 218 219 220 221 221 222 223 223 224 225 226 226 227 228 229 229 230 230 231 232 232 233 234 234 235 235 236 236 237 238 238 239 239 240 240 241 241 242 242 243 243 244 244 245 245 246 246 247 247 248 248 248 249 249 250 251 251 251 252 252 252 252 253 253 254 254 255 255 255 255 255 160 222 255 255 255 255 255 255 255 255 255 255
255 255 255 255 255 255 255 255 255 255 255 255 255 255 255 255 255 254 255 255 255 255 255 255 255 255 137 78 91 93 94 95 96 97 98 99 100 101 102 103 104 105 106 107 108 109 110 111 112 113 114 115 116 117 118 119 120 121 121 122 124 125 126 127 128 128 129 130 131 132 133 134 135 136 137 137 138 139 140 141 142 143 144 144 145 146 147 148 149 150 151 152 153 153 154 155 156 157 158 159 159 160 161 162 163 164 165 166 166 167 168 169 170 170 171 172 173 174 175 175 176 177 178 178 179 180 181 182 182 183 184 185 186 186 187 188 189 190 190 191 192 193 194 195 196 197 198 199 199 200 201 201 202 203 204 205 206 207 207 208 209 210 211 212 212 213 214 215 216 217 217 218 219 219 220 221 221 222 223 224 224 225 226 227 227 228 229 229 230 231 231 232 233 233 234 235 235 236 236 237 237 238 238 239 239 240 240 241 241 242 242 243 243 244 245 245 245 246 246 247 247 248 248 249 249 249 250 250 251 251 252 252 252 253 253 253 254 254 255 255 255 255 255 255 160 222 255 255 255 255 255 255 255 255 255 255
255 255 255 255 255 255 255 255 255 255 255 255 255 255 255 255 255 254 255 255 255 255 255 255 255 255 137 80 93 94 96 97 98 99 100 101 102 103 104 105 106 107 108 109 110 111 112 113 114 115 116 117 118 119 120 121 122 123 123 124 126 127 128 129 130 130 131 132 134 134 135 136 137 138 139 140 140 141 142 143 144 145 146 147 147 148 149 150 151 152 153 154 155 156 156 157 158 159 160 161 161 162 163 164 165 166 167 167 169 170 170 171 172 172 173 174 175 176 177 177 178 179 180 180 181 182 183 183 184 185 186 187 187 188 189 190 191 191 192 193 194 195 196 197 198 199 200 201 201 202 203 203 204 205 206 207 208 208 209 210 211 212 213 214 214 215 216 216 218 218 219 220 220 221 222 222 223 224 225 225 226 227 228 228 229 230 230 231 231 232 233 233 234 235 235 236 237 237 238 238 239 239 240 240 241 241 242 242 243 243 244 244 245 245 246 246 247 247 247 248 249 249 249 250 250 250 251 251 252 252 253 253 253 253 254 254 255 255 255 255 255 255 255 255 160 222 255 255 255 255 255 255 255 255 255 255
255 255 255 255 255 255 255 255 255 255 255 255 255 255 255 255 255 254 255 255 255 255 255 255 255 255 137 80 94 95 97 98 99 100 101 102 103 104 105 106 107 108 109 110 111 112 113 114 115 116 117 118 119 120 121 122 123 123 124 125 126 128 128 129 130 131 132 133 134 135 136 137 138 139 140 140 141 142 143 144 145 145 146 147 148 149 150 151 152 153 154 155 155 156 157 158 159 160 160 161 162 163 164 165 165 166 167 168 169 170 170 171 172 173 174 175 175 176 177 178 179 179 180 181 182 183 183 184 185 185 186 187 188 189 189 190 191 192 193 194 195 196 196 197 198 199 200 201 201 202 203 204 205 206 206 207 208 209 210 210 211 212 213 214 214 215 216 217 218 219 219 220 221 221 222 223 223 224 225 226 226 227 228 229 229 230 230 231 232 232 233 233 234 235 235 236 236 237 238 238 239 239 240 240 241 241 242 242 243 243 244 244 245 245 246 246 247 247 247 248 249 249 249 250 250 250 251 251 251 252 252 253 253 253 254 254 255 255 255 255 255 255 255 255 160 222 255 255 255 255 255 255 255 255 255 255
255 255 255 255 255 255 255 255 255 255 255 255 255 255 255 255 255 254 255 255 255 255 255 255 255 255 137 81 95 96 97 99 100 101 102 103 104 105 106 107 108 109 110 111 112 113 114 115 116 117 118 119 120 121 122 123 124 124 125 126 127 128 129 130 131 132 133 134 135 136 137 138 138 139 140 141 142 143 144 144 145 146 147 148 149 150 151 152 153 154 154 155 156 157 158 159 160 160 161 162 163 164 165 166 166 167 168 169 170 171 171 172 173 174 175 175 176 177 178 179 179 180 181 182 182 183 184 185 185 186 187 188 189 189 190 191 192 192 193 194 195 196 197 198 199 200 201 201 202 203 203 204 206 206 207 208 208 209 210 211 212 212 213 214 215 216 216 217 218 219 220 220 221 222 222 223 224 225 225 226 227 227 228 229 230 230 231 232 232 233 233 234 235 235 236 237 237 238 238 238 239 239 240 241 241 242 242 243 243 244 244 245 245 246 246 247 247 247 248 248 249 249 249 250 250 251 251 251 252 253 252 253 253 253 254 255 255 255 255 255 255 255 255 255 160 222 255 255 255 255 255 255 255 255 255 255
255 255 255 255 255 255 255 255 255 255 255 255 255 255 255 255 255 254 255 255 255 255 255 255 255 255 137 82 96 97 99 100 101 102 103 104 105 106 107 108 109 110 111 112 113 114 115 116 117 118 119 120 121 122 123 124 125 125 126 127 128 129 130 131 132 133 134 135 136 137 138 139 139 140 141 142 143 144 145 145 146 147 148 149 150 151 152 153 154 155 155 156 157 158 159 160 160 161 162 163 164 165 165 166 167 168 169 170 170 171 172 173 174 175 175 176 177 178 179 179 180 181 182 182 183 184 185 185 186 187 188 189 189 190 191 191 192 193 194 195 196 197 197 198 200 200 201 202 203 203 204 205 206 207 208 208 209 210 211 211 212 213 214 215 215 216 217 218 219 220 220 221 222 222 223 224 224 225 226 227 227 228 229 229 230 231 231 232 233 233 234 234 235 236 236 237 237 238 238 239 239 240 241 241 241 242 242 243 243 244 244 245 245 246 246 247 247 248 248 248 249 249 250 250 250 251 251 252 252 252 253 253 253 254 254 254 255 255 255 255 255 255 255 255 160 222 255 255 255 255 255 255 255 255 255 255
255 255 255 255 255 255 255 255 255 255 255 255 255 255 255 255 255 254 255 255 255 255 255 255 255 255 137 83 97 98 100 101 102 103 104 105 106 107 108 109 110 111 112 113 114 115 116 117 118 119 120 121 122 123 124 125 126 126 127 128 129 130 131 132 133 134 135 136 136 138 139 140 140 141 142 143 144 145 146 146 147 148 149 150 151 152 153 154 155 155 156 157 158 159 160 160 161 162 163 164 165 165 166 167 168 169 170 171 171 172 173 174 175 175 176 177 178 178 179 180 181 182 182 183 184 185 185 186 187 188 188 189 190 191 192 192 193 194 195 196 197 198 198 199 200 201 202 203 203 204 205 206 206 208 208 209 210 211 211 212 213 214 215 216 216 217 218 218 219 220 221 222 222 223 224 224 225 226 226 227 228 228 229 230 231 231 232 232 233 234 234 235 235 236 237 237 238 238 239 239 240 240 241 241 242 242 243 243 244 244 245 245 246 246 247 247 247 248 248 249 249 250 250 250 251 251 251 252 252 252 253 253 254 254 254 254 255 255 255 255 255 255 255 255 160 222 255 255 255 255 255 255 255 255 255 255
255 255 255 255 255 255 255 255 255 255 255 255 255 255 255 255 255 254 255 255 255 255 255 255 255 255 138 84 98 99 101 102 103 104 105 106 107 108 109 110 111 112 113 114 115 116 117 118 119 120 121 122 123 124 125 126 127 127 128 129 130 131 132 133 134 135 136 137 138 139 140 141 141 142 143 144 145 146 146 147 148 149 150 151 152 153 154 155 155 156 157 158 159 160 160 161 162 163 164 165 165 166 167 168 169 170 171 171 172 173 174 174 175 176 177 178 178 179 180 181 182 182 183 184 185 186 186 187 187 188 189 190 191 192 192 193 194 195 195 196 197 198 199 200 201 202 203 204 204 205 206 206 207 208 209 210 210 211 212 213 213 214 215 216 217 217 218 219 220 221 221 222 223 223 224 225 225 226 227 228 228 229 230 231 231 232 232 233 234 234 235 235 236 237 237 238 238 239 239 240 240 241 241 242 242 243 243 244 244 245 245 246 246 247 247 247 248 248 248 249 250 250 250 250 251 251 252 252 253 253 253 253 254 254 254 255 255 255 255 255 255 255 255 255 160 222 255 255 255 255 255 255 255 255 255 255
255 255 255 255 255 255 255 255 252 246 247 253 254 247 245 246 253 255 252 247 250 255 255 255 255 254 138 85 99 100 102 103 104 105 106 107 108 109 110 111 112 113 114 115 116 117 118 119 120 121 122 123 124 125 126 127 127 128 129 130 131 132 133 134 135 136 137 137 138 140 141 141 142 143 144 145 146 147 147 148 149 150 151 152 153 154 155 156 156 157 158 159 160 161 161 162 163 164 165 166 166 167 168 169 170 171 172 172 173 174 174 175 176 177 178 179 179 180 181 182 182 183 184 185 186 186 187 188 188 189 190 191 192 192 193 194 195 195 196 197 198 199 200 201 202 202 203 204 205 206 206 207 208 209 209 210 211 212 213 213 214 215 216 217 217 218 219 220 221 221 222 223 223 224 225 225 226 227 228 228 229 230 230 231 232 232 233 233 234 235 235 236 236 237 238 238 239 239 240 240 241 241 242 242 243 243 244 244 245 245 245 246 246 247 247 248 248 249 249 249 250 250 251 251 251 252 252 252 253 253 254 254 254 254 254 255 255 255 255 255 255 255 255 255 161 222 255 255 255 255 255 255 255 255 255 255
255 255 255 255 255 255 255 255 199 134 132 173 235 133 135 148 239 255 161 141 143 240 255 255 254 253 137 85 100 101 102 103 104 105 106 107 108 109 110 111 112 113 114 115 116 117 119 120 120 121 122 123 124 125 126 127 128 129 130 131 132 133 134 135 136 137 138 138 139 140 142 142 143 144 145 146 146 148 148 149 150 151 152 153 153 154 155 156 157 158 159 160 161 161 162 163 164 165 166 167 167 168 169 170 170 171 172 173 174 175 175 176 177 178 178 179 180 181 182 182 183 184 184 185 186 187 187 188 189 190 191 191 192 193 194 194 195 196 197 198 199 200 200 201 202 203 204 204 205 206 207 207 208 209 210 211 212 212 213 214 215 216 217 217 218 218 219 220 221 222 222 223 224 224 225 226 226 227 228 229 229 230 231 231 232 233 233 234 235 235 235 236 237 237 238 238 239 240 240 240 241 241 242 243 243 244 244 245 245 245 246 246 247 247 248 248 248 249 249 249 250 250 251 251 252 252 252 252 253 254 254 254 254 255 255 255 255 255 255 255 255 255 255 255 160 222 255 255 255 255 255 255 255 255 255 255
255 255 255 255 255 255 255 255 232 239 221 101 225 112 191 232 254 208 116 233 157 162 254 255 255 255 138 87 101 102 103 104 105 106 108 108 110 111 112 113 114 115 116 117 118 119 120 121 121 123 124 124 126 127 128 129 129 130 131 132 133 134 135 136 137 138 138 139 140 141 142 143 144 145 146 147 147 148 149 150 151 152 153 153 155 156 157 157 158 159 160 161 162 162 163 164 165 166 166 167 168 169 169 170 171 172 173 173 174 176 176 177 178 178 179 180 180 181 182 183 184 184 185 186 186 187 188 188 189 190 191 192 193 193 194 195 196 197 198 198 199 200 201 201 203 204 204 205 205 206 207 208 209 210 211 211 212 213 213 214 215 216 217 218 218 219 220 220 222 223 223 224 224 225 225 226 227 228 229 229 230 231 232 233 233 234 234 235 235 236 236 237 237 238 238 239 240 240 240 241 242 242 242 243 244 244 245 245 246 246 246 247 247 248 249 249 249 250 250 250 251 251 251 252 252 253 253 253 254 254 254 255 254 255 255 255 255 255 255 255 255 255 255 255 156 222 255 255 255 255 255 255 255 255 255 255
255 255 255 255 255 255 255 255 246 255 199 121 239 134 114 121 216 158 156 254 191 126 253 246 175 157 89 87 101 103 104 105 106 107 108 109 110 111 112 113 114 115 116 118 118 119 120 122 122 123 125 125 126 128 128 129 130 131 132 133 134 135 135 137 137 138 139 140 141 142 143 144 145 146 147 148 148 149 150 151 152 153 154 155 155 156 157 158 159 160 160 161 162 163 164 164 166 166 167 168 169 170 170 171 172 173 174 174 175 176 177 178 178 179 180 181 181 182 183 184 184 185 186 187 187 188 189 189 191 191 192 193 194 194 195 195 196 197 199 200 201 201 202 202 204 205 205 206 207 207 208 208 210 210 211 213 213 214 214 215 216 217 218 218 218 219 220 221 222 223 224 224 225 225 226 226 227 228 229 229 230 231 232 232 233 233 234 235 235 236 236 237 237 238 239 239 240 241 241 241 242 243 243 243 244 244 245 245 246 246 246 247 247 248 249 249 249 250 250 251 251 251 252 252 252 253 253 254 254 254 254 254 254 255 255 255 255 255 255 255 255 255 255 255 158 222 255 255 255 255 255 255 255 255 255 255
255 255 255 255 255 255 255 255 253 219 123 215 247 248 248 162 146 164 151 255 183 135 254 251 223 216 119 88 102 104 105 106 107 107 108 109 110 112 113 114 115 116 117 118 119 120 121 122 123 124 125 126 127 128 129 130 131 132 133 134 135 136 137 138 139 139 140 141 143 144 144 146 146 147 148 149 149 151 151 152 153 154 155 156 157 158 158 159 160 161 161 162 163 164 165 165 167 167 168 169 170 171 171 172 173 174 174 175 176 177 178 178 179 180 181 181 182 183 184 185 185 186 187 187 188 189 190 190 191 192 193 193 195 195 196 197 197 198 199 200 201 202 202 203 204 205 206 206 207 208 208 209 210 211 212 213 213 214 215 216 217 218 219 219 219 220 221 222 223 224 224 225 226 226 227 227 228 229 230 230 231 231 232 233 233 234 235 235 236 237 237 238 238 239 239 240 240 241 241 242 242 243 243 244 244 245 245 245 246 246 247 247 248 248 249 249 250 250 250 250 251 251 251 252 252 253 253 253 253 254 254 254 254 255 255 255 255 255 255 255 255 255 255 255 160 222 255 255 255 255 255 255 255 255 255 255
255 255 255 255 255 255 255 255 203 118 188 241 253 240 236 165 146 201 121 237 155 159 255 255 255 255 138 89 104 105 106 107 108 109 110 111 112 113 114 115 116 117 119 119 120 121 122 123 124 125 126 127 128 129 130 131 132 133 133 135 136 136 138 138 139 140 141 142 143 144 145 145 147 148 149 150 150 151 152 153 154 155 156 156 157 158 159 160 161 162 163 163 164 165 166 166 167 168 169 170 170 171 172 173 173 174 175 176 177 178 178 179 180 181 181 182 183 184 185 186 187 188 188 188 189 190 191 191 192 193 193 194 196 196 197 197 198 199 200 201 201 202 203 204 204 205 206 207 208 208 209 210 211 212 212 213 214 215 216 216 217 218 219 219 220 221 221 222 223 224 225 225 226 227 227 228 228 230 230 231 232 232 233 234 234 235 235 236 236 237 237 238 238 240 240 241 241 242 241 242 243 243 244 245 244 245 245 246 247 248 248 248 249 249 249 249 250 250 251 251 252 252 252 252 253 253 254 254 254 254 254 255 255 255 255 255 255 255 255 255 255 255 255 255 157 222 255 255 255 255 255 255 255 255 255 255
254 254 254 254 254 254 254 253 176 93 131 141 232 139 130 128 224 254 155 139 139 236 254 254 253 253 138 90 104 105 107 108 108 110 111 112 113 114 115 116 117 118 119 120 121 122 123 124 125 126 127 128 129 130 131 132 133 133 134 135 137 138 139 140 141 141 142 143 144 145 146 147 148 149 150 151 151 152 153 154 155 156 157 157 158 159 160 161 162 163 163 164 165 166 167 167 168 169 170 171 171 173 173 174 174 175 176 177 178 180 179 181 181 182 183 184 184 185 186 186 187 188 188 189 190 191 191 192 193 194 194 195 196 196 197 198 199 200 201 201 202 203 203 204 205 206 207 208 208 209 210 211 212 213 214 214 215 216 216 217 218 219 220 220 221 221 222 223 224 225 225 226 227 227 227 229 229 230 231 231 232 233 233 234 234 235 236 236 237 237 238 238 239 240 240 241 241 242 242 243 243 244 244 245 245 246 246 247 247 248 248 248 249 249 249 250 250 250 251 251 252 252 252 252 253 253 254 254 254 254 255 255 255 255 255 255 255 255 255 255 255 255 255 255 158 221 254 254 254 254 254 254 254 254 254 254
255 255 255 255 255 255 255 255 251 247 248 248 254 246 242 245 255 255 252 245 248 255 255 255 254 254 138 90 105 107 108 109 110 111 112 113 114 115 116 117 118 119 120 121 122 123 124 125 126 127 128 129 130 131 132 133 134 134 135 136 137 139 139 140 141 142 143 144 145 146 147 148 149 150 150 151 152 153 154 155 155 156 157 158 159 160 161 162 163 163 164 165 166 167 168 168 169 170 171 172 172 173 174 175 175 176 177 178 179 180 180 181 182 183 183 184 185 186 187 187 188 189 189 190 191 192 192 193 194 194 195 196 197 198 198 199 200 200 201 202 203 204 205 206 207 207 208 209 209 210 211 211 212 213 214 215 216 216 217 218 219 219 220 221 222 222 223 224 225 226 226 227 227 228 229 229 230 231 231 232 233 233 234 235 235 236 236 237 238 238 239 239 240 240 241 242 242 243 243 243 244 244 245 245 246 246 246 247 247 248 248 248 249 249 250 250 250 251 251 251 252 252 252 252 253 253 253 253 253 254 254 254 255 255 255 255 255 255 255 255 255 255 255 255 160 222 255 255 255 255 255 255 255 255 255 255
255 255 255 255 255 255 255 255 255 255 255 255 255 255 255 255 255 254 255 255 255 255 255 255 255 255 138 91 106 108 109 110 111 112 113 114 115 116 117 118 119 120 121 122 123 124 125 126 127 128 129 130 131 132 133 134 135 135 136 137 138 140 140 141 142 143 144 145 146 147 148 149 150 151 152 152 153 154 155 156 156 157 158 159 160 161 162 163 164 164 165 166 167 168 169 169 170 171 172 173 173 174 175 176 176 177 178 179 180 181 181 182 183 183 184 185 186 187 187 188 189 190 190 191 192 193 193 194 194 195 196 197 198 198 199 200 201 201 202 203 204 205 205 206 207 208 209 210 210 211 212 212 213 214 215 216 216 217 218 219 219 220 221 222 222 223 224 224 226 226 227 227 228 229 229 230 231 232 232 233 233 234 235 236 236 237 237 238 238 238 239 240 240 241 241 242 242 243 243 244 244 245 245 246 246 246 247 247 248 248 248 249 249 250 250 250 251 251 251 251 252 252 252 253 253 253 253 254 254 254 254 255 255 255 255 255 255 255 255 255 255 255 255 255 159 222 255 255 255 255 255 255 255 255 255 255
255 255 255 255 255 255 255 255 255 255 255 255 255 255 255 255 255 254 255 255 255 255 255 255 255 255 138 92 107 109 110 111 112 113 114 115 116 117 118 119 120 121 122 123 124 125 126 127 128 129 130 131 132 133 134 135 136 137 137 138 140 141 142 142 143 144 145 146 147 148 149 150 151 152 153 153 154 155 156 157 157 158 159 160 161 162 163 164 165 165 166 167 168 169 170 170 171 172 173 174 174 175 176 177 177 178 179 180 181 181 182 183 184 184 185 186 187 187 188 189 190 190 191 192 193 194 194 195 195 196 197 198 198 199 200 200 201 202 203 204 205 206 206 207 208 209 210 211 211 212 212 213 214 215 216 216 217 218 219 219 220 221 222 223 223 224 224 225 226 227 227 228 229 229 230 231 231 232 233 233 234 235 235 236 237 237 238 238 239 239 240 240 241 241 242 243 243 243 244 244 245 245 246 246 246 247 247 248 248 248 249 249 249 250 250 251 251 251 251 252 252 252 252 253 253 253 254 254 254 254 254 255 255 255 255 255 255 255 255 255 255 255 255 255 159 222 255 255 255 255 255 255 255 255 255 255
255 255 255 255 255 255 255 255 255 255 255 255 255 255 255 255 255 254 255 255 255 255 255 255 255 255 139 93 108 110 111 112 113 114 115 116 117 118 119 120 121 122 123 124 125 126 127 128 129 130 131 132 133 134 135 136 137 138 138 139 141 142 143 144 144 145 146 147 148 149 150 151 152 153 154 154 155 156 157 158 158 159 160 161 162 163 164 165 166 166 167 168 169 170 171 171 172 173 174 175 175 176 177 178 178 179 180 181 182 183 183 184 184 185 186 187 188 188 189 190 191 191 192 193 193 194 195 196 196 197 198 198 199 200 201 201 202 203 204 205 206 206 207 208 209 210 210 211 212 212 213 214 215 216 216 217 218 218 219 220 221 222 222 223 224 224 225 226 227 228 228 229 229 230 231 231 232 233 233 234 235 235 236 237 237 238 238 238 239 240 240 241 241 242 242 243 243 244 244 244 245 246 246 246 247 247 248 248 248 249 249 249 250 250 250 251 251 251 252 252 252 253 253 253 253 253 254 254 254 254 255 255 255 255 255 255 255 255 255 255 255 255 255 255 159 222 255 255 255 255 255 255 255 255 255 255
255 255 255 255 255 255 255 255 255 255 255 255 255 255 255 255 255 254 255 255 255 255 255 255 255 255 139 94 109 111 112 113 114 115 116 117 118 119 120 121 122 123 124 125 126 127 128 129 130 131 132 133 134 135 136 137 138 139 139 140 142 143 144 144 145 146 147 148 149 150 151 152 153 154 154 155 156 157 158 159 159 160 161 162 163 164 165 166 166 167 168 169 170 171 171 172 173 174 175 175 176 177 178 179 179 180 181 181 182 183 184 184 185 186 187 187 188 189 190 191 191 192 193 193 194 195 195 196 197 198 198 199 200 201 201 202 203 204 204 205 206 207 208 209 210 210 211 212 212 213 214 214 215 216 217 218 218 219 220 220 221 222 223 224 224 225 226 226 227 228 228 229 230 230 231 232 232 233 234 234 235 235 236 237 237 238 239 239 239 240 240 241 242 242 242 243 243 244 244 245 245 246 246 247 247 247 248 248 248 249 249 250 250 250 251 251 251 251 252 252 252 253 253 253 253 254 254 254 254 254 254 255 255 255 255 255 255 255 255 255 255 255 255 255 159 222 255 255 255 255 255 255 255 255 255 255
255 255 255 255 255 255 255 255 255 255 255 255 255 255 255 255 255 254 255 255 255 255 255 255 255 255 139 94 110 112 113 114 115 116 117 118 119 120 121 122 123 124 125 126 127 128 129 130 131 132 133 134 135 136 137 138 139 140 140 141 142 144 144 145 146 147 148 149 150 151 152 153 154 155 155 156 157 158 159 159 160 161 162 163 164 165 166 167 167 168 169 170 171 171 172 173 174 175 176 176 177 178 179 179 180 181 182 182 183 184 184 185 186 187 187 188 189 190 191 192 192 193 194 194 195 196 196 197 198 198 199 200 201 201 202 203 204 204 205 206 207 208 208 209 210 211 211 213 213 213 214 215 216 217 217 218 219 220 220 221 222 223 224 224 225 225 226 227 228 229 229 230 230 231 232 232 233 234 234 235 236 236 237 238 238 239 239 239 240 240 241 241 242 242 243 244 244 244 245 245 246 246 247 247 247 248 248 249 249 249 250 250 250 251 251 251 251 252 252 252 253 253 253 253 254 254 254 254 254 254 254 255 255 255 255 255 255 255 255 255 255 255 255 255 159 222 255 255 255 255 255 255 255 255 255 255
255 255 255 255 255 255 255 255 255 255 255 255 255 255 255 255 255 254 255 255 255 255 255 255 255 255 139 95 111 113 114 115 116 117 118 119 120 121 122 123 124 125 126 127 128 129 130 131 132 133 134 135 136 137 138 139 140 140 141 142 143 144 145 146 147 148 149 150 151 152 153 154 154 155 156 157 158 159 160 160 161 162 163 164 165 166 166 167 168 169 170 171 171 172 173 174 175 176 176 177 178 179 179 180 181 181 183 183 184 185 185 186 187 188 188 189 190 191 191 192 193 194 194 195 196 197 197 198 198 199 200 201 201 202 203 203 204 205 206 207 208 208 209 210 211 211 212 213 214 214 215 216 217 217 218 219 219 220 221 222 222 223 224 225 225 226 227 227 228 229 230 230 231 231 232 233 233 234 235 235 236 237 237 238 238 239 239 240 240 241 241 242 242 243 244 244 244 245 245 246 246 247 247 247 248 248 248 249 249 250 250 250 251 251 251 252 252 252 252 253 253 253 253 254 254 254 254 254 254 255 255 255 255 255 255 255 255 255 255 255 255 255 255 255 159 222 255 255 255 255 255 255 255 255 255 255
255 255 255 255 255 255 255 255 255 255 255 255 255 255 255 255 255 254 255 255 255 255 255 255 255 255 139 96 112 114 115 116 117 118 119 120 121 122 123 124 125 126 127 128 129 130 131 132 133 134 135 136 137 138 139 140 141 141 142 143 144 145 146 147 148 149 150 151 152 153 154 154 155 156 157 158 159 160 160 161 162 163 164 165 166 166 167 168 169 170 171 172 172 173 174 175 176 176 177 178 179 179 180 181 181 182 183 184 185 186 186 187 188 188 189 190 191 191 192 193 194 194 195 196 196 197 198 198 199 200 200 201 202 203 204 204 205 206 206 207 208 209 210 211 212 212 213 213 214 215 216 216 217 218 219 219 220 221 222 222 223 224 225 225 226 227 227 228 229 230 230 231 231 232 233 233 234 235 235 236 237 237 238 238 239 240 240 240 241 241 242 242 243 243 244 245 245 245 246 246 247 247 247 248 248 249 249 249 249 250 250 251 251 251 251 252 252 252 252 253 253 253 253 254 254 254 254 254 254 255 255 255 255 255 255 255 255 255 255 255 255 255 255 255 159 222 255 255 255 255 255 255 255 255 255 255
255 255 255 255 255 255 255 255 255 255 255 255 255 255 255 255 255 254 255 255 255 255 255 255 255 255 139 97 113 115 116 117 118 119 120 121 122 123 124 125 126 127 128 129 130 131 132 133 134 135 136 137 138 139 140 141 142 142 143 144 145 146 147 148 149 150 151 152 153 154 155 156 156 157 158 159 160 161 161 162 163 164 165 166 167 167 168 169 170 171 172 173 173 174 175 176 177 177 178 179 180 180 181 182 182 183 184 185 186 186 187 188 189 189 190 191 191 192 193 194 194 195 196 197 197 198 198 199 200 201 201 202 203 204 204 205 206 206 207 208 209 210 210 211 212 213 214 214 215 216 216 217 218 219 219 220 221 222 222 223 224 224 225 226 226 227 228 228 230 230 231 231 232 233 233 234 234 235 236 236 237 238 238 239 239 240 240 241 242 242 242 243 243 244 244 245 245 246 246 246 247 247 248 248 248 249 249 249 250 250 250 251 251 251 252 252 252 252 252 253 253 253 253 254 254 254 254 254 254 255 255 255 255 255 255 255 255 255 255 255 255 255 255 255 159 222 255 255 255 255 255 255 255 255 255 255
255 255 255 255 255 255 255 255 255 255 255 255 255 255 255 255 255 254 255 255 255 255 255 255 255 255 139 98 114 116 117 118 119 120 121 122 123 124 125 126 127 128 129 130 131 132 133 134 135 136 137 138 139 140 141 142 143 143 144 145 146 147 148 149 150 151 152 153 154 155 156 156 157 158 159 160 161 162 162 163 164 165 166 167 167 168 169 170 171 172 173 173 174 175 176 177 178 178 179 180 181 181 182 183 183 184 185 186 187 187 188 189 189 190 191 191 192 193 194 195 195 196 197 197 198 199 199 200 201 201 202 203 204 204 205 206 206 207 208 209 210 210 211 212 213 214 214 215 216 216 217 218 218 219 220 221 221 222 223 224 224 225 226 227 227 228 228 229 230 231 231 232 233 233 234 234 235 236 236 237 238 238 239 239 240 241 241 241 242 242 243 243 244 244 245 245 245 246 246 247 247 248 248 248 249 249 249 250 250 251 251 251 251 252 252 252 252 253 253 253 253 254 254 254 254 254 254 255 255 255 255 255 255 255 255 255 255 255 255 255 255 255 255 255 159 222 255 255 255 255 255 255 255 255 255 255
255 255 255 255 255 255 255 255 255 255 255 255 255 255 255 255 255 254 255 255 255 255 255 255 255 255 139 99 116 117 118 120 121 122 122 123 124 125 127 127 128 129 130 131 132 133 134 135 136 137 138 139 140 141 142 143 144 145 146 147 148 149 150 151 152 152 153 154 155 156 157 158 159 160 161 161 162 163 164 165 165 166 167 168 169 170 171 172 172 173 174 175 176 177 177 178 179 180 180 181 182 183 183 184 185 185 186 187 188 189 189 190 191 191 192 193 194 194 195 196 197 197 198 199 199 200 200 201 202 203 203 204 205 205 206 207 208 208 209 210 211 212 212 213 214 215 215 216 217 217 218 219 220 221 221 222 222 223 224 225 225 226 227 228 228 229 229 230 231 232 232 233 233 234 235 235 236 237 237 238 238 239 240 240 241 241 242 242 242 243 244 244 245 245 246 246 246 247 247 247 248 248 249 249 249 250 250 250 251 251 251 252 252 252 252 253 253 253 253 253 254 254 254 254 254 255 255 255 255 255 255 255 255 255 255 255 255 255 255 255 255 255 255 255 158 222 255 255 255 255 255 255 255 255 255 255
255 255 255 255 255 255 255 255 255 255 255 255 255 255 255 255 255 254 255 255 255 255 255 255 255 255 140 101 118 120 121 122 123 124 125 126 127 128 129 130 131 132 133 134 135 136 137 138 139 140 141 142 143 144 145 146 147 147 148 149 150 152 152 153 154 155 156 157 158 159 160 160 161 163 163 164 165 166 167 167 168 169 170 171 172 172 173 174 175 176 177 177 178 179 180 181 182 182 183 184 185 185 186 187 187 188 189 189 190 191 191 192 193 194 194 195 196 197 198 198 199 200 200 201 202 202 203 204 204 205 205 206 207 208 208 209 210 210 211 212 213 214 214 215 216 217 217 218 219 219 220 221 222 222 223 224 224 225 226 227 227 228 229 230 230 231 231 232 233 234 234 235 235 236 236 237 238 238 239 240 240 241 241 242 242 243 243 243 244 244 245 245 246 247 247 247 247 248 248 248 249 250 250 250 251 251 251 252 252 252 252 253 253 253 253 254 254 254 254 254 255 255 255 255 255 255 255 255 255 255 255 255 255 255 255 255 255 255 255 255 255 255 255 255 158 222 255 255 255 255 255 255 255 255 255 255
255 255 255 255 255 255 255 255 255 255 255 255 255 255 255 255 255 254 255 255 255 255 255 255 255 255 140 102 119 121 122 123 124 125 126 127 128 129 130 131 132 133 134 135 136 137 138 139 140 141 142 143 144 145 146 147 148 148 149 150 151 152 153 154 155 156 157 158 159 160 161 161 162 163 164 165 166 167 167 168 169 170 171 172 172 173 174 175 176 177 177 178 179 180 181 181 182 183 184 185 185 186 187 187 187 188 190 190 191 192 192 193 194 194 195 196 197 197 198 199 200 200 201 202 202 203 203 204 205 205 206 207 208 208 209 210 210 211 212 213 214 214 215 216 217 217 218 218 219 220 221 221 222 223 223 224 225 225 226 227 228 228 229 230 230 231 232 232 233 234 234 235 236 236 237 237 238 239 239 240 240 241 242 242 243 243 244 244 244 244 245 245 246 247 247 248 248 248 248 249 249 250 250 251 251 251 251 252 252 252 252 253 253 253 253 254 254 254 254 254 255 255 255 255 255 255 255 255 255 255 255 255 255 255 255 255 255 255 255 255 255 255 255 254 158 222 255 255 255 255 255 255 255 255 255 255
255 255 255 255 255 255 255 255 255 255 255 255 255 255 255 255 255 254 255 255 255 255 255 255 255 255 140 103 120 122 123 124 125 126 127 128 129 130 131 132 133 134 135 136 137 138 139 140 141 142 143 144 145 146 147 148 149 149 150 151 152 153 154 155 156 157 157 159 160 161 162 162 163 164 165 166 167 168 168 169 170 171 172 172 173 174 175 176 177 178 178 179 180 181 182 182 183 184 185 185 186 187 188 188 188 189 190 191 192 193 193 194 194 195 196 197 197 198 199 200 200 201 202 202 203 204 204 205 205 206 207 207 208 209 210 210 211 212 212 213 214 215 216 216 217 218 218 219 220 221 221 222 223 223 224 225 225 226 227 228 228 229 230 230 231 231 232 233 234 234 235 235 236 237 237 238 238 239 240 240 241 241 242 243 243 244 244 244 245 245 246 246 247 247 247 248 248 249 249 249 250 250 251 251 251 251 252 252 252 253 253 253 253 253 254 254 254 254 254 254 255 255 255 255 255 255 255 255 255 255 255 255 255 255 255 255 255 255 255 255 255 255 255 254 158 222 255 255 255 255 255 255 255 255 255 255
255 255 255 255 255 255 255 255 255 255 255 255 255 255 255 255 255 254 255 255 255 255 255 255 255 255 140 104 122 123 124 125 126 127 128 129 130 131 132 133 134 135 136 137 138 139 140 141 142 143 144 145 146 147 148 149 150 150 151 152 153 154 155 156 157 158 158 160 161 162 163 164 164 165 166 167 168 169 169 170 171 172 173 173 174 175 176 177 178 179 179 180 181 182 182 183 184 185 186 186 187 188 189 189 190 190 191 192 193 193 194 195 195 196 197 198 198 199 200 200 201 202 202 203 204 204 205 206 206 207 207 208 209 210 210 211 212 212 213 214 215 216 216 217 218 219 219 220 221 221 222 222 223 224 225 225 226 227 227 228 229 230 230 231 231 232 233 233 234 235 235 236 237 237 238 238 239 240 240 241 241 242 242 243 244 244 244 244 245 246 246 247 247 247 248 248 249 249 249 250 250 250 251 251 251 252 252 252 252 253 253 253 253 254 254 254 254 254 254 255 255 255 255 255 255 255 255 255 255 255 255 255 255 255 255 255 255 255 255 255 255 255 255 254 158 222 255 255 255 255 255 255 255 255 255 255
255 255 255 255 255 255 255 255 255 255 255 255 255 255 255 255 255 254 255 255 255 255 255 255 255 255 141 105 123 124 125 127 128 128 129 130 131 132 133 134 135 136 137 138 139 140 141 142 143 144 145 146 147 148 149 150 151 152 152 153 154 156 156 157 158 159 160 161 162 163 164 165 165 167 167 168 169 170 170 171 172 173 174 175 175 176 177 178 179 180 180 181 182 183 183 184 185 186 187 187 188 189 189 190 190 191 192 193 194 194 195 196 196 197 198 199 199 200 201 201 202 203 203 204 205 205 206 206 207 208 208 209 210 211 211 212 212 213 214 215 216 216 217 218 219 219 220 221 221 222 222 223 224 225 226 226 227 228 228 229 229 230 231 232 232 233 233 234 235 235 236 237 237 238 238 239 239 240 241 241 242 242 243 244 244 245 245 245 246 246 247 247 247 248 248 249 249 249 250 250 250 251 251 251 252 252 252 253 253 253 253 253 254 254 254 254 254 255 255 255 255 255 255 255 255 255 255 255 255 255 255 255 255 255 255 255 255 255 255 255 255 255 255 254 158 222 255 255 255 255 255 255 255 255 255 255
255 255 255 255 255 255 255 255 255 255 255 255 255 255 255 255 255 254 255 255 255 255 255 255 255 255 141 107 124 125 127 128 129 130 130 131 132 133 134 135 136 137 138 139 140 141 142 143 144 145 146 147 148 149 150 151 152 153 153 154 156 157 158 158 159 160 161 162 163 164 165 166 167 168 168 169 170 171 171 172 173 174 175 176 176 177 178 179 180 181 181 182 183 184 184 185 186 187 188 188 189 190 190 191 192 192 193 194 195 195 196 197 197 198 199 199 200 201 202 202 203 203 204 205 205 206 207 207 208 208 209 210 211 211 212 212 213 214 215 216 216 217 218 219 220 220 221 221 222 223 223 224 225 226 226 227 227 228 229 229 230 231 232 232 233 233 234 234 236 236 236 237 238 238 239 239 240 241 241 242 242 243 243 244 245 245 245 245 246 246 247 248 248 248 249 249 250 250 250 250 251 251 252 252 252 252 253 253 253 253 253 254 254 254 254 255 255 255 255 255 255 255 255 255 255 255 255 255 255 255 255 255 255 255 255 255 255 255 255 255 255 255 255 254 158 222 255 255 255 255 255 255 255 255 255 255
255 255 255 255 255 255 255 255 255 255 255 255 255 255 255 255 255 254 255 255 255 255 255 255 255 255 141 107 125 127 128 129 130 131 132 133 134 135 136 137 137 138 139 141 141 142 143 144 145 146 147 148 149 150 151 152 153 154 155 156 157 158 159 160 160 161 162 163 164 165 166 167 168 169 170 170 171 172 173 173 174 175 176 177 178 178 179 180 181 182 182 183 184 185 186 186 187 188 189 189 190 191 192 192 193 193 194 195 196 196 197 198 198 199 200 201 201 202 203 203 204 204 205 206 206 207 208 208 209 209 210 211 212 212 213 213 214 215 216 216 217 218 219 220 220 221 222 222 223 223 224 225 226 227 227 227 228 229 230 230 231 232 232 233 233 234 235 235 236 237 237 238 238 239 240 240 241 241 242 243 243 244 244 245 245 246 246 246 247 247 248 248 248 249 249 250 250 250 251 251 251 252 252 252 252 253 253 253 253 254 254 254 254 255 255 255 255 255 255 255 255 255 255 255 255 255 255 255 255 255 255 255 255 255 255 255 255 255 255 255 255 255 255 254 158 222 255 255 255 255 255 255 255 255 255 255
255 255 255 255 255 255 255 255 255 255 255 255 255 255 255 255 255 254 255 255 255 255 255 255 255 255 141 108 126 128 129 130 131 132 133 134 135 136 137 138 138 140 140 142 142 143 145 145 146 147 148 149 150 151 152 153 154 155 156 157 158 159 160 161 162 162 163 164 165 166 167 168 169 170 171 171 172 173 174 174 175 176 177 178 179 179 180 181 182 183 183 184 185 186 187 187 188 189 190 190 191 192 193 193 194 194 195 196 197 197 198 199 199 200 200 201 202 203 203 204 205 205 206 207 207 208 208 209 210 210 211 212 212 213 214 214 215 216 216 217 218 219 220 220 221 222 222 223 224 224 225 226 226 227 228 228 229 230 230 231 232 232 233 234 234 235 235 236 237 237 238 238 239 240 240 241 241 242 243 243 244 244 245 245 246 246 247 247 247 248 248 249 249 249 250 250 250 251 251 251 252 252 252 253 253 253 253 254 254 254 254 254 254 255 255 255 255 255 255 255 255 255 255 255 255 255 255 255 255 255 255 255 255 255 255 255 255 255 255 255 255 255 255 253 157 222 255 255 255 255 255 255 255 255 255 255
255 255 255 255 255 255 255 255 255 255 255 255 255 255 255 255 255 255 255 255 255 255 255 255 255 255 141 110 128 129 130 131 132 133 134 135 136 137 138 139 140 141 142 143 144 145 146 147 147 148 150 150 151 152 154 154 155 156 157 158 159 160 161 162 163 163 164 166 167 167 168 169 170 171 172 172 173 174 175 176 176 177 178 179 180 181 181 182 183 184 185 185 186 187 188 188 189 190 191 192 192 193 194 194 195 195 196 197 198 199 199 200 200 201 201 203 203 204 204 205 206 206 207 208 208 209 209 210 210 211 212 213 213 214 215 215 216 217 217 218 219 220 220 221 222 222 223 224 225 225 226 227 227 228 229 229 230 231 231 232 232 233 234 234 235 235 236 237 238 238 239 239 240 240 241 241 242 243 243 244 244 245 245 246 246 247 247 247 248 248 249 249 250 250 251 251 251 251 251 252 252 252 253 253 253 254 254 254 254 254 254 255 255 255 255 255 255 255 255 255 255 255 255 255 255 255 255 255 255 255 255 255 255 255 255 255 255 255 255 255 255 255 255 253 157 222 255 255 255 255 255 255 255 255 255 255
255 255 255 255 255 255 255 255 255 255 255 255 255 255 255 255 255 255 255 255 255 255 255 255 255 255 141 110 129 130 131 132 133 134 135 136 137 138 139 140 141 142 143 144 145 146 147 148 149 150 151 151 152 154 155 156 156 157 158 159 160 161 162 163 164 164 165 167 168 169 169 170 171 172 173 174 174 175 176 177 177 178 179 180 181 182 182 183 184 185 186 186 187 188 189 190 191 191 192 193 193 194 195 196 196 196 197 198 199 200 200 201 202 202 203 204 204 205 205 206 207 207 208 208 209 210 210 211 211 212 213 213 214 215 216 216 217 217 218 219 220 221 221 222 223 224 224 225 225 226 227 227 228 229 229 230 231 231 232 232 233 234 234 235 235 236 237 237 238 239 239 240 240 241 242 242 243 243 244 244 245 245 246 247 247 247 248 248 249 249 249 250 250 251 251 251 252 252 252 252 253 253 253 253 254 254 254 254 254 255 255 255 255 255 255 255 255 255 255 255 255 255 255 255 255 255 255 255 255 255 255 255 255 255 255 255 255 255 255 255 255 255 255 253 156 222 255 255 255 255 255 255 255 255 255 255
255 255 255 255 255 255 255 255 255 255 255 255 255 255 255 255 255 255 255 255 255 255 255 255 255 255 141 111 130 131 132 133 134 135 136 137 138 139 140 141 142 143 144 145 146 147 148 149 150 151 152 153 154 155 156 157 158 158 159 160 161 162 163 164 165 165 167 168 169 170 171 172 172 173 174 175 175 176 177 178 179 179 180 181 182 183 184 185 185 186 187 188 188 189 190 191 192 192 193 194 194 195 196 197 197 198 199 200 200 201 201 202 203 203 204 205 205 206 206 207 208 208 209 209 210 211 211 212 212 213 214 214 215 216 217 217 218 218 219 220 221 222 222 223 224 224 225 226 226 227 228 228 229 230 230 231 232 232 233 233 234 235 235 236 236 237 238 238 239 240 240 241 241 242 242 243 243 244 245 245 246 246 247 247 248 248 248 249 249 250 250 251 251 251 252 252 252 252 253 253 253 253 254 254 254 254 254 255 255 255 255 255 255 255 255 255 255 255 255 255 255 255 255 255 255 255 255 255 255 255 255 255 255 255 255 255 255 255 255 255 255 255 254 253 156 222 255 255 255 255 255 255 255 255 255 255
255 255 255 255 255 255 255 255 255 255 255 255 255 255 255 255 255 255 255 255 255 255 255 255 255 255 141 112 131 132 133 134 135 136 137 138 139 140 141 142 143 144 145 146 147 148 149 150 151 152 153 154 155 156 157 158 159 159 160 161 162 163 164 165 166 167 168 169 170 171 172 173 173 174 175 176 177 177 178 179 180 181 181 182 183 184 185 186 186 187 188 189 190 190 191 192 193 193 194 195 196 196 197 198 198 199 200 201 201 202 203 203 204 204 205 206 206 207 207 208 209 209 210 210 211 212 212 213 213 214 215 215 216 217 218 218 219 219 220 221 222 222 223 224 225 225 227 227 227 228 229 229 230 231 231 232 233 233 233 234 235 235 236 237 237 238 238 239 240 240 241 241 242 242 243 244 244 245 245 246 246 247 247 248 248 249 249 249 250 250 250 251 252 252 252 253 253 253 253 254 254 254 254 254 255 255 255 255 255 255 255 255 255 255 255 255 255 255 255 255 255 255 255 255 255 255 255 255 255 255 255 255 255 255 255 255 255 255 255 255 255 254 254 252 155 222 255 255 255 255 255 255 255 255 255 255
255 255 255 255 255 255 255 255 255 255 255 255 255 255 255 254 255 255 255 255 255 255 255 255 255 255 140 113 132 133 134 136 137 137 138 139 140 141 142 143 144 145 146 147 148 149 150 151 152 153 154 155 156 157 158 159 160 161 161 162 164 165 166 167 168 168 169 170 172 172 173 174 175 176 176 177 178 179 180 180 181 182 183 184 184 185 186 187 188 189 189 190 191 192 192 193 194 195 195 196 197 197 198 199 200 201 201 202 203 203 204 204 205 205 206 207 207 208 209 209 210 210 211 212 212 213 213 214 214 215 216 217 217 218 219 219 220 221 221 222 223 224 224 225 226 227 228 228 229 229 230 230 231 232 232 233 233 234 235 235 236 236 237 238 238 239 239 240 241 241 242 242 243 243 244 245 245 246 246 247 247 248 248 249 249 250 250 250 251 251 251 252 252 253 253 253 254 254 254 254 254 255 255 255 255 255 255 255 255 255 255 255 255 255 255 255 255 255 255 255 255 255 255 255 255 255 255 255 255 255 255 255 255 255 255 255 255 255 255 255 254 254 254 252 154 222 255 255 255 255 255 255 255 255 255 255
255 255 255 255 255 255 255 255 255 255 255 255 255 255 255 254 255 255 255 255 255 255 255 255 255 255 140 114 134 135 136 137 138 139 140 140 141 143 144 144 145 146 147 148 149 150 152 152 153 154 155 156 157 158 160 160 161 162 163 164 165 166 167 168 169 170 171 172 173 174 175 176 176 177 178 179 179 180 181 182 183 183 184 185 186 187 188 189 189 190 191 192 192 193 194 195 196 196 197 198 198 199 200 201 201 202 203 204 204 205 205 205 207 207 208 208 209 209 210 211 211 212 212 213 214 214 215 215 216 216 217 218 219 219 220 220 221 222 222 223 224 225 225 226 227 228 229 230 230 230 231 231 232 233 234 234 235 235 236 236 237 237 238 239 239 240 240 241 242 242 243 243 244 244 245 245 246 247 247 248 248 248 249 250 250 250 251 251 252 252 252 253 253 253 254 254 254 254 255 255 255 255 255 255 255 255 255 255 255 255 255 255 255 255 255 255 255 255 255 255 255 255 255 255 255 255 255 255 255 255 255 255 255 255 255 255 255 255 254 254 254 254 253 251 154 221 255 255 255 255 255 255 255 255 255 255
255 255 255 255 255 255 255 255 255 255 254 255 255 254 255 254 255 255 255 255 255 255 255 255 255 255 138 106 125 126 126 127 128 129 129 130 131 132 132 133 134 135 135 136 137 138 139 139 141 141 142 143 144 145 146 147 148 148 148 150 151 151 152 153 155 156 157 156 157 159 159 160 160 161 162 162 163 164 164 165 165 166 167 168 168 169 169 170 171 172 172 173 174 174 175 175 177 177 177 178 179 179 180 181 181 183 182 183 183 183 184 184 185 185 186 187 187 187 188 188 189 189 190 190 191 191 192 192 193 193 194 194 195 196 197 197 197 198 198 199 200 200 201 202 203 203 205 206 205 205 207 207 207 207 208 208 209 209 209 210 210 211 211 212 212 212 213 213 214 215 215 215 216 216 217 218 218 218 219 219 220 220 221 221 221 222 222 223 222 223 223 223 224 223 224 224 224 225 225 225 224 224 224 224 224 224 224 224 224 224 224 224 224 224 223 223 223 223 223 223 222 222 222 222 222 222 222 222 222 221 221 220 220 221 220 220 218 218 218 218 217 217 216 215 137 221 255 255 255 255 255 255 255 255 255 255
255 255 255 255 255 255 255 255 254 255 254 255 254 255 255 254 255 255 254 255 255 255 255 254 254 254 154 113 148 148 148 148 149 148 148 148 148 148 148 148 148 148 148 147 148 148 148 147 148 148 148 148 148 148 149 149 149 149 148 149 149 149 149 149 150 151 151 143 93 146 150 151 151 151 150 150 150 151 151 151 151 151 151 151 151 151 151 151 151 151 151 151 151 152 152 152 152 152 152 152 153 152 152 152 153 153 152 153 136 105 153 153 153 153 153 153 153 153 153 153 153 153 153 154 154 154 154 155 155 155 155 155 155 155 156 156 155 156 156 156 156 156 157 157 157 157 158 158 157 158 123 128 157 157 157 158 158 158 158 158 158 158 158 158 158 158 159 159 159 159 159 159 160 160 160 161 161 160 161 161 161 161 161 161 161 161 162 162 161 162 162 162 140 114 162 161 162 162 162 162 161 161 161 161 160 160 160 160 160 160 159 159 159 159 158 158 158 158 158 157 157 158 158 158 158 157 157 157 158 156 157 157 157 153 102 152 155 155 155 155 155 155 155 157 164 238 255 255 255 255 255 255 255 255 255 255
255 255 255 255 255 255 255 255 255 255 255 255 255 255 255 255 255 255 255 255 255 255 255 255 255 255 175 189 254 254 254 254 254 254 254 254 254 254 255 255 255 255 255 255 255 255 255 255 255 255 255 255 255 255 255 255 255 255 255 255 255 255 255 255 255 255 255 242 139 247 255 255 255 255 255 255 255 255 255 255 255 255 255 255 255 255 255 255 255 255 255 255 255 255 255 255 255 255 255 255 255 255 255 255 255 255 255 255 221 160 255 255 255 255 255 255 255 255 255 255 255 255 255 255 255 255 255 255 255 255 255 255 255 255 255 255 255 255 255 255 255 255 255 255 255 255 255 255 255 255 180 191 255 255 255 255 255 255 255 255 255 255 255 255 255 255 255 255 255 255 255 255 254 254 254 254 254 254 254 254 254 254 254 254 254 254 254 254 254 254 254 254 210 157 254 254 254 254 254 254 254 254 254 254 254 255 255 255 255 255 255 255 255 255 255 255 255 255 255 255 255 255 255 255 255 255 255 255 255 255 255 255 255 247 143 246 255 255 255 255 255 255 255 255 253 255 255 255 255 255 255 255 255 255 255 255
255 255 255 255 255 255 255 255 255 255 255 255 255 255 255 255 255 255 255 255 255 255 255 255 255 255 195 205 254 254 254 254 254 254 254 255 255 255 255 255 255 255 255 255 255 255 255 255 255 255 255 255 255 255 255 255 255 255 255 255 255 255 255 255 255 255 255 245 167 249 255 255 255 255 255 255 255 255 255 255 255 255 255 255 255 255 255 255 255 255 255 255 255 255 255 255 255 255 255 255 255 255 255 255 255 255 255 255 229 183 255 255 255 255 255 255 255 255 255 255 255 255 255 255 255 255 255 255 255 255 255 255 255 255 255 255 255 255 255 255 255 255 255 255 255 255 255 255 255 255 198 206 255 255 255 255 255 255 255 255 255 255 255 255 255 255 255 255 255 255 255 255 254 255 254 254 254 254 254 254 254 254 254 254 254 254 254 254 254 254 254 254 221 180 254 254 254 254 254 254 254 255 255 254 255 255 255 255 255 255 255 255 255 255 255 255 255 255 255 255 255 255 255 255 255 255 255 255 255 255 255 255 255 249 170 248 255 255 255 255 255 255 255 255 254 255 255 255 255 255 255 255 255 255 255 255
255 255 255 255 255 255 255 255 255 255 255 255 255 255 255 255 255 255 255 255 255 255 255 255 255 255 251 252 255 255 255 255 255 255 255 255 255 255 255 255 255 255 255 255 255 255 255 255 255 255 255 255 255 255 255 255 255 255 255 255 255 255 255 255 255 255 255 254 249 255 255 255 255 255 255 255 255 255 255 255 255 255 255 255 255 255 255 255 255 255 255 255 255 255 255 255 255 255 255 255 255 255 255 255 255 255 255 255 253 250 255 255 255 255 255 255 255 255 255 255 255 255 255 255 255 255 255 255 255 255 255 255 255 255 255 255 255 255 255 255 255 255 255 255 255 255 255 255 255 255 251 252 255 255 255 255 255 255 255 255 255 255 255 255 255 255 255 255 255 255 255 255 255 255 255 255 255 255 255 255 255 255 255 255 255 255 255 255 255 255 255 255 253 250 255 255 255 255 255 255 255 255 255 255 255 255 255 255 255 255 255 255 255 255 255 255 255 255 255 255 255 255 255 255 255 255 255 255 255 255 255 255 255 255 249 254 255 255 255 255 255 255 255 255 255 255 255 255 255 255 255 255 255 255 255 255
255 255 255 255 255 255 255 255 255 255 255 255 255 255 255 255 255 255 255 255 255 255 255 255 255 254 248 249 255 255 255 255 255 255 255 255 255 255 255 255 255 255 255 255 255 255 255 255 255 255 255 255 255 255 255 255 255 255 255 255 255 255 255 254 248 246 247 254 255 250 248 254 255 255 255 255 255 255 255 255 255 255 255 255 255 255 255 255 255 255 255 255 255 255 255 255 255 255 255 255 255 255 254 249 249 255 255 255 250 248 254 255 254 248 250 255 255 255 255 255 255 255 255 255 255 255 255 255 255 255 255 255 255 255 255 255 255 255 255 255 255 255 255 255 254 249 249 255 255 250 247 247 253 255 253 248 251 255 255 255 255 255 255 255 255 255 255 255 255 255 255 255 255 255 255 255 255 255 255 255 255 255 255 255 255 255 254 249 248 251 255 255 249 248 254 255 253 248 250 255 255 255 255 255 255 255 255 255 255 255 255 255 255 255 255 255 255 255 255 255 255 255 255 255 255 255 255 253 248 248 253 255 252 247 246 250 255 253 248 250 255 255 255 255 255 255 255 255 255 255 255 255 255 255 255 255
255 255 255 255 255 255 255 255 255 255 255 255 255 255 255 255 255 255 255 255 255 255 255 255 254 200 131 134 216 255 255 255 255 255 255 255 255 255 255 255 255 255 255 255 255 255 255 255 255 255 255 255 255 255 255 255 255 255 255 255 255 255 255 232 116 139 156 240 230 139 133 182 253 255 255 255 255 255 255 255 255 255 255 255 255 255 255 255 255 255 255 255 255 255 255 255 255 255 255 255 255 255 240 146 108 231 255 223 136 132 194 253 190 133 135 224 255 255 255 255 255 255 255 255 255 255 255 255 255 255 255 255 255 255 255 255 255 255 255 255 255 255 255 255 238 142 108 232 249 132 133 145 223 248 165 135 146 237 255 255 255 255 255 255 255 255 255 255 255 255 255 255 255 255 255 255 255 255 255 255 255 255 255 255 255 255 223 137 136 155 245 217 134 132 197 251 179 132 139 230 255 255 255 255 255 255 255 255 255 255 255 255 255 255 255 255 255 255 255 255 255 255 255 255 255 255 255 212 137 135 170 250 166 123 142 197 253 184 132 138 230 255 255 255 255 255 255 255 255 255 255 255 255 255 255 255
255 255 255 255 255 255 255 255 255 255 255 255 255 255 255 255 255 255 255 255 255 255 255 255 245 111 202 187 126 251 255 255 255 255 255 255 255 255 255 255 255 255 255 255 255 255 255 255 255 255 255 255 255 255 255 255 255 255 255 255 255 255 255 224 100 217 238 252 149 161 225 108 229 255 255 255 255 255 255 255 255 255 255 255 255 255 255 255 255 255 255 255 255 255 255 255 255 255 255 255 255 255 246 212 97 222 253 138 175 214 108 219 106 219 168 142 253 255 255 255 255 255 255 255 255 255 255 255 255 255 255 255 255 255 255 255 255 255 255 255 255 255 255 255 245 209 96 222 246 99 189 228 251 207 114 234 152 163 255 255 255 255 255 255 255 255 255 255 255 255 255 255 255 255 255 255 255 255 255 255 255 255 255 255 255 255 239 227 238 117 201 127 187 212 110 212 105 225 162 150 253 255 255 255 255 255 255 255 255 255 255 255 255 255 255 255 255 255 255 255 255 255 255 255 255 255 255 234 232 230 102 227 136 159 225 247 232 105 223 158 155 254 255 255 255 255 255 255 255 255 255 255 255 255 255 255
255 255 255 255 255 255 255 255 255 255 255 255 255 255 255 255 255 255 255 255 255 255 255 255 227 99 240 224 102 243 255 255 255 255 255 255 255 255 255 255 255 255 255 255 255 255 255 255 255 255 255 255 255 255 255 255 255 255 255 255 255 255 255 229 105 119 123 220 108 205 251 124 197 255 255 255 255 255 255 255 255 255 255 255 255 255 255 255 255 255 255 255 255 255 255 255 255 255 255 255 255 255 255 246 103 222 247 105 219 245 103 179 102 247 216 106 248 255 255 255 255 255 255 255 255 255 255 255 255 255 255 255 255 255 255 255 255 255 255 255 255 255 255 255 255 246 104 222 248 129 121 112 196 173 140 254 195 124 252 255 255 255 255 255 255 255 255 255 255 255 255 255 255 255 255 255 255 255 255 255 255 255 255 255 255 255 255 255 229 115 213 101 225 246 104 159 122 251 209 109 248 255 255 255 255 255 255 255 255 255 255 255 255 255 255 255 255 255 255 255 255 255 255 255 255 255 255 255 255 212 115 239 158 109 112 166 201 108 248 201 120 251 255 255 255 255 255 255 255 255 255 255 255 255 255 255
255 255 255 255 255 255 255 255 255 255 255 255 255 255 255 255 255 255 255 255 255 255 255 255 228 101 239 222 101 244 255 255 255 255 255 255 255 255 255 255 255 255 255 255 255 255 255 255 255 255 255 255 255 255 255 255 255 255 255 255 255 255 255 252 243 245 155 148 112 206 251 121 198 255 255 255 255 255 255 255 255 255 255 255 255 255 255 255 255 255 255 255 255 255 255 255 255 255 255 255 255 255 255 246 103 222 247 108 216 245 104 184 103 247 213 109 248 255 255 255 255 255 255 255 255 255 255 255 255 255 255 255 255 255 255 255 255 255 255 255 255 255 255 255 255 246 104 222 254 248 249 196 121 171 140 254 193 124 252 255 255 255 255 255 255 255 255 255 255 255 255 255 255 255 255 255 255 255 255 255 255 255 255 255 255 255 255 234 132 188 241 102 223 245 103 165 121 251 208 111 248 255 255 255 255 255 255 255 255 255 255 255 255 255 255 255 255 255 255 255 255 255 255 255 255 255 255 255 219 116 203 254 246 247 226 102 182 107 248 199 121 251 255 255 255 255 255 255 255 255 255 255 255 255 255 255
255 255 255 255 255 255 255 255 255 255 255 255 255 255 255 255 255 255 255 255 255 255 255 255 247 118 188 173 131 251 255 255 255 255 255 255 255 255 255 255 255 255 255 255 255 255 255 255 255 255 255 255 255 255 255 255 255 255 255 255 255 255 255 248 238 245 152 159 157 154 211 106 231 255 255 255 255 255 255 255 255 255 255 255 255 255 255 255 255 255 255 255 255 255 255 255 255 255 255 255 255 255 252 223 93 199 245 147 164 203 112 224 106 205 158 150 254 255 255 255 255 255 255 255 255 255 255 255 255 255 255 255 255 255 255 255 255 255 255 255 255 255 255 255 251 223 94 199 243 231 243 178 132 209 113 226 145 165 255 255 255 255 255 255 255 255 255 255 255 255 255 255 255 255 255 255 255 255 255 255 255 255 255 255 255 255 238 126 159 225 244 133 174 203 112 218 107 212 152 156 254 255 255 255 255 255 255 255 255 255 255 255 255 255 255 255 255 255 255 255 255 255 255 255 255 255 255 222 103 169 228 250 233 242 211 104 214 107 221 157 155 254 255 255 255 255 255 255 255 255 255 255 255 255 255 255
255 255 255 255 255 255 255 255 255 255 255 255 255 255 255 255 255 255 255 254 255 255 255 255 255 216 136 138 223 255 255 255 255 255 255 255 255 255 255 255 255 255 255 255 255 255 255 255 255 255 255 255 255 255 255 255 255 255 255 255 255 255 255 230 136 129 136 232 236 149 133 194 254 255 255 255 255 255 255 255 255 255 255 255 255 255 255 255 255 255 255 255 255 255 255 255 255 255 255 255 255 255 239 141 102 125 218 231 146 135 203 253 199 131 145 232 255 255 255 255 255 255 255 255 255 255 255 255 255 255 255 255 255 255 255 255 255 255 255 255 255 255 255 255 238 139 102 126 209 148 129 128 218 250 172 132 152 239 255 255 255 255 255 255 255 255 255 255 255 255 255 255 255 255 255 255 255 255 255 255 255 255 255 255 255 255 208 106 125 130 219 223 141 136 206 253 195 133 151 236 255 255 255 255 255 255 255 255 255 255 255 255 255 255 255 255 255 255 255 255 255 255 255 255 255 255 255 179 103 124 141 234 171 127 122 191 252 188 134 140 232 255 255 255 255 255 255 255 255 255 255 255 255 255 255 255
255 255 255 255 255 255 255 255 255 255 255 255 255 255 255 255 255 255 255 255 255 255 255 255 255 255 251 251 255 255 255 255 255 255 255 255 255 255 255 255 255 255 255 255 255 255 255 255 255 255 255 255 255 255 255 255 255 255 255 255 255 255 255 253 244 241 245 255 255 251 248 255 255 255 255 255 255 255 255 255 255 255 255 255 255 255 255 255 255 255 255 255 255 255 255 255 255 255 255 255 255 255 254 249 249 249 253 255 251 250 255 254 255 248 251 255 255 255 255 255 255 255 255 255 255 255 255 255 255 255 255 255 255 255 255 255 255 255 255 255 255 255 255 255 254 249 249 249 253 247 243 244 255 255 254 248 252 255 255 255 255 255 255 255 255 255 255 255 255 255 255 255 255 255 255 255 255 255 255 255 255 255 255 255 255 255 253 249 250 246 253 255 251 250 255 254 255 248 252 255 255 255 255 255 255 255 255 255 255 255 255 255 255 255 255 255 255 255 255 255 255 255 255 255 255 255 255 252 250 249 247 254 249 242 243 253 255 254 248 251 255 255 255 255 255 255 255 255 255 255 255 255 255 255 255 255
255 255 255 255 255 255 255 255 255 255 255 255 255 255 255 255 255 255 255 255 255 255 255 255 255 255 255 255 255 255 255 255 255 255 255 255 255 255 255 255 255 255 255 255 255 255 255 255 255 255 255 255 255 255 255 255 255 255 255 255 255 255 255 255 255 255 255 255 255 255 255 255 255 255 255 255 255 255 255 255 255 255 255 255 255 255 255 255 255 255 255 255 255 255 255 255 255 255 255 255 255 255 255 255 255 255 255 255 255 255 255 255 255 255 255 255 255 255 255 255 255 255 255 255 255 255 255 255 255 255 255 255 255 255 255 255 255 255 255 255 255 255 255 255 255 255 255 255 255 255 255 255 255 255 255 255 255 255 255 255 255 255 255 255 255 255 255 255 255 255 255 255 255 255 255 255 255 255 255 255 255 255 255 255 255 255 255 255 255 255 255 255 255 255 255 255 255 255 255 255 255 255 255 255 255 255 255 255 255 255 255 255 255 255 255 255 255 255 255 255 255 255 255 255 255 255 255 255 255 255 255 255 255 255 255 255 255 255 255 255 255 255 255 255 255 255 255 255 255 255 255 255 255 255 255 255
255 255 255 255 255 255 255 255 255 255 255 255 255 255 255 255 255 255 255 255 255 255 255 255 255 255 255 255 255 255 255 255 255 255 255 255 255 255 255 255 255 255 255 255 255 255 255 255 255 255 255 255 255 255 255 255 255 255 255 255 255 255 255 255 255 255 255 255 255 255 255 255 255 255 255 255 255 255 255 255 255 255 255 255 255 255 255 255 255 255 255 255 255 255 255 255 255 255 255 255 255 255 255 255 255 255 255 255 255 255 255 255 255 255 255 255 255 255 255 255 255 255 255 255 255 255 255 255 255 255 255 255 255 255 255 255 255 255 255 255 255 255 255 255 255 255 255 255 255 255 255 255 255 255 255 255 255 255 255 255 255 255 255 255 255 255 255 255 255 255 255 255 255 255 255 255 255 255 255 255 255 255 255 255 255 255 255 255 255 255 255 255 255 255 255 255 255 255 255 255 255 255 255 255 255 255 255 255 255 255 255 255 255 255 255 255 255 255 255 255 255 255 255 255 255 255 255 255 255 255 255 255 255 255 255 255 255 255 255 255 255 255 255 255 255 255 255 255 255 255 255 255 255 255 255 255
255 255 255 255 255 255 255 255 255 255 255 255 255 255 255 255 255 255 255 255 255 255 255 255 255 255 255 255 255 255 255 255 255 255 255 255 255 255 255 255 255 255 255 255 255 255 255 255 255 255 255 255 255 255 255 255 255 255 255 255 255 255 255 255 255 255 255 255 255 255 255 255 255 255 255 255 255 255 255 255 255 255 255 255 255 255 255 255 255 255 255 255 255 255 255 255 255 255 255 255 255 255 255 255 255 255 255 255 255 255 255 255 255 255 255 255 255 255 255 255 255 255 255 255 255 255 255 255 255 255 255 255 255 255 255 255 255 255 255 255 255 255 255 255 255 255 255 255 255 255 255 255 255 255 255 255 255 255 255 255 255 255 255 255 255 255 255 255 255 255 255 255 255 255 255 255 255 255 255 255 255 255 255 255 255 255 255 255 255 255 255 255 255 255 255 255 255 255 255 255 255 255 255 255 255 255 255 255 255 255 255 255 255 255 255 255 255 255 255 255 255 255 255 255 255 255 255 255 255 255 255 255 255 255 255 255 255 255 255 255 255 255 255 255 255 255 255 255 255 255 255 255 255 255 255 255
255 255 255 255 255 255 255 255 255 255 255 255 255 255 255 255 255 255 255 255 255 255 255 255 255 255 255 255 255 255 255 255 255 255 255 255 255 255 255 255 255 255 255 255 255 255 255 255 255 255 255 255 255 255 255 255 255 255 255 255 255 255 255 255 255 255 255 255 255 255 255 255 255 255 255 255 255 255 255 255 255 255 255 255 255 255 255 255 255 255 255 255 255 255 255 255 255 255 255 255 255 255 255 255 255 255 255 255 255 255 255 255 255 255 255 255 255 255 255 255 255 255 255 255 255 255 255 255 255 255 255 255 255 255 255 255 255 255 255 255 255 255 255 255 255 255 255 255 255 255 255 255 255 255 255 255 255 255 255 255 255 255 255 255 255 255 255 255 255 255 255 255 255 255 255 255 255 255 255 255 255 255 255 255 255 255 255 255 255 255 255 255 255 255 255 255 255 255 255 255 255 255 255 255 255 255 255 255 255 255 255 255 255 255 255 255 255 255 255 255 255 255 255 255 255 255 255 255 255 255 255 255 255 255 255 255 255 255 255 255 255 255 255 255 255 255 255 255 255 255 255 255 255 255 255 255
255 255 255 255 255 255 255 255 255 255 255 255 255 255 255 255 255 255 255 255 255 255 255 255 255 255 255 255 255 255 255 255 255 255 255 255 255 255 255 255 255 255 255 255 255 255 255 255 255 255 255 255 255 255 255 255 255 255 255 255 255 255 255 255 255 255 255 255 255 255 255 255 255 255 255 255 255 255 255 255 255 255 255 255 255 255 255 255 255 255 255 255 255 255 255 255 255 255 255 255 255 255 255 255 255 255 255 255 255 255 255 255 255 255 255 255 255 255 255 255 255 255 255 255 255 255 255 255 255 255 255 255 255 255 255 255 255 255 255 255 255 255 255 255 255 255 255 255 255 255 255 255 255 255 255 255 255 255 255 255 255 255 255 255 255 255 255 255 255 255 255 255 255 255 255 255 255 255 255 255 255 255 255 255 255 255 255 255 255 255 255 255 255 255 255 255 255 255 255 255 255 255 255 255 255 255 255 255 255 255 255 255 255 255 255 255 255 255 255 255 255 255 255 255 255 255 255 255 255 255 255 255 255 255 255 255 255 255 255 255 255 255 255 255 255 255 255 255 255 255 255 255 255 255 255 255
255 255 255 255 255 255 255 255 255 255 255 255 255 255 255 255 255 255 255 255 255 255 255 255 255 255 255 255 255 255 255 255 255 255 255 255 255 255 255 255 255 255 255 255 255 255 255 255 255 255 255 255 255 255 255 255 255 255 255 255 255 255 255 255 255 255 255 255 255 255 255 255 255 255 255 255 255 255 255 255 255 255 255 255 255 255 255 255 255 255 255 255 255 255 255 255 255 255 255 255 255 255 255 255 255 255 255 255 255 255 255 255 255 255 255 255 255 255 255 255 255 255 255 255 255 255 255 255 255 255 255 255 255 255 255 255 255 255 255 255 255 255 255 255 255 255 255 255 255 255 255 255 255 255 255 255 255 255 255 255 255 255 255 255 255 255 255 255 255 255 255 255 255 255 255 255 255 255 255 255 255 255 255 255 255 255 255 255 255 255 255 255 255 255 255 255 255 255 255 255 255 255 255 255 255 255 255 255 255 255 255 255 255 255 255 255 255 255 255 255 255 255 255 255 255 255 255 255 255 255 255 255 255 255 255 255 255 255 255 255 255 255 255 255 255 255 255 255 255 255 255 255 255 255 255 255
255 255 255 255 255 255 255 255 255 255 255 255 255 255 255 255 255 255 255 255 255 255 255 255 255 255 255 255 255 255 255 255 255 255 255 255 255 255 255 255 255 255 255 255 255 255 255 255 255 255 255 255 255 255 255 255 255 255 255 255 255 255 255 255 255 255 255 255 255 255 255 255 255 255 255 255 255 255 255 255 255 255 255 255 255 255 255 255 255 255 255 255 255 255 255 255 255 255 255 255 255 255 255 255 255 255 255 255 255 255 255 255 255 255 255 255 255 255 255 255 255 255 255 255 255 255 255 255 255 255 255 255 255 255 255 255 255 255 255 255 255 255 255 255 255 255 255 255 255 255 255 255 255 255 255 255 255 255 255 255 255 255 255 255 255 255 255 255 255 255 255 255 255 255 255 255 255 255 255 255 255 255 255 255 255 255 255 255 255 255 255 255 255 255 255 255 255 255 255 255 255 255 255 255 255 255 255 255 255 255 255 255 255 255 255 255 255 255 255 255 255 255 255 255 255 255 255 255 255 255 255 255 255 255 255 255 255 255 255 255 255 255 255 255 255 255 255 255 255 255 255 255 255 255 255 255
255 255 255 255 255 255 255 255 255 255 255 255 255 255 255 255 255 255 255 255 255 255 255 255 255 255 255 255 255 255 255 255 255 255 255 255 255 255 255 255 255 255 255 255 255 255 255 255 255 255 255 255 255 255 255 255 255 255 255 255 255 255 255 255 255 255 255 255 255 255 255 255 255 255 255 255 255 255 255 255 255 255 255 255 255 255 255 255 255 255 255 255 255 255 255 255 255 255 255 255 255 255 255 255 255 255 255 255 255 255 255 255 255 255 255 255 255 255 255 255 255 255 255 255 255 255 255 255 255 255 255 255 255 255 255 255 255 255 255 255 255 255 255 255 255 255 255 255 255 255 255 255 255 255 255 255 255 255 255 255 255 255 255 255 255 255 255 255 255 255 255 255 255 255 255 255 255 255 255 255 255 255 255 255 255 255 255 255 255 255 255 255 255 255 255 255 255 255 255 255 255 255 255 255 255 255 255 255 255 255 255 255 255 255 255 255 255 255 255 255 255 255 255 255 255 255 255 255 255 255 255 255 255 255 255 255 255 255 255 255 255 255 255 255 255 255 255 255 255 255 255 255 255 255 255 255
255 255 255 255 255 255 255 255 255 255 255 255 255 255 255 255 255 255 255 255 255 255 255 255 255 255 255 255 255 255 255 255 255 255 255 255 255 255 255 255 255 255 255 255 255 255 255 255 255 255 255 255 255 255 255 255 255 255 255 255 255 255 255 255 255 255 255 255 255 255 255 255 255 255 255 255 255 255 255 255 255 255 255 255 255 255 255 255 255 255 255 255 255 255 255 255 255 255 255 255 255 255 255 255 255 255 255 255 255 255 255 255 255 255 255 255 255 255 255 255 255 255 255 255 255 255 255 255 255 255 255 255 255 255 255 255 255 255 255 255 255 255 255 255 255 255 255 255 255 255 255 255 255 255 255 255 255 255 255 255 255 255 255 255 255 255 255 255 255 255 255 255 255 255 255 255 255 255 255 255 255 255 255 255 255 255 255 255 255 255 255 255 255 255 255 255 255 255 255 255 255 255 255 255 255 255 255 255 255 255 255 255 255 255 255 255 255 255 255 255 255 255 255 255 255 255 255 255 255 255 255 255 255 255 255 255 255 255 255 255 255 255 255 255 255 255 255 255 255 255 255 255 255 255 255 255
255 255 255 255 255 255 255 255 255 255 255 255 255 255 255 255 255 255 255 255 255 255 255 255 255 255 255 255 255 255 255 255 255 255 255 255 255 255 255 255 255 255 255 255 255 255 255 255 255 255 255 255 255 255 255 255 255 255 255 255 255 255 255 255 255 255 255 255 255 255 255 255 255 255 255 255 255 255 255 255 255 255 255 255 255 255 255 255 255 255 255 255 255 255 255 255 255 255 255 255 255 255 255 255 255 255 255 255 255 255 255 255 255 255 255 255 255 255 255 255 255 255 255 255 255 255 255 255 255 255 255 255 255 255 255 255 255 255 255 255 255 255 255 255 255 255 255 255 255 255 255 255 255 255 255 255 255 255 255 255 255 255 255 255 255 255 255 255 255 255 255 255 255 255 255 255 255 255 255 255 255 255 255 255 255 255 255 255 255 255 255 255 255 255 255 255 255 255 255 255 255 255 255 255 255 255 255 255 255 255 255 255 255 255 255 255 255 255 255 255 255 255 255 255 255 255 255 255 255 255 255 255 255 255 255 255 255 255 255 255 255 255 255 255 255 255 255 255 255 255 255 255 255 255 255 255
255 255 255 255 255 255 255 255 255 255 255 255 255 255 255 255 255 255 255 255 255 255 255 255 255 255 255 255 255 255 255 255 255 255 255 255 255 255 255 255 255 255 255 255 255 255 255 255 255 255 255 255 255 255 255 255 255 255 255 255 255 255 255 255 255 255 255 255 255 255 255 255 255 255 255 255 255 255 255 255 255 255 255 255 255 255 255 255 255 255 255 255 255 255 255 255 255 255 255 255 255 255 255 255 255 255 255 255 255 255 255 255 255 255 255 255 255 255 255 255 255 255 255 255 255 255 255 255 255 255 255 255 255 255 255 255 255 255 255 255 255 255 255 255 255 255 255 255 255 255 255 255 255 255 255 255 255 255 255 255 255 255 255 255 255 255 255 255 255 255 255 255 255 255 255 255 255 255 255 255 255 255 255 255 255 255 255 255 255 255 255 255 255 255 255 255 255 255 255 255 255 255 255 255 255 255 255 255 255 255 255 255 255 255 255 255 255 255 255 255 255 255 255 255 255 255 255 255 255 255 255 255 255 255 255 255 255 255 255 255 255 255 255 255 255 255 255 255 255 255 255 255 255 255 255 255
255 255 255 255 255 255 255 255 255 255 255 255 255 255 255 255 255 255 255 255 255 255 255 255 255 255 255 255 255 255 255 255 255 255 255 255 255 255 255 255 255 255 255 255 255 255 255 255 255 255 255 255 255 255 255 255 255 255 255 255 255 255 255 255 255 255 255 255 255 255 255 255 255 255 255 255 255 255 255 255 255 255 255 255 255 255 255 255 255 255 255 255 255 255 255 255 255 255 255 255 255 255 255 255 255 255 255 255 255 255 255 255 255 255 255 255 255 255 255 255 255 255 255 255 255 255 255 255 255 255 255 255 255 255 255 255 255 255 255 255 255 255 255 255 255 255 255 255 255 255 255 255 255 255 255 255 255 255 255 255 255 255 255 255 255 255 255 255 255 255 255 255 255 255 255 255 255 255 255 255 255 255 255 255 255 255 255 255 255 255 255 255 255 255 255 255 255 255 255 255 255 255 255 255 255 255 255 255 255 255 255 255 255 255 255 255 255 255 255 255 255 255 255 255 255 255 255 255 255 255 255 255 255 255 255 255 255 255 255 255 255 255 255 255 255 255 255 255 255 255 255 255 255 255 255 255
255 255 255 255 255 255 255 255 255 255 255 255 255 255 255 255 255 255 255 255 255 255 255 255 255 255 255 255 255 255 255 255 255 255 255 255 255 255 255 255 255 255 255 255 255 255 255 255 255 255 255 255 255 255 255 255 255 255 255 255 255 255 255 255 255 255 255 255 255 255 255 255 255 255 255 255 255 255 255 255 255 255 255 255 255 255 255 255 255 255 255 255 255 255 255 255 255 255 255 255 255 255 255 255 255 255 255 255 255 255 255 255 255 255 255 255 255 255 255 255 255 255 255 255 255 255 255 255 255 255 255 255 255 255 255 255 255 255 255 255 255 255 255 255 255 255 255 255 255 255 255 255 255 255 255 255 255 255 255 255 255 255 255 255 255 255 255 255 255 255 255 255 255 255 255 255 255 255 255 255 255 255 255 255 255 255 255 255 255 255 255 255 255 255 255 255 255 255 255 255 255 255 255 255 255 255 255 255 255 255 255 255 255 255 255 255 255 255 255 255 255 255 255 255 255 255 255 255 255 255 255 255 255 255 255 255 255 255 255 255 255 255 255 255 255 255 255 255 255 255 255 255 255 255 255 255
255 255 255 255 255 255 255 255 255 255 255 255 255 255 255 255 255 255 255 255 255 255 255 255 255 255 255 255 255 255 255 255 255 255 255 255 255 255 255 255 255 255 255 255 255 255 255 255 255 255 255 255 255 255 255 255 255 255 255 255 255 255 255 255 255 255 255 255 255 255 255 255 255 255 255 255 255 255 255 255 255 255 255 255 255 255 255 255 255 255 255 255 255 255 255 255 255 255 255 255 255 255 255 255 255 255 255 255 255 255 255 255 255 255 255 255 255 255 255 255 255 255 255 255 255 255 255 255 255 255 255 255 255 255 255 255 255 255 255 255 255 255 255 255 255 255 255 255 255 255 255 255 255 255 255 255 255 255 255 255 255 255 255 255 255 255 255 255 255 255 255 255 255 255 255 255 255 255 255 255 255 255 255 255 255 255 255 255 255 255 255 255 255 255 255 255 255 255 255 255 255 255 255 255 255 255 255 255 255 255 255 255 255 255 255 255 255 255 255 255 255 255 255 255 255 255 255 255 255 255 255 255 255 255 255 255 255 255 255 255 255 255 255 255 255 255 255 255 255 255 255 255 255 255 255 255
