P2
256 256
255
253 253 253 253 253 252 239 236 235 237 239 239 249 253 253 255 254 253 240 236 238 239 237 236 245 254 255 253 251 254 246 237 236 238 238 238 244 252 252 253 253 253 248 237 237 237 236 237 242 253 254 253 252 253 250 238 237 237 237 236 240 253 253 252 252 253 252 241 237 237 236 237 238 249 251 252 253 253 253 242 236 235 234 236 239 250 254 252 252 253 253 244 238 238 237 237 237 246 253 254 253 253 252 247 239 236 237 241 240 242 251 251 252 254 255 252 241 237 236 236 236 239 249 252 253 252 250 248 240 238 238 238 238 240 249 252 253 252 252 251 242 237 237 237 237 238 247 252 252 251 250 251 243 238 237 238 239 240 247 252 253 252 251 250 244 237 237 237 237 239 244 252 254 255 255 254 249 238 236 237 237 238 242 252 253 254 254 254 252 240 237 237 236 237 239 251 254 254 254 254 252 240 236 236 237 237 238 249 253 252 253 254 254 244 238 237 236 237 237 246 253 252 253 253 252 245 235 235 236 237 237 243 253 253 254 254 254 249 238 237 237 237 236 241 252 254 253 252 252 249 239 238 238 238 238 238
253 253 253 253 253 252 239 236 235 237 239 239 249 253 253 255 254 253 240 236 238 239 237 236 245 254 255 253 251 254 246 237 236 238 238 238 244 252 252 253 253 253 248 237 237 237 236 237 242 253 254 253 252 253 250 238 237 237 237 236 240 253 253 252 252 253 252 241 237 237 236 237 238 249 251 252 253 253 253 242 236 235 234 236 239 250 254 252 252 253 253 244 238 238 237 237 237 246 253 254 253 253 252 247 239 236 237 241 240 242 251 251 252 254 255 252 241 237 236 236 236 239 249 252 253 252 250 248 240 238 238 238 238 240 249 252 253 252 252 251 242 237 237 237 237 238 247 252 252 251 250 251 243 238 237 238 239 240 247 252 253 252 251 250 244 237 237 237 237 239 244 252 254 255 255 254 249 238 236 237 237 238 242 252 253 254 254 254 252 240 237 237 236 237 239 251 254 254 254 254 252 240 236 236 237 237 238 249 253 252 253 254 254 244 238 237 236 237 237 246 253 252 253 253 252 245 235 235 236 237 237 243 253 253 254 254 254 249 238 237 237 237 236 241 252 254 253 252 252 249 239 238 238 238 238 238
253 253 253 253 253 252 239 236 235 237 239 239 249 253 253 255 254 253 240 236 238 239 237 236 245 254 255 253 251 254 246 237 236 238 238 238 244 252 252 253 253 253 248 237 237 237 236 237 242 253 254 253 252 253 250 238 237 237 237 236 240 253 253 252 252 253 252 241 237 237 236 237 238 249 251 252 253 253 253 242 236 235 234 236 239 250 254 252 252 253 253 244 238 238 237 237 237 246 253 254 253 253 252 247 239 236 237 241 240 242 251 251 252 254 255 252 241 237 236 236 236 239 249 252 253 252 250 248 240 238 238 238 238 240 249 252 253 252 252 251 242 237 237 237 237 238 247 252 252 251 250 251 243 238 237 238 239 240 247 252 253 252 251 250 244 237 237 237 237 239 244 252 254 255 255 254 249 238 236 237 237 238 242 252 253 254 254 254 252 240 237 237 236 237 239 251 254 254 254 254 252 240 236 236 237 237 238 249 253 252 253 254 254 244 238 237 236 237 237 246 253 252 253 253 252 245 235 235 236 237 237 243 253 253 254 254 254 249 238 237 237 237 236 241 252 254 253 252 252 249 239 238 238 238 238 238
253 253 253 253 253 252 239 236 235 237 239 239 249 253 253 255 254 253 240 236 238 239 237 236 245 254 255 253 251 254 246 237 236 238 238 238 244 252 252 253 253 253 248 237 237 237 236 237 242 253 254 253 252 253 250 238 237 237 237 236 240 253 253 252 252 253 252 241 237 237 236 237 238 249 251 252 253 253 253 242 236 235 234 236 239 250 254 252 252 253 253 244 238 238 237 237 237 246 253 254 253 253 252 247 239 236 237 241 240 242 251 251 252 254 255 252 241 237 236 236 236 239 249 252 253 252 250 248 240 238 238 238 238 240 249 252 253 252 252 251 242 237 237 237 237 238 247 252 252 251 250 251 243 238 237 238 239 240 247 252 253 252 251 250 244 237 237 237 237 239 244 252 254 255 255 254 249 238 236 237 237 238 242 252 253 254 254 254 252 240 237 237 236 237 239 251 254 254 254 254 252 240 236 236 237 237 238 249 253 252 253 254 254 244 238 237 236 237 237 246 253 252 253 253 252 245 235 235 236 237 237 243 253 253 254 254 254 249 238 237 237 237 236 241 252 254 253 252 252 249 239 238 238 238 238 238
253 253 253 253 253 252 239 236 235 237 239 239 249 253 253 255 254 253 240 236 238 239 237 236 245 254 255 253 251 254 246 237 236 238 238 238 244 252 252 253 253 253 248 237 237 237 236 237 242 253 254 253 252 253 250 238 237 237 237 236 240 253 253 252 252 253 252 241 237 237 236 237 238 249 251 252 253 253 253 242 236 235 234 236 239 250 254 252 252 253 253 244 238 238 237 237 237 246 253 254 253 253 252 247 239 236 237 241 240 242 251 251 252 254 255 252 241 237 236 236 236 239 249 252 253 252 250 248 240 238 238 238 238 240 249 252 253 252 252 251 242 237 237 237 237 238 247 252 252 251 250 251 243 238 237 238 239 240 247 252 253 252 251 250 244 237 237 237 237 239 244 252 254 255 255 254 249 238 236 237 237 238 242 252 253 254 254 254 252 240 237 237 236 237 239 251 254 254 254 254 252 240 236 236 237 237 238 249 253 252 253 254 254 244 238 237 236 237 237 246 253 252 253 253 252 245 235 235 236 237 237 243 253 253 254 254 254 249 238 237 237 237 236 241 252 254 253 252 252 249 239 238 238 238 238 238
250 250 250 250 250 249 242 241 240 241 242 242 247 250 250 251 251 250 243 240 241 242 241 240 245 250 252 250 249 250 246 241 241 242 242 241 245 249 249 250 250 250 247 241 241 241 241 241 244 250 251 250 250 250 248 241 241 241 241 240 242 250 250 249 249 250 250 243 241 241 240 241 242 247 249 249 250 250 250 244 241 240 239 240 242 249 250 250 249 250 250 245 242 241 241 241 241 246 250 250 250 250 250 246 242 240 241 243 242 244 249 249 250 251 251 249 243 241 240 240 240 242 247 249 250 249 248 247 243 241 241 241 241 242 248 250 250 249 249 249 244 241 241 241 241 241 247 249 249 248 248 249 244 241 241 241 242 243 246 249 250 249 249 248 245 241 241 241 241 242 245 250 250 251 251 251 248 242 240 241 241 241 244 249 250 250 251 250 249 243 241 241 241 241 243 249 250 251 251 250 249 243 241 241 241 241 242 248 249 249 250 250 250 245 241 241 240 241 241 246 250 250 250 250 250 245 240 240 241 241 241 244 250 250 251 251 250 248 242 241 241 241 241 243 249 250 250 249 250 248 242 241 241 241 241 241
238 238 238 238 238 239 250 252 253 252 251 251 242 238 238 236 237 238 249 252 251 251 252 253 243 237 237 239 239 238 245 252 253 251 251 252 246 239 238 238 238 238 243 252 252 252 252 252 248 238 237 238 238 238 241 251 252 252 252 253 250 239 238 238 238 238 240 250 252 252 253 253 252 242 239 238 238 238 239 249 253 254 254 252 250 241 238 239 239 238 238 245 251 252 253 252 251 245 238 237 238 239 239 243 250 252 253 249 249 247 241 241 240 237 237 241 250 253 253 253 252 249 241 238 238 239 240 242 249 250 250 250 250 249 242 240 239 240 239 240 248 252 252 252 252 251 243 238 238 239 240 239 247 251 252 252 251 250 244 238 238 239 240 240 246 252 252 252 252 251 247 239 237 236 236 237 242 251 252 252 252 252 249 239 237 237 237 237 239 250 252 253 253 253 251 240 237 237 237 238 239 250 253 253 252 252 252 242 238 238 238 237 237 247 251 252 252 252 252 244 238 238 238 238 239 245 253 253 253 252 252 247 238 238 237 237 238 242 252 252 251 252 252 249 239 238 238 239 238 241 251 252 252 252 252 252
237 237 237 237 237 238 250 253 254 253 252 251 241 237 237 235 236 237 249 254 252 251 253 254 243 236 236 238 238 237 245 253 254 252 252 253 247 238 237 237 237 237 243 253 253 254 253 253 249 237 236 237 238 237 241 252 253 253 253 254 251 238 237 237 237 237 239 251 253 253 254 254 253 242 238 237 237 237 238 249 254 255 255 253 251 241 237 238 238 237 237 245 252 253 254 253 252 245 237 236 237 238 238 243 251 253 254 249 249 247 240 240 239 236 236 240 250 253 254 254 253 250 240 237 236 238 239 242 250 251 250 251 251 250 241 239 238 239 238 239 249 253 253 253 253 252 242 237 237 238 239 238 247 252 253 253 252 251 244 237 237 238 239 240 246 253 253 253 253 252 247 238 236 235 235 236 241 252 253 253 253 253 250 238 236 236 235 235 239 251 253 254 254 254 252 240 236 236 236 237 238 251 254 254 253 253 253 242 237 237 237 236 236 247 252 253 253 253 253 244 238 238 237 237 238 245 254 255 255 253 253 247 237 237 236 236 237 242 253 253 252 253 253 249 238 236 237 238 237 240 252 253 253 253 253 253
237 237 237 237 237 238 250 253 254 253 252 251 241 237 237 235 236 237 249 254 252 251 253 254 243 236 236 238 238 237 245 253 254 252 252 253 247 238 237 237 237 237 243 253 253 254 253 253 249 237 236 237 238 237 241 252 253 253 253 254 251 238 237 237 237 237 239 251 253 253 254 254 253 242 238 237 237 237 238 249 254 255 255 253 251 241 237 238 238 237 237 245 252 253 254 253 252 245 237 236 237 238 238 243 251 253 254 249 249 247 240 240 239 236 236 240 250 253 254 254 253 250 240 237 236 238 239 242 250 251 250 251 251 250 241 239 238 239 238 239 249 253 253 253 253 252 242 237 237 238 239 238 247 252 253 253 252 251 244 237 237 238 239 240 246 253 253 253 253 252 247 238 236 235 235 236 241 252 253 253 253 253 250 238 236 236 235 235 239 251 253 254 254 254 252 240 236 236 236 237 238 251 254 254 253 253 253 242 237 237 237 236 236 247 252 253 253 253 253 244 238 238 237 237 238 245 254 255 255 253 253 247 237 237 236 236 237 242 253 253 252 253 253 249 238 236 237 238 237 240 252 253 253 253 253 253
237 237 237 237 237 238 250 253 254 253 252 251 241 237 237 235 236 237 249 254 252 251 253 254 243 236 236 238 238 237 245 253 254 252 252 253 247 238 237 237 237 237 243 253 253 254 253 253 249 237 236 237 238 237 241 252 253 253 253 254 251 238 237 237 237 237 239 251 253 253 254 254 253 242 238 237 237 237 238 249 254 255 255 253 251 241 237 238 238 237 237 245 252 253 254 253 252 245 237 236 237 238 238 243 251 253 254 249 249 247 240 240 239 236 236 240 250 253 254 254 253 250 240 237 236 238 239 242 250 251 250 251 251 250 241 239 238 239 238 239 249 253 253 253 253 252 242 237 237 238 239 238 247 252 253 253 252 251 244 237 237 238 239 240 246 253 253 253 253 252 247 238 236 235 235 236 241 252 253 253 253 253 250 238 236 236 235 235 239 251 253 254 254 254 252 240 236 236 236 237 238 251 254 254 253 253 253 242 237 237 237 236 236 247 252 253 253 253 253 244 238 238 237 237 238 245 254 255 255 253 253 247 237 237 236 236 237 242 253 253 252 253 253 249 238 236 237 238 237 240 252 253 253 253 253 253
237 237 237 237 237 238 250 253 254 253 252 251 241 237 237 235 236 237 249 254 252 251 253 254 243 236 236 238 238 237 245 253 254 252 252 253 247 238 237 237 237 237 243 253 253 254 253 253 249 237 236 237 238 237 241 252 253 253 253 254 251 238 237 237 237 237 239 251 253 253 254 254 253 242 238 237 237 237 238 249 254 255 255 253 251 241 237 238 238 237 237 245 252 253 254 253 252 245 237 236 237 238 238 243 251 253 254 249 249 247 240 240 239 236 236 240 250 253 254 254 253 250 240 237 236 238 239 242 250 251 250 251 251 250 241 239 238 239 238 239 249 253 253 253 253 252 242 237 237 238 239 238 247 252 253 253 252 251 244 237 237 238 239 240 246 253 253 253 253 252 247 238 236 235 235 236 241 252 253 253 253 253 250 238 236 236 235 235 239 251 253 254 254 254 252 240 236 236 236 237 238 251 254 254 253 253 253 242 237 237 237 236 236 247 252 253 253 253 253 244 238 238 237 237 238 245 254 255 255 253 253 247 237 237 236 236 237 242 253 253 252 253 253 249 238 236 237 238 237 240 252 253 253 253 253 253
243 243 243 243 243 243 249 249 250 253 247 243 241 243 244 243 242 241 247 251 250 247 247 249 247 241 237 244 243 243 247 248 246 247 248 248 244 242 245 246 243 240 243 247 249 249 249 249 247 244 243 244 243 242 244 247 247 248 249 249 248 244 243 244 244 242 241 243 249 249 247 246 246 243 244 244 243 243 245 248 248 248 248 247 247 246 245 245 244 244 245 245 247 247 248 249 249 246 244 243 240 239 240 244 249 251 249 248 248 245 241 241 239 237 236 237 239 239 237 235 233 230 223 218 215 214 216 216 219 220 222 222 223 225 223 224 226 231 233 235 239 243 245 248 250 251 249 247 248 248 245 245 247 246 245 244 244 245 246 246 246 246 245 245 246 247 247 247 246 246 245 242 242 241 241 241 244 247 248 248 248 248 248 245 245 244 243 243 245 247 247 248 248 247 247 244 243 242 242 242 243 246 247 246 246 246 247 245 244 243 243 245 246 248 249 249 248 248 247 245 244 245 244 243 242 246 248 247 250 251 249 247 242 242 242 243 243 244 246 247 247 248 248 245 242 242 245 244 243 244 247 247 247 247 247 247
255 255 255 255 255 254 244 237 244 242 233 230 243 252 250 251 253 246 239 243 243 236 234 239 254 249 241 255 255 253 249 237 232 235 240 239 240 249 255 255 255 248 242 238 242 239 236 236 242 255 255 255 254 250 249 240 239 238 236 239 242 252 253 255 255 251 247 236 244 243 238 233 238 253 255 255 251 250 255 247 240 239 239 236 237 245 252 252 252 255 255 248 244 238 237 239 240 246 254 253 245 242 247 248 239 238 228 233 233 227 221 206 193 181 171 158 142 130 123 115 110 113 119 113 113 114 115 112 102 99 103 105 108 110 117 123 131 142 151 157 163 175 187 199 214 227 242 253 255 255 255 255 254 242 235 230 230 231 248 255 255 255 254 252 245 239 240 241 239 238 242 249 249 248 248 247 243 234 233 232 232 233 239 251 253 251 249 250 249 236 235 237 237 237 238 251 252 251 251 251 251 243 239 236 233 233 235 244 249 250 253 255 255 249 242 241 239 237 237 246 254 255 253 248 247 244 237 233 239 244 241 245 251 249 251 254 254 244 233 237 236 236 237 239 252 253 255 255 255 253 236 234 234 234 234 234
253 253 253 253 253 252 240 236 239 237 232 239 253 253 249 248 251 255 243 234 233 237 238 238 247 253 255 255 255 254 242 234 238 238 237 237 243 251 250 252 255 255 248 235 236 238 238 235 240 253 252 251 252 255 251 236 234 236 238 238 239 252 255 255 255 254 250 238 234 238 244 242 242 254 255 253 250 251 251 245 242 243 241 237 230 238 248 255 255 251 246 240 238 240 243 236 234 243 254 254 252 255 247 228 212 199 175 153 131 120 117 103 91 84 90 103 103 104 101 97 96 101 110 108 110 111 103 97 90 86 84 86 87 86 95 98 103 100 100 101 99 102 106 112 119 127 146 168 188 210 228 240 242 243 243 243 243 241 244 250 253 255 255 250 238 230 236 240 244 243 246 251 248 250 255 255 251 238 233 231 233 234 237 245 247 247 249 252 252 243 241 239 237 235 235 247 252 254 255 254 251 242 240 239 240 239 237 249 254 255 255 253 248 236 232 235 237 236 237 248 255 253 254 255 255 246 237 240 238 236 237 244 255 255 254 252 251 248 239 239 237 236 238 242 252 251 251 253 253 249 239 238 238 238 238 238
253 253 253 253 253 252 240 237 238 250 226 233 252 253 252 248 244 251 248 241 236 233 235 239 250 251 247 247 255 255 243 230 237 238 235 232 243 255 255 255 255 252 239 228 238 245 245 239 239 250 248 250 255 255 249 232 231 238 244 243 241 252 254 255 255 255 249 230 232 237 244 240 230 244 255 255 254 255 252 243 243 244 245 240 230 241 249 255 255 255 246 234 231 238 246 249 243 242 240 225 200 172 146 126 107 99 90 82 81 84 88 101 110 117 129 149 157 161 164 164 160 145 127 114 102 93 92 95 101 105 103 102 97 97 99 99 96 90 88 89 91 93 94 102 107 104 108 118 133 156 172 190 199 203 208 214 219 227 240 253 255 255 255 253 240 231 233 237 238 237 242 248 248 251 254 254 247 235 232 235 239 241 245 255 254 251 250 251 251 241 240 240 238 235 234 245 249 250 252 254 254 243 239 237 236 236 237 249 252 253 255 255 253 239 232 235 238 238 237 244 251 252 254 255 255 250 242 240 235 231 236 244 254 252 251 251 252 248 236 237 239 240 241 242 252 249 255 252 251 250 238 237 237 237 237 237
251 251 251 251 251 250 240 235 235 240 232 238 255 255 251 255 255 254 241 241 240 235 234 235 246 255 252 247 255 255 244 234 242 243 236 230 245 255 255 243 241 253 255 242 236 232 232 237 243 254 254 255 253 245 247 242 240 236 232 233 240 253 254 253 251 251 253 237 231 232 238 239 237 244 250 251 252 251 250 243 238 236 237 242 244 248 249 249 253 255 254 246 234 228 217 206 188 170 147 117 92 90 94 96 89 91 94 109 119 126 125 134 146 158 166 179 182 186 188 189 186 172 157 141 120 105 100 98 100 99 98 98 97 96 96 98 98 98 103 104 109 114 120 134 148 153 155 155 153 163 173 176 176 170 169 170 179 193 214 231 243 251 255 255 254 248 245 241 235 233 239 247 252 254 253 252 248 238 237 236 237 239 244 255 255 255 255 255 253 241 238 237 237 240 243 254 255 252 251 253 254 244 242 242 240 237 238 250 255 255 253 248 250 246 238 233 232 234 235 243 250 250 252 253 255 249 243 241 238 232 234 241 254 253 253 253 253 246 235 241 240 236 238 245 255 252 255 252 252 249 238 238 238 238 238 238
249 249 249 249 249 248 239 233 234 235 239 241 251 255 255 253 255 255 241 235 236 238 237 232 239 254 255 251 253 254 242 233 240 245 240 233 242 255 252 249 250 255 251 234 233 235 236 238 244 252 253 253 250 246 251 242 238 234 230 233 243 255 255 253 250 251 255 242 231 229 233 238 242 250 245 246 251 251 251 243 234 232 234 239 241 247 251 254 255 255 249 231 196 168 137 106 92 93 91 84 88 108 123 126 121 127 128 140 132 130 130 127 134 142 158 180 187 190 187 185 182 180 182 176 162 145 125 110 100 96 96 96 96 94 102 104 106 104 106 105 105 106 110 118 132 145 158 168 171 173 179 176 169 161 154 148 150 155 166 177 190 202 218 231 236 238 244 249 246 240 242 249 251 253 255 255 255 245 243 240 236 236 240 251 255 255 255 255 255 243 237 234 233 237 241 254 255 255 254 255 255 241 237 239 240 238 237 250 255 255 255 251 249 240 235 236 236 233 232 246 254 251 252 253 254 245 237 240 237 233 230 239 255 255 255 255 254 249 238 240 237 237 237 241 254 254 252 250 249 247 241 241 241 241 241 241
242 242 242 242 242 242 247 248 243 243 249 248 245 250 250 245 247 250 247 243 243 244 247 245 242 246 250 239 244 240 237 245 255 255 245 237 242 249 250 247 241 242 242 244 248 252 253 252 250 244 240 241 243 242 249 247 246 247 245 247 246 243 240 238 242 250 255 248 234 236 247 248 245 240 240 244 245 247 240 238 240 244 247 246 243 246 251 253 245 226 197 159 120 99 94 97 107 115 119 116 114 115 117 118 126 137 141 129 111 104 102 99 103 109 140 177 185 186 185 182 179 179 180 177 176 164 139 119 108 105 104 104 102 103 107 108 110 111 108 106 104 103 103 106 113 121 131 143 158 167 171 178 177 176 172 170 171 172 172 171 171 172 180 191 199 204 215 227 239 246 252 255 254 248 246 247 249 248 248 249 248 249 250 251 250 250 249 250 249 247 244 241 239 242 245 248 248 246 244 247 252 251 250 251 250 246 243 244 242 240 242 245 243 240 238 244 254 254 249 246 243 241 243 246 248 247 246 249 242 241 240 243 248 249 247 245 245 245 246 246 245 248 247 244 245 245 242 242 243 245 247 248 248 248 248 248
235 235 235 235 235 237 255 255 253 251 255 255 244 236 238 239 237 235 246 253 253 253 252 254 248 247 243 230 235 231 242 255 255 253 245 245 247 243 239 233 231 234 244 255 253 252 252 252 249 241 240 240 239 238 239 247 252 255 255 255 247 231 234 237 239 241 241 246 248 254 255 255 248 236 237 244 240 237 230 236 245 252 254 255 250 236 223 204 177 147 118 100 97 106 126 146 154 147 144 139 131 135 140 142 150 148 142 111 94 92 91 92 92 106 138 169 178 184 185 185 184 185 182 179 183 179 165 152 144 120 107 108 110 109 105 103 105 112 111 110 111 112 112 113 114 115 115 119 127 138 144 157 169 175 174 176 178 179 178 179 176 173 171 171 173 177 185 195 210 226 239 248 248 247 246 245 248 252 251 250 248 247 245 238 237 239 238 239 243 251 254 253 252 252 251 242 240 241 239 238 242 251 253 255 254 253 251 243 240 239 238 240 243 250 249 248 252 255 255 248 242 238 234 234 238 246 251 250 245 247 254 247 238 237 236 236 235 239 252 255 255 255 255 251 239 237 233 235 236 240 252 253 253 253 253 253
236 236 236 236 236 237 251 253 255 251 254 255 244 234 237 238 235 237 247 250 250 253 255 255 248 246 243 227 231 233 249 255 253 246 247 253 250 239 232 231 235 236 243 252 252 252 250 248 245 239 242 242 240 239 239 247 254 255 254 253 246 230 238 244 242 239 238 248 253 255 255 255 252 239 234 239 238 235 237 248 252 249 242 238 226 199 181 161 140 117 102 110 125 140 154 152 146 133 128 128 130 149 162 164 171 165 151 121 103 97 91 88 91 110 132 157 174 186 187 187 187 188 183 179 178 179 175 169 164 131 110 112 117 115 109 107 110 114 113 111 113 113 113 113 113 113 110 110 112 119 125 137 159 173 177 177 176 173 166 168 172 175 175 172 172 177 179 181 188 198 207 212 221 232 239 243 249 255 255 251 247 245 242 232 234 238 240 241 244 253 255 255 254 252 249 237 235 238 238 236 237 248 251 252 253 253 252 242 239 241 243 244 246 255 255 255 252 250 249 242 239 238 236 235 237 245 253 251 245 249 254 248 239 238 237 235 235 241 253 255 255 255 255 251 240 237 235 238 236 239 252 253 253 253 253 253
238 238 238 238 238 239 247 249 251 248 252 254 242 235 236 236 234 238 249 251 252 254 254 252 243 241 239 230 240 247 255 253 245 246 255 255 251 235 229 233 243 245 246 247 247 252 253 251 247 237 238 238 237 238 242 249 252 254 255 255 250 238 241 244 242 238 237 246 252 255 255 254 251 243 236 237 240 240 241 247 239 223 209 200 192 177 171 167 160 145 142 156 165 166 163 137 125 117 117 125 142 167 177 179 189 183 167 144 119 105 95 89 98 109 121 145 169 184 184 185 186 191 191 190 187 188 175 164 157 129 114 114 118 118 113 111 115 117 114 111 114 114 112 110 109 112 109 111 115 120 127 128 142 161 174 178 176 171 156 147 154 161 168 171 177 187 189 187 189 190 187 181 186 199 212 224 237 253 255 255 252 250 245 231 232 235 239 242 245 255 255 255 253 249 246 235 234 237 239 237 237 247 249 250 253 254 253 240 236 239 239 236 235 248 255 255 254 253 252 241 233 231 232 234 236 246 255 255 245 245 250 247 241 242 242 239 239 244 253 252 254 254 253 250 241 239 237 238 238 240 252 253 253 253 253 253
238 238 238 238 238 238 250 253 255 250 252 249 241 237 236 237 236 238 251 254 254 254 253 252 241 234 230 237 244 241 247 250 251 253 254 255 246 234 235 238 239 240 244 252 251 252 253 254 250 238 235 235 236 238 244 254 254 249 247 252 255 243 240 237 235 237 239 250 253 254 255 253 249 240 239 241 236 227 214 211 200 191 183 185 190 181 176 167 152 142 140 137 140 138 141 138 139 129 119 117 120 133 143 154 179 183 175 154 128 106 93 94 104 107 121 144 161 174 177 180 184 192 193 189 187 184 159 139 129 113 107 105 105 114 115 118 127 134 133 127 121 119 117 116 115 116 113 113 116 119 122 122 127 139 153 168 177 178 169 159 154 151 151 155 165 172 168 161 168 180 180 176 177 178 183 191 208 232 244 251 255 255 254 242 239 238 236 236 239 249 251 251 252 253 253 243 237 235 234 236 240 251 254 255 254 253 252 242 237 236 234 234 234 246 252 254 255 255 255 246 234 231 230 232 236 247 255 255 252 250 250 246 238 238 238 238 237 242 253 252 253 253 254 250 238 237 238 240 239 240 251 252 252 252 252 252
237 237 237 237 237 238 253 253 255 253 253 250 242 237 239 244 238 235 249 255 255 254 252 253 244 232 229 234 236 236 246 253 254 253 253 253 244 234 239 241 236 234 241 254 255 251 251 253 252 243 237 235 233 237 242 251 255 250 246 252 254 242 238 237 240 245 244 247 246 249 251 251 250 242 237 228 212 200 188 184 177 176 171 174 184 181 179 163 138 132 130 112 114 120 142 159 166 156 146 136 121 119 125 137 173 181 173 149 121 97 93 99 102 102 122 151 162 174 180 183 187 192 193 183 176 171 147 131 125 121 120 118 115 128 136 145 160 175 176 164 139 128 124 121 117 114 112 113 118 122 120 120 119 124 136 159 174 180 185 183 173 163 155 153 155 153 143 130 142 166 176 181 184 180 178 179 189 204 216 227 237 245 249 248 248 245 241 240 240 242 245 247 248 249 251 246 241 238 236 238 241 249 252 255 254 254 253 245 240 235 233 238 240 247 251 253 255 255 255 248 237 235 233 233 237 249 255 255 254 255 251 246 236 236 236 237 238 241 251 252 254 252 252 248 236 235 239 240 237 241 250 251 251 251 251 251
248 248 248 248 248 248 243 244 244 238 241 243 248 248 249 252 245 247 248 245 241 238 240 245 249 243 241 246 245 250 248 240 239 240 242 242 243 247 251 250 244 245 250 251 246 239 237 241 247 251 246 245 242 246 249 247 249 241 235 237 243 249 248 247 248 251 251 243 237 237 240 246 247 237 218 202 190 183 180 175 166 164 154 160 173 180 187 180 168 174 185 169 164 166 176 175 167 156 144 129 115 122 133 141 175 186 177 167 138 113 111 111 111 112 128 158 167 180 184 187 190 192 194 179 161 153 133 122 118 120 122 121 119 130 143 157 177 188 188 173 136 122 118 117 117 115 120 124 125 131 132 126 114 113 124 145 161 168 183 193 192 187 182 178 174 163 148 127 131 150 162 173 182 182 181 181 182 183 190 199 209 219 230 243 249 251 251 250 248 239 237 237 238 240 243 252 251 248 245 246 246 241 241 245 245 244 245 250 250 246 242 242 244 243 240 241 246 252 252 249 246 248 250 249 248 248 246 244 243 246 241 244 247 246 246 249 252 249 240 237 240 239 238 242 249 248 249 251 251 247 241 240 240 240 240 240
253 253 253 253 253 252 241 242 239 233 237 242 247 249 252 254 250 253 244 236 234 235 238 240 249 253 254 255 251 245 241 238 236 233 235 239 245 251 252 254 254 251 247 241 241 238 235 234 239 251 252 255 255 255 249 238 240 237 234 236 240 250 253 251 250 250 253 247 245 242 236 229 216 200 188 185 183 181 182 178 174 179 174 175 180 181 185 183 178 186 196 189 184 183 181 158 138 124 112 100 94 115 137 146 168 175 164 170 147 130 124 116 117 122 130 159 174 188 190 190 189 185 180 156 130 124 121 119 119 114 112 113 119 124 127 137 157 164 165 153 127 119 118 121 124 125 128 127 124 126 130 128 122 119 120 128 140 148 163 179 187 190 190 186 179 169 156 135 127 134 142 151 165 175 180 183 184 183 185 186 188 193 201 216 229 238 245 250 251 241 238 235 235 237 241 253 253 252 251 251 250 241 239 240 239 238 239 246 250 252 253 252 251 243 238 237 238 238 240 249 255 255 255 255 253 246 237 237 239 243 241 244 250 250 250 251 253 249 237 234 237 237 235 240 255 255 252 255 255 250 237 236 236 236 236 236
253 253 253 253 253 252 241 237 237 239 236 238 248 254 251 249 252 255 242 233 234 238 238 236 248 255 255 255 251 250 247 240 234 233 237 241 245 249 249 255 255 255 244 231 236 241 241 236 238 250 253 254 255 255 249 234 235 239 240 239 239 249 252 253 254 253 251 244 242 227 208 194 186 183 181 182 184 188 192 190 185 184 181 180 180 183 184 184 182 180 180 180 174 168 159 120 99 96 104 107 115 148 171 171 169 160 137 141 123 117 113 108 111 113 119 149 172 189 189 188 185 181 177 150 124 119 119 120 119 118 118 119 125 122 117 119 132 134 134 130 121 120 121 122 124 127 131 132 131 127 129 130 129 129 128 126 128 128 135 146 158 169 178 176 168 168 170 164 155 150 148 146 149 161 173 180 184 186 186 183 180 179 181 190 200 213 228 240 248 244 242 239 237 235 236 249 253 255 255 255 253 241 235 234 235 235 237 246 250 254 255 255 254 243 238 238 236 233 233 245 255 255 254 253 253 245 233 234 237 239 239 245 254 254 254 253 252 249 239 236 234 236 238 240 254 253 252 253 252 250 239 239 239 239 239 239
253 253 253 253 253 253 241 239 235 241 239 237 247 253 252 254 254 252 239 236 239 238 235 235 248 251 254 255 253 253 245 235 233 237 241 239 241 251 254 255 255 253 246 233 234 240 243 238 240 250 252 251 255 255 249 232 230 240 246 241 239 248 248 255 255 255 244 226 213 190 174 172 184 189 187 183 182 188 190 191 188 183 179 177 179 187 187 188 185 177 172 171 168 162 161 126 112 118 137 145 156 181 193 184 172 159 129 123 112 109 102 102 107 105 115 142 167 183 185 184 181 180 177 151 131 126 119 119 118 124 128 128 131 131 124 123 126 127 127 127 125 126 127 126 125 126 130 133 135 134 133 133 132 132 132 129 127 122 124 128 136 147 156 154 146 150 162 168 167 162 157 148 139 147 160 169 175 181 184 184 183 182 179 181 184 191 204 218 233 238 243 245 242 237 236 246 252 255 255 252 249 240 235 234 234 235 236 248 255 255 255 254 252 242 237 238 237 236 234 244 252 255 255 255 252 245 234 233 239 241 239 244 254 254 255 255 254 247 237 237 234 234 234 237 251 251 251 250 251 250 239 238 238 238 238 238
255 255 255 255 255 255 240 236 231 241 243 240 248 248 252 255 255 247 237 239 242 239 233 235 252 254 254 252 248 250 247 238 237 237 240 242 247 252 248 247 254 255 255 241 233 233 234 235 243 255 255 253 253 254 247 237 237 240 240 236 238 253 255 255 245 220 192 172 176 179 174 179 186 186 188 181 174 177 175 181 182 179 176 178 187 194 190 178 161 142 134 138 148 146 151 125 113 108 117 120 129 165 185 183 178 163 130 121 118 109 102 106 107 104 114 137 162 182 185 183 180 176 168 140 124 123 119 120 123 126 128 127 128 134 131 130 125 125 127 128 128 131 133 132 132 132 130 129 126 128 132 133 133 134 136 137 137 128 127 125 128 134 139 137 129 133 143 150 155 157 157 151 136 136 143 149 160 172 178 181 185 187 185 182 181 182 186 192 202 213 226 238 244 244 243 248 250 253 253 250 246 240 237 236 237 237 237 246 254 255 255 251 250 244 240 238 236 238 239 245 250 251 251 251 250 247 237 235 242 243 241 245 253 252 255 255 254 245 233 238 238 235 231 237 250 255 254 251 253 250 236 235 235 235 235 235
254 254 254 254 254 253 240 241 233 235 240 241 246 252 255 252 249 249 243 240 238 237 239 242 248 245 248 247 249 255 250 238 237 238 242 244 246 250 249 253 255 251 243 235 236 239 240 242 247 254 255 252 250 251 248 243 241 238 236 238 245 255 255 232 194 158 137 142 172 187 185 189 184 169 162 153 154 163 168 179 177 177 178 187 192 189 170 145 122 104 98 106 122 118 122 110 106 101 107 107 111 148 175 175 161 143 113 113 112 101 105 115 113 108 115 130 149 169 177 177 175 176 169 139 128 128 122 119 126 130 132 132 126 129 134 136 127 119 122 124 128 133 137 137 138 140 139 135 129 122 123 130 136 138 143 148 154 142 138 133 129 130 131 130 128 132 139 147 155 159 161 160 143 135 135 135 148 163 171 175 180 185 189 187 187 187 184 180 178 182 194 212 230 244 250 253 251 252 253 252 248 244 239 236 237 239 240 243 246 251 255 254 253 246 243 243 238 235 235 240 245 247 249 250 249 246 241 241 243 240 239 244 253 253 252 252 253 248 236 236 238 240 236 238 251 255 248 248 253 250 238 237 237 237 237 237
240 240 240 240 240 240 246 252 255 250 248 245 240 243 240 236 243 245 247 246 246 251 253 248 235 236 244 248 243 241 237 249 255 255 251 246 245 244 242 237 238 243 241 245 246 249 255 255 254 242 237 237 241 242 246 250 244 240 246 255 255 237 199 157 130 128 144 172 188 191 189 182 173 155 151 152 166 179 183 190 183 184 185 182 168 149 125 108 97 93 95 101 116 116 127 141 149 141 135 118 103 117 137 147 141 126 108 118 114 108 108 113 113 111 115 125 134 147 161 166 168 177 172 145 137 136 127 119 125 129 131 132 130 131 131 133 132 123 124 125 130 135 138 140 142 143 140 137 134 128 123 125 136 139 144 153 167 169 167 158 143 135 131 131 136 142 141 141 148 154 155 155 148 139 139 139 156 173 180 181 183 185 186 182 184 187 185 181 177 177 178 186 205 230 250 254 253 248 243 240 241 248 249 247 246 247 248 243 240 240 241 242 243 248 250 252 253 247 243 239 236 235 237 240 241 243 248 252 255 250 246 245 242 244 242 240 239 245 252 250 247 249 251 247 240 240 237 239 239 241 251 252 252 252 252 252
238 238 238 238 238 239 244 241 255 255 255 252 241 238 234 239 244 236 243 253 255 255 252 248 238 243 244 237 233 234 235 255 255 255 252 247 244 242 241 231 230 239 244 252 251 252 255 255 249 235 232 234 240 239 241 247 246 251 255 255 233 178 127 106 119 153 182 200 189 180 179 176 187 183 179 174 178 185 185 188 185 182 173 152 128 110 99 97 94 96 94 92 102 112 140 174 187 181 176 155 123 104 104 113 118 111 112 122 118 118 114 113 115 116 119 124 124 126 137 143 145 154 152 133 131 132 130 126 129 129 130 131 132 133 129 131 140 132 129 130 131 135 137 139 139 138 134 133 138 139 131 129 134 135 137 143 155 167 176 172 156 146 137 132 133 136 134 131 138 147 148 149 152 150 155 156 169 180 184 185 187 188 187 184 185 187 188 188 188 186 179 173 179 196 219 232 242 244 241 238 239 250 254 253 251 251 252 245 240 236 235 239 243 251 253 254 255 255 250 240 235 234 233 234 236 245 251 250 255 254 252 247 237 238 238 237 235 240 255 255 255 252 255 251 235 234 241 239 231 237 252 253 253 253 253 253
239 239 239 239 239 240 242 249 255 247 255 255 237 234 241 242 237 232 246 255 255 254 253 254 243 238 239 228 232 239 246 253 255 255 254 248 242 237 239 237 240 235 238 250 253 255 255 249 246 241 240 238 234 233 236 250 255 255 244 205 154 114 108 132 161 182 191 190 181 177 177 182 189 183 178 181 182 186 187 186 181 160 137 115 102 94 95 97 97 95 91 91 99 119 158 183 189 189 191 179 144 115 106 114 123 108 118 121 117 121 121 116 118 121 122 123 124 122 125 128 127 131 130 121 121 125 132 135 134 130 131 132 136 136 131 131 141 136 131 133 134 135 136 136 135 133 130 131 138 143 137 137 137 136 136 137 139 147 158 165 162 161 154 146 139 137 139 138 141 143 144 145 155 165 175 180 185 188 187 186 185 183 182 182 183 185 188 191 194 194 190 182 175 171 179 194 218 240 249 246 241 249 250 249 249 250 250 243 238 236 234 240 243 251 254 254 255 255 255 245 237 236 235 235 235 244 252 251 252 254 253 247 235 235 236 237 237 241 253 254 255 255 254 248 237 239 237 239 236 238 250 251 251 251 251 251
236 236 236 236 236 237 244 255 251 244 255 255 238 238 242 237 235 236 249 254 252 252 254 255 245 236 237 231 232 240 253 253 251 254 252 248 243 238 239 240 240 234 241 250 253 255 254 252 253 246 241 235 228 230 246 255 253 222 172 127 98 108 146 179 194 193 184 176 178 181 183 188 186 178 177 187 189 187 189 184 162 130 102 94 97 95 97 95 94 92 95 101 113 135 170 185 186 185 182 169 131 113 116 130 142 118 123 118 116 119 122 120 122 123 124 122 123 124 125 126 126 128 129 124 123 125 130 132 131 132 133 134 137 137 137 137 140 136 134 136 136 135 136 135 136 134 134 136 139 143 139 140 139 137 138 140 141 143 154 165 166 167 160 157 150 148 145 142 141 141 141 145 159 171 179 184 186 186 184 183 182 181 181 183 184 186 187 189 189 190 191 190 184 174 170 175 194 218 238 246 244 252 251 248 248 249 248 240 237 237 234 237 240 248 252 251 251 255 255 248 239 237 237 238 237 241 252 255 254 254 252 247 238 238 237 237 239 244 253 250 252 255 253 247 238 241 232 236 241 237 252 254 254 254 254 254
233 233 233 233 233 234 247 253 250 255 254 251 244 245 235 232 239 241 246 248 250 254 255 253 242 239 242 236 233 240 251 252 250 250 250 251 245 237 237 239 235 240 246 251 252 252 253 255 250 234 232 232 235 243 255 246 202 146 102 92 117 156 187 193 189 186 180 178 184 188 188 186 180 180 185 185 187 186 187 178 136 108 91 89 92 95 96 93 91 95 104 115 140 159 177 187 190 185 177 161 123 115 126 148 159 137 127 116 119 121 124 123 122 125 124 120 119 121 125 127 130 132 134 131 129 129 128 130 129 132 132 133 136 138 140 141 139 137 137 137 135 135 137 138 140 140 142 144 144 145 144 142 137 133 136 142 148 151 166 178 176 169 158 160 163 164 156 147 144 145 144 151 169 178 182 183 185 184 183 182 182 181 181 184 184 185 185 184 182 181 186 190 193 191 186 178 174 181 198 221 237 254 255 253 252 254 253 244 240 239 237 236 237 245 249 249 249 253 255 250 243 240 238 238 237 241 250 255 255 251 250 246 240 240 239 238 238 245 255 252 248 251 255 249 236 237 234 235 237 237 255 255 255 255 255 255
238 238 238 238 238 239 250 246 250 255 250 248 242 246 239 235 240 243 246 247 250 254 253 249 241 243 247 240 240 245 250 251 248 248 250 252 247 239 239 241 238 242 246 251 254 252 249 247 239 229 240 247 252 246 226 183 130 99 97 118 160 190 192 181 176 180 181 184 186 187 185 182 181 186 188 180 184 189 186 170 125 101 97 91 88 95 96 97 98 103 109 124 164 178 183 184 185 183 184 176 151 145 155 169 174 157 125 113 117 121 123 122 124 126 122 118 119 123 128 130 132 135 136 131 129 130 130 133 132 135 135 135 137 138 139 139 137 138 138 136 136 137 141 142 143 144 145 145 145 146 145 143 139 137 138 141 145 148 162 176 175 169 159 158 162 172 171 164 157 156 150 147 160 171 179 181 186 187 188 186 184 182 180 181 180 182 183 184 184 183 186 189 194 196 194 185 172 163 167 185 210 238 250 253 254 255 255 250 245 243 242 241 241 244 246 244 243 245 250 250 248 246 243 240 238 240 244 247 249 246 247 246 242 242 242 241 241 246 254 251 247 252 255 245 237 239 240 238 237 243 253 254 254 254 254 254
255 255 255 255 255 254 242 236 240 240 237 238 242 252 254 249 248 252 245 240 240 243 243 239 241 249 254 253 255 253 245 242 242 239 237 240 246 252 254 255 255 248 245 246 248 244 236 232 234 248 255 255 249 214 161 108 86 105 143 168 188 196 181 175 178 182 185 185 182 183 181 181 184 187 187 182 184 186 171 142 112 91 96 94 95 103 102 103 105 106 104 122 170 183 185 180 177 180 188 188 183 181 187 184 181 170 125 114 115 120 121 123 130 129 124 120 122 127 130 131 131 134 134 130 128 132 136 139 137 137 135 135 135 137 139 139 140 143 141 137 137 138 142 143 143 143 145 144 141 143 145 147 145 143 142 141 142 144 155 175 182 185 178 166 161 171 181 180 173 170 163 149 149 164 176 181 185 186 188 190 188 185 181 182 181 181 182 184 186 184 183 183 184 185 187 189 182 172 160 158 176 202 223 236 242 242 244 251 251 249 250 250 250 242 236 233 232 235 242 254 255 255 255 252 248 241 234 234 236 237 239 242 247 247 249 250 251 249 242 240 241 245 245 239 248 251 254 252 251 253 239 237 237 237 237 237
255 255 255 255 255 255 239 239 233 233 237 237 245 254 255 249 251 255 245 237 237 239 241 237 241 247 252 254 255 252 246 242 239 233 232 237 248 255 255 253 255 249 249 247 246 240 232 234 245 255 255 239 195 137 93 76 95 137 177 189 186 183 176 180 186 187 185 182 180 184 179 180 184 184 185 185 183 183 168 140 125 101 99 98 99 104 105 104 106 103 102 124 171 183 187 182 176 177 183 186 187 189 191 183 186 172 127 117 117 120 123 127 132 131 126 122 126 130 131 131 131 132 132 131 130 133 137 140 140 139 138 138 134 134 138 137 139 146 145 141 140 140 140 141 142 142 145 145 143 145 146 148 149 148 145 142 140 140 146 162 175 186 184 168 156 164 178 183 181 178 171 155 146 160 175 179 182 183 183 188 190 188 186 186 184 184 183 183 183 183 181 180 180 179 181 187 189 186 170 150 152 174 200 220 233 237 239 248 248 244 245 247 250 243 237 233 232 235 242 254 255 255 255 255 252 246 237 235 237 237 238 241 247 247 249 250 250 248 240 238 238 243 242 241 248 253 254 253 255 253 236 235 235 235 235 235
254 254 254 254 254 253 237 241 233 238 238 231 250 255 254 249 255 255 244 236 236 238 241 239 244 248 249 252 252 254 248 242 238 232 229 233 245 255 255 251 251 253 252 240 234 234 236 249 255 253 219 174 122 80 82 110 147 175 190 187 179 178 184 190 191 190 182 178 182 184 178 182 187 186 183 183 184 186 185 171 163 130 110 106 103 102 103 101 110 109 115 140 173 183 189 186 180 181 184 183 182 188 187 184 189 168 131 118 119 122 126 129 130 132 129 124 126 129 130 130 130 131 132 133 134 135 137 140 143 141 140 140 136 134 138 138 136 144 147 147 147 145 141 141 142 142 145 148 146 146 147 144 146 147 149 147 145 142 144 154 165 179 180 167 155 158 169 176 182 180 176 167 158 168 182 184 183 178 173 178 185 187 188 188 187 186 184 181 177 176 176 178 179 178 178 183 187 191 180 156 140 153 175 194 214 228 236 246 249 248 246 245 248 244 240 241 243 245 244 249 252 252 254 254 254 246 238 236 237 236 236 241 251 251 252 252 253 249 238 236 234 236 239 243 247 253 255 254 255 251 236 235 235 235 235 235
253 253 253 253 253 252 239 243 235 243 237 229 253 255 252 252 255 255 242 235 236 238 238 236 244 252 252 254 249 250 240 238 239 236 232 233 243 255 255 250 247 255 252 235 229 235 243 250 240 210 157 111 78 73 110 153 179 187 186 181 181 182 187 189 188 191 185 182 184 182 181 185 188 187 182 177 178 181 184 181 175 146 121 112 100 96 98 107 124 131 142 164 181 184 187 184 182 184 186 184 183 186 184 190 194 174 148 130 127 125 124 127 128 131 129 126 129 131 131 132 132 134 134 135 137 139 137 140 143 141 140 140 136 134 136 136 135 142 147 151 153 151 145 143 144 144 143 145 146 148 150 145 145 148 150 150 149 146 146 149 154 163 165 157 150 150 155 161 171 168 164 161 154 160 176 178 177 171 165 169 180 185 186 187 185 184 183 180 177 177 177 180 181 180 178 179 180 183 179 161 141 143 156 168 189 210 227 243 252 255 254 248 245 240 239 245 251 250 245 248 250 250 252 254 253 244 236 236 240 236 235 241 252 253 254 254 253 248 237 236 232 232 236 244 247 251 255 255 255 251 236 235 235 235 235 235
252 252 252 252 252 251 243 242 237 242 235 232 251 255 252 254 255 255 241 236 236 238 238 236 244 253 255 255 249 245 237 238 241 239 237 236 242 252 255 255 247 250 247 236 239 245 242 226 190 144 96 72 75 107 154 184 192 187 182 180 185 187 185 179 180 187 188 190 186 177 184 188 190 190 184 175 177 180 185 188 185 170 149 135 110 98 102 124 147 160 174 187 188 186 183 179 178 183 185 185 186 183 182 195 193 180 166 154 149 140 129 125 127 133 129 129 132 133 134 134 135 137 137 138 139 141 139 142 144 137 135 135 135 137 138 138 138 141 146 152 156 156 152 149 149 149 144 141 144 146 150 148 149 152 152 152 152 151 151 150 149 152 154 152 150 149 149 151 159 155 151 152 155 160 177 182 182 178 172 173 182 185 185 185 182 179 180 181 179 178 177 179 181 183 182 183 180 180 180 172 153 142 140 140 154 178 203 226 241 253 255 254 246 238 236 244 250 245 240 245 251 253 254 254 253 244 236 237 242 238 237 242 251 253 253 253 252 247 237 237 235 234 237 242 248 251 255 254 255 252 238 237 237 237 237 237
249 249 249 249 249 249 249 241 239 239 238 243 246 247 249 251 249 249 244 240 240 242 242 240 245 248 253 254 251 241 240 243 244 242 243 245 245 244 247 253 248 245 245 246 253 248 222 175 126 86 63 71 105 150 184 191 187 183 182 183 185 185 181 176 181 186 189 190 181 174 188 188 186 189 190 182 180 180 182 186 187 189 180 162 129 115 126 157 174 185 193 194 186 182 179 176 177 181 185 189 189 181 183 197 188 181 177 173 168 156 139 128 128 132 128 132 136 136 136 137 137 137 136 137 138 140 139 143 145 136 133 134 136 140 140 140 142 142 146 152 157 158 156 154 153 151 143 135 137 141 147 151 154 155 154 154 154 156 156 154 152 151 152 152 153 152 150 149 154 150 148 152 160 164 178 186 186 184 180 179 182 183 183 183 179 173 176 181 183 181 180 180 181 183 184 186 184 183 184 181 168 147 131 118 120 140 166 191 213 232 249 253 247 238 237 241 244 239 237 245 252 253 251 250 249 244 239 240 244 243 243 244 248 248 248 248 247 246 242 241 242 242 242 241 248 250 250 250 251 251 242 241 241 241 241 241
237 237 237 237 237 238 255 251 248 245 252 255 239 237 241 240 236 240 250 250 249 252 253 251 241 232 242 242 244 237 247 253 250 250 254 255 248 235 234 239 239 238 250 255 255 228 178 119 78 58 69 106 148 179 192 187 179 180 184 186 185 182 179 180 187 187 188 179 154 156 176 178 182 187 191 185 183 183 183 184 182 185 181 154 118 110 135 171 181 189 191 187 180 179 179 179 180 185 189 192 188 179 184 191 183 177 175 178 179 169 154 136 131 130 129 132 136 136 135 135 135 135 135 138 139 139 137 140 143 142 142 142 143 145 144 143 142 143 146 148 152 154 155 154 153 153 147 139 139 142 143 148 154 156 156 156 154 156 154 153 152 151 151 153 155 157 156 155 154 150 146 148 159 162 172 183 185 185 184 182 181 180 180 178 175 167 168 176 181 183 183 182 182 183 184 186 187 186 185 183 178 164 144 124 113 117 132 149 171 193 216 235 241 247 251 251 248 244 244 243 243 243 243 242 241 246 250 250 250 253 251 246 240 240 239 238 238 243 253 251 252 254 251 242 239 242 237 237 239 244 252 253 253 253 253 253
236 236 236 236 236 237 253 252 254 249 254 255 238 237 240 235 234 242 251 249 248 253 255 254 240 229 239 238 237 235 248 255 252 247 249 255 250 237 235 236 239 241 252 255 224 172 114 71 58 69 101 148 181 189 188 183 178 180 185 188 187 182 182 186 189 187 184 166 131 148 175 181 186 186 188 185 183 184 184 184 182 182 176 142 112 111 148 180 183 187 186 181 179 180 182 186 187 189 187 186 181 178 186 184 183 183 182 186 191 183 172 145 132 131 133 135 136 135 133 132 132 133 135 141 143 142 138 140 144 145 146 147 146 147 148 149 145 147 147 145 144 146 151 152 153 155 156 152 147 148 147 149 153 154 155 154 153 153 150 153 154 153 152 154 157 158 157 155 153 153 153 157 170 172 176 185 185 184 184 182 181 181 182 183 181 172 169 175 180 182 183 180 181 181 183 185 186 186 183 182 183 180 166 147 125 112 110 118 140 162 187 216 234 251 255 255 255 252 251 242 236 238 240 242 241 248 253 253 253 255 253 246 238 238 237 236 237 244 255 251 250 253 251 243 236 240 238 239 239 242 252 253 253 253 253 253
235 235 235 235 235 237 249 250 255 255 254 249 240 239 239 234 235 240 250 250 249 253 255 253 242 237 239 236 233 235 245 255 255 249 248 253 252 242 238 234 240 244 242 219 167 111 69 56 73 105 139 178 193 186 181 182 183 185 187 188 188 184 184 186 186 186 179 158 132 160 184 185 185 183 184 184 184 186 186 186 186 185 175 135 112 121 160 185 185 184 183 180 181 184 186 190 190 189 183 178 177 183 188 181 186 186 184 185 186 181 176 146 130 132 135 137 137 136 134 133 134 134 137 143 145 144 140 141 145 145 146 147 147 146 149 150 148 150 149 146 143 143 148 150 153 155 160 162 156 153 152 150 152 154 155 155 154 154 152 153 155 155 154 155 158 158 156 153 152 154 155 160 172 173 174 181 183 183 182 183 183 183 185 186 186 181 177 179 182 183 182 176 174 173 175 179 184 185 183 180 181 184 179 167 145 122 108 105 124 145 164 194 216 241 254 255 255 255 254 241 234 235 237 240 240 248 253 253 254 255 254 247 237 237 237 236 237 244 255 251 250 253 253 248 233 237 238 238 237 239 254 255 255 255 255 255
236 236 236 236 236 238 247 250 255 255 250 245 243 240 237 235 235 236 247 253 254 253 250 249 244 246 236 231 234 242 243 253 255 254 251 254 252 243 239 234 240 239 209 160 105 67 54 71 107 146 169 190 192 182 178 185 190 191 189 185 184 182 183 184 183 188 180 160 148 177 189 184 179 181 183 184 186 189 185 184 183 180 165 123 110 132 170 187 188 185 186 185 184 185 187 187 186 184 181 179 183 191 186 178 187 184 183 181 177 174 170 143 134 134 134 136 138 137 136 136 136 137 138 143 145 145 143 143 144 144 145 146 146 147 149 150 151 152 151 149 147 146 148 151 153 155 161 168 164 157 155 150 148 151 155 157 157 159 158 154 155 155 155 157 159 158 156 153 151 151 150 151 157 159 160 167 173 177 180 183 185 186 186 186 186 184 181 181 182 181 179 171 167 161 162 170 177 181 182 180 178 183 185 181 166 143 122 109 119 140 154 178 196 222 242 250 255 255 255 244 237 236 235 237 240 247 252 251 247 248 252 248 238 238 238 238 238 242 253 253 253 253 255 255 234 232 235 236 234 237 255 255 255 255 255 255
239 239 239 239 239 240 252 252 254 255 247 251 246 235 235 238 236 235 247 254 255 254 251 248 241 243 238 233 238 245 242 250 255 255 255 252 245 237 238 239 237 207 152 101 68 55 63 93 131 166 178 185 182 187 182 187 192 191 187 182 179 176 180 185 185 186 177 165 168 187 189 184 178 183 185 184 185 185 181 180 181 183 172 137 134 155 180 187 187 186 187 187 185 184 183 180 178 180 183 188 194 195 183 177 187 184 181 175 169 167 165 145 139 136 132 134 139 140 139 139 139 138 138 141 142 143 143 145 145 144 145 145 146 148 148 149 152 154 154 153 152 151 150 151 152 153 156 165 166 153 152 153 153 154 156 158 159 161 161 156 157 158 158 159 161 161 159 156 154 152 150 148 152 154 155 160 166 172 176 182 185 186 186 185 185 185 184 184 183 181 180 176 170 160 156 161 167 172 177 176 173 180 186 187 181 167 150 131 132 153 167 185 193 209 231 245 250 251 251 246 243 238 236 237 239 246 252 251 247 245 251 247 238 238 238 238 237 242 254 255 255 253 254 255 238 231 233 235 234 239 253 253 253 253 253 253
247 247 247 247 247 246 252 245 245 246 244 253 250 239 241 245 246 248 249 246 244 247 251 250 244 240 244 248 245 244 244 248 253 251 246 244 244 244 245 237 206 148 94 62 53 61 82 120 151 178 185 182 178 192 186 185 185 183 180 177 176 177 183 188 185 178 169 167 178 187 188 190 185 184 181 180 182 180 177 180 183 186 179 160 166 177 185 185 183 182 183 183 184 182 181 178 179 183 186 192 197 194 181 176 183 182 175 164 160 163 162 145 139 136 131 134 140 143 144 144 143 142 139 139 140 142 141 143 145 145 145 146 146 149 148 149 151 155 156 155 154 153 152 151 151 151 151 159 163 150 147 155 158 158 158 160 160 160 158 156 157 158 158 158 159 161 161 160 160 159 157 154 155 156 157 158 160 165 169 176 182 186 186 184 185 185 184 183 180 177 177 176 173 164 157 156 157 157 162 161 157 166 178 184 185 180 169 150 143 161 177 190 193 198 212 227 238 242 244 244 242 239 239 241 242 244 247 250 249 246 247 246 244 244 243 241 241 245 250 249 249 246 245 251 248 241 242 242 242 245 245 244 244 244 244 244
254 254 254 254 254 253 248 235 232 235 240 242 252 251 251 252 255 255 245 234 231 235 242 244 249 249 250 255 254 246 244 243 245 238 230 233 251 255 245 205 145 94 69 54 54 73 102 145 169 185 187 179 176 190 189 184 177 177 178 180 186 189 186 182 180 181 180 183 185 180 185 191 193 186 177 179 184 182 181 184 186 184 176 172 184 188 185 182 181 179 180 182 185 184 183 185 186 187 181 176 174 175 173 168 168 167 155 148 154 165 160 145 141 140 133 136 139 141 143 144 145 145 144 142 142 142 140 141 143 145 146 147 148 151 151 152 152 154 155 155 155 154 152 153 153 153 153 157 159 154 150 159 163 162 160 160 160 158 156 157 158 159 158 156 156 158 160 162 164 165 164 162 159 159 160 159 160 160 161 167 176 182 182 182 181 181 181 179 175 168 163 162 162 164 164 165 163 154 153 149 143 147 165 176 183 184 181 171 161 171 185 191 195 193 191 199 216 230 236 243 246 246 248 252 252 244 238 241 241 240 239 244 254 254 252 250 252 250 240 237 235 234 234 243 254 252 253 251 252 253 237 235 235 235 235 235
253 253 253 253 253 252 241 233 235 234 241 239 249 251 253 252 253 255 242 235 234 234 237 238 248 255 254 252 254 250 244 239 239 235 234 241 255 255 210 146 88 66 67 65 72 99 127 166 182 190 190 183 179 183 186 184 180 183 184 185 189 191 185 177 177 186 189 192 184 180 186 188 189 183 179 183 187 186 184 186 188 183 174 176 186 189 187 184 183 179 180 185 186 185 182 184 182 174 157 140 128 134 141 142 141 138 132 139 158 176 171 156 155 154 143 140 139 139 142 143 144 145 144 144 144 143 144 145 148 149 150 151 152 152 151 151 150 152 154 154 155 153 152 153 155 156 155 156 157 160 158 160 162 161 161 159 159 159 158 157 157 159 160 159 160 160 161 162 163 162 163 162 160 159 160 159 160 159 157 161 169 177 181 182 183 184 183 179 174 165 156 151 154 165 172 176 174 162 157 150 141 139 154 167 177 180 181 172 159 164 175 179 187 191 185 183 196 218 233 244 250 249 250 254 255 247 240 241 236 237 237 243 255 255 254 254 255 250 237 236 236 235 234 242 251 252 253 254 253 251 239 238 238 238 238 238
254 254 254 254 254 253 236 233 240 233 239 242 246 249 255 255 251 248 239 238 241 238 233 231 245 255 255 247 255 255 246 234 229 231 244 252 246 212 150 95 65 60 67 78 110 149 168 185 188 187 186 181 182 186 188 184 184 187 185 182 180 184 185 183 182 184 183 185 186 188 187 182 176 179 189 190 187 184 184 185 186 182 179 183 187 190 188 185 183 178 179 187 188 185 179 171 164 157 148 139 126 135 148 148 139 134 133 150 168 182 181 172 172 165 148 139 139 141 141 142 142 142 144 144 144 146 150 153 155 154 154 154 153 150 151 152 151 150 151 153 155 155 154 155 157 159 158 158 160 164 162 159 160 161 162 159 157 156 156 153 156 160 163 164 163 163 164 166 163 158 158 158 156 157 159 160 160 158 156 157 162 171 179 183 185 184 184 179 170 160 151 147 149 159 165 169 169 163 165 163 155 145 149 155 166 173 179 171 156 159 175 178 185 189 187 183 185 202 221 243 255 255 251 252 254 249 240 237 231 235 237 242 253 255 255 255 255 247 235 237 240 240 236 238 251 253 251 255 253 249 238 237 237 237 237 237
255 255 255 255 255 253 238 238 241 235 237 244 245 251 255 255 250 249 243 239 241 241 237 234 245 253 254 246 255 253 244 235 230 233 245 242 207 151 98 70 63 62 64 90 144 185 192 189 185 182 178 178 183 189 188 181 184 184 181 184 182 183 186 186 186 183 178 180 188 191 182 164 148 157 187 190 183 182 182 181 180 183 189 188 183 185 186 186 185 185 184 184 183 178 172 170 170 168 167 164 145 137 141 136 127 129 137 160 177 183 184 183 182 171 154 142 139 139 140 141 141 140 141 143 145 146 149 153 154 155 156 156 153 152 156 158 157 151 151 151 153 153 155 156 156 157 159 160 166 167 161 157 156 156 158 158 157 158 159 159 160 160 161 163 164 163 163 163 161 157 157 159 161 160 160 161 160 158 159 160 164 173 183 187 188 183 179 174 163 151 146 147 150 157 162 161 158 157 165 173 175 167 164 162 165 171 175 167 148 150 169 178 182 184 189 191 188 195 208 232 252 255 252 250 252 250 239 236 232 237 239 243 249 250 252 252 251 246 236 237 241 244 240 236 250 253 252 255 253 250 235 234 234 234 234 234
255 255 255 255 255 254 241 242 241 237 236 239 247 255 253 247 249 255 248 236 234 239 242 243 251 250 244 249 248 246 245 245 241 238 232 207 156 100 62 54 62 73 85 119 168 195 194 187 183 184 181 184 186 187 181 177 183 181 181 186 187 184 185 186 189 188 183 181 182 178 159 128 106 118 165 185 181 182 183 179 178 183 191 190 186 183 184 184 184 187 185 180 177 173 169 172 175 172 168 161 141 129 132 129 127 134 145 167 180 181 178 179 180 171 159 144 140 140 141 142 144 145 147 149 150 150 149 149 147 147 148 149 150 154 157 158 158 155 153 152 152 155 158 160 160 161 163 163 166 165 161 156 156 158 160 161 161 160 160 162 162 160 159 160 163 164 162 159 157 157 157 159 161 161 161 165 167 169 172 174 175 178 184 184 182 176 171 170 163 150 148 149 150 155 158 153 150 149 156 167 176 176 174 170 167 167 170 163 149 147 162 171 176 179 187 193 192 190 192 210 234 247 251 251 251 250 240 240 240 243 243 246 248 247 247 246 246 246 241 236 235 241 243 239 248 252 254 255 254 252 233 232 232 232 232 232
246 246 246 246 246 245 251 253 245 242 245 243 244 250 244 237 239 248 252 245 238 241 249 255 252 240 235 246 242 242 245 252 255 248 213 157 106 72 55 53 70 96 127 159 181 188 187 182 181 183 184 186 187 190 182 179 183 185 187 186 184 181 180 186 192 194 190 176 157 139 125 105 103 112 146 176 180 184 186 184 184 186 188 189 187 182 176 176 180 186 187 180 172 172 175 178 179 176 168 148 129 123 126 130 135 133 137 145 153 155 150 156 161 161 162 149 145 144 145 147 149 152 155 155 155 154 149 145 142 143 145 145 147 152 153 152 152 158 159 158 157 158 158 160 161 163 164 163 162 167 167 159 161 163 163 163 162 161 160 162 162 161 161 162 162 161 161 161 160 161 162 164 164 164 167 174 178 181 185 186 184 182 182 181 178 173 169 171 171 158 156 156 153 152 153 152 154 152 149 150 155 156 158 160 160 161 163 165 162 158 156 157 162 171 181 190 190 182 177 186 208 228 243 247 245 246 246 249 249 250 248 248 246 244 242 241 242 246 248 243 241 245 248 245 242 242 241 242 244 246 245 245 245 245 245 245
239 239 239 239 239 240 249 255 252 252 255 250 238 236 235 233 235 239 248 249 247 250 254 255 245 237 241 244 237 236 241 253 255 234 176 110 71 58 56 65 100 136 171 192 188 179 176 176 180 184 189 190 187 190 183 183 187 191 190 184 179 180 181 187 186 182 174 149 124 118 114 104 107 111 139 175 185 188 187 185 186 187 184 180 179 178 177 180 186 189 188 179 170 172 180 186 186 183 171 142 124 123 127 135 145 131 126 125 132 138 138 145 148 151 159 149 144 143 145 147 149 152 155 154 155 152 149 145 143 146 149 149 150 153 153 151 149 161 164 164 162 159 157 157 159 160 162 160 157 166 174 166 166 166 164 163 163 164 165 166 165 165 164 165 162 159 160 163 163 165 167 170 169 167 169 177 182 183 185 186 183 180 179 179 177 174 170 170 173 161 160 161 159 157 157 158 165 163 154 145 143 144 147 152 154 155 155 159 166 165 156 152 155 166 177 187 191 182 171 171 188 208 227 239 241 244 250 253 255 255 252 248 242 242 240 239 238 244 253 251 249 250 249 247 237 238 233 234 237 240 253 253 253 253 253 253
239 239 239 239 239 240 246 251 253 255 255 251 241 234 232 235 240 240 245 247 253 255 253 247 240 240 243 245 238 235 246 255 234 185 125 78 55 51 64 94 137 167 184 192 186 179 176 178 183 187 191 189 183 183 180 184 190 190 185 181 178 182 188 187 178 171 162 149 147 156 148 127 116 118 147 182 189 185 182 183 186 190 187 177 173 175 182 189 192 190 185 179 175 177 182 187 188 181 170 149 139 139 140 149 158 138 131 131 132 135 139 143 142 143 149 142 141 143 146 147 148 149 148 147 148 148 149 149 150 151 151 151 153 154 154 153 153 160 163 164 164 162 159 159 159 158 157 155 152 158 169 167 163 165 163 162 164 166 169 168 166 166 164 164 163 161 162 163 164 165 167 170 169 167 167 172 179 184 186 187 185 183 181 180 180 179 176 174 172 159 158 159 159 158 158 158 164 166 162 152 147 148 148 151 153 155 154 148 154 160 156 156 151 153 162 172 184 179 164 159 176 192 209 226 240 248 251 251 253 253 253 247 239 240 240 238 236 242 255 255 252 251 251 250 238 238 236 236 236 239 252 253 253 253 253 253
235 235 235 235 235 236 251 252 255 255 255 252 241 238 240 241 242 238 245 252 255 255 250 242 239 241 241 241 243 239 249 242 191 127 78 57 54 64 92 130 160 176 182 188 189 185 182 182 181 182 188 187 182 182 182 185 188 186 181 180 179 181 189 186 179 178 177 182 187 189 179 165 164 158 159 178 182 170 175 183 189 192 189 180 175 174 182 189 190 188 183 180 181 182 184 187 186 180 172 162 158 157 154 159 163 146 141 143 138 138 141 143 139 139 142 139 141 143 146 147 147 147 145 144 145 147 151 152 158 158 156 156 155 152 153 154 157 158 159 160 163 163 162 161 161 160 157 155 153 153 161 164 160 164 163 162 162 165 168 168 166 166 165 164 165 165 165 165 165 166 167 168 169 168 167 169 175 182 185 187 188 188 189 187 188 189 187 184 177 164 158 157 160 161 161 159 162 165 167 159 152 152 151 150 153 158 158 144 143 150 154 158 152 143 143 151 167 168 153 145 162 178 191 210 232 248 253 247 243 249 251 245 237 238 240 240 238 240 253 255 255 254 253 249 237 236 233 237 235 240 253 254 254 254 254 254
234 234 234 234 234 235 255 254 254 255 252 248 242 241 237 239 240 240 247 251 255 255 248 246 247 242 234 236 234 241 244 207 133 80 58 58 61 79 118 161 180 180 179 185 192 190 186 183 180 181 186 187 184 180 181 182 185 184 181 182 184 186 191 187 182 180 178 182 189 179 158 139 138 138 127 136 146 142 167 182 187 189 187 182 180 183 189 189 185 183 180 183 185 187 187 181 176 176 176 177 177 170 162 158 154 139 135 140 137 138 143 145 142 144 142 137 139 142 144 146 148 150 151 151 149 149 149 152 156 154 152 153 154 153 153 155 159 158 158 160 163 164 164 164 163 162 161 160 159 154 155 162 161 166 169 168 166 165 165 164 164 166 166 166 165 167 167 166 164 163 163 165 167 169 170 171 175 181 185 185 184 183 183 182 184 185 187 187 181 166 160 159 161 158 155 154 156 162 168 163 157 156 152 150 154 161 162 144 138 141 148 155 153 140 136 139 147 151 137 126 142 161 176 194 219 246 255 253 250 253 251 247 240 239 240 240 238 241 251 251 249 249 251 248 238 236 237 237 235 242 253 254 254 254 254 254
235 235 235 235 235 236 255 251 255 255 248 251 245 242 238 239 238 237 248 255 252 246 247 255 253 239 233 228 236 244 218 152 85 58 60 67 73 100 146 181 191 185 178 180 186 187 186 185 182 182 188 187 185 182 182 180 181 182 185 187 189 186 183 184 187 188 187 184 169 138 120 123 152 162 123 109 120 120 160 182 185 182 181 185 190 191 189 181 177 179 182 189 189 188 183 166 155 161 167 172 177 171 159 150 144 139 135 139 138 138 140 142 141 145 143 138 141 144 145 146 149 151 154 154 151 150 148 152 156 155 154 154 153 153 156 157 158 157 158 159 160 161 162 162 163 164 165 166 167 160 156 160 160 164 171 173 170 165 163 159 161 165 168 168 168 168 168 167 165 163 163 164 167 170 171 172 171 175 180 182 181 182 183 182 182 182 184 185 181 168 162 163 165 159 154 154 154 157 163 160 156 155 154 154 161 169 172 155 145 143 146 150 150 140 136 136 135 140 131 120 128 145 161 175 197 232 255 255 253 253 248 249 246 243 240 241 241 243 250 251 249 247 249 248 239 233 238 237 234 241 254 255 255 255 255 255
248 248 248 248 248 247 246 245 248 241 243 247 243 247 255 251 243 244 247 246 238 233 243 254 252 240 245 245 250 226 163 97 62 57 64 71 93 134 171 189 192 186 181 180 182 185 188 189 187 184 185 182 183 185 186 181 181 182 188 189 188 184 177 180 186 189 190 182 150 121 128 149 180 173 117 106 127 132 167 184 182 174 174 187 193 191 183 179 182 187 189 190 183 178 171 156 150 162 162 160 164 157 144 136 129 133 135 136 137 136 136 136 138 146 145 142 143 144 145 147 148 149 150 151 150 150 150 154 159 158 157 158 155 156 159 159 159 157 157 157 158 159 161 163 165 166 167 169 170 166 164 163 159 160 167 172 173 170 165 162 163 166 168 168 168 166 164 163 163 162 163 166 169 171 173 172 170 169 173 177 180 183 185 187 187 186 185 184 180 170 164 162 163 159 156 156 155 154 157 156 153 153 157 158 163 167 170 162 153 150 149 146 144 135 130 131 135 140 135 126 123 132 147 160 178 205 234 247 246 244 239 245 254 252 247 248 251 247 238 238 242 243 238 238 247 246 246 248 248 248 243 242 242 242 242 242
254 254 254 254 254 253 235 243 239 233 243 239 237 250 255 252 245 251 246 237 231 233 245 247 244 241 253 255 242 177 106 68 63 65 66 78 119 167 189 188 185 185 188 188 182 182 185 190 189 185 181 180 182 183 187 187 185 185 187 186 184 185 181 181 184 188 188 178 142 131 158 174 178 148 108 128 162 168 182 185 176 167 167 183 187 185 182 185 193 192 184 174 158 151 145 142 149 163 155 142 142 138 135 132 129 133 136 134 135 140 138 133 137 144 146 148 145 143 145 147 148 150 151 153 155 155 154 153 154 155 157 158 160 159 157 157 157 157 158 158 159 161 162 164 166 168 169 170 169 166 166 167 164 161 163 169 174 176 170 167 166 166 167 168 169 168 165 164 164 164 164 166 169 170 172 172 172 170 172 178 179 181 181 184 185 186 186 185 184 179 171 161 161 162 161 160 159 154 152 151 150 152 159 162 160 156 156 153 147 147 148 145 143 138 132 134 145 152 148 139 125 122 133 147 166 182 206 231 241 241 236 242 255 255 253 252 255 250 233 230 236 242 233 233 252 255 251 253 255 249 238 237 237 237 237 237
255 255 255 255 255 253 236 240 235 234 241 236 241 253 255 250 250 253 243 235 236 242 244 238 240 247 255 255 201 120 71 60 65 68 73 100 147 184 194 188 179 179 188 192 185 181 182 186 186 185 183 184 185 182 183 184 184 184 184 185 184 184 184 185 187 188 182 162 131 142 173 180 168 140 126 158 182 176 168 161 153 151 159 178 182 179 182 188 190 181 164 148 134 129 127 130 143 157 145 132 132 130 132 132 133 137 140 136 136 141 139 136 140 142 145 149 147 145 146 147 148 150 152 155 157 157 155 152 150 153 156 157 161 162 159 158 158 159 159 158 159 160 161 162 164 165 167 169 168 168 168 173 170 165 160 164 170 177 174 172 171 170 169 170 172 171 170 168 168 168 167 166 166 167 167 169 170 171 173 181 183 183 181 181 182 182 183 184 185 184 177 164 162 163 162 160 159 157 154 155 158 161 168 170 165 154 151 149 146 146 146 146 145 141 134 133 144 150 149 146 133 120 120 131 152 167 186 217 242 246 240 242 251 254 255 253 252 249 236 232 234 240 236 236 252 255 254 254 255 250 237 237 237 237 237 237
254 254 254 254 254 253 239 235 236 235 234 237 253 255 251 252 255 250 237 238 247 248 236 227 242 255 255 223 138 77 64 67 66 69 90 134 173 190 190 186 180 177 185 189 186 183 181 183 183 185 185 187 187 183 182 182 184 182 182 186 186 183 185 187 189 187 171 141 122 151 178 183 175 161 160 175 177 160 147 147 150 158 171 183 183 178 184 187 182 166 141 130 125 124 122 124 134 142 133 128 129 132 135 133 135 143 145 141 140 140 139 141 143 141 142 147 148 148 149 149 150 150 151 153 155 155 155 154 155 157 159 158 159 162 161 161 161 159 158 157 158 159 161 161 162 163 164 166 167 168 169 173 175 171 161 159 163 170 173 173 173 172 172 171 172 172 172 171 171 172 171 168 167 166 166 166 167 169 173 181 185 188 188 187 185 184 184 183 184 186 182 169 166 165 163 160 158 159 161 166 172 174 178 178 172 160 154 150 148 146 148 149 149 145 139 134 138 139 137 141 139 127 117 120 141 160 172 200 235 246 242 243 246 249 255 255 251 245 238 238 236 236 238 242 251 253 255 255 254 250 237 236 236 236 236 236
254 254 254 254 254 252 238 236 238 239 234 237 255 253 247 255 255 250 240 242 247 243 231 231 251 255 233 166 91 65 68 68 66 80 119 165 190 192 184 179 180 181 185 185 183 183 184 185 185 185 184 185 184 182 185 186 186 182 179 182 182 182 184 185 185 180 157 124 118 159 180 185 180 176 176 177 175 167 166 177 184 184 187 185 179 180 187 187 180 157 130 124 123 125 126 125 130 135 132 131 131 136 139 136 137 140 141 139 140 140 142 144 145 142 142 145 147 149 149 150 150 149 150 150 151 152 155 158 159 160 159 159 159 161 162 162 161 160 160 160 160 160 161 161 161 162 163 166 167 168 167 168 172 173 168 164 162 165 169 171 172 172 172 172 172 171 171 171 171 171 171 171 171 171 171 172 172 172 173 178 182 187 191 190 189 187 187 185 183 184 182 171 168 167 166 165 164 166 171 177 183 183 183 182 178 168 161 153 147 145 147 149 151 152 148 142 139 137 129 131 135 130 119 116 128 146 157 179 211 230 239 245 247 247 253 254 252 246 240 242 239 235 238 245 249 252 255 254 254 250 236 235 235 235 235 235
254 254 254 254 254 252 242 239 238 242 240 239 249 248 249 255 252 247 245 245 241 234 234 246 255 244 187 110 66 66 71 65 70 101 149 185 195 189 181 179 184 186 187 183 181 183 186 185 186 184 182 182 182 183 185 186 185 184 184 183 182 183 183 183 179 171 142 115 130 171 185 186 172 163 153 148 149 156 166 182 192 187 186 180 176 186 190 184 175 150 126 123 124 127 129 126 126 129 131 133 134 138 139 137 138 137 138 138 139 138 144 147 147 144 143 145 146 149 149 149 150 150 151 151 152 154 156 159 159 157 157 157 158 159 161 163 163 163 163 165 164 163 163 163 163 164 164 166 168 169 169 168 170 174 175 170 165 161 166 173 175 175 175 175 174 172 171 171 171 171 171 173 172 172 171 171 171 170 171 173 174 180 186 186 186 186 186 183 181 181 180 173 171 169 171 173 173 176 180 185 188 187 185 185 185 180 174 161 151 148 146 145 147 149 149 143 136 133 127 129 135 139 131 121 121 135 148 168 189 209 232 247 248 245 246 249 251 248 241 243 244 241 241 245 247 252 255 251 252 251 238 237 237 237 237 237
242 242 242 242 242 243 254 254 243 254 251 244 239 239 239 239 238 243 252 248 242 243 254 255 246 199 128 78 62 63 65 66 90 134 172 190 189 182 180 182 187 190 189 184 181 183 186 185 186 183 182 182 183 185 185 186 183 185 186 183 182 187 187 183 175 169 141 129 158 189 193 176 144 131 131 143 159 175 184 191 192 186 184 178 177 192 192 181 171 149 130 124 122 123 127 127 128 132 135 137 135 134 133 140 144 133 134 138 138 141 147 149 151 147 147 149 149 150 150 151 151 153 154 155 156 157 157 155 152 151 152 153 158 158 158 159 160 165 167 169 169 167 165 164 164 165 164 164 166 166 168 170 171 174 177 174 169 165 167 175 175 174 173 175 176 176 174 173 171 170 169 169 170 169 168 170 172 174 175 175 172 172 175 174 174 178 180 180 179 178 176 170 168 166 171 178 182 184 184 184 184 184 183 185 188 187 183 166 153 150 144 142 141 147 150 146 136 134 133 135 138 141 137 125 119 126 145 167 179 193 225 243 244 241 238 237 239 246 251 250 251 251 252 249 240 244 242 238 242 246 248 249 249 249 249 249
237 237 237 237 237 238 255 250 250 255 249 245 246 241 230 231 240 246 252 245 242 251 255 255 217 150 83 66 68 63 61 74 114 161 187 192 185 179 180 183 184 189 189 184 182 183 185 183 183 183 184 183 184 185 183 184 184 184 185 183 185 186 185 183 184 189 169 166 183 188 184 163 144 147 159 172 181 189 192 190 185 181 183 184 183 188 180 164 153 139 128 123 121 122 126 128 131 134 137 138 136 133 132 139 142 134 137 142 143 145 146 148 150 146 148 150 149 150 151 151 152 152 152 154 155 155 156 155 153 153 155 156 158 160 159 159 160 163 165 168 168 168 166 166 166 165 165 164 165 165 166 168 168 170 174 176 173 169 170 175 175 173 172 173 174 174 173 172 172 173 172 171 171 170 168 168 169 171 174 175 173 172 172 169 167 169 171 174 176 174 172 168 165 165 172 180 184 187 186 185 184 183 182 183 186 186 185 172 159 155 147 144 142 145 148 145 136 133 136 143 143 144 141 132 125 127 147 169 175 182 209 231 240 241 236 233 233 243 255 255 250 249 255 253 236 235 239 238 237 243 251 252 252 252 252 252
235 235 235 235 235 237 255 248 254 253 252 255 245 237 234 233 238 241 250 250 249 255 255 239 178 107 64 63 79 66 59 85 139 181 196 193 185 183 184 185 183 184 183 182 183 184 184 182 182 182 186 184 185 187 184 184 185 185 185 184 184 182 183 183 185 188 178 183 188 182 186 183 182 180 178 183 187 188 189 185 180 177 180 184 180 170 153 136 129 125 124 124 125 126 128 131 133 135 136 135 134 133 134 140 142 140 143 146 146 144 142 144 144 143 147 149 151 152 152 153 153 151 149 151 152 154 156 157 159 161 161 161 159 160 161 161 160 162 163 164 166 167 166 166 167 168 167 167 169 168 168 167 169 168 170 174 173 170 169 172 173 172 171 171 173 173 172 171 173 175 176 177 176 175 173 170 168 168 170 172 172 173 175 173 170 169 168 168 170 170 168 169 169 171 179 185 187 189 186 183 180 181 182 182 184 185 185 176 165 161 154 149 145 147 150 151 143 136 143 156 155 154 154 147 139 137 158 176 176 178 197 217 232 238 237 234 235 242 255 255 254 253 255 251 238 233 234 237 234 240 253 254 254 254 254 254
236 236 236 236 236 237 251 250 255 252 253 255 243 234 235 236 239 238 245 251 255 255 249 206 137 78 57 62 74 65 68 112 165 193 196 189 183 181 183 185 185 184 181 181 183 184 185 184 184 184 186 184 184 187 184 184 184 183 184 184 185 184 183 182 182 185 182 189 188 182 188 187 185 179 178 186 190 189 186 178 175 174 176 172 160 144 129 119 120 123 127 129 130 129 128 132 134 136 136 135 135 134 134 139 141 140 142 145 145 142 141 141 141 143 147 150 151 152 153 154 153 152 150 152 153 154 157 158 162 163 163 163 161 161 163 163 162 162 163 163 165 165 165 165 166 167 168 170 172 172 172 171 174 172 170 171 171 169 168 169 169 170 170 170 171 172 172 171 172 173 174 175 176 177 176 174 172 170 170 171 172 172 173 173 171 170 169 168 170 169 168 169 171 175 183 188 190 190 187 183 180 181 182 182 183 183 183 179 171 168 163 158 153 152 155 157 151 141 146 162 166 167 170 169 164 157 171 181 180 178 187 203 221 235 240 239 238 241 253 254 253 251 251 248 241 235 234 238 236 239 253 254 254 254 254 254
237 237 237 237 237 238 250 252 255 250 252 255 243 232 236 242 240 232 237 253 255 255 224 163 99 62 61 60 64 66 90 145 182 190 186 184 183 181 182 186 187 185 181 181 184 185 185 185 184 183 184 183 184 186 185 183 182 182 183 185 186 185 184 182 183 185 188 191 187 185 188 188 183 178 181 189 192 189 184 176 175 175 175 160 142 127 120 117 120 125 128 130 132 132 130 132 133 134 134 135 135 135 135 139 141 140 139 142 142 141 142 142 141 144 147 149 151 151 152 154 154 153 153 154 154 154 157 159 162 163 162 163 163 162 162 162 163 163 164 164 165 165 165 165 166 167 168 170 172 172 172 174 179 177 172 170 170 170 170 166 167 169 169 169 170 172 173 172 172 172 172 172 175 177 178 177 175 173 171 170 170 170 171 171 171 172 172 172 175 175 174 175 176 179 185 188 189 190 187 183 182 182 183 183 184 184 184 181 178 178 176 173 168 165 165 165 159 146 146 161 170 174 178 183 185 181 185 184 184 181 180 190 206 228 242 245 242 239 247 252 253 249 245 246 243 238 236 239 238 240 252 253 253 253 253 253
240 240 240 240 240 241 250 251 250 247 251 254 243 237 242 247 241 231 237 255 255 241 185 120 74 58 66 61 55 69 108 163 186 184 180 185 186 183 181 185 187 186 183 183 184 185 185 185 184 183 183 183 183 185 185 182 182 182 183 186 187 185 184 183 185 186 189 186 183 186 187 186 182 180 184 191 193 190 184 175 177 174 172 151 132 121 119 119 122 126 127 129 132 133 131 132 132 132 133 135 136 136 138 140 140 140 137 140 141 142 145 145 143 146 147 148 149 149 151 153 154 155 157 158 157 156 156 158 160 161 161 162 163 162 162 162 165 165 165 166 166 166 167 166 167 168 170 172 172 170 168 171 177 177 173 170 170 173 175 168 169 171 172 172 172 174 175 175 174 172 172 171 174 177 178 177 176 174 171 170 169 169 169 171 172 173 174 175 179 180 180 179 178 180 183 185 185 186 186 184 184 185 185 185 185 184 183 183 183 184 183 183 180 176 175 172 165 151 146 157 168 173 176 182 189 190 189 183 183 182 177 181 193 216 237 247 247 240 242 247 249 246 242 244 246 242 239 241 241 243 249 249 249 249 249 249
252 252 252 252 252 251 244 241 237 237 238 240 248 251 254 255 249 242 241 250 242 202 140 85 64 63 67 65 57 86 134 179 188 181 179 185 187 185 182 185 185 183 184 184 184 183 184 185 184 186 185 184 183 185 185 182 181 182 184 186 186 184 183 185 188 187 186 179 178 186 186 184 180 181 187 191 189 186 178 168 170 159 154 134 121 116 118 121 125 128 126 127 132 132 131 131 131 131 132 135 137 139 140 138 137 140 140 141 142 143 146 147 146 148 148 147 148 149 150 152 154 156 159 160 159 158 155 157 158 158 159 159 162 162 162 163 166 165 165 166 166 167 168 169 169 170 173 174 172 169 167 166 169 173 174 173 173 176 178 169 170 172 173 172 171 173 174 174 174 174 174 173 173 176 177 176 174 172 170 169 170 170 170 172 172 173 174 176 181 184 185 183 181 181 182 181 181 182 184 185 187 187 187 185 184 181 180 184 187 186 186 185 184 179 176 173 170 159 148 153 162 172 175 181 190 192 187 179 182 180 172 175 185 205 231 249 254 246 234 237 240 239 237 242 251 251 252 251 253 251 239 237 237 237 237 237
254 254 254 254 254 252 242 242 237 235 237 237 248 254 255 253 247 249 250 246 217 162 104 67 62 68 68 66 73 121 164 189 188 181 181 185 187 186 184 184 182 182 185 185 183 182 184 186 186 185 185 184 183 184 186 184 182 184 185 186 184 182 183 186 188 187 183 177 179 186 186 183 181 188 189 188 185 184 174 161 160 138 131 115 112 115 121 125 128 128 125 125 130 131 132 132 132 132 132 135 137 139 140 139 139 141 141 140 142 144 147 148 147 147 148 150 150 151 152 153 155 157 159 160 161 159 155 156 155 156 157 158 160 161 160 162 165 165 165 167 167 168 169 170 171 172 173 173 171 168 167 164 163 169 174 175 176 178 180 170 171 173 173 172 172 173 175 175 176 177 176 175 174 176 176 176 174 172 171 170 170 170 170 171 171 171 172 175 181 185 187 186 184 183 183 182 182 182 183 184 186 186 186 186 185 183 182 185 187 186 186 186 186 183 180 177 178 174 165 162 166 174 176 180 187 192 191 185 181 178 173 174 178 191 215 239 253 250 236 235 238 239 238 242 251 252 252 252 254 252 238 237 237 237 237 237
253 253 253 253 253 252 239 243 239 235 239 238 246 252 255 250 246 254 255 237 188 124 76 57 64 73 70 67 91 148 176 188 186 183 185 186 186 186 183 182 183 184 185 183 181 182 185 186 186 186 185 185 184 185 186 183 182 185 187 186 182 181 182 186 188 186 182 179 182 187 186 183 183 192 188 183 180 181 170 153 153 130 122 112 113 119 123 127 129 128 125 126 130 132 133 134 133 132 133 136 138 138 139 138 138 140 141 141 144 145 146 147 147 147 149 151 151 152 153 153 155 156 157 159 160 159 156 156 157 156 157 158 159 160 160 162 164 164 165 166 167 169 170 171 172 173 174 172 169 167 167 165 164 169 175 176 176 178 179 170 171 172 172 171 171 172 173 174 175 176 177 176 176 177 178 177 175 173 172 170 170 171 171 172 172 171 171 174 179 183 185 186 185 184 184 183 184 183 183 184 185 185 184 184 183 182 183 185 187 187 187 187 188 185 182 181 181 181 176 173 176 184 182 181 184 188 191 188 180 177 175 174 173 179 199 226 248 252 238 235 238 240 239 242 250 252 251 252 254 250 238 237 237 237 237 237
252 252 252 252 252 251 237 243 240 236 241 240 245 252 255 249 247 255 254 217 155 91 58 54 66 74 70 70 105 165 183 186 185 186 187 184 182 183 183 183 183 183 183 183 182 183 184 185 185 185 186 187 185 185 185 182 181 186 188 186 181 180 182 186 187 185 181 183 186 187 187 183 183 192 187 181 179 180 169 149 148 125 119 113 118 122 124 126 128 128 126 128 132 133 133 134 134 133 133 136 138 138 139 138 138 140 141 143 145 146 146 146 146 147 149 152 152 153 153 153 155 155 155 158 160 159 157 157 158 157 157 158 160 160 160 163 165 164 165 166 167 169 170 171 173 173 173 171 168 167 168 167 167 171 176 176 176 178 176 169 171 172 172 170 170 171 173 173 174 175 176 176 176 178 178 178 176 174 173 172 171 171 172 173 173 173 173 176 179 183 184 185 185 185 184 184 185 184 183 183 184 184 184 183 182 182 183 185 186 186 188 188 188 186 183 184 184 184 181 179 180 186 185 180 178 180 187 190 182 178 177 175 170 170 184 210 238 250 240 236 237 241 240 241 248 252 249 251 253 248 238 237 237 237 237 237
251 251 251 251 251 250 236 241 240 236 241 241 245 252 254 249 251 255 241 187 120 68 52 58 70 73 68 74 119 176 186 183 184 187 188 182 179 182 184 185 184 181 181 183 185 184 183 183 183 185 186 188 186 184 184 181 181 185 187 185 181 181 183 186 186 183 181 185 189 188 187 181 180 189 186 181 180 179 166 143 140 119 114 114 121 123 123 125 127 128 128 129 132 133 133 134 134 134 133 136 138 137 138 137 138 140 142 144 145 146 146 145 145 146 149 151 152 153 153 153 155 154 154 157 160 159 157 158 159 158 158 160 161 161 161 164 165 165 165 166 167 169 170 171 172 172 172 170 168 167 168 170 170 173 176 177 177 177 173 169 171 172 172 170 171 172 173 172 173 175 176 175 176 178 178 178 175 174 173 172 172 173 174 175 175 175 175 178 181 183 183 184 185 185 185 185 185 185 183 183 183 184 184 183 182 181 182 184 185 185 187 189 188 185 183 185 187 187 185 183 182 187 185 179 174 173 180 191 186 180 178 177 172 167 174 195 223 243 241 238 238 241 240 241 248 252 249 251 252 247 238 237 237 237 237 237
247 247 247 247 247 247 239 243 245 240 244 246 245 246 248 249 253 252 218 153 91 56 53 65 72 70 68 75 129 182 186 183 185 188 186 180 178 181 185 187 185 181 180 184 186 185 183 182 181 183 186 188 187 183 183 181 182 185 186 185 182 183 185 186 185 182 182 188 191 188 187 179 177 185 187 183 180 174 157 131 127 113 112 116 123 124 123 125 126 127 129 130 132 132 132 134 135 135 133 136 138 136 137 138 139 141 143 144 144 145 145 145 145 145 149 152 152 154 154 154 155 154 154 158 160 160 158 159 160 159 160 161 162 161 161 164 166 164 164 165 166 168 168 169 171 171 171 169 168 168 171 174 174 175 175 175 175 176 171 170 173 174 173 172 173 174 174 173 173 175 176 175 176 177 176 175 173 172 172 173 173 174 175 175 176 175 176 180 181 182 182 182 184 185 185 186 186 186 184 183 183 184 184 183 182 182 183 184 183 184 186 188 187 184 182 184 187 188 189 188 186 188 186 179 172 168 176 191 192 184 181 180 174 167 166 179 204 230 242 245 243 243 242 243 247 248 246 248 248 245 242 242 242 242 242 242
238 238 238 238 238 239 246 253 254 250 253 254 241 234 238 244 247 232 187 123 73 54 61 73 71 65 66 72 138 186 187 183 184 186 184 180 178 180 184 186 184 183 181 184 186 185 183 183 182 182 185 188 187 182 183 184 182 183 183 182 183 186 187 185 182 181 184 192 192 187 184 177 177 184 187 187 185 177 160 134 127 117 115 118 123 124 124 125 124 126 129 131 132 132 132 134 135 135 135 136 137 135 137 140 142 140 140 143 143 144 146 145 145 146 149 152 153 154 154 154 155 154 155 159 160 160 159 159 160 160 161 162 163 162 161 164 165 165 165 166 166 167 167 168 169 169 169 169 170 170 171 177 178 177 174 173 174 174 170 171 173 173 173 174 175 176 175 174 173 173 173 173 175 176 175 175 174 174 175 174 174 173 174 175 175 176 178 182 182 180 178 179 181 183 185 187 188 188 186 183 182 183 183 183 183 185 185 182 180 181 184 187 187 187 186 187 188 189 192 191 188 186 183 177 170 166 175 191 195 187 185 183 176 168 161 166 184 214 242 252 252 248 245 245 243 241 237 240 240 240 252 253 253 253 253 253
238 238 238 238 238 239 246 252 254 251 251 254 242 232 237 250 246 210 150 91 60 58 68 75 69 63 66 73 144 186 188 186 185 184 181 181 181 182 184 186 184 184 182 184 185 185 183 184 183 182 184 187 186 181 183 185 183 182 182 182 185 187 187 185 182 182 185 191 189 186 182 178 177 182 189 189 185 173 155 131 124 118 118 120 122 123 125 125 124 125 129 130 132 132 132 135 136 135 134 135 137 136 137 140 142 140 141 142 143 144 145 145 146 146 149 151 152 153 153 154 155 154 155 159 161 161 160 161 161 160 161 161 163 163 162 164 165 164 165 166 166 167 167 168 169 169 169 170 171 173 173 177 178 176 173 172 172 173 169 172 174 174 175 175 176 177 176 175 174 174 174 173 175 175 174 174 174 175 176 176 176 176 176 175 176 177 178 182 182 181 179 179 181 183 185 186 187 186 186 184 183 184 183 183 184 185 185 182 180 181 184 187 187 186 186 186 187 189 191 190 188 185 183 179 174 169 173 187 197 189 185 184 180 174 165 162 171 197 231 252 254 247 243 246 244 241 238 240 240 240 253 254 254 254 254 254
237 237 237 237 237 238 247 251 254 252 249 253 243 231 238 252 237 182 115 68 56 65 74 74 66 62 68 75 148 185 188 189 186 182 180 182 184 183 183 184 184 186 184 183 184 184 184 185 184 182 183 185 185 181 184 185 184 182 182 183 186 187 186 184 182 183 186 189 187 185 181 181 181 182 190 189 183 168 150 128 121 120 121 121 122 124 127 127 125 125 128 129 131 132 132 135 135 135 134 135 137 137 138 141 142 141 142 142 142 144 145 146 147 147 149 151 152 153 153 153 154 154 155 159 161 161 161 162 161 159 160 160 162 163 162 164 164 164 165 166 166 167 168 169 170 170 170 171 173 175 175 177 176 174 171 170 171 172 170 174 176 176 177 177 178 178 178 177 176 176 176 175 175 175 174 174 175 177 178 179 178 178 177 176 175 176 177 180 182 182 181 180 181 183 184 184 185 185 185 185 184 184 183 183 184 185 185 182 180 182 184 186 186 186 186 185 186 188 190 189 187 184 181 180 178 174 173 182 197 190 184 184 182 179 170 161 162 181 218 248 255 248 243 246 244 240 238 240 239 240 253 254 254 254 254 254
237 237 237 237 237 238 248 250 253 254 249 252 243 233 241 249 218 149 85 55 59 72 76 71 63 62 69 78 153 184 188 191 186 181 179 184 186 184 182 182 184 189 185 182 182 184 186 187 185 182 183 183 184 183 184 185 184 182 182 183 186 186 185 184 184 185 187 186 184 183 180 184 186 184 188 184 175 158 141 123 119 121 123 122 121 125 128 128 125 124 127 128 130 132 133 136 136 135 134 136 138 138 138 141 141 141 143 142 143 144 145 147 150 150 150 151 153 153 152 153 154 154 154 158 160 160 161 162 161 159 159 159 161 163 163 163 164 164 165 166 167 167 168 169 170 170 169 170 173 176 176 176 174 171 169 169 170 173 173 177 178 178 178 179 179 178 178 177 177 176 176 175 174 173 172 173 175 178 179 180 180 179 178 176 175 175 176 178 181 183 182 182 182 182 183 183 183 184 186 186 185 184 182 182 184 186 186 182 181 183 183 184 185 186 186 184 183 187 188 188 187 183 181 181 181 179 176 178 195 190 184 183 182 182 175 164 158 169 203 239 255 250 244 246 243 238 238 239 238 240 253 255 255 255 255 255
237 237 237 237 237 238 249 248 252 255 249 250 242 236 244 240 192 116 65 52 65 77 74 67 61 64 71 82 156 184 188 191 186 181 181 186 187 183 180 181 185 191 187 181 180 184 187 187 185 182 181 182 184 185 184 184 184 183 183 184 185 184 184 184 185 187 187 184 182 181 179 188 193 186 182 174 163 146 131 118 116 121 124 122 122 126 130 129 125 124 126 127 128 131 134 136 136 134 134 137 140 139 137 140 141 142 144 143 145 145 145 149 153 152 152 152 153 153 152 153 154 153 153 157 159 159 160 162 161 159 160 158 160 163 163 164 164 164 165 167 167 166 168 169 170 170 168 169 173 176 175 174 172 170 168 169 170 173 176 179 179 179 179 179 179 178 177 177 177 177 177 176 174 172 171 172 174 178 180 181 181 180 179 176 175 174 175 176 180 183 184 185 184 183 182 182 183 184 186 186 185 183 181 181 183 186 186 183 182 184 183 183 183 185 185 183 181 184 187 187 188 185 181 182 184 184 180 177 191 191 185 182 181 182 178 168 159 161 189 227 251 252 246 246 241 237 239 239 236 240 254 255 255 255 255 255
244 244 244 244 244 244 244 240 245 251 245 244 246 250 252 225 160 91 55 56 69 74 70 65 64 67 72 91 161 188 189 187 183 181 184 188 187 183 181 181 185 191 187 180 180 184 187 186 185 182 180 180 184 188 185 182 182 183 185 186 184 182 182 183 186 187 185 182 181 179 178 192 198 183 167 151 140 129 122 116 117 120 123 122 123 128 129 128 125 124 126 128 129 131 134 135 134 133 134 137 141 141 138 139 139 143 146 145 147 146 146 150 153 153 152 152 153 154 152 152 153 152 151 154 156 157 159 161 162 161 161 159 160 163 165 166 165 165 166 167 166 165 168 170 170 170 168 169 172 175 175 171 168 167 169 172 172 173 176 179 180 179 179 178 177 176 176 176 177 178 178 178 175 174 173 173 174 177 179 180 180 180 180 178 177 175 175 175 179 184 186 188 187 185 184 182 182 183 185 186 186 184 181 181 183 185 186 185 184 185 183 182 182 183 184 182 180 183 185 184 185 186 185 185 187 188 183 176 185 188 182 181 182 184 183 178 169 162 172 205 236 249 247 245 243 243 246 244 242 243 247 248 248 248 248 248
251 251 251 251 251 250 239 234 235 241 239 238 248 255 255 203 126 73 54 61 69 68 65 64 66 69 73 107 167 190 187 181 180 183 187 186 185 185 183 182 184 188 186 181 181 184 186 184 184 183 180 180 184 190 184 180 181 184 187 187 183 180 181 183 186 185 182 182 182 178 179 195 196 169 142 124 119 117 118 118 120 118 120 121 124 128 127 126 125 125 127 129 130 131 134 133 133 134 134 137 141 141 140 138 137 144 147 146 148 147 147 150 152 153 153 152 153 153 152 151 152 151 150 153 155 156 158 160 162 162 162 161 161 162 166 167 167 166 166 167 165 165 168 170 170 170 169 169 171 173 173 168 165 166 171 175 175 173 175 179 179 179 178 177 176 175 175 176 177 178 179 179 177 176 175 176 176 177 178 179 178 179 179 179 178 177 176 176 180 186 188 189 189 187 185 183 182 182 184 185 186 185 183 183 183 184 186 187 186 186 184 181 182 182 182 181 180 182 183 182 181 186 188 189 189 188 184 176 179 184 179 179 182 185 187 186 180 167 156 179 215 242 245 242 246 249 252 249 248 247 240 239 239 239 239 239
252 252 252 252 252 251 240 237 231 240 242 237 247 255 245 169 92 59 57 66 68 65 65 66 66 69 79 129 172 186 182 179 182 187 187 182 183 186 185 184 182 184 185 184 183 184 184 182 184 184 181 181 184 189 183 181 183 186 187 185 181 181 184 184 184 182 180 184 186 181 182 192 183 147 118 110 113 116 120 120 120 116 118 122 126 127 124 124 125 126 129 131 131 130 132 132 134 137 135 136 139 140 141 141 139 143 146 147 148 148 149 150 151 153 153 152 153 153 152 152 152 152 151 153 155 155 157 158 160 162 164 163 163 162 166 168 168 167 166 166 165 165 168 169 170 170 169 169 169 170 171 168 167 168 172 176 177 174 174 177 178 177 177 176 176 176 176 177 178 179 179 178 176 176 177 177 178 180 180 179 178 177 177 177 178 178 178 178 182 187 187 187 187 187 185 183 184 184 184 184 184 184 184 184 183 183 185 186 186 185 183 181 182 182 182 182 182 183 184 183 181 184 188 189 188 186 185 180 178 184 180 179 181 183 187 188 186 173 151 161 196 234 244 241 247 252 252 249 250 248 239 238 238 238 238 238
252 252 252 252 252 251 240 238 230 241 241 237 250 255 222 133 69 57 64 68 66 64 67 68 67 69 86 150 173 185 180 179 185 189 186 181 182 185 185 184 182 183 185 185 185 185 183 181 184 186 182 182 184 187 182 181 184 186 186 183 181 183 187 185 182 180 179 186 190 185 181 178 157 123 106 105 113 119 122 120 117 113 116 123 127 127 124 124 125 127 130 131 131 129 131 131 135 139 136 136 138 139 142 143 141 142 144 148 148 149 151 151 151 152 153 152 154 153 153 153 153 152 151 152 153 154 157 157 160 163 164 164 164 162 166 167 168 166 166 166 165 166 168 169 169 169 168 168 167 168 169 168 169 169 173 177 179 176 175 176 176 176 175 174 175 176 177 178 179 179 179 178 177 177 178 179 180 181 181 180 178 176 176 176 178 179 180 181 184 187 185 185 185 185 184 183 184 185 185 184 184 185 186 185 183 182 183 185 184 183 183 182 182 182 181 183 183 184 186 186 182 183 186 188 188 185 185 185 181 184 181 180 180 182 186 188 189 179 153 150 177 220 241 242 248 254 254 250 252 249 238 237 237 237 237 237
251 251 251 251 251 251 240 235 232 242 236 238 255 252 186 99 57 62 71 68 64 64 67 68 69 71 90 154 152 174 180 183 185 188 186 183 183 183 184 185 182 183 184 185 186 184 182 182 184 187 182 182 183 183 181 183 186 185 183 182 184 186 188 183 181 180 181 187 189 181 170 151 125 108 108 108 114 119 122 118 114 112 117 123 126 126 125 125 125 126 130 131 131 130 130 131 136 140 137 136 137 138 142 144 143 142 143 148 147 150 152 152 151 151 152 150 153 153 153 153 154 153 153 152 153 153 156 158 160 163 164 164 164 162 165 166 169 167 166 166 167 169 170 169 169 168 168 168 166 167 168 169 171 171 173 177 178 177 175 176 175 174 174 173 175 177 178 179 180 180 179 178 177 177 178 179 180 181 181 180 179 176 175 176 178 180 183 186 188 188 185 183 182 183 183 183 184 185 186 186 186 186 187 186 183 181 182 185 185 183 183 183 183 182 182 182 183 183 184 185 183 183 185 187 187 184 183 186 183 183 183 182 180 181 185 188 189 184 162 149 161 201 236 247 250 252 255 251 251 249 238 238 238 238 238 238
250 250 250 250 250 250 241 234 234 239 231 242 255 234 145 72 55 68 74 67 64 66 66 67 70 72 95 145 119 159 179 185 183 183 182 183 183 182 185 187 181 181 183 185 185 182 182 184 186 188 183 182 182 181 182 186 187 183 180 181 187 188 185 180 181 184 187 186 176 162 144 121 104 105 116 114 113 114 118 116 116 116 120 123 126 124 123 124 124 126 129 131 132 131 131 132 136 139 138 137 137 138 142 143 143 143 143 148 148 151 152 151 149 149 150 149 152 152 153 154 155 155 157 155 154 154 156 159 159 162 163 163 163 162 164 165 168 167 167 167 168 171 171 170 169 169 170 170 168 168 168 169 172 173 173 174 175 174 174 176 175 174 174 174 175 178 179 180 182 182 181 180 179 178 179 179 179 179 179 179 180 178 176 176 177 178 183 188 191 189 186 183 182 182 183 184 184 184 185 187 187 187 187 186 183 181 182 185 187 184 183 184 186 184 183 182 182 180 177 179 181 184 185 185 186 183 180 184 183 182 184 184 182 181 185 188 189 188 172 155 151 179 225 250 253 248 253 251 250 248 240 240 240 240 240 240
243 243 243 243 243 243 246 246 246 243 238 253 255 200 109 57 56 68 72 67 66 69 69 69 70 72 103 131 108 163 183 186 182 181 182 183 183 183 187 187 181 181 184 185 184 180 182 186 187 186 183 182 183 181 185 188 187 182 180 180 188 190 183 179 182 187 192 185 160 141 122 105 100 111 120 115 112 112 117 117 118 120 122 122 124 123 123 123 122 126 130 132 131 131 132 133 136 139 139 138 136 138 141 143 143 143 143 146 147 149 149 149 148 147 150 149 152 153 154 155 156 157 159 158 156 156 158 159 159 162 162 162 161 161 163 164 166 167 167 167 168 171 170 170 170 170 171 171 171 171 169 171 175 175 174 173 173 172 174 176 175 174 175 176 177 178 180 181 182 183 182 181 180 178 178 178 178 178 178 179 180 179 177 177 177 178 182 187 191 188 185 182 182 182 183 185 185 185 185 186 185 185 185 185 184 183 183 185 187 184 181 183 186 187 186 184 182 180 177 179 182 184 185 184 183 184 183 184 181 180 186 185 181 179 182 182 183 185 181 168 155 168 213 246 250 242 244 244 244 244 247 247 247 247 247 247
239 239 239 239 239 240 248 255 254 245 247 255 237 160 81 55 63 68 68 66 67 72 71 71 68 71 112 116 107 170 185 185 182 181 182 184 183 185 188 185 182 183 185 186 183 180 182 186 187 184 183 182 185 183 187 189 186 182 181 180 186 190 182 180 184 187 191 177 141 122 109 100 102 116 120 115 112 111 115 117 120 122 123 120 121 122 124 124 123 126 131 133 131 132 134 134 135 137 138 137 136 137 138 141 143 144 143 145 147 147 148 148 146 146 149 150 153 153 154 156 157 157 159 158 157 158 161 162 160 161 161 161 159 161 163 163 164 166 168 168 169 172 170 170 170 170 171 171 172 173 171 172 176 176 174 172 172 172 175 177 176 176 177 178 178 178 179 181 182 183 182 182 180 178 177 177 176 175 176 177 179 179 179 178 178 178 181 185 188 185 184 183 183 182 183 185 186 185 185 184 183 182 183 184 185 185 184 185 186 183 180 181 184 188 188 186 183 182 180 180 182 184 185 184 182 184 185 184 179 177 186 185 181 179 180 179 178 182 187 180 164 162 197 236 247 240 237 239 241 241 250 251 251 251 251 251
239 239 239 239 239 240 247 255 255 246 253 255 212 125 63 58 70 69 65 64 68 73 72 70 66 72 120 107 113 177 185 184 182 181 182 184 184 186 187 182 183 183 185 185 182 181 184 186 186 182 183 183 186 185 188 186 183 183 183 180 184 189 181 182 187 187 187 168 127 113 106 103 106 115 115 114 112 111 114 117 122 124 124 118 118 122 124 125 124 126 131 133 131 132 135 134 133 136 138 137 137 138 138 139 142 144 144 144 147 147 148 148 146 147 149 150 153 154 155 157 156 156 158 157 157 159 163 164 162 160 160 160 159 162 163 163 163 166 167 168 170 173 171 170 170 171 170 171 172 174 173 172 175 175 174 173 173 173 175 178 177 177 179 179 178 177 178 180 181 182 182 182 179 177 175 175 174 174 175 176 179 180 180 180 179 179 181 183 185 184 184 184 184 183 183 185 186 186 185 184 182 181 181 183 185 186 185 185 185 184 181 180 183 187 188 186 184 184 182 182 183 184 185 185 183 185 186 183 177 174 184 184 181 180 180 179 177 180 189 188 172 158 181 222 243 241 236 238 241 240 250 251 251 251 251 251
239 239 239 239 239 240 246 255 253 249 255 252 183 96 56 64 74 68 63 65 70 73 71 68 65 76 130 107 127 183 184 182 181 181 182 184 185 186 185 181 183 183 184 185 182 183 185 184 184 181 183 183 188 188 188 183 180 182 184 179 180 187 181 184 189 186 182 160 116 106 107 109 110 112 107 113 114 113 115 117 123 124 125 118 117 122 124 125 124 126 130 133 130 131 134 132 131 135 138 137 139 140 138 139 142 144 143 143 148 146 148 149 147 148 149 150 154 155 155 157 156 156 157 156 157 160 164 164 162 159 158 159 158 163 164 165 164 166 168 168 170 173 171 170 170 170 170 170 172 175 173 172 174 174 173 173 173 173 176 178 178 178 180 180 178 176 177 179 180 180 181 182 178 176 175 175 174 173 174 176 178 180 181 182 180 180 180 180 182 182 183 185 186 184 183 185 187 187 187 185 182 180 180 183 186 187 186 185 185 184 182 181 182 186 188 187 185 185 184 184 184 184 184 184 183 185 187 184 179 175 185 183 180 180 180 179 177 179 188 191 180 160 169 207 235 242 237 237 241 240 250 250 250 250 250 250
239 239 239 239 239 239 244 255 249 251 255 237 151 76 56 66 72 66 63 65 70 72 70 66 65 84 143 112 144 187 183 182 183 182 183 184 185 186 185 182 186 184 184 185 186 188 185 179 179 179 184 183 187 179 167 150 142 142 145 145 157 180 182 182 189 187 182 159 112 104 108 113 113 110 102 113 118 117 120 119 119 122 125 121 120 124 124 124 124 126 131 133 133 132 133 130 130 135 138 138 138 139 140 141 144 145 140 141 147 144 148 149 148 150 151 151 154 155 155 157 156 155 157 156 156 159 163 162 160 159 159 159 159 163 167 167 165 168 169 168 168 170 169 168 168 169 170 172 175 176 174 173 175 173 171 171 173 173 176 178 178 179 179 179 177 176 177 178 177 177 178 179 177 176 175 175 174 173 174 175 177 179 181 183 182 181 181 180 179 179 181 185 188 189 187 186 184 181 180 180 181 181 182 185 188 189 188 185 182 181 181 181 182 183 185 185 183 181 182 185 186 185 185 185 184 186 189 186 180 178 185 182 181 182 181 180 179 180 187 191 184 167 164 191 225 242 237 236 240 239 250 251 251 251 251 251
240 240 240 240 240 241 243 251 248 254 255 216 118 61 60 67 66 63 64 67 69 69 68 65 65 93 151 109 155 191 184 184 185 185 185 185 185 185 184 184 187 184 183 185 190 193 182 163 158 158 170 176 185 176 153 119 100 97 100 103 120 153 160 163 177 185 183 164 112 101 109 115 117 110 100 114 121 120 123 120 115 118 123 125 123 126 123 125 125 128 131 131 133 132 132 128 129 136 140 140 137 137 141 143 144 145 137 139 145 143 147 149 149 151 151 151 154 155 155 156 156 155 157 157 157 159 163 160 157 159 160 160 160 163 167 168 166 169 170 168 167 168 169 168 168 169 171 172 175 176 174 175 176 173 171 171 172 172 175 178 178 178 177 178 177 177 178 178 176 174 174 175 175 176 176 177 176 174 175 175 174 176 178 181 181 182 182 181 181 180 182 185 188 190 187 185 180 175 175 178 183 185 185 186 187 188 187 185 181 180 183 184 182 181 181 181 178 177 180 185 187 185 185 186 185 186 190 188 180 181 185 182 181 182 181 181 181 182 186 189 188 177 164 176 211 241 241 238 240 240 250 251 251 251 251 251
249 249 249 249 249 248 245 235 244 251 245 184 92 55 64 70 65 65 66 68 68 68 70 69 71 104 149 97 154 191 185 182 185 187 188 186 183 181 180 182 182 178 181 186 188 184 159 121 103 96 115 133 160 171 153 118 97 94 97 98 103 114 115 123 156 181 183 169 112 99 111 118 119 112 103 112 115 115 118 120 115 116 122 126 122 119 119 128 130 132 132 129 129 129 131 128 130 137 142 143 139 134 138 142 138 142 143 144 147 145 147 148 147 147 147 149 153 154 154 155 155 156 157 157 158 161 163 161 158 159 160 160 161 163 165 165 166 167 167 167 169 171 174 173 172 172 170 166 168 172 174 175 173 171 172 173 174 173 174 178 178 177 175 176 176 178 179 178 176 174 173 172 176 178 179 180 179 178 178 176 175 175 177 177 177 179 181 183 186 187 187 187 187 186 184 181 180 179 181 187 194 192 186 179 175 176 181 186 187 188 193 193 188 184 182 180 179 179 182 183 181 180 181 182 182 184 187 187 181 182 183 182 184 185 184 185 185 185 182 184 187 180 164 164 199 240 254 249 245 247 243 243 243 243 243 243
250 250 250 250 250 250 246 231 240 248 229 152 76 57 68 70 67 68 68 67 66 66 69 71 78 117 149 92 149 187 185 183 185 185 187 186 184 181 179 181 182 184 186 182 175 164 136 101 86 81 91 100 117 121 114 99 93 94 97 97 98 99 100 108 145 180 183 171 115 104 113 116 116 109 104 113 113 113 117 121 119 117 120 125 121 116 119 127 129 130 129 129 130 130 132 132 134 137 139 140 137 134 138 140 138 142 144 145 149 147 148 149 147 146 146 148 152 153 153 154 155 156 158 159 160 162 161 158 157 159 161 162 161 163 164 165 166 166 166 166 168 170 172 172 171 171 171 168 168 172 175 174 171 171 173 175 175 174 173 175 176 176 176 175 175 177 178 178 178 178 177 176 177 178 179 179 178 177 176 176 176 177 178 178 178 180 180 181 183 186 186 186 185 185 185 183 183 186 188 189 191 190 186 180 176 176 180 186 188 189 192 192 190 187 184 182 182 182 183 182 180 179 179 180 182 185 186 186 182 184 182 183 186 186 185 186 186 185 181 181 184 182 168 161 186 232 255 253 248 250 241 240 240 240 240 240
249 249 249 249 249 249 247 229 241 249 209 119 67 62 70 69 67 69 69 69 66 63 67 76 94 144 154 83 132 180 185 187 186 184 184 183 184 184 182 181 182 193 189 166 141 123 103 85 83 84 88 89 94 93 92 89 90 92 95 98 102 98 95 98 134 180 183 170 116 109 114 111 112 110 107 114 111 110 115 121 124 120 119 120 119 118 124 128 129 126 124 127 132 132 135 138 138 137 136 133 132 136 140 140 141 143 142 143 147 148 149 150 147 147 149 149 150 151 152 153 155 157 159 160 162 162 160 155 156 159 161 162 161 162 164 165 165 165 166 166 167 167 169 170 170 171 172 171 168 171 176 174 172 173 174 174 173 172 173 175 175 176 176 174 174 175 177 177 179 180 180 178 177 176 177 177 178 178 176 176 178 179 180 178 178 181 181 181 182 185 184 182 181 183 185 185 186 188 188 186 185 187 187 185 183 180 180 183 187 187 187 186 187 187 185 184 184 185 182 180 181 182 181 181 182 183 181 182 181 187 186 188 188 186 185 186 188 186 181 180 182 183 174 164 174 219 255 254 247 250 241 240 240 240 240 240
249 249 249 249 249 249 245 228 244 245 187 95 59 64 72 70 66 66 67 69 67 62 65 75 98 155 156 82 131 183 185 185 186 186 184 181 183 186 184 182 183 196 181 143 111 95 85 79 85 89 90 87 89 91 93 93 93 92 94 98 104 100 95 96 132 182 186 173 121 111 112 108 110 112 111 116 111 110 114 121 123 120 117 118 120 121 126 128 129 125 124 127 132 133 136 137 137 135 133 131 133 139 140 140 142 143 141 140 144 148 149 149 147 149 150 150 150 151 152 153 154 156 158 159 161 161 159 156 157 159 161 162 162 163 164 164 164 164 165 166 167 167 168 169 170 170 171 172 169 170 176 173 171 172 174 174 173 173 174 175 175 175 175 174 174 174 175 176 178 180 180 179 177 176 177 177 178 178 176 177 178 179 178 176 176 181 182 182 183 185 185 183 181 181 183 184 185 186 186 184 183 185 187 187 186 182 181 182 186 188 185 182 182 184 184 183 185 186 184 181 183 184 183 181 182 183 181 182 183 188 187 189 189 186 186 187 188 186 179 179 182 185 177 165 166 208 252 255 246 248 241 240 240 240 240 240
250 250 250 250 250 249 244 232 247 232 161 80 58 65 71 69 65 65 66 69 69 65 64 70 88 146 148 77 122 181 184 183 185 186 185 183 183 185 184 183 185 192 167 125 97 86 81 80 87 91 90 86 87 91 94 95 95 93 94 98 104 101 97 99 132 181 188 177 126 112 110 106 106 113 116 118 112 110 114 119 122 119 117 117 121 122 126 127 128 125 125 128 133 134 134 135 134 133 133 133 136 141 140 139 140 142 142 139 143 148 149 149 147 149 150 150 151 151 152 153 154 155 156 157 158 157 157 156 158 160 161 162 163 164 163 164 163 164 165 167 168 168 168 169 169 168 170 171 169 169 174 173 170 172 174 175 173 173 174 174 174 174 174 174 174 174 175 176 178 179 179 179 178 178 179 178 178 177 176 176 178 178 177 176 176 181 183 183 185 187 187 186 183 182 183 183 183 184 184 184 183 184 186 187 186 183 181 182 185 187 184 181 181 182 183 183 184 185 183 182 184 185 184 183 184 185 183 182 185 188 184 186 187 186 187 188 188 185 179 179 181 184 179 168 165 197 244 255 247 248 241 240 240 240 240 240
249 249 249 249 249 248 245 241 251 214 135 70 61 67 68 67 65 65 65 68 70 69 66 65 77 134 143 75 111 175 182 182 184 185 185 185 184 183 184 185 186 182 147 106 86 81 81 83 89 92 90 85 86 92 96 96 96 93 94 98 104 102 97 99 128 174 187 182 133 114 108 104 103 113 121 119 113 111 114 118 119 120 119 119 122 123 124 124 125 125 127 130 133 133 132 132 131 132 134 136 139 142 139 138 139 142 142 139 143 149 150 149 147 148 149 149 151 152 153 154 154 155 155 156 155 154 154 156 159 160 161 162 163 164 163 163 163 164 166 167 168 168 168 168 168 167 169 171 170 168 172 172 171 172 173 173 173 173 174 174 174 174 174 174 175 175 176 176 177 178 178 178 178 179 180 179 178 176 175 175 176 176 175 174 176 182 185 186 188 188 188 187 185 184 184 183 182 182 182 183 183 184 186 186 186 184 182 181 183 185 184 182 180 181 182 184 184 183 182 183 185 186 185 185 186 186 184 183 188 190 182 183 185 185 186 187 186 184 180 180 181 183 182 173 166 186 232 252 249 247 241 241 241 241 241 241
241 241 241 241 241 241 250 255 255 200 117 66 61 67 65 64 63 62 65 70 73 72 68 67 74 131 141 71 102 172 182 182 182 183 185 186 184 183 185 186 185 179 139 99 83 80 82 86 92 92 89 85 86 91 97 98 97 93 92 96 104 104 100 101 125 170 190 187 138 114 105 103 104 116 123 119 114 111 114 116 117 120 120 119 122 123 125 123 124 125 127 129 131 132 131 131 131 131 135 137 139 141 139 139 140 141 141 139 141 147 149 147 147 148 150 151 152 152 153 154 155 155 155 156 155 153 153 155 158 161 162 163 164 164 162 161 162 164 166 167 167 167 166 166 166 166 168 171 171 169 170 173 174 174 173 171 170 172 174 174 174 173 174 175 176 176 176 176 176 176 176 176 178 179 179 178 178 176 175 175 174 173 172 172 175 182 186 188 189 188 187 186 184 183 183 183 182 182 182 182 182 183 184 185 186 185 183 180 181 183 182 181 181 183 185 185 182 181 181 184 188 188 186 184 185 186 186 185 188 191 184 183 182 182 182 182 181 181 184 185 184 186 187 179 164 172 213 242 245 244 247 247 247 247 247 247
240 240 240 240 240 240 251 255 251 177 99 63 60 66 66 65 63 61 64 68 71 71 71 69 71 124 140 76 112 182 185 180 181 184 185 184 182 183 185 186 185 174 132 94 82 81 84 87 91 90 88 87 88 92 97 97 95 93 94 97 103 103 99 98 117 158 183 188 141 113 107 110 113 121 122 116 114 113 116 117 116 118 119 119 123 126 125 122 124 126 129 131 130 131 130 131 131 132 136 137 139 140 139 140 139 140 141 140 141 146 147 146 146 147 149 151 151 151 153 154 154 155 155 155 154 153 155 157 160 162 163 163 163 162 161 160 161 163 164 165 166 166 166 166 167 167 169 171 171 169 170 172 172 172 172 172 172 174 175 174 173 173 173 174 176 176 175 175 175 175 175 176 177 178 177 176 176 174 174 173 173 172 172 172 176 184 187 187 187 186 184 184 182 182 184 184 184 182 181 182 182 183 183 184 185 185 183 180 180 182 182 180 180 182 185 185 183 183 186 188 188 187 186 186 186 186 188 187 187 189 183 182 182 182 181 180 179 180 184 186 187 188 188 180 166 167 199 236 245 243 248 248 248 248 248 248
240 240 240 240 240 241 251 255 241 154 83 62 63 66 66 66 64 62 66 69 70 71 71 70 70 121 139 74 109 180 187 179 180 184 185 183 182 183 185 187 186 171 127 92 83 82 85 88 91 89 88 88 89 92 96 96 94 93 95 98 101 102 98 96 110 147 176 185 140 113 109 116 118 124 121 113 114 114 117 117 116 118 118 119 122 125 124 123 124 126 129 131 130 130 130 131 131 132 135 136 138 139 138 140 139 139 142 142 141 145 146 144 146 147 148 150 150 150 152 153 153 154 155 155 155 155 156 159 161 162 162 163 162 160 160 159 161 162 163 164 165 166 166 167 168 169 170 171 171 168 169 171 172 172 172 172 172 174 175 174 173 172 173 174 176 175 174 174 173 173 173 174 176 176 175 174 174 174 174 174 172 172 172 173 177 184 187 187 186 185 183 183 182 183 184 185 185 183 182 182 183 183 183 184 185 184 183 180 180 182 182 181 180 183 185 186 184 184 186 188 188 187 187 187 186 186 188 186 184 185 183 183 182 182 181 180 179 180 185 187 187 188 189 183 170 164 187 230 246 244 248 248 248 248 248 248
240 240 240 240 240 241 250 255 231 134 69 61 68 68 62 64 65 64 67 70 71 70 70 71 76 128 143 72 92 171 187 182 180 182 184 183 181 182 185 188 187 168 123 91 83 83 86 89 91 89 88 89 89 91 95 94 92 92 95 97 100 102 97 94 104 137 167 176 134 108 104 112 115 122 120 111 111 113 115 116 118 121 121 118 121 125 124 123 125 127 129 130 129 129 129 131 131 131 134 135 136 137 138 140 139 138 141 142 141 144 144 143 146 147 147 149 148 148 150 152 153 155 156 156 157 157 158 160 161 161 161 161 161 160 160 159 161 162 163 164 165 166 166 167 168 170 171 172 171 167 168 171 172 173 172 170 170 173 175 175 174 173 173 175 176 176 174 173 172 171 171 172 174 174 174 173 175 175 176 174 173 172 171 172 177 184 186 187 186 185 183 182 181 183 185 186 186 185 183 183 184 185 184 184 184 184 182 180 181 183 183 181 182 185 187 186 184 182 182 184 187 188 188 187 184 185 185 183 181 185 186 185 183 182 181 180 180 181 186 188 186 185 189 188 173 161 179 224 246 244 248 248 248 248 248 248
241 241 241 241 241 242 251 255 216 117 62 63 69 67 61 63 65 66 68 70 69 70 71 72 75 124 142 72 82 158 186 184 181 182 184 184 182 182 185 187 178 149 106 84 83 84 87 89 89 87 88 90 89 91 94 93 92 93 95 96 98 101 98 95 101 126 155 164 129 108 105 114 114 117 115 109 111 113 114 115 118 121 121 119 121 124 123 123 125 127 128 128 127 128 128 131 132 132 135 136 137 136 137 140 139 138 140 143 142 144 144 143 147 147 147 148 147 147 150 151 152 155 157 157 157 157 158 159 160 159 159 159 160 159 159 160 161 162 163 164 164 165 165 166 168 169 170 171 171 168 167 171 174 174 172 169 169 171 173 174 174 174 174 175 177 177 175 174 172 170 170 171 173 173 173 173 175 176 176 175 173 172 172 172 177 183 185 186 185 183 182 182 182 184 186 187 187 185 183 183 184 185 184 184 185 184 183 180 180 182 183 183 183 185 186 186 184 182 181 183 187 188 188 187 184 184 184 183 182 186 188 186 183 182 181 180 180 183 187 187 185 184 188 188 177 163 174 219 246 245 247 248 248 248 248 248
244 244 244 244 244 244 250 254 196 101 58 65 70 66 61 63 66 68 68 69 69 70 71 70 72 116 139 75 76 146 184 185 182 182 184 185 184 183 185 186 170 130 93 79 83 86 87 87 87 85 89 91 90 92 93 92 92 95 96 96 95 99 100 98 99 113 138 145 118 105 106 119 116 115 114 110 113 114 113 114 117 120 120 119 121 123 123 123 125 127 127 127 127 128 129 131 133 133 136 137 137 135 136 139 140 138 140 142 142 143 144 144 147 147 147 148 147 148 150 151 152 154 156 157 157 157 157 159 159 158 158 158 159 159 160 160 160 162 163 163 164 165 165 166 167 169 170 170 171 169 168 171 174 174 171 169 169 170 171 173 173 174 174 175 176 176 175 174 172 171 170 171 173 173 173 173 174 175 176 175 173 173 173 173 178 182 184 184 182 182 182 183 184 185 186 186 186 186 184 183 183 184 184 184 185 185 184 182 181 182 184 184 184 185 186 186 184 182 182 183 185 185 186 186 184 184 183 183 184 187 188 185 183 183 182 182 182 184 187 186 184 182 185 188 182 169 173 215 245 247 246 246 246 246 246 246
251 251 251 251 251 250 245 237 171 84 55 67 69 64 66 68 67 68 68 69 68 69 69 67 72 114 144 83 78 140 184 187 184 183 184 186 186 183 182 184 166 117 85 78 85 88 87 85 84 85 90 92 90 93 92 91 92 97 98 96 92 97 103 102 97 98 113 118 102 105 115 133 123 114 112 109 113 115 112 114 118 118 118 118 120 123 123 125 127 127 125 126 128 129 130 131 133 133 134 136 136 135 136 139 141 140 140 141 141 140 144 146 148 147 146 147 147 149 150 151 151 152 153 154 156 157 158 160 161 158 157 157 158 158 160 161 160 161 163 163 164 165 165 166 167 168 168 168 169 169 170 171 172 172 170 168 170 169 169 171 173 174 174 175 175 175 174 173 173 172 172 173 174 174 174 174 174 175 175 175 174 175 176 177 182 184 183 181 178 179 182 185 187 187 186 184 184 185 184 183 182 183 184 184 185 185 184 184 184 184 186 185 183 184 185 186 186 185 184 183 182 181 183 185 184 183 182 182 185 187 188 185 183 184 185 186 186 186 182 181 182 180 179 183 188 179 177 214 247 250 240 239 239 239 239 239
251 251 251 251 251 250 246 227 152 73 55 68 68 63 67 68 67 69 68 68 68 69 68 66 70 109 140 88 80 133 183 190 186 183 183 186 187 185 182 180 154 101 77 78 86 90 87 84 82 83 89 92 90 93 92 91 93 98 99 97 92 97 105 105 99 95 108 113 101 106 119 137 126 113 109 109 115 116 112 114 118 117 118 119 120 122 123 125 127 127 124 125 127 129 130 132 134 135 134 135 135 134 136 139 141 139 140 141 141 139 143 145 147 146 146 147 148 149 151 151 151 152 153 154 156 157 158 159 160 157 157 157 158 158 160 161 159 161 162 162 163 164 165 165 167 168 168 168 169 170 170 171 172 172 169 168 169 169 168 170 172 174 174 174 175 174 174 174 173 172 172 173 173 174 173 173 174 175 174 174 174 174 176 176 181 183 182 179 177 179 182 184 187 187 185 183 184 185 184 182 181 183 184 184 186 186 185 185 184 184 186 185 184 184 184 185 186 186 185 183 181 180 182 184 184 184 182 183 186 187 188 184 183 185 186 187 187 186 181 180 181 180 178 182 190 183 176 208 245 251 240 239 239 239 239 239
251 251 251 251 251 251 245 212 134 68 57 68 68 65 66 66 67 69 68 67 67 68 68 66 69 99 126 84 75 125 180 189 186 184 184 185 186 184 183 181 148 94 75 79 88 90 86 82 80 83 90 93 91 92 91 90 92 97 98 96 93 97 105 105 101 98 108 112 101 104 114 130 121 111 108 109 114 116 113 115 119 117 118 119 120 121 122 124 126 126 124 125 126 128 130 132 134 135 135 136 135 134 136 138 140 138 139 140 141 139 142 144 146 146 146 147 148 149 150 151 151 153 154 155 157 158 157 157 157 155 155 156 157 158 160 161 160 161 162 162 163 164 164 165 167 168 169 169 170 171 170 170 170 171 169 169 170 169 167 169 171 173 174 174 174 174 173 173 173 172 172 173 173 173 173 173 173 174 174 174 174 174 174 174 177 178 178 177 177 178 181 184 186 185 183 182 183 185 185 183 182 182 183 184 185 186 187 187 186 185 185 185 185 184 184 185 186 186 184 182 179 179 182 184 184 185 183 183 186 186 186 184 184 185 187 187 187 186 182 180 181 179 179 183 190 185 177 204 239 250 241 240 240 240 240 240
251 251 251 251 251 251 244 193 115 64 57 65 68 67 66 65 66 69 67 66 65 68 70 68 65 79 96 69 67 113 175 187 186 186 186 186 184 183 184 182 143 88 76 82 89 89 84 80 78 82 91 94 92 91 89 90 93 97 98 96 94 97 105 106 104 100 107 111 106 106 114 126 117 109 108 109 113 115 114 116 119 117 117 119 120 122 123 123 124 125 124 125 126 128 131 133 134 135 135 137 136 133 134 136 139 138 140 141 142 140 141 144 147 147 147 148 149 150 150 151 151 153 154 156 157 157 155 155 154 153 154 154 155 158 160 161 160 161 162 163 163 164 164 165 167 168 169 168 170 172 170 169 169 170 171 171 171 169 166 168 170 172 173 173 173 173 173 173 173 173 173 173 173 173 173 173 173 173 174 174 174 173 173 172 174 174 174 174 176 178 181 184 185 184 182 181 183 186 186 183 181 181 182 183 185 187 188 189 188 185 184 185 185 184 184 184 185 186 184 180 176 178 183 185 185 185 183 183 184 182 182 182 184 185 186 186 186 186 182 181 181 181 182 185 190 186 179 199 232 249 243 242 242 242 242 242
251 251 251 251 251 251 241 176 99 62 59 64 68 68 65 64 66 69 67 65 65 69 70 68 65 74 87 68 62 102 168 184 185 187 187 186 184 182 183 181 139 85 76 83 90 89 84 79 77 83 92 94 92 91 89 90 93 97 97 95 96 98 107 108 108 105 108 109 107 108 113 121 111 105 108 111 114 115 114 115 119 117 117 120 120 121 123 123 124 125 125 125 125 127 131 132 134 135 135 137 136 133 133 135 138 137 139 140 141 139 140 143 147 147 148 149 149 150 150 150 151 152 154 157 158 157 155 154 153 152 153 153 155 158 160 160 159 161 162 163 163 164 164 165 166 167 168 168 170 172 170 169 169 170 170 171 172 170 166 167 170 172 173 173 173 172 172 172 172 173 173 172 172 173 173 173 173 173 174 174 174 173 172 171 172 171 172 173 177 179 182 184 185 183 180 180 182 186 186 184 182 181 182 183 184 186 188 190 189 185 184 185 185 184 184 184 186 186 183 179 177 178 182 184 185 185 183 183 185 182 182 183 185 186 187 186 186 186 183 181 180 181 183 185 189 188 182 195 227 247 244 243 243 243 243 243
247 247 247 247 247 247 246 169 81 63 68 63 64 67 64 64 66 69 67 66 67 69 69 67 68 72 81 71 65 92 158 181 184 187 188 187 184 183 185 180 129 81 80 87 91 87 81 78 80 89 95 93 89 87 89 94 99 98 93 92 103 117 141 150 155 152 145 134 119 108 109 114 112 108 110 118 118 114 113 114 117 116 117 120 119 121 125 124 123 125 127 125 123 127 131 129 130 132 133 136 136 135 133 132 137 137 139 137 143 140 136 140 145 148 150 150 150 150 147 147 148 147 149 155 156 156 154 153 153 153 155 156 157 163 163 163 159 162 164 163 162 161 162 163 164 165 168 170 171 172 168 168 171 171 171 171 169 167 165 167 172 175 177 176 173 171 170 169 169 170 171 171 172 174 175 177 174 172 172 174 176 175 173 171 169 167 168 173 181 185 191 195 193 187 180 177 177 182 185 185 182 181 181 182 184 184 185 188 187 183 181 184 187 186 184 185 185 183 179 179 180 182 184 184 185 185 183 183 183 181 182 183 186 187 188 188 187 185 183 181 179 180 181 182 186 187 180 188 220 246 247 247 247 247 247 247
239 239 239 239 239 241 250 159 73 70 71 59 64 71 61 59 66 70 67 66 68 71 70 68 70 72 73 74 70 88 151 179 182 183 184 185 185 186 188 177 118 83 84 87 89 85 82 82 82 87 90 90 91 89 93 96 94 90 93 107 136 147 156 150 158 172 175 171 149 123 115 110 111 112 110 116 118 114 115 115 116 119 125 125 116 117 120 120 121 127 131 128 126 127 126 127 130 132 132 135 135 134 134 132 135 136 136 138 143 142 134 135 141 146 149 150 149 146 144 145 148 149 153 158 158 157 155 152 151 154 156 157 159 163 162 162 160 162 163 162 160 160 161 163 165 166 170 174 175 173 166 166 170 170 169 169 169 169 170 171 172 172 173 174 174 173 171 168 168 169 169 170 172 174 175 175 173 171 172 173 175 173 170 169 166 166 169 177 185 187 188 189 190 190 187 185 180 178 179 181 181 180 182 184 185 186 187 189 186 180 179 183 188 186 183 183 184 182 178 180 185 187 186 183 186 187 184 183 179 178 181 183 187 186 186 185 183 183 186 184 178 181 187 185 179 180 177 180 209 242 254 254 254 254 254 254
240 240 240 240 240 241 242 136 66 75 72 54 63 75 63 57 66 71 68 66 69 73 71 68 70 74 65 72 71 85 149 182 183 179 180 186 188 185 183 173 114 82 82 84 87 86 84 84 81 82 87 88 92 89 91 94 92 92 100 117 141 133 131 118 130 156 168 181 176 155 144 125 113 109 110 115 116 113 111 111 114 121 130 128 115 114 118 120 121 126 127 125 125 126 125 130 133 132 131 134 135 133 132 133 135 136 139 142 140 142 136 136 140 143 144 148 148 146 145 146 149 151 153 157 158 157 156 153 154 154 155 157 159 159 155 156 161 161 161 161 161 163 163 165 166 167 168 170 172 171 166 165 167 168 168 167 167 171 172 172 172 171 171 172 174 175 174 170 170 171 170 168 172 173 174 173 172 173 172 172 172 171 168 167 167 170 176 184 190 191 186 181 180 183 185 184 180 179 180 181 182 183 185 186 188 190 192 190 185 180 181 184 186 183 180 180 185 186 184 186 189 189 184 182 187 188 183 182 179 176 181 183 184 184 184 183 181 183 188 184 179 185 193 187 176 181 183 181 202 239 252 252 252 252 252 252
241 241 241 241 241 241 234 127 58 68 72 56 60 74 71 60 63 68 70 68 69 73 72 69 69 71 64 71 70 82 152 186 185 177 177 187 190 184 179 171 117 77 77 82 87 89 86 85 80 81 88 90 94 93 96 100 97 94 95 105 121 116 121 106 106 116 123 145 168 174 172 154 126 108 108 112 115 113 108 110 113 118 126 127 115 114 118 121 121 122 122 124 126 127 127 133 136 132 129 131 131 131 134 139 142 137 139 142 137 138 140 141 142 143 143 147 148 147 148 148 150 151 151 155 157 157 156 154 156 156 156 157 158 154 152 154 160 158 159 160 162 164 164 165 166 167 165 165 167 169 169 167 167 168 167 167 168 170 170 170 170 169 169 170 174 177 175 172 172 172 171 171 174 173 172 170 170 172 170 169 170 171 171 170 173 177 180 182 184 185 180 177 178 182 184 182 180 182 185 185 182 182 183 183 186 190 193 187 182 180 182 184 182 180 178 179 186 190 191 191 190 187 182 182 186 186 183 183 180 178 183 183 181 181 182 181 180 183 186 182 182 191 194 186 178 185 182 178 200 235 250 250 250 250 250 250
241 241 241 241 241 242 223 116 59 65 74 64 56 66 75 68 60 60 67 72 71 69 70 71 72 70 70 67 69 87 158 185 186 182 179 182 188 190 186 175 118 71 78 87 86 87 87 84 78 80 105 122 142 160 157 138 110 95 88 92 106 112 119 109 103 99 98 108 128 141 159 167 156 134 117 112 114 111 108 115 115 117 120 120 115 115 116 121 123 123 124 125 126 128 129 132 134 133 129 128 127 129 134 143 143 138 140 138 135 137 140 141 140 143 144 146 147 147 147 148 148 150 150 153 155 156 154 152 155 157 158 159 158 155 157 158 159 157 157 159 162 163 163 163 164 166 164 162 164 171 171 168 167 169 169 169 169 168 169 170 169 167 166 170 174 176 173 172 172 171 170 173 177 175 172 171 171 171 170 169 170 172 173 174 175 176 177 177 181 182 180 180 182 184 183 180 179 179 183 188 189 186 183 181 181 185 187 185 184 184 184 183 180 180 179 180 188 192 192 188 184 184 183 183 183 182 184 184 183 183 185 184 182 182 183 183 184 184 182 181 186 192 188 180 180 188 180 176 197 230 249 250 250 250 250 250
241 241 241 241 241 241 209 98 65 63 71 70 62 66 73 70 61 59 66 75 72 66 68 73 73 68 70 62 72 103 171 187 185 181 179 180 185 193 191 177 123 73 81 89 84 84 86 86 84 96 139 162 185 199 181 145 108 95 90 92 100 102 103 99 100 98 98 102 109 116 137 162 181 174 149 129 122 115 114 123 122 120 118 118 118 117 116 121 122 121 122 124 126 129 131 130 129 130 130 127 127 132 137 143 141 139 140 137 136 140 143 142 141 143 143 146 147 147 147 147 147 147 148 149 151 152 152 153 156 160 161 160 157 155 158 159 160 157 157 158 160 160 161 161 163 165 163 162 164 171 171 165 162 165 169 169 167 165 167 169 169 167 166 170 173 174 174 175 173 172 172 174 176 175 172 172 171 171 171 170 171 174 177 178 178 178 178 177 183 183 180 179 180 182 181 183 183 182 184 189 191 188 185 184 184 185 186 183 183 184 183 181 182 182 180 181 188 194 193 185 180 182 184 183 182 184 189 185 182 185 184 184 184 182 182 184 185 185 184 185 189 191 187 181 181 183 179 177 190 223 248 249 249 249 249 249
244 244 244 244 244 244 200 86 68 64 64 69 70 68 66 70 68 65 67 71 70 66 66 69 71 69 72 66 77 112 178 191 189 184 181 180 182 188 189 181 135 81 81 84 83 85 86 85 87 107 154 175 191 196 167 127 96 90 90 93 97 98 96 97 103 104 102 100 101 104 120 141 168 183 174 152 137 122 115 117 113 113 114 118 121 121 120 122 121 119 119 121 125 128 130 128 126 127 130 130 132 135 138 141 139 139 137 136 139 142 144 145 145 145 144 145 146 147 147 146 146 145 146 147 148 150 153 155 157 159 159 158 154 155 159 159 159 158 158 159 160 160 160 160 161 162 162 160 162 168 169 164 158 161 166 168 167 166 169 170 170 170 169 171 171 172 173 175 173 172 172 172 173 172 170 171 170 171 173 173 175 177 177 178 175 173 174 175 182 181 180 180 181 181 181 185 187 186 186 188 190 186 183 182 183 183 184 184 184 185 185 184 183 180 178 180 186 193 192 187 183 182 183 183 184 186 189 186 184 185 182 183 184 182 182 183 184 184 186 188 187 185 187 184 181 182 185 183 190 222 243 243 243 243 243 243
248 248 248 248 248 247 192 77 66 63 61 67 74 69 62 67 73 73 69 68 69 69 67 65 66 66 72 72 75 103 168 188 192 188 181 179 181 185 186 184 145 90 82 81 82 84 85 84 91 120 165 181 188 182 145 106 86 86 90 93 95 94 93 95 105 108 104 97 96 99 109 121 146 174 187 176 159 142 128 119 113 113 115 118 122 121 121 123 122 119 118 118 124 127 128 125 125 127 131 132 135 136 138 140 139 137 133 135 140 145 145 146 149 147 146 144 145 146 146 146 145 144 146 146 148 150 154 157 156 156 156 155 153 157 159 159 158 159 159 160 160 160 160 160 159 160 161 160 161 164 165 163 157 158 163 166 167 168 169 170 171 172 172 171 170 171 173 175 172 171 170 168 167 168 169 171 173 174 176 178 179 178 176 175 171 170 171 174 182 181 181 181 181 180 181 188 191 191 189 187 188 184 182 183 183 182 181 183 184 186 187 187 186 181 179 182 188 193 191 187 183 180 180 182 184 184 183 184 185 183 179 181 184 183 184 183 183 185 189 188 183 180 186 185 183 183 190 187 190 221 239 238 238 238 238 238
249 249 249 249 249 248 187 76 60 60 66 68 67 67 68 68 68 67 67 69 69 69 69 68 67 67 73 72 70 87 149 178 190 189 183 179 179 185 189 190 155 98 85 83 82 84 85 86 99 132 172 183 183 169 127 93 82 88 93 95 93 91 91 94 103 104 101 97 98 101 112 125 146 157 158 150 139 127 122 122 128 136 139 141 139 131 123 121 120 118 118 120 125 127 128 126 125 126 128 129 133 137 138 136 136 138 135 137 140 143 144 144 144 144 143 141 143 145 146 146 146 146 147 146 147 149 153 156 157 157 156 156 155 156 158 158 158 159 159 159 159 159 159 160 160 161 162 162 161 162 162 161 161 163 165 165 166 166 166 167 169 171 172 170 169 169 171 173 171 170 171 170 169 170 170 170 171 172 173 174 175 174 174 173 172 171 172 174 182 183 183 183 183 183 183 187 190 190 188 184 183 183 185 186 185 183 180 180 180 182 184 185 184 181 182 187 190 188 183 182 181 182 183 184 184 183 183 183 185 186 181 181 183 182 183 184 184 185 185 184 184 184 184 182 183 187 190 185 190 219 238 238 238 238 238 238
251 251 251 251 251 250 182 74 58 63 70 68 62 63 67 66 64 63 66 68 68 70 72 71 69 68 72 75 66 71 121 159 183 192 189 182 177 181 188 194 169 114 89 80 79 82 88 92 111 148 180 186 185 171 123 92 86 91 96 97 94 93 93 94 100 100 97 98 104 104 107 109 114 114 115 115 112 110 116 125 145 170 181 183 177 163 143 130 125 119 120 122 125 126 128 127 125 124 125 126 132 136 137 132 130 135 136 137 138 141 143 142 137 141 141 138 140 143 146 147 149 151 152 148 147 149 151 155 157 153 152 153 156 157 155 156 158 159 159 159 160 161 163 163 163 163 163 163 160 157 158 162 170 170 167 167 168 168 167 167 167 168 168 166 165 165 166 167 167 169 173 175 175 174 172 170 170 170 170 169 168 166 165 165 166 168 169 172 182 184 184 184 185 183 182 183 184 184 185 184 184 185 187 188 186 183 179 178 179 183 184 184 182 181 185 191 189 178 174 178 184 188 190 189 185 182 182 185 191 189 185 183 182 181 182 183 183 183 182 181 182 183 182 180 183 188 190 184 189 216 237 237 237 237 237 237
252 252 252 252 252 250 173 71 61 65 67 68 64 63 68 67 63 61 66 70 70 70 72 72 69 69 71 75 68 66 95 131 168 186 188 181 178 182 187 192 177 130 97 78 75 81 92 101 124 163 189 192 188 170 120 91 87 92 97 96 93 93 94 96 102 102 97 96 102 104 107 106 106 108 113 114 111 111 113 118 139 168 184 189 187 180 159 143 134 126 125 124 124 124 126 126 125 124 125 126 131 135 133 130 129 134 136 135 136 140 142 141 137 139 141 138 139 142 145 147 149 150 151 149 149 150 151 154 155 151 150 151 155 157 155 155 158 160 160 161 161 162 162 163 162 161 162 162 159 157 160 166 172 169 165 165 168 170 169 167 167 166 166 165 163 163 164 166 167 170 175 177 175 173 170 167 167 167 167 167 167 165 164 164 164 166 167 170 180 185 186 186 185 183 181 182 183 183 183 184 185 185 188 190 188 184 180 179 180 185 184 182 179 180 185 191 187 178 179 187 191 191 190 188 183 178 179 184 190 186 184 184 182 181 182 183 182 182 181 181 184 184 183 182 183 186 188 185 187 211 237 237 237 237 237 237
252 252 252 252 252 251 161 71 66 66 64 67 67 64 68 70 63 59 65 72 72 69 69 72 73 75 70 70 73 70 75 101 143 172 182 182 182 184 185 187 189 161 123 92 86 96 112 121 145 177 192 191 183 157 112 88 87 92 97 94 90 94 94 97 102 105 99 95 100 105 108 104 99 106 113 112 110 116 117 120 138 166 180 184 184 189 174 160 151 138 135 130 125 123 124 123 123 123 125 127 132 134 130 128 129 133 137 134 134 137 140 139 138 138 140 139 140 142 145 147 148 150 151 149 150 151 150 154 151 149 150 150 153 155 153 153 156 160 161 162 162 162 161 161 161 160 160 161 160 159 165 168 169 166 164 167 170 172 172 166 164 162 163 163 162 161 163 166 169 172 176 178 174 170 166 164 164 164 165 166 165 164 163 164 164 166 167 169 179 187 188 186 184 181 180 183 183 183 183 184 185 184 185 188 188 185 181 180 182 188 184 179 177 181 189 192 187 181 186 194 194 191 188 184 179 175 176 182 184 179 184 185 184 182 183 184 183 182 179 181 185 185 183 184 183 184 185 185 187 207 237 238 238 238 238 238
246 246 246 246 246 245 152 73 67 67 67 68 64 64 69 69 65 61 66 71 72 70 70 73 74 72 67 68 75 71 67 79 107 140 168 184 188 186 182 181 188 180 158 139 144 159 170 168 177 189 190 184 171 130 99 87 88 92 93 89 88 98 97 96 97 102 101 102 106 108 111 106 103 108 111 109 115 128 140 146 156 170 175 175 162 164 151 142 140 129 130 132 127 126 127 124 124 126 129 130 130 133 132 132 130 130 133 135 135 136 137 137 138 140 140 139 141 143 146 148 149 151 151 148 148 148 149 152 152 149 150 151 153 153 152 151 154 157 158 160 161 162 161 161 161 161 161 162 162 161 161 159 163 164 168 170 172 172 169 161 159 159 161 163 163 162 163 166 167 167 169 172 171 170 170 171 172 170 169 167 164 164 165 166 167 169 170 171 178 185 183 179 180 183 185 187 185 185 185 186 185 182 180 181 184 186 186 185 183 184 183 181 184 191 197 196 188 183 185 188 185 183 181 177 174 175 178 182 182 180 185 187 186 185 183 184 184 182 182 184 186 187 184 182 183 183 180 181 184 201 243 246 246 246 246 246
241 241 241 241 241 241 150 70 66 68 67 67 65 65 65 67 67 64 65 67 71 71 69 70 72 70 69 69 70 66 69 73 81 104 139 171 186 187 184 182 185 185 180 174 182 191 191 181 180 185 187 185 169 117 93 86 88 91 92 91 92 98 98 95 96 100 103 104 103 107 114 110 108 112 112 106 107 112 122 124 129 136 140 143 127 126 122 121 121 114 117 123 126 127 127 126 126 127 128 130 128 130 133 131 130 131 133 138 138 136 136 137 138 141 140 140 142 143 144 146 147 148 149 149 148 148 147 150 152 151 151 152 152 152 152 153 155 155 155 156 157 158 158 159 160 160 160 161 163 165 162 157 160 162 165 166 166 167 165 160 160 161 163 164 164 165 165 166 167 166 166 167 169 170 171 172 172 170 169 167 165 166 167 168 168 167 168 169 174 182 178 173 177 183 186 187 185 185 186 186 187 184 180 180 181 182 184 185 184 180 181 184 189 196 196 190 182 182 186 187 184 181 178 175 176 181 185 187 189 187 186 186 185 184 183 183 182 181 183 185 184 185 183 182 182 183 181 181 182 199 246 250 250 250 250 250
240 240 240 240 240 240 148 69 66 67 67 67 67 66 62 65 69 66 63 65 70 71 68 67 71 72 71 70 69 67 72 71 69 80 111 148 174 184 186 185 184 185 183 177 182 188 188 181 181 185 187 185 166 110 90 87 89 92 91 91 92 97 97 94 95 99 103 103 98 103 110 107 105 111 110 106 105 105 112 109 112 115 118 123 113 115 118 121 120 114 115 120 123 124 125 126 127 128 127 128 127 128 131 131 131 132 132 138 139 137 136 136 138 140 139 141 143 143 143 144 146 147 148 149 149 148 146 147 148 149 150 151 152 153 154 155 156 155 155 155 155 156 156 157 158 159 160 161 162 164 162 160 160 161 163 163 163 164 163 161 161 163 164 165 165 166 167 167 167 166 166 165 166 167 169 169 170 168 167 166 165 165 165 165 164 163 163 164 169 177 174 169 174 181 184 187 185 186 185 185 185 183 180 180 181 182 183 184 184 181 182 186 192 194 190 182 178 184 188 187 184 181 178 178 182 186 188 188 188 187 185 185 185 184 183 183 182 182 184 186 182 181 182 183 183 183 182 182 183 199 246 251 251 251 251 251
239 239 239 239 239 239 147 69 65 66 69 66 65 65 62 63 69 69 64 64 68 70 68 68 71 71 71 72 71 68 72 72 67 69 88 122 154 175 184 186 185 187 185 179 180 183 184 181 182 186 188 185 164 107 90 89 91 93 91 90 91 96 96 93 93 98 104 104 98 101 109 107 108 109 105 106 108 107 112 108 110 111 112 117 108 110 115 120 121 115 116 119 121 121 122 126 129 129 127 126 125 127 130 131 133 132 131 136 138 137 135 134 137 139 140 143 143 142 143 144 145 146 147 148 149 148 146 145 146 149 151 151 151 152 154 155 155 154 154 154 154 155 155 156 158 159 160 161 161 163 161 162 162 162 162 161 160 161 161 160 161 163 164 164 164 165 166 167 167 166 165 165 165 166 167 168 169 167 166 165 165 164 163 163 162 162 161 162 166 174 171 167 173 181 185 188 187 186 185 182 181 180 180 180 181 181 182 184 185 183 185 189 193 192 185 178 179 185 186 183 181 179 179 182 186 188 188 187 185 185 185 184 186 185 183 184 184 183 184 185 181 181 181 182 183 185 181 182 183 198 247 251 251 251 251 251
240 240 240 240 240 240 145 68 64 64 70 67 65 66 63 62 68 69 66 64 66 68 69 70 71 70 68 72 73 69 71 74 69 66 74 97 128 155 174 185 188 190 185 179 179 181 183 181 184 188 190 184 161 105 89 89 92 93 91 90 91 94 95 93 92 96 103 106 99 99 105 105 109 108 102 106 108 107 111 107 109 110 110 116 110 110 113 119 122 118 118 119 120 119 120 125 130 131 128 126 126 125 128 131 135 133 131 135 136 135 133 134 137 139 141 144 143 142 142 143 144 145 146 147 148 147 146 144 145 148 151 151 150 151 152 153 153 153 154 153 154 154 155 156 158 159 161 161 161 160 160 163 162 162 161 159 159 159 160 161 161 162 162 162 163 164 165 166 166 166 165 164 164 165 165 166 167 166 166 166 165 164 163 163 162 162 161 162 166 173 171 168 175 183 186 188 187 186 183 179 178 180 180 181 181 182 183 185 187 186 187 190 191 188 182 178 182 185 182 178 177 178 180 184 188 188 188 187 184 185 185 185 185 184 182 182 183 184 186 185 182 183 183 183 183 184 180 181 182 197 247 251 251 251 251 251
241 241 241 241 241 240 143 66 66 64 69 68 65 66 64 61 66 69 69 65 64 67 71 72 70 68 67 70 74 70 71 75 73 67 69 82 102 125 152 175 190 189 176 171 176 181 184 181 184 187 186 178 153 102 86 88 94 94 90 90 90 91 95 96 94 96 101 104 101 99 102 102 106 107 103 106 107 106 110 106 108 110 111 117 111 109 111 116 120 119 120 119 120 117 117 122 128 130 129 129 129 126 127 130 136 135 133 135 136 132 132 134 137 138 142 143 142 141 142 143 143 144 144 146 147 147 146 144 145 149 150 151 149 149 151 151 150 153 154 154 154 154 154 156 158 158 160 161 161 158 159 162 160 160 159 158 158 158 159 161 161 162 162 162 163 164 165 164 165 165 164 164 164 165 166 166 167 166 167 167 167 165 164 164 164 163 161 162 165 172 173 174 182 188 189 187 184 184 182 179 179 182 182 182 182 183 184 185 187 187 188 191 188 183 180 182 186 184 178 173 175 177 181 185 188 188 189 188 184 185 186 185 184 182 179 180 182 185 187 186 184 186 186 184 182 183 180 182 181 196 246 250 250 250 250 250
248 248 248 248 248 246 137 63 68 59 63 70 66 66 68 64 65 68 69 65 64 67 70 69 67 70 73 67 74 73 69 72 74 70 72 78 82 90 114 148 173 159 128 125 152 174 184 183 185 184 176 162 133 92 80 86 100 98 92 94 89 85 93 98 97 93 93 98 103 103 100 99 98 102 108 109 107 106 110 107 107 111 113 120 116 111 110 113 118 119 120 119 120 117 114 116 121 125 128 135 135 128 124 128 135 135 132 133 136 131 132 137 140 138 138 139 140 141 142 142 142 140 139 141 143 145 147 148 149 149 148 148 148 149 151 151 148 154 157 156 155 154 155 155 156 156 157 160 163 155 156 159 157 156 156 157 158 157 159 161 163 164 164 164 165 166 164 162 162 161 160 160 162 165 166 166 165 165 165 166 165 165 165 165 165 163 161 160 160 169 176 182 190 194 192 185 179 180 182 181 181 186 186 183 184 188 189 186 182 183 189 191 181 174 177 184 188 182 176 175 179 182 185 187 190 190 188 186 180 182 184 183 183 182 181 181 184 185 185 183 184 187 185 182 185 186 184 188 185 198 239 242 242 242 242 242
249 249 249 249 249 247 137 61 70 58 62 70 66 65 70 67 63 67 68 66 65 66 68 67 66 69 74 70 73 74 70 70 72 72 75 78 77 75 79 93 109 98 84 94 127 160 178 184 186 182 178 168 148 123 119 130 144 144 137 130 111 86 86 98 99 93 92 95 100 100 99 102 101 100 107 112 110 109 111 110 111 109 109 119 120 113 111 112 117 116 115 117 117 117 119 118 121 124 128 132 130 126 127 130 133 132 131 131 135 134 135 138 141 137 135 136 139 141 141 141 141 140 141 141 142 145 147 148 148 148 148 148 149 149 149 149 148 153 156 156 156 155 154 154 154 154 154 156 160 158 157 158 157 159 160 159 158 156 156 159 162 165 165 165 164 164 164 163 162 160 158 157 158 161 164 165 164 164 162 161 161 161 162 161 162 162 161 161 162 170 175 179 184 187 185 180 180 184 186 185 183 185 184 183 185 189 191 187 181 180 184 183 177 174 176 181 183 181 181 181 184 186 188 190 191 189 186 184 180 185 184 182 182 183 183 184 187 186 182 180 183 185 181 180 188 187 185 190 185 198 237 240 240 240 240 240
249 249 249 249 249 247 138 57 75 63 61 68 68 64 68 69 65 66 67 67 66 65 67 68 69 67 70 72 72 76 70 68 72 74 75 74 76 77 75 75 84 78 74 84 107 140 167 183 185 180 184 184 179 174 178 184 186 183 176 165 141 100 86 96 97 91 92 94 97 97 101 105 105 101 105 109 109 109 109 111 113 110 109 116 118 114 110 113 117 116 116 117 113 115 119 119 121 125 127 128 126 125 127 130 129 128 132 130 132 136 137 138 139 136 134 135 137 138 140 140 140 141 142 141 142 144 146 146 146 147 147 148 150 150 148 148 149 151 152 155 157 157 156 154 154 153 152 153 156 157 157 156 157 159 161 161 159 158 158 161 162 162 163 163 163 163 162 163 162 160 158 156 157 158 161 162 162 163 162 160 159 160 159 158 159 160 161 161 164 171 173 173 175 178 178 177 181 185 187 189 187 185 184 182 184 187 188 186 183 183 184 179 175 175 177 180 183 184 184 183 184 187 189 190 189 187 185 182 182 187 184 183 183 183 184 185 187 186 181 180 182 181 178 182 189 185 185 189 183 197 238 240 240 240 240 240
248 248 248 248 248 247 142 55 74 68 59 64 70 66 66 69 67 67 66 66 66 65 66 67 69 70 70 73 70 75 68 68 74 74 73 71 75 79 77 75 81 81 75 77 92 120 152 175 182 180 185 185 182 178 182 187 186 184 185 184 169 123 97 96 93 91 93 95 97 98 101 103 104 101 105 106 107 109 108 110 111 111 111 114 114 113 110 112 116 116 116 117 116 117 118 119 121 124 125 124 125 126 126 129 128 129 130 128 132 136 137 137 138 137 135 135 136 137 139 140 140 142 143 141 142 144 145 145 146 145 146 146 149 150 148 148 148 150 152 154 155 155 155 154 153 153 153 154 157 156 156 155 155 158 160 160 159 159 161 164 162 161 160 161 162 162 161 161 161 160 159 158 158 158 160 160 161 162 161 161 161 161 160 159 159 160 160 160 163 167 168 168 172 178 181 181 183 182 182 183 184 184 185 186 187 189 188 186 183 183 182 178 174 176 178 181 185 185 184 183 185 187 189 190 189 187 184 180 181 185 184 183 183 184 184 185 187 185 181 181 181 179 178 184 188 182 186 188 181 198 239 241 241 241 241 241
248 248 248 248 248 247 147 55 72 70 59 62 70 67 65 68 68 68 66 66 66 65 65 67 70 70 68 73 70 75 68 69 75 75 71 69 74 80 79 75 80 82 76 74 81 104 135 164 176 180 186 186 182 178 182 187 186 184 187 188 176 128 99 96 92 91 93 94 96 98 100 102 103 101 103 105 107 110 109 110 111 110 111 113 113 113 112 112 115 115 115 116 117 118 119 120 121 123 123 121 123 127 127 128 128 129 128 127 130 135 137 136 136 137 136 135 135 136 138 139 139 141 143 142 143 143 144 144 144 144 145 146 148 149 149 149 149 150 151 153 153 153 153 153 153 153 154 156 156 156 156 155 155 157 158 158 158 158 160 163 162 160 160 160 161 161 160 160 160 160 160 159 159 159 160 160 161 161 160 160 161 161 160 160 160 161 161 160 162 164 165 164 168 174 177 179 182 181 180 182 183 184 187 190 190 190 188 186 184 184 182 178 175 177 179 182 185 185 183 183 185 187 189 189 189 186 183 179 181 184 183 183 184 184 185 186 187 186 181 181 180 178 178 185 187 182 187 188 180 200 240 242 242 242 242 242
247 247 247 247 247 246 154 58 71 71 61 60 69 68 66 67 67 68 67 66 65 65 66 68 70 69 67 74 70 74 68 70 76 76 71 67 73 81 80 76 79 82 79 74 74 89 117 148 164 174 184 187 183 178 181 186 185 184 188 191 181 131 102 97 92 91 93 92 94 97 100 101 103 100 101 104 106 110 109 109 109 109 111 111 111 113 114 112 113 113 114 115 117 119 120 120 120 121 122 119 121 127 129 129 128 129 128 127 129 134 136 135 135 136 136 135 134 135 137 137 138 141 143 142 143 143 144 143 144 144 145 145 147 149 149 150 150 150 151 151 151 151 151 151 152 152 154 157 156 155 156 155 156 157 157 157 156 156 159 163 162 160 160 160 160 160 159 158 158 159 159 160 159 160 160 160 161 160 160 160 160 161 160 161 161 162 161 160 161 162 162 161 164 170 174 178 182 182 180 181 183 185 189 192 192 189 185 184 183 184 181 177 177 180 181 183 185 184 183 183 185 187 188 189 188 186 182 180 181 184 183 184 184 184 185 185 187 186 182 181 180 179 179 186 186 182 187 186 180 202 242 243 243 243 243 243
242 242 242 242 242 242 168 63 66 71 66 62 64 66 65 64 64 67 68 67 65 67 70 71 69 64 63 72 71 73 72 73 76 76 72 68 73 80 81 77 76 79 82 79 73 77 93 115 131 147 168 181 184 181 181 182 180 180 187 190 180 127 98 95 92 92 95 93 93 95 99 100 104 103 101 103 106 109 107 106 104 105 112 112 109 113 118 115 113 114 114 114 117 120 121 120 118 119 121 119 121 127 131 130 127 126 126 127 128 132 135 134 133 135 136 136 134 135 136 137 137 140 142 142 142 142 142 142 142 144 146 146 147 147 149 150 151 150 149 149 148 148 149 150 151 152 155 156 153 154 155 157 159 158 156 155 154 153 156 160 161 160 160 160 160 160 160 159 157 157 157 157 159 160 159 161 161 161 161 161 160 160 159 161 161 162 161 161 163 160 159 157 159 163 167 174 181 184 183 184 187 188 190 191 188 182 178 178 180 182 180 180 182 186 186 184 181 180 181 183 184 185 186 185 185 185 185 183 183 186 185 184 183 183 182 182 183 185 186 184 183 184 184 185 182 179 182 179 176 203 247 248 248 248 248 248
241 241 241 241 241 241 181 69 65 70 67 65 62 64 64 63 62 66 69 67 65 68 73 74 69 62 62 70 72 74 75 73 75 76 73 70 73 78 78 76 72 72 80 83 78 76 81 90 97 109 136 158 173 181 184 183 178 177 185 188 176 118 89 89 91 91 95 95 92 93 99 102 105 104 102 101 103 107 105 104 101 103 113 112 107 110 118 118 114 116 114 112 115 119 121 119 117 118 121 121 122 125 130 130 125 124 127 128 127 131 133 132 131 133 135 135 135 136 136 136 137 138 141 142 142 142 143 142 142 144 145 146 146 146 148 149 150 148 147 148 148 149 151 151 152 153 154 153 149 151 153 158 160 159 156 154 153 152 154 159 160 159 159 159 160 160 160 159 156 155 155 155 159 161 161 163 163 162 163 162 160 159 159 160 160 160 160 161 163 160 159 157 157 159 162 168 177 182 184 187 192 191 189 186 179 175 173 176 181 184 184 185 188 190 189 185 179 178 182 183 183 181 182 181 182 184 185 184 183 186 185 184 183 183 181 180 181 184 187 185 185 186 186 184 180 180 181 178 177 208 248 249 249 249 249 249
241 241 241 241 241 241 188 75 62 72 69 63 64 65 64 63 64 66 68 66 66 68 72 73 69 66 66 68 71 72 73 71 72 74 73 72 73 75 76 76 71 73 78 79 76 77 81 88 89 89 99 111 122 136 160 179 185 180 182 185 174 112 89 88 91 94 95 96 95 95 100 101 102 102 101 99 100 103 102 106 104 104 112 112 104 105 116 116 114 117 116 115 115 118 120 120 118 118 121 123 123 123 126 128 125 123 128 128 128 127 128 129 129 131 134 135 135 136 136 136 137 138 140 142 143 143 143 141 142 144 144 144 144 145 147 148 148 146 146 148 149 150 151 151 152 153 153 152 151 152 154 157 158 157 155 154 154 153 154 157 158 157 157 159 160 159 157 156 156 156 156 158 161 162 162 163 162 161 161 160 161 161 161 160 159 158 157 157 157 156 157 158 159 160 162 165 172 181 185 189 189 186 183 179 175 174 176 180 185 187 188 188 188 190 191 187 182 181 183 184 182 179 177 176 180 185 186 185 183 183 184 184 183 184 182 181 181 183 186 185 185 185 186 185 179 180 183 179 179 212 247 248 248 248 248 248
241 241 241 241 241 241 193 81 60 72 70 62 66 67 63 63 66 67 67 65 66 69 72 72 69 68 67 68 70 70 73 72 72 72 72 72 73 74 75 76 70 73 77 76 74 75 80 90 91 86 84 87 91 104 139 173 189 184 182 183 173 110 90 91 93 95 95 96 97 97 99 100 100 100 100 98 99 102 102 107 107 104 110 111 102 102 114 114 112 116 116 116 115 118 119 120 118 118 120 122 121 122 123 126 126 123 129 128 128 126 126 128 128 130 133 135 136 136 136 136 137 137 139 143 144 144 142 140 142 143 143 144 143 144 146 147 146 145 145 147 148 149 149 150 151 152 153 154 153 153 154 156 157 156 154 154 154 153 154 154 156 157 157 159 159 158 156 154 157 157 158 160 162 162 162 162 160 159 158 159 161 161 161 160 159 157 155 154 152 153 156 158 159 160 162 163 170 181 187 188 185 183 180 177 175 176 178 182 186 189 188 188 188 191 192 190 185 183 185 184 182 177 175 174 180 185 186 185 182 183 184 184 184 184 183 181 181 182 186 185 184 184 187 187 178 180 184 179 181 214 248 249 249 249 249 249
241 241 241 241 241 241 199 86 60 70 70 63 66 67 63 62 66 66 66 66 66 69 71 71 67 67 68 71 72 69 72 71 71 71 72 74 74 73 74 77 71 73 77 77 75 75 79 87 89 86 84 84 84 92 125 163 185 183 182 183 169 105 87 89 93 95 95 96 97 97 98 99 99 100 100 99 99 101 101 107 108 106 114 116 106 106 117 114 111 114 113 114 114 116 119 119 117 116 118 121 121 122 123 124 125 123 129 129 128 125 126 129 128 129 132 134 135 136 135 136 137 137 138 141 143 142 141 140 142 143 144 144 142 143 145 146 145 144 144 146 147 148 148 149 151 152 153 153 152 152 153 155 156 154 152 153 154 154 154 153 155 157 158 158 158 157 155 154 157 158 158 160 160 160 160 159 157 157 156 157 160 161 161 160 158 157 155 154 152 154 156 158 159 159 159 160 169 181 188 188 183 182 181 179 178 179 180 183 186 187 186 186 187 190 192 189 183 180 182 181 177 171 167 167 175 183 186 186 184 184 185 184 183 184 182 180 180 182 187 187 185 186 188 188 178 181 183 179 183 216 248 249 249 249 249 249
244 244 244 244 244 244 209 91 58 68 70 65 66 66 63 63 67 65 66 66 66 69 69 68 64 64 71 80 78 66 70 70 69 70 73 76 74 70 73 80 76 72 76 80 81 79 77 79 83 86 86 84 80 81 102 138 168 174 181 184 168 100 84 87 92 94 93 95 98 97 95 95 97 100 102 101 100 101 102 110 115 119 134 140 130 126 133 123 114 114 109 109 112 115 118 118 115 113 116 120 121 122 122 121 124 124 130 130 128 125 127 131 128 128 131 132 134 137 136 137 137 137 137 139 140 141 140 140 143 144 143 144 142 141 143 144 145 144 144 145 146 147 148 149 151 151 152 151 150 149 150 153 155 153 151 154 157 159 157 153 155 158 159 158 156 155 155 154 157 160 163 164 162 160 158 156 153 154 154 156 159 160 161 159 158 157 155 154 153 155 157 159 159 157 157 157 165 179 185 183 180 182 182 181 181 182 184 184 185 184 183 183 184 186 188 184 175 171 173 170 163 155 150 151 163 178 183 186 187 186 186 183 181 182 181 179 178 180 188 188 187 187 190 188 179 182 184 180 186 222 247 247 247 247 247 247
250 250 250 250 250 249 214 93 56 66 67 64 66 66 65 67 69 65 63 65 67 69 66 63 64 69 76 78 74 63 72 75 71 69 73 79 73 66 72 84 82 74 75 80 84 81 76 75 77 81 84 85 82 80 89 112 136 145 160 175 169 106 84 83 89 93 92 94 95 96 94 92 95 98 102 98 98 103 106 116 120 127 145 145 130 128 136 127 118 117 109 107 113 116 116 116 114 112 117 122 123 122 120 117 121 128 130 130 128 124 127 131 128 127 130 132 134 136 136 136 136 135 134 135 135 137 140 142 146 144 142 143 142 142 142 143 144 145 144 143 143 145 148 149 150 151 151 151 149 148 149 151 152 151 150 154 158 160 158 155 156 156 156 154 154 154 153 151 154 158 161 162 162 161 159 155 153 154 154 156 157 159 160 158 158 157 155 154 153 156 158 160 161 159 159 155 157 166 171 173 176 184 187 187 185 185 185 185 183 182 182 183 182 183 185 182 173 166 163 159 153 147 142 144 158 175 178 179 182 183 185 183 182 183 184 183 180 180 185 186 186 186 188 185 180 186 189 184 191 229 243 242 242 242 242 242
251 251 251 251 251 250 218 104 55 63 68 66 67 66 66 69 68 61 59 66 71 69 62 59 66 78 79 67 64 62 77 81 72 66 71 78 73 66 72 84 83 78 76 80 84 82 78 74 75 77 80 84 84 82 86 97 111 120 140 160 162 108 86 81 87 96 96 93 91 96 94 92 93 97 100 95 99 112 119 132 137 142 157 144 124 134 152 151 144 140 125 115 116 115 114 114 113 114 122 128 127 122 116 114 121 128 129 129 128 126 128 129 127 126 129 134 135 136 135 136 135 133 131 131 132 133 137 140 142 143 143 144 144 143 142 143 145 147 146 143 142 143 145 147 148 148 148 150 151 150 150 153 153 153 153 154 155 157 157 154 153 152 151 151 152 153 153 152 154 156 158 159 159 158 156 154 153 153 153 153 154 155 157 157 157 157 156 156 156 157 159 159 158 156 155 151 150 155 160 165 174 184 188 189 187 187 186 182 179 178 180 183 181 182 184 180 175 167 157 148 145 143 140 143 156 175 173 169 169 174 185 185 183 184 187 187 183 179 182 185 187 186 186 184 182 188 187 182 195 233 242 242 242 242 242 242
252 252 252 252 252 251 225 123 58 58 70 70 66 66 70 72 66 58 58 67 71 67 61 62 72 81 75 59 63 67 76 75 67 68 74 76 71 66 71 78 80 78 75 77 81 81 78 75 76 78 81 85 86 84 83 88 100 118 147 166 166 115 88 81 87 97 97 94 92 95 91 92 94 96 96 97 111 138 149 164 168 169 181 159 137 160 180 179 172 162 140 124 119 116 115 114 114 118 132 138 137 130 122 119 123 126 125 126 125 127 130 129 129 126 129 134 135 135 135 135 134 134 133 131 132 133 137 138 137 140 141 142 143 142 141 142 145 148 147 145 143 144 145 146 146 147 147 148 149 147 146 152 152 153 155 155 154 154 154 151 149 148 149 149 150 151 155 158 159 160 161 160 158 156 154 154 154 154 154 153 152 152 154 155 156 156 156 157 157 157 157 154 152 150 150 150 151 154 156 160 169 178 183 187 188 188 187 183 180 179 181 184 183 183 184 179 172 164 151 138 135 136 135 137 148 164 159 151 148 159 182 185 185 186 188 189 185 179 177 181 186 184 182 182 185 190 181 180 200 237 240 239 239 239 239 239
252 252 252 252 252 251 235 144 67 59 68 73 67 64 70 73 68 64 63 67 67 62 62 66 72 73 68 61 68 71 67 60 62 73 80 76 69 66 70 76 80 76 72 73 78 79 77 73 74 79 82 85 88 89 81 79 93 122 164 185 183 132 97 87 89 95 95 96 97 95 90 91 93 96 98 103 126 160 169 176 178 176 190 168 146 173 188 185 179 172 153 142 141 139 136 131 128 134 150 159 161 149 137 131 128 125 119 123 124 127 130 130 132 131 131 131 132 132 134 135 134 135 134 132 133 134 137 139 137 137 139 140 142 142 141 141 142 145 144 144 144 145 146 146 146 145 145 143 144 143 144 150 149 149 151 152 151 151 151 150 150 151 151 150 149 152 158 163 164 163 162 158 153 153 155 156 157 157 157 156 154 152 153 153 153 153 154 156 156 154 153 151 148 146 148 153 156 157 155 154 161 169 176 183 187 190 191 191 187 184 183 182 179 178 178 172 161 152 144 136 133 132 131 130 135 146 143 139 138 148 178 184 185 185 186 187 184 180 177 180 184 181 179 181 188 190 177 179 206 242 237 235 235 235 235 235
251 251 251 251 251 251 241 158 73 62 65 71 70 63 66 73 72 68 65 67 66 62 62 66 70 68 66 67 70 72 65 58 63 76 81 75 69 70 71 72 73 75 76 75 73 73 76 76 79 82 81 82 86 88 81 79 88 119 164 184 189 148 110 93 88 92 93 95 97 95 93 94 93 94 97 104 132 169 177 181 181 176 186 161 137 168 182 185 188 188 179 176 180 179 173 165 158 162 173 176 178 164 145 137 132 125 116 121 124 128 128 128 132 134 132 128 128 128 131 134 134 135 134 133 133 133 135 139 138 136 138 139 142 143 141 141 142 142 142 142 145 146 145 145 145 143 141 140 142 148 151 149 145 145 147 149 150 152 151 150 150 151 152 150 149 152 157 161 162 160 157 153 149 151 155 158 159 158 158 157 155 153 153 153 152 152 153 154 156 153 151 149 146 145 149 156 159 158 152 149 152 159 168 177 183 187 189 191 187 181 173 165 162 162 164 159 149 144 139 134 130 129 129 129 131 139 138 136 140 147 177 183 185 185 185 187 184 181 178 181 183 178 176 182 190 188 173 179 211 244 238 237 237 237 237 237
245 245 245 245 245 245 248 180 79 62 64 70 71 62 62 68 69 66 64 67 68 64 63 68 73 70 65 68 67 71 71 66 66 73 76 70 69 73 73 69 65 74 81 78 70 68 75 81 84 84 81 82 85 85 84 80 80 102 144 165 185 167 135 109 91 88 89 92 99 100 100 101 96 92 92 105 138 175 183 185 180 171 177 149 125 161 178 183 187 187 181 181 188 188 185 180 175 179 190 189 191 184 168 161 154 138 122 123 123 124 124 122 125 129 129 127 127 127 131 133 133 136 136 134 134 135 136 138 136 134 136 137 141 143 143 142 141 142 143 143 145 145 145 144 144 143 144 146 149 156 158 150 144 145 149 150 151 152 154 152 149 149 149 147 147 148 152 156 157 156 154 152 148 148 153 156 158 157 156 154 152 150 148 150 149 149 150 151 152 149 147 146 146 148 153 160 161 156 148 145 148 152 160 170 177 180 179 179 175 167 155 148 147 149 151 148 143 141 136 130 126 127 127 127 129 135 133 130 133 144 179 185 186 185 185 186 184 181 179 182 182 177 176 185 190 184 162 172 212 244 245 244 244 244 244 244
235 235 235 235 235 237 254 203 85 60 65 73 69 61 61 64 65 63 64 67 67 64 63 68 73 69 66 66 62 68 76 72 67 70 73 71 71 73 72 72 67 77 81 76 71 69 76 84 87 84 77 78 82 81 86 83 73 80 107 128 163 177 166 135 102 88 86 92 107 112 111 110 97 89 88 107 143 179 189 190 180 171 175 148 124 162 179 182 185 185 181 182 188 190 186 180 176 180 190 189 189 189 179 175 167 143 124 124 123 122 123 120 122 127 128 127 126 127 130 131 132 134 135 133 133 134 135 135 134 134 135 137 141 142 144 144 140 141 143 143 143 143 142 142 142 142 144 148 151 155 155 149 146 147 149 149 150 149 153 152 149 147 147 148 148 149 150 152 151 150 148 150 149 150 153 155 157 155 154 150 147 145 145 148 149 150 150 150 147 143 142 144 149 153 155 158 154 149 145 145 149 151 155 163 169 172 170 165 161 155 146 142 142 144 148 145 140 137 133 129 129 130 129 128 129 132 131 128 129 142 181 185 185 183 182 183 181 180 182 185 184 181 179 186 189 178 147 163 212 241 252 253 253 253 253 253
235 235 235 235 235 236 253 223 95 59 65 71 63 63 71 66 64 66 69 67 67 66 66 66 68 65 62 71 69 61 72 78 75 70 69 71 76 75 70 75 74 79 77 73 74 76 79 83 86 84 76 76 77 77 85 89 81 78 83 89 118 156 178 158 117 92 86 105 141 158 158 149 111 84 91 127 162 191 192 188 180 174 177 158 139 174 187 188 188 182 177 179 185 188 187 183 182 182 185 185 184 187 185 185 174 142 129 128 122 121 126 125 125 126 126 124 125 128 131 131 131 131 129 128 130 132 136 137 138 138 138 140 142 137 138 139 138 136 138 141 145 145 145 144 143 142 141 142 141 142 147 149 148 148 148 147 148 147 149 150 150 149 148 149 150 150 150 152 151 148 147 149 150 150 151 152 154 154 152 149 146 146 149 152 157 159 159 157 151 147 145 147 150 151 149 148 145 146 150 152 152 150 149 150 154 157 156 148 144 144 142 140 137 136 138 136 134 133 134 135 137 134 130 130 131 128 124 123 123 140 181 183 182 181 180 181 181 181 182 182 186 189 183 184 189 180 140 167 221 241 252 253 253 253 253 253
235 235 235 235 235 236 255 242 118 57 65 70 59 62 75 69 65 67 70 68 65 65 68 68 65 58 60 77 80 62 63 73 79 76 68 65 72 77 75 76 71 73 75 75 79 80 78 78 82 84 78 77 77 76 82 90 90 86 81 76 91 129 168 169 145 130 131 151 158 148 151 156 143 114 112 153 177 191 188 184 184 181 184 179 169 187 191 189 186 182 179 178 179 183 187 185 184 184 183 182 182 187 189 187 179 157 153 147 138 132 127 123 122 121 123 124 126 129 130 130 131 130 129 129 131 133 136 135 136 138 140 140 139 136 136 137 138 136 136 138 141 142 144 144 143 142 141 140 137 136 140 145 148 148 146 146 147 146 147 149 151 152 152 152 150 149 149 150 151 150 150 150 149 150 149 149 150 152 151 152 151 152 154 154 157 157 157 157 155 155 154 154 153 150 144 140 140 144 150 152 150 148 146 145 145 145 144 140 138 139 138 138 137 134 133 131 130 128 131 137 140 137 133 132 130 124 122 121 119 143 179 180 182 182 180 182 183 181 180 182 187 191 182 181 188 175 137 178 230 242 251 253 253 253 253 253
235 235 235 235 235 237 255 249 146 65 64 70 63 62 69 69 66 64 66 70 67 62 65 68 67 61 65 73 80 67 63 68 76 77 70 64 68 77 79 75 66 70 76 79 80 79 76 76 79 82 79 79 78 76 80 87 91 89 84 77 86 114 150 167 166 170 177 184 147 105 107 132 164 157 147 174 183 184 183 183 186 184 183 183 178 186 188 185 184 185 186 182 178 182 188 183 181 182 181 182 182 189 191 185 185 180 181 172 166 153 133 123 122 120 122 126 128 129 127 126 127 126 127 129 129 132 134 133 133 137 138 138 137 140 141 141 141 141 139 138 137 137 140 141 141 141 142 143 142 141 140 142 146 146 146 147 145 145 147 149 151 153 154 152 148 146 145 144 145 147 149 147 147 148 149 150 148 149 150 153 155 156 155 152 150 147 146 150 156 159 160 159 155 149 143 139 139 142 146 149 149 147 146 145 143 141 141 141 140 138 136 137 139 138 133 132 130 128 128 133 137 137 134 130 127 124 124 121 118 149 178 179 185 183 181 184 186 180 181 185 187 187 182 182 184 167 142 190 234 243 252 253 253 253 253 253
237 237 237 237 237 238 247 247 175 79 60 68 67 64 64 67 66 62 64 70 68 64 65 67 65 67 72 67 71 73 66 66 72 73 69 65 70 79 79 72 67 72 75 77 77 77 76 76 75 76 78 81 82 79 80 82 85 87 87 83 82 90 107 122 131 151 170 179 129 83 86 118 166 173 167 182 185 183 183 185 188 186 184 182 179 181 182 184 184 187 187 184 179 182 186 185 183 183 183 182 181 184 186 183 185 185 188 183 177 167 144 130 126 121 122 125 127 126 125 125 126 127 129 130 130 132 133 131 131 135 137 137 135 138 139 139 141 141 139 138 136 136 138 140 140 142 143 143 143 144 143 142 144 144 144 145 144 145 147 148 149 150 150 149 147 146 147 146 147 149 149 147 147 147 148 149 148 149 149 151 152 153 151 148 145 144 144 148 153 157 155 151 147 145 144 143 144 145 145 146 146 145 145 145 143 141 141 142 141 138 136 136 139 139 135 131 131 130 131 133 133 133 131 127 124 124 126 122 123 156 180 180 184 182 181 183 184 180 184 189 188 186 185 186 181 162 150 202 235 241 251 252 252 252 252 252
243 243 243 243 243 243 239 244 195 87 54 64 72 69 65 66 67 65 65 68 66 64 67 67 62 68 73 64 68 78 69 66 72 71 67 65 70 77 77 71 71 74 71 72 75 77 78 77 74 72 76 81 83 82 80 79 79 83 88 88 83 80 84 91 99 122 149 170 126 85 91 122 169 178 176 184 185 184 184 187 189 188 186 185 182 180 178 181 183 186 186 184 183 183 184 186 185 185 183 181 181 183 185 184 185 188 190 189 182 174 154 137 129 121 120 122 123 124 125 125 125 128 130 129 130 131 132 131 132 135 136 136 134 135 135 136 140 139 137 136 136 136 139 140 141 142 142 141 141 143 143 141 139 140 142 144 144 146 148 148 147 146 146 145 146 148 148 147 149 152 152 150 149 148 148 146 146 147 147 148 150 151 151 148 147 146 146 147 150 152 148 144 142 145 149 148 148 145 143 143 144 145 145 144 142 141 143 142 140 138 138 137 137 136 132 129 131 132 133 133 131 130 129 126 123 121 123 119 124 157 178 180 184 183 182 184 186 182 185 187 186 184 187 188 183 162 159 215 241 242 246 247 247 247 247 247
250 250 250 250 250 250 235 237 205 104 58 62 75 72 65 65 68 69 67 65 64 64 67 66 62 68 70 64 65 79 72 67 71 69 68 69 70 72 72 71 77 75 68 68 74 78 78 77 74 73 77 81 82 83 80 79 79 82 86 87 83 80 81 86 90 108 128 149 119 90 94 115 150 164 177 186 185 184 184 186 187 186 186 186 184 181 180 181 181 183 183 184 186 185 184 185 185 183 182 182 183 184 186 186 186 188 189 190 186 179 163 147 135 125 122 121 122 124 125 125 125 127 128 127 128 129 129 130 132 133 132 133 132 133 134 135 139 137 137 137 137 138 140 140 140 140 140 138 138 139 141 139 136 137 140 144 145 146 146 146 145 143 143 142 144 146 147 146 148 152 152 151 151 149 148 145 144 145 145 146 148 150 150 147 147 146 145 146 146 147 145 143 143 146 150 148 147 144 143 143 144 144 144 142 140 140 143 141 139 138 140 139 136 134 130 128 130 131 132 132 129 127 126 125 122 121 120 119 129 160 178 181 185 184 184 186 187 185 185 185 182 181 187 188 185 169 175 227 246 245 242 242 242 242 242 242
254 254 254 254 254 253 233 237 217 127 66 61 74 70 63 65 70 69 65 62 64 68 68 65 62 69 74 64 57 74 74 69 69 69 72 76 73 67 64 68 80 76 68 68 74 77 77 75 74 75 79 82 82 83 80 79 82 83 85 85 80 80 83 87 85 91 99 111 94 83 88 101 123 141 174 187 186 185 184 184 184 183 182 181 181 181 183 184 182 181 181 184 188 187 185 184 184 183 183 185 186 184 184 185 186 185 184 187 189 185 177 163 149 137 131 124 123 125 126 125 125 126 127 127 128 128 126 129 130 130 130 131 131 132 134 135 135 135 137 138 138 138 139 138 138 138 138 137 137 140 143 142 139 138 141 145 146 145 143 143 142 141 141 141 142 144 146 146 149 151 151 151 150 148 146 145 143 143 143 144 145 147 148 147 147 146 144 143 142 142 142 143 144 146 147 146 144 143 143 142 141 141 140 138 137 138 140 139 137 138 140 139 137 135 135 132 129 129 130 128 125 123 122 122 121 121 120 121 141 170 181 182 185 185 186 186 186 185 186 185 182 180 185 186 186 175 189 235 250 246 240 240 240 240 240 240
255 255 255 255 255 254 234 239 227 150 76 57 68 69 64 65 68 69 64 60 64 70 70 66 63 70 73 67 58 71 73 69 68 68 72 77 74 65 62 69 81 77 68 68 74 77 76 75 74 77 79 82 81 82 79 79 83 84 86 85 80 82 85 88 84 85 88 96 89 86 89 93 99 117 163 185 186 186 184 182 182 182 183 181 181 183 185 186 183 181 181 184 187 187 185 184 185 185 184 186 186 183 181 183 184 182 182 186 190 190 185 174 161 151 144 136 135 135 136 134 132 131 130 128 128 126 125 128 129 128 128 129 131 132 132 133 133 134 135 137 138 139 140 139 138 138 137 135 136 139 143 144 142 141 142 145 146 145 142 141 140 140 139 139 140 142 144 145 147 148 148 149 148 146 145 145 144 143 143 144 144 145 146 146 146 145 144 143 141 141 142 142 144 144 144 143 142 142 142 141 140 139 138 136 135 137 139 138 136 137 138 139 136 135 134 132 128 128 128 127 124 121 121 121 121 121 119 123 149 176 183 183 184 185 187 186 185 184 185 183 182 182 185 184 184 179 201 241 252 247 240 239 239 239 239 239
252 252 252 252 252 251 238 241 236 180 88 53 64 70 67 66 67 68 66 62 64 68 68 67 66 69 67 69 63 70 72 69 68 68 70 74 72 67 67 71 78 75 69 68 73 75 77 76 75 78 78 80 80 81 79 78 81 83 86 86 82 83 85 88 85 84 84 87 87 87 89 89 89 105 159 186 187 185 183 181 181 182 183 184 183 183 183 184 182 182 180 181 183 184 185 185 185 185 184 184 185 182 179 179 181 185 185 187 188 188 185 182 176 172 172 172 176 177 176 171 165 155 143 132 125 121 125 128 132 131 131 131 132 133 130 131 131 131 132 133 137 139 139 140 141 139 136 135 137 141 142 141 141 141 143 144 144 143 141 141 142 142 141 140 138 138 140 141 142 143 144 146 145 145 145 145 143 142 142 142 142 142 142 143 144 144 143 143 143 142 143 144 144 142 141 141 140 140 140 140 141 139 137 135 134 135 136 138 137 136 135 136 135 132 132 131 130 129 128 126 123 121 121 122 122 121 119 121 152 179 183 183 185 185 187 186 185 184 183 181 181 183 184 180 183 182 213 246 251 247 241 240 240 240 240 240
251 251 251 251 251 250 238 238 243 202 105 55 62 71 69 67 68 70 66 62 64 68 67 64 65 69 66 70 64 68 72 70 68 67 70 74 72 69 69 72 75 74 71 69 72 73 76 77 75 77 77 78 79 80 80 79 81 81 83 86 84 84 84 85 83 84 84 85 86 87 87 85 85 101 158 188 188 184 183 181 180 182 183 187 186 184 183 183 182 183 183 185 185 186 186 185 185 185 184 184 184 183 181 180 182 186 186 187 186 185 184 185 180 178 179 182 188 190 189 185 179 169 156 143 132 126 126 126 130 131 131 131 132 133 130 131 132 132 133 133 136 138 138 139 139 137 135 134 136 140 139 136 137 138 140 142 143 142 140 139 140 141 142 140 139 139 141 142 143 143 144 145 144 143 143 143 142 141 141 142 142 142 142 143 144 144 144 144 144 143 143 144 144 143 141 141 139 139 139 140 141 138 136 135 134 134 135 138 138 135 133 134 134 131 130 131 130 129 126 124 122 121 121 121 122 121 118 121 154 182 183 183 185 186 188 187 186 185 183 181 181 183 183 177 182 187 224 250 250 247 241 241 241 241 241 241
243 243 243 243 243 243 243 247 254 226 134 69 59 68 69 67 66 66 65 64 66 69 66 64 64 70 66 66 63 66 71 71 67 67 69 72 72 70 70 71 70 74 75 73 71 70 74 77 77 76 76 76 78 79 82 82 81 80 80 82 85 87 85 83 82 86 87 88 88 87 86 83 85 98 149 185 188 185 184 182 180 182 183 187 187 185 184 182 181 183 184 186 185 185 185 185 185 186 186 184 184 184 183 183 184 185 184 185 183 182 183 185 181 179 181 184 188 190 190 187 183 177 168 156 145 137 130 123 125 128 130 130 130 131 131 132 133 133 134 134 134 134 134 135 135 134 134 134 137 138 135 134 137 137 138 139 140 140 139 138 138 139 141 141 140 141 143 144 145 145 145 145 143 142 142 142 142 142 142 143 142 142 141 142 143 144 144 144 144 141 140 141 141 141 140 141 140 139 139 139 139 136 135 134 134 135 135 136 135 132 129 131 133 132 131 130 129 127 125 123 122 121 121 120 120 120 119 121 153 184 184 183 182 183 184 183 182 183 185 184 185 188 184 176 179 189 226 246 244 243 247 248 248 248 248 248
238 238 238 238 238 239 246 249 255 244 163 84 57 64 69 68 66 66 66 65 67 68 66 63 64 70 67 65 65 63 68 72 68 67 69 71 72 71 72 71 66 72 78 76 71 69 72 75 77 76 75 74 76 78 82 83 82 80 79 79 83 86 85 82 83 88 88 88 87 87 86 83 84 92 138 181 188 185 184 182 181 181 182 186 188 186 183 181 180 182 186 187 185 184 183 184 185 186 186 184 185 185 185 185 185 185 184 184 182 181 184 186 182 181 183 184 186 188 188 186 184 182 178 169 160 150 137 124 122 126 128 128 129 130 131 133 134 133 134 133 133 132 131 131 132 132 133 135 137 137 133 133 137 137 137 137 139 139 138 135 136 137 139 140 141 142 143 145 145 145 144 144 142 141 140 141 141 142 143 143 142 141 141 141 142 143 143 143 142 139 138 138 139 139 139 140 140 139 139 138 137 134 133 134 135 135 134 135 134 130 127 129 132 131 130 129 127 125 123 122 121 121 121 120 120 119 118 121 151 183 184 182 180 181 182 182 181 183 186 185 187 190 182 173 178 197 232 243 241 241 249 250 250 250 250 250
238 238 238 238 238 239 247 248 252 254 191 105 60 60 69 68 65 65 67 66 67 67 65 64 65 70 68 63 69 62 65 71 69 69 68 68 70 71 73 71 64 70 79 78 72 69 71 74 76 76 74 73 75 77 81 82 81 80 79 78 82 86 85 81 84 89 87 87 85 87 87 85 85 87 126 176 187 186 185 182 182 182 182 186 188 187 183 181 180 182 185 186 183 181 181 183 186 187 186 184 186 186 185 185 185 184 184 184 181 181 184 186 183 183 184 184 184 185 186 184 184 185 184 179 172 163 147 129 123 125 126 126 127 129 131 133 134 133 133 133 131 130 129 130 130 130 133 135 136 136 132 132 136 137 136 137 138 138 137 134 134 135 137 139 140 141 142 143 144 144 144 143 141 139 139 140 141 142 143 144 143 142 141 141 141 142 142 141 140 138 136 136 137 138 138 139 140 140 139 137 135 133 133 134 135 135 134 134 133 128 126 127 130 129 128 127 127 124 122 121 121 121 121 120 119 118 117 119 146 178 184 182 180 181 182 182 182 184 186 186 188 190 179 171 183 208 238 242 240 241 250 251 251 251 251 251
238 238 238 238 238 239 248 249 249 255 216 129 68 58 68 68 64 64 67 68 67 66 65 65 65 69 69 60 71 62 63 70 70 70 67 66 69 72 73 70 64 69 78 79 72 70 71 73 76 75 74 73 75 77 79 80 79 80 79 77 80 85 85 82 85 90 87 86 83 86 88 87 86 83 115 168 184 185 185 183 184 183 183 185 187 187 184 181 181 183 186 185 182 180 180 182 185 186 184 182 184 184 183 183 184 182 183 184 182 182 185 186 184 185 185 184 183 183 184 183 184 186 187 184 179 171 155 134 126 124 125 125 126 128 130 131 132 132 132 132 130 128 129 129 130 131 133 135 135 134 130 132 136 136 136 136 137 137 136 134 135 136 137 139 140 141 141 141 141 141 140 139 138 137 136 137 139 141 142 142 141 139 138 138 138 140 140 139 138 136 135 135 136 137 137 138 139 139 138 135 133 132 133 134 135 135 134 132 130 127 125 127 128 128 126 126 126 124 122 121 121 121 121 120 118 116 116 117 137 170 184 182 180 181 181 182 182 184 186 186 190 189 175 172 190 220 241 241 240 241 250 251 251 251 251 251
238 238 238 238 238 239 249 253 247 255 237 157 81 58 65 66 62 63 68 69 68 66 66 66 65 66 70 58 73 64 62 68 70 70 67 64 67 71 74 71 65 68 75 78 73 72 72 73 75 74 74 73 76 78 78 77 77 80 80 77 79 84 85 83 86 89 86 85 82 86 88 90 88 82 107 162 180 185 185 184 185 184 184 184 186 187 184 182 183 184 186 185 182 180 180 182 185 186 184 183 184 183 183 184 185 182 183 184 182 181 184 185 184 185 185 184 182 182 182 182 183 187 188 186 183 177 162 140 129 125 124 124 125 126 128 130 131 131 131 131 129 128 129 129 131 132 134 135 136 133 129 132 136 136 135 135 135 136 136 135 135 137 138 139 140 141 140 140 139 138 137 136 135 135 135 136 138 140 141 141 139 138 137 137 138 140 140 138 136 135 134 135 135 136 136 136 138 138 136 134 131 131 132 134 135 135 133 130 128 125 124 126 127 126 126 126 126 124 122 121 121 121 121 120 117 115 115 114 128 162 183 182 180 181 181 181 182 184 186 186 190 187 173 174 199 230 242 239 240 242 250 251 251 251 251 251
239 239 239 239 239 240 250 255 245 255 251 183 98 61 63 64 61 62 68 69 67 65 67 67 64 63 71 57 74 67 61 66 68 69 67 64 67 71 74 72 68 67 72 76 74 74 74 73 75 73 74 74 77 79 78 76 76 80 82 79 79 84 85 84 86 86 83 84 81 85 87 91 88 81 99 153 174 182 185 185 187 186 186 184 184 187 184 183 183 185 186 185 182 181 181 183 184 185 184 184 186 184 183 184 185 182 184 185 181 180 183 183 182 185 184 183 182 181 181 182 182 186 188 188 185 181 169 147 134 125 122 122 124 124 126 127 129 130 130 130 129 128 129 130 132 134 135 136 137 133 129 132 135 136 135 134 134 135 135 135 136 137 138 139 140 140 139 137 135 135 134 134 135 136 135 136 138 139 140 139 136 135 134 135 136 139 139 137 135 134 134 134 135 135 134 134 135 135 134 132 130 131 132 134 134 134 132 128 125 124 124 125 125 125 125 125 125 123 123 121 120 121 121 120 117 114 114 112 121 153 182 182 180 181 180 181 183 185 186 186 190 183 171 179 209 239 242 237 241 243 249 250 250 250 250 250
249 249 249 249 249 249 245 247 236 246 249 199 122 70 61 64 66 68 67 66 65 65 66 65 64 61 71 59 72 67 61 65 69 69 67 64 67 71 72 72 71 67 69 73 74 76 75 73 73 74 75 75 77 80 76 72 75 80 84 81 78 80 82 84 87 85 81 81 80 85 87 90 86 83 107 157 177 184 184 184 187 185 185 183 184 187 185 185 186 186 184 183 182 182 182 183 184 184 182 183 186 184 183 183 183 182 186 186 183 182 184 183 183 185 183 182 180 179 180 180 181 184 186 186 186 184 176 157 142 127 121 121 123 123 124 125 127 127 127 128 128 129 131 132 134 135 135 135 134 130 129 131 131 132 133 133 134 135 134 136 138 139 139 138 138 138 136 134 133 132 133 133 134 136 136 136 137 138 138 137 135 134 134 134 135 137 138 137 135 136 136 136 135 134 133 132 133 133 133 132 131 131 132 132 131 131 130 128 125 126 126 126 124 122 121 122 124 124 123 121 120 119 120 120 118 113 109 108 113 144 178 182 183 185 185 186 187 187 184 184 184 174 169 186 223 250 248 244 248 248 243 242 242 242 242 242
252 252 252 252 252 252 243 244 234 239 249 218 151 85 59 61 68 70 66 62 64 67 68 66 64 60 70 61 68 68 63 65 69 68 66 66 68 70 69 70 73 68 68 71 73 76 76 73 73 74 75 74 77 79 75 72 75 80 84 82 79 80 81 84 86 83 79 80 80 86 86 87 84 90 119 163 179 186 184 184 186 186 186 183 183 186 186 186 187 185 182 182 183 184 184 184 184 183 180 182 186 184 183 183 181 182 186 185 183 182 184 182 183 185 183 181 180 180 180 181 181 183 184 187 188 188 184 168 152 132 123 123 124 124 123 124 125 125 125 126 128 129 131 132 134 134 134 133 132 129 130 131 130 131 132 133 134 135 133 135 137 138 137 137 137 136 134 132 131 131 132 133 135 137 137 137 137 138 138 137 135 134 134 133 134 136 137 136 134 135 136 135 134 133 131 130 130 131 131 131 130 131 131 130 129 129 128 126 124 126 127 125 122 119 118 119 122 124 123 122 120 118 118 119 118 113 107 106 109 137 177 182 185 186 187 187 187 187 185 184 180 168 172 197 235 255 250 247 251 250 240 239 239 239 239 239
253 253 253 253 253 252 242 241 237 236 246 235 183 105 59 58 69 72 64 60 64 69 69 66 64 59 70 62 62 69 65 66 69 67 66 68 70 69 66 68 75 72 68 68 71 75 76 74 73 73 74 73 75 78 75 73 76 78 82 82 81 80 81 83 85 82 79 81 82 87 84 83 85 105 141 174 183 186 183 183 184 186 186 183 182 186 187 187 187 183 179 181 184 187 186 186 185 182 179 182 185 184 182 183 181 181 186 184 182 183 183 182 182 184 183 182 182 182 182 183 182 182 183 186 188 190 190 178 163 140 127 127 127 125 124 124 124 123 123 124 127 130 131 132 133 133 132 130 129 128 132 132 129 131 132 133 134 135 134 134 136 136 135 134 134 133 131 129 129 130 131 133 136 137 137 137 136 137 136 135 135 134 133 132 132 134 135 135 133 135 135 135 133 132 131 128 127 128 130 130 130 131 130 129 127 127 126 125 124 126 126 124 119 117 116 117 120 123 124 122 120 116 114 116 116 112 106 105 106 132 176 183 186 187 188 186 185 186 187 185 176 164 180 212 244 255 249 249 251 250 239 238 238 238 238 238
253 253 253 253 253 252 241 236 240 236 241 245 212 131 67 58 69 72 64 60 64 69 68 65 65 60 68 66 56 69 69 68 68 65 66 71 71 68 65 69 76 73 68 66 70 74 76 75 73 73 74 73 74 77 75 74 76 77 79 82 83 81 79 81 83 82 81 82 83 86 79 79 91 125 166 186 187 186 182 182 182 184 185 183 183 186 188 188 187 183 178 180 183 186 184 184 183 179 178 182 185 184 183 184 182 183 187 184 183 183 183 182 183 184 184 184 184 184 183 184 183 181 181 184 186 188 189 180 165 143 130 128 126 123 123 123 122 121 121 122 125 128 129 130 131 131 130 129 129 129 133 131 127 129 131 132 132 134 133 133 134 133 133 132 132 131 129 128 128 129 131 133 135 137 136 135 135 134 133 134 134 134 134 133 132 133 135 135 133 134 135 134 132 130 130 128 126 127 129 130 131 130 128 126 125 125 124 124 124 126 126 124 120 117 116 116 119 123 123 122 120 114 111 112 113 111 105 104 105 132 177 184 187 186 188 186 184 186 187 185 173 163 191 226 250 253 250 251 250 249 239 238 238 238 238 238
252 252 252 252 252 251 241 235 241 236 239 249 234 161 85 60 66 70 65 62 64 67 66 66 69 61 64 70 52 68 72 67 66 65 66 71 71 68 67 69 73 72 69 67 70 72 74 75 73 74 74 73 73 75 75 75 77 76 77 81 84 80 78 79 80 80 81 83 86 85 76 79 99 139 177 190 187 185 183 184 182 182 182 182 185 186 189 187 186 183 178 180 184 187 185 185 184 180 179 181 183 183 184 185 183 184 187 184 183 183 181 182 183 184 184 184 184 183 183 183 182 181 181 184 185 186 186 176 162 143 129 128 123 120 122 122 122 120 121 121 123 125 126 128 129 130 130 130 129 129 132 130 125 127 130 131 132 133 133 132 132 132 131 131 131 130 129 127 128 130 132 134 136 137 136 135 135 134 134 134 135 135 134 133 132 132 134 134 133 133 133 132 130 129 129 128 126 126 127 129 130 129 127 125 123 123 123 124 124 125 125 122 120 117 116 115 118 121 121 120 117 113 110 110 111 110 104 104 105 134 177 185 188 186 188 187 185 186 185 180 169 167 203 237 254 251 250 252 249 249 239 238 238 238 238 238
249 249 249 249 249 249 243 237 245 241 240 249 247 189 108 68 63 66 66 64 64 65 65 68 71 63 59 75 52 65 72 67 65 66 67 70 69 67 67 69 71 72 71 69 70 70 72 74 73 74 74 73 72 74 74 76 77 75 75 79 83 80 79 78 78 79 81 84 90 86 75 79 103 143 179 189 186 185 184 184 181 180 180 183 186 187 189 187 186 184 180 182 184 186 184 184 183 180 178 178 179 181 183 185 184 183 185 184 182 183 181 182 184 184 185 185 184 183 182 182 182 182 183 184 184 183 181 170 157 142 131 128 124 120 123 123 122 121 121 121 121 122 123 125 127 129 130 130 129 128 130 129 126 128 130 130 131 132 132 130 131 130 130 130 131 131 130 128 128 129 130 131 133 134 134 134 134 134 133 133 133 132 131 130 130 130 132 133 132 132 131 130 129 128 129 129 127 126 126 127 128 127 125 124 122 121 121 123 124 124 122 121 120 118 117 116 117 120 119 117 115 112 109 108 109 108 105 106 109 140 180 186 187 184 186 186 185 186 183 176 170 178 218 246 254 249 250 251 248 248 241 241 241 241 241 241
239 239 239 239 239 240 250 250 255 249 250 255 248 207 136 79 58 57 67 72 67 63 65 71 72 64 59 74 56 64 70 67 65 66 66 66 66 67 69 69 68 70 72 72 70 69 70 73 73 72 74 73 72 74 75 78 78 75 73 76 79 77 79 79 76 78 83 90 92 85 79 98 139 170 186 189 184 181 183 187 184 182 181 184 187 185 185 184 184 184 181 183 185 185 183 184 184 181 181 180 179 182 185 187 185 183 181 181 181 181 181 183 184 184 185 187 186 184 184 183 183 183 183 184 184 182 178 164 157 151 143 140 130 122 129 128 124 123 122 121 120 118 120 122 124 127 128 130 130 129 128 129 130 131 131 129 128 128 129 127 128 128 129 131 132 133 133 133 132 131 130 130 131 131 130 129 130 130 130 130 131 131 132 131 131 130 131 130 129 128 128 128 128 129 130 129 128 127 126 124 124 125 124 124 123 123 121 120 120 120 119 120 121 121 120 119 118 118 118 116 115 112 108 104 103 105 108 107 108 148 185 187 184 180 181 181 183 184 184 178 180 199 235 251 247 241 240 242 240 243 250 251 251 251 251 251
238 238 238 238 238 239 250 253 255 248 251 252 247 227 168 96 57 53 68 75 67 60 64 71 71 65 60 76 63 63 66 65 67 67 65 63 64 67 69 69 67 69 72 74 72 69 68 70 71 70 74 74 73 77 75 77 78 76 74 75 75 73 79 80 77 78 83 91 92 87 88 121 171 189 190 187 181 178 181 188 187 185 183 185 185 179 179 181 184 185 182 184 186 186 183 184 185 184 184 183 183 185 186 185 182 179 177 177 180 182 184 185 185 184 185 187 188 186 186 185 184 183 182 184 185 182 179 168 167 170 164 160 146 135 142 141 133 129 126 124 122 118 119 121 122 124 125 127 128 128 127 129 133 134 132 129 127 125 125 123 124 127 128 129 131 133 135 138 137 135 132 131 130 129 128 127 126 125 124 124 126 128 131 131 130 130 128 125 124 125 125 127 128 130 131 128 128 127 125 122 121 124 125 125 124 123 120 118 117 117 118 120 120 121 120 121 120 117 116 114 112 110 107 102 100 101 106 106 107 153 186 186 183 180 180 182 185 184 180 175 186 216 246 251 243 239 237 241 241 242 251 252 252 252 252 252
238 238 238 238 238 239 250 254 255 251 252 247 244 241 196 118 65 54 67 74 67 61 64 70 70 66 59 75 67 62 65 65 66 67 67 65 64 65 67 69 68 68 70 72 73 71 67 67 69 72 77 79 79 84 78 75 75 75 74 74 74 75 81 81 78 79 82 87 87 83 86 123 175 190 188 185 180 178 182 188 187 185 183 184 183 179 181 183 185 187 184 185 186 185 182 181 182 184 185 185 185 185 185 182 181 179 177 181 184 183 183 183 182 182 183 185 186 186 186 186 186 186 186 188 187 184 180 169 169 177 173 169 158 151 162 162 154 146 142 138 129 121 121 121 120 120 121 125 127 126 125 128 132 132 131 129 127 126 125 123 125 127 128 129 130 131 133 134 133 130 128 127 127 128 127 127 127 126 125 125 126 127 129 129 128 125 123 120 119 118 119 121 123 126 127 128 128 128 126 124 123 124 125 125 124 122 120 117 115 115 118 121 121 120 119 119 117 112 111 111 112 111 108 103 100 101 106 106 111 159 186 185 183 181 181 182 185 183 177 175 194 230 253 250 240 239 238 242 241 243 251 252 252 252 252 252
239 239 239 239 239 240 250 254 255 253 253 246 239 246 221 148 80 55 64 73 69 63 65 69 68 66 58 69 70 63 64 65 66 68 68 66 64 64 67 69 69 66 67 70 71 72 69 67 67 70 79 84 89 103 91 78 74 74 75 75 74 76 80 81 80 80 80 81 83 83 90 132 184 192 186 183 180 179 182 187 185 185 183 180 181 181 184 187 187 188 186 182 181 182 182 181 181 184 187 187 186 183 182 182 186 183 179 183 184 182 183 179 178 178 179 183 184 185 185 186 187 187 189 191 189 186 181 172 172 180 178 173 167 165 178 179 174 170 166 160 143 130 128 125 121 120 120 123 126 126 124 128 129 127 127 126 125 125 127 128 129 129 129 129 129 128 127 126 124 123 123 123 127 129 129 130 129 127 126 125 124 125 126 128 127 125 123 121 120 118 119 121 123 124 125 128 128 127 123 121 121 120 120 121 122 122 120 118 116 117 120 122 120 118 118 117 114 110 109 109 110 110 107 103 99 100 105 104 115 164 187 185 182 181 181 182 183 179 175 179 207 243 255 248 238 239 238 241 240 242 250 251 251 251 251 251
240 240 240 240 240 240 250 255 255 255 253 244 236 245 236 178 104 63 60 70 71 67 65 67 68 69 58 62 71 63 65 66 66 67 68 66 64 64 66 68 70 66 64 66 68 71 72 71 69 68 75 80 90 112 102 87 79 78 77 77 74 77 79 82 82 81 79 75 79 83 90 135 185 191 186 184 182 180 182 187 186 188 184 179 179 183 185 188 187 188 187 181 180 182 184 183 181 183 186 187 185 181 178 182 188 185 182 183 184 182 182 177 176 178 178 182 182 183 184 185 187 188 191 192 190 186 181 173 172 176 174 170 169 170 182 184 180 179 176 170 150 135 133 129 124 122 121 123 126 127 125 127 126 124 123 123 123 124 129 130 131 130 129 129 128 126 123 119 117 117 118 120 126 129 130 132 130 127 127 124 122 122 123 124 124 123 122 120 121 119 121 123 123 123 122 125 126 124 122 120 119 116 115 116 119 121 121 119 118 119 121 121 118 117 117 116 113 109 108 107 108 108 105 102 99 101 104 103 121 169 188 185 182 182 182 181 180 175 176 189 222 252 255 246 238 238 239 241 240 242 250 251 251 251 251 251
244 244 244 244 244 244 249 253 253 249 249 242 235 247 251 210 139 82 60 64 69 69 66 64 66 70 62 62 76 62 64 67 66 64 66 68 68 66 66 68 72 68 66 67 68 71 72 72 71 71 72 72 76 91 82 75 76 77 79 78 74 74 77 81 81 79 76 73 78 87 96 141 188 190 186 186 184 180 179 184 186 189 186 180 179 181 184 186 186 186 184 181 182 185 187 186 183 184 185 186 185 181 179 180 186 185 182 182 184 182 183 180 178 180 179 180 181 183 184 186 188 189 192 193 191 188 183 178 177 179 177 173 174 175 184 185 182 183 181 177 160 147 146 143 139 136 135 135 137 136 133 130 127 123 120 120 121 123 125 126 127 128 127 127 126 125 123 121 120 120 121 122 125 128 129 129 129 127 126 126 125 125 125 125 125 123 121 119 120 122 125 126 125 124 122 122 122 121 119 116 115 114 115 117 119 120 119 116 115 116 118 117 115 115 115 115 112 110 108 106 106 105 102 101 101 104 104 105 131 174 188 185 183 184 184 181 177 172 178 201 234 255 254 245 241 242 242 244 244 245 247 247 247 247 247 247
254 254 254 254 254 253 245 241 237 234 239 240 245 252 255 243 189 115 64 57 66 70 64 59 65 70 66 65 80 65 63 66 66 65 67 69 70 69 66 64 68 70 70 69 67 68 71 72 73 73 71 68 69 79 75 73 74 74 76 78 76 73 72 75 78 79 78 73 75 82 89 133 182 187 188 185 182 180 179 184 185 187 187 181 177 179 180 181 183 184 182 182 184 185 186 186 184 185 187 185 182 183 185 185 184 185 184 183 187 186 187 187 186 187 184 181 181 183 185 186 187 189 190 186 183 181 180 180 179 181 181 178 178 180 184 185 185 188 189 189 181 176 179 179 177 176 175 175 173 168 160 144 133 125 119 117 119 121 122 122 122 123 124 124 124 124 124 124 125 126 126 127 126 126 126 125 125 124 123 123 124 125 126 126 125 124 122 120 123 126 128 127 126 124 122 120 118 117 118 119 119 120 119 119 118 116 114 115 116 115 112 109 109 109 109 110 110 108 104 101 101 101 101 102 104 106 101 105 142 173 183 184 188 191 191 185 178 172 181 213 239 248 245 244 249 250 249 249 251 251 240 239 239 239 239 239
252 252 252 252 252 251 245 239 235 232 238 242 249 250 255 255 222 147 78 55 60 67 66 61 66 70 69 63 77 65 62 66 67 64 65 67 69 70 67 64 67 68 71 70 68 67 69 71 72 73 71 68 68 76 74 73 74 73 74 77 77 75 72 74 77 79 79 73 72 78 86 125 172 183 192 189 185 182 178 180 182 186 188 184 179 180 180 181 185 186 184 184 185 185 185 185 183 184 186 184 182 184 186 186 184 185 184 183 186 187 188 188 186 186 185 182 182 182 184 185 185 186 187 184 182 180 180 182 181 182 182 180 181 181 184 185 185 187 188 189 184 181 185 186 185 185 185 185 184 180 174 158 146 135 125 120 121 121 120 119 118 120 121 122 122 122 123 125 126 127 128 129 128 127 127 125 124 122 121 121 123 124 124 125 124 124 122 121 124 125 126 125 123 122 120 119 117 117 118 119 120 120 120 120 118 116 114 117 118 116 112 108 107 107 106 106 107 105 101 101 101 101 101 103 105 105 100 110 152 176 182 184 189 190 188 180 174 175 193 226 245 244 241 243 250 250 249 248 250 251 238 237 237 237 237 237
251 251 251 251 251 250 245 240 237 234 238 243 251 249 254 255 246 182 104 62 55 63 67 65 68 69 70 62 72 62 61 65 67 64 62 65 69 71 69 66 65 64 69 72 70 67 67 69 70 73 72 69 69 73 73 73 75 73 73 75 77 75 73 74 76 77 79 74 71 77 84 115 156 173 191 191 189 185 179 178 180 186 188 187 182 179 178 180 183 184 183 183 185 184 184 184 183 184 186 183 181 185 187 187 184 186 184 183 185 186 188 187 184 185 184 182 182 182 183 184 184 185 186 182 180 179 181 184 184 185 184 183 183 183 184 184 185 186 186 187 184 182 185 186 185 185 186 187 186 185 180 169 160 148 134 127 126 124 118 116 116 118 119 119 119 120 122 123 125 125 126 127 127 126 127 125 123 120 118 118 120 121 122 123 123 123 122 123 124 124 124 122 121 120 119 118 117 116 117 118 119 119 120 120 117 114 112 116 118 116 113 110 108 106 104 104 105 103 99 101 102 101 103 105 106 103 99 117 161 179 182 184 190 189 184 176 174 184 208 236 246 241 239 243 251 250 250 249 251 250 238 236 236 236 236 236
251 251 251 251 251 251 244 240 238 239 237 240 253 250 246 255 255 218 139 75 53 59 67 68 72 70 68 64 64 61 61 65 67 66 64 65 67 67 67 68 66 62 66 71 73 69 66 67 69 74 72 70 68 69 70 72 75 73 72 74 76 77 76 75 76 76 76 73 74 79 79 89 113 140 177 188 191 190 183 176 177 183 186 188 184 181 180 182 185 186 184 184 185 184 182 181 182 184 185 184 183 185 187 186 183 182 181 182 183 187 188 187 184 185 184 182 182 183 184 184 184 185 186 183 180 179 181 185 184 183 183 183 186 186 184 184 185 185 185 186 184 184 186 186 185 184 185 186 185 185 182 178 172 161 147 138 136 132 119 114 114 116 118 118 118 119 121 123 123 121 121 122 123 124 126 126 124 121 119 118 118 117 116 117 117 119 121 125 126 124 122 119 118 117 115 116 115 116 116 118 118 119 120 118 115 111 109 114 116 114 112 110 109 106 103 103 104 100 97 100 102 102 104 107 107 103 101 127 173 183 183 186 189 186 180 173 177 198 225 242 241 235 238 244 251 251 253 252 252 250 237 235 235 235 235 235
252 252 252 252 252 251 242 239 239 242 236 235 251 253 244 250 255 246 177 101 59 55 64 70 73 68 62 64 65 66 62 61 65 69 69 67 67 67 67 68 65 61 65 71 74 71 67 67 68 73 70 69 68 67 68 73 77 74 72 73 75 77 78 76 74 73 72 72 76 80 79 76 89 120 165 182 191 194 188 179 178 180 183 190 189 184 182 183 186 185 183 184 183 182 181 180 183 185 185 183 184 185 187 185 184 183 183 183 182 186 186 185 183 183 183 181 181 183 184 184 184 184 184 182 181 182 184 186 186 185 184 185 189 188 185 185 185 184 183 184 184 184 184 184 183 182 183 183 183 184 186 187 187 181 171 165 163 157 134 120 119 119 120 120 120 120 120 120 120 119 118 119 119 120 122 123 123 122 120 120 120 118 116 115 116 117 120 125 126 123 121 118 118 117 116 115 114 114 114 116 116 117 119 117 113 109 108 112 112 110 109 108 106 104 103 104 105 101 98 97 95 96 102 105 106 105 110 143 180 183 183 186 188 182 177 174 186 214 237 243 237 235 241 244 249 252 255 254 253 250 236 235 235 235 235 235
247 247 247 247 247 246 245 242 244 247 243 241 249 250 239 239 255 255 212 141 83 58 59 68 72 67 62 62 65 72 65 58 62 70 72 68 65 65 68 69 66 62 65 70 72 70 68 67 68 70 69 68 68 69 69 73 76 73 71 72 74 77 77 74 73 73 73 75 76 76 75 76 99 139 174 183 190 193 189 181 179 179 181 190 191 187 183 181 183 183 184 185 183 182 181 180 183 186 186 184 184 185 185 185 185 185 185 185 184 185 184 184 184 183 184 182 182 183 184 184 183 183 182 180 181 182 185 185 187 188 187 188 187 186 185 186 185 184 183 183 183 183 182 182 181 181 181 181 182 184 186 189 191 187 180 176 175 170 147 124 121 120 120 120 120 120 119 119 119 118 117 117 117 117 118 119 119 120 120 120 121 120 119 118 118 118 119 123 123 120 118 117 117 117 117 116 115 114 114 114 114 114 115 114 112 110 109 110 109 107 106 105 104 104 104 106 104 101 99 98 94 94 97 99 101 108 124 156 181 184 186 186 182 176 172 178 198 229 250 249 240 241 248 247 245 246 250 248 246 246 243 243 243 243 243 243
239 239 239 239 239 240 251 249 250 253 254 249 242 243 236 230 241 252 239 186 117 69 56 65 69 68 65 60 65 76 67 57 60 70 73 68 63 64 68 68 66 65 66 69 69 69 68 68 68 67 68 68 70 72 72 74 74 72 71 70 72 74 75 74 73 75 76 78 76 71 73 81 118 162 179 181 187 190 188 182 182 179 182 189 191 188 183 180 180 182 183 184 182 182 182 182 183 185 187 185 184 184 183 185 187 186 186 185 185 184 183 183 184 185 185 185 185 184 184 184 183 183 181 180 181 183 185 183 186 189 189 189 186 184 185 185 184 184 183 183 184 182 181 181 181 182 181 181 183 185 185 187 190 187 181 177 176 174 154 125 119 118 119 120 120 119 118 119 118 118 117 118 118 116 116 117 118 119 120 120 120 121 120 119 118 117 117 119 119 117 116 116 117 117 116 116 116 115 113 112 110 110 110 111 112 112 112 109 107 105 103 101 100 103 106 106 102 100 102 100 96 95 94 93 98 113 139 167 179 186 190 185 175 169 170 185 211 240 255 254 247 251 255 249 239 239 240 238 237 241 252 253 253 253 253 253
238 238 238 238 238 239 252 249 247 251 255 250 239 242 241 232 234 248 255 223 155 90 59 59 64 69 69 62 66 77 70 60 59 67 71 67 64 66 69 67 66 66 68 68 66 67 68 68 68 67 68 67 70 74 73 73 73 73 73 72 71 72 72 72 73 75 77 78 75 70 74 90 133 176 179 176 181 185 186 184 187 181 184 187 189 188 183 180 180 182 183 184 182 182 183 183 183 185 186 184 184 184 182 184 186 186 187 186 186 184 182 183 185 186 186 185 185 184 184 183 183 183 181 180 182 183 185 182 185 189 189 188 183 182 184 184 183 184 183 183 184 182 181 182 183 184 182 182 184 185 185 185 187 185 181 179 179 179 162 127 120 118 118 119 119 118 117 117 117 117 117 118 117 115 114 114 116 117 119 119 119 121 121 120 119 117 115 116 117 116 115 116 117 116 115 114 114 113 112 110 108 107 108 109 111 112 112 108 106 104 101 99 98 102 105 105 100 98 101 99 94 94 93 94 103 124 154 174 177 186 189 183 172 170 178 200 227 248 255 252 250 255 255 248 238 239 237 235 235 241 254 255 255 255 255 255
237 237 237 237 237 239 253 248 247 253 255 250 240 242 240 234 232 241 255 249 194 123 72 56 57 68 72 65 64 74 73 66 60 62 67 69 67 66 67 65 67 70 70 65 63 66 70 70 70 67 67 65 69 73 72 72 72 71 72 72 73 73 72 71 73 76 78 76 74 70 72 85 127 174 179 174 178 182 184 184 188 183 186 185 185 188 187 182 181 181 182 183 182 183 185 184 183 183 186 185 185 185 182 183 185 185 186 185 186 184 182 184 186 187 186 185 184 183 184 183 183 184 182 180 182 184 185 183 185 186 186 185 182 182 184 184 183 184 184 184 185 183 182 183 184 185 183 183 185 186 186 183 184 183 181 181 182 183 168 128 119 117 117 118 118 117 115 116 116 117 117 118 117 114 113 113 115 117 119 119 119 120 119 118 115 114 112 112 114 115 115 115 115 114 113 112 111 111 111 111 109 107 106 107 110 112 111 107 105 104 100 97 98 102 105 102 96 96 99 97 94 94 93 98 115 142 169 180 179 186 188 180 171 175 191 216 237 250 255 251 251 255 255 249 237 237 237 234 234 240 254 255 255 255 255 255
237 237 237 237 237 238 252 246 249 255 251 249 243 240 236 236 236 238 255 255 228 165 98 59 51 63 73 70 61 67 73 75 65 59 62 70 71 66 62 62 67 74 70 63 61 66 70 70 70 68 66 65 69 71 70 71 71 69 69 72 74 74 72 71 73 77 79 75 74 74 72 76 107 158 180 180 183 185 185 183 185 184 189 184 180 187 191 187 182 182 182 181 180 183 185 185 184 183 186 186 185 185 182 183 185 184 185 184 184 185 184 186 188 188 186 185 184 183 184 184 184 184 183 181 183 184 185 184 184 184 183 182 182 183 183 183 183 184 184 185 185 184 183 183 183 183 182 183 185 186 186 184 183 182 181 182 184 187 172 128 118 116 115 116 116 114 113 113 113 114 114 115 114 111 110 111 113 116 118 118 118 117 115 113 111 110 110 110 113 114 114 114 113 112 111 110 109 110 112 112 111 108 105 105 108 109 109 104 104 103 100 98 99 102 104 98 92 94 98 97 95 94 94 107 131 160 180 185 184 187 185 178 174 186 208 229 242 248 254 253 252 252 253 250 238 236 239 236 234 240 253 254 254 254 254 254
237 237 237 237 237 238 251 249 253 255 249 248 244 237 234 239 240 236 249 255 250 205 135 77 50 56 71 74 62 59 69 79 70 59 58 69 72 65 60 60 68 74 69 62 62 66 69 69 70 68 67 67 69 68 68 70 72 69 68 70 73 74 73 72 72 74 78 74 75 78 74 72 87 132 167 177 185 187 186 184 183 185 191 182 177 184 191 188 183 182 182 181 180 183 184 184 184 183 185 185 184 184 183 184 186 183 183 182 182 184 186 187 189 188 185 184 183 183 184 184 184 185 185 183 183 184 186 185 183 183 182 181 183 184 183 182 183 185 185 186 186 185 183 182 182 182 181 182 184 186 186 187 184 182 181 183 186 186 169 126 117 115 115 116 115 114 113 113 113 112 112 112 111 109 108 109 112 116 118 118 116 115 112 110 109 109 110 110 112 113 113 113 111 110 108 107 107 109 111 112 111 108 105 105 107 107 106 101 101 102 100 99 99 102 103 96 90 92 97 98 96 95 100 120 149 174 187 188 190 187 182 177 181 200 224 239 242 243 251 252 252 249 250 248 241 237 240 238 236 240 251 252 252 252 252 252
247 247 247 247 247 247 244 242 248 249 238 243 249 245 242 249 252 244 242 249 254 230 170 103 61 52 65 78 67 57 64 77 73 62 57 65 72 68 62 61 67 69 66 62 65 67 67 66 67 69 69 69 69 66 66 69 72 70 68 70 71 72 72 72 72 71 75 74 74 78 77 73 79 115 157 172 183 188 189 187 184 185 188 182 178 181 188 187 183 183 184 182 182 183 183 182 183 183 184 184 183 185 185 184 183 184 184 181 181 184 186 187 188 185 183 182 182 183 184 185 184 185 185 183 184 185 186 186 184 183 183 182 184 186 184 183 184 185 185 185 184 184 183 182 181 181 182 183 183 185 187 187 183 182 183 186 187 182 160 123 116 114 114 115 114 113 113 113 113 113 113 113 111 109 109 110 112 114 116 116 116 115 112 111 111 110 111 110 112 112 112 112 111 110 109 107 106 107 109 110 110 108 106 105 104 102 101 101 101 102 102 101 101 100 98 92 90 93 96 96 95 98 112 138 165 181 185 186 191 184 176 180 197 220 242 249 246 243 244 247 246 242 244 246 248 245 250 250 247 246 243 242 242 242 242 242
253 253 253 253 253 252 239 243 241 239 235 239 246 248 251 254 255 251 239 237 248 244 205 140 84 54 58 78 76 59 58 69 74 68 59 59 66 70 67 65 65 63 64 66 69 67 64 63 66 70 70 71 70 65 66 69 72 72 70 70 69 71 73 74 71 66 71 75 75 75 78 75 68 82 117 142 165 180 190 192 188 185 185 181 179 179 183 183 182 184 186 185 183 183 182 181 183 185 184 181 181 184 186 183 182 184 184 181 180 183 186 184 185 184 182 182 181 182 184 184 184 186 187 185 186 187 187 186 183 182 182 182 186 187 185 184 185 186 185 184 184 184 184 183 183 182 184 184 183 184 186 187 184 184 186 189 187 175 148 118 114 114 113 114 114 113 112 112 112 112 111 111 110 109 109 111 113 114 114 115 113 112 109 109 110 110 110 110 111 111 110 110 110 110 109 106 105 105 105 106 106 106 107 106 103 100 99 101 100 101 101 100 100 99 95 91 91 94 94 94 93 104 129 158 177 182 182 185 190 180 174 186 213 237 253 254 249 244 238 239 240 239 237 240 253 253 254 255 255 250 237 236 236 236 236 236
253 253 253 253 253 252 238 244 239 235 236 241 245 250 254 253 252 253 241 234 243 250 233 182 118 66 53 69 78 68 60 61 69 72 65 57 61 70 72 68 64 61 64 70 71 68 62 62 64 67 68 71 71 66 68 70 71 72 71 70 69 71 72 73 70 64 68 76 77 71 74 75 68 70 89 109 137 162 184 195 193 188 183 180 180 181 182 181 182 185 189 188 185 183 182 180 182 185 184 182 182 184 186 183 182 185 184 181 180 183 185 183 182 182 183 183 182 183 184 184 184 185 186 185 186 187 186 185 183 183 184 184 186 186 184 184 185 186 186 184 183 183 184 183 183 183 185 185 184 185 186 187 185 185 188 188 182 162 134 112 110 109 110 110 111 110 110 110 111 110 110 111 110 109 109 111 111 111 111 111 109 109 108 109 111 111 110 110 110 109 108 109 110 110 109 107 106 103 101 102 102 104 106 105 102 100 100 101 99 98 98 97 98 98 94 91 91 94 94 93 95 114 147 172 182 181 182 185 186 178 179 198 227 248 255 253 249 246 238 237 239 240 237 239 254 255 253 254 255 250 237 236 236 236 236 236
254 254 254 254 254 252 237 238 235 234 237 240 248 254 255 251 250 254 243 234 237 248 248 218 161 95 57 58 71 75 67 58 63 72 72 60 58 67 74 71 62 59 65 72 72 68 62 62 64 66 67 71 70 66 70 72 71 71 71 69 69 71 72 74 72 67 67 75 79 69 69 72 71 70 75 84 108 136 169 190 195 190 183 180 182 183 182 181 182 183 187 188 186 185 185 182 181 183 184 184 184 186 187 182 181 186 186 182 182 183 185 183 182 183 184 184 184 184 184 184 184 184 184 183 184 184 183 183 183 184 185 185 185 184 184 184 184 186 185 184 183 183 184 184 184 184 185 185 183 185 185 185 183 185 187 183 171 146 120 107 107 107 107 108 108 107 107 108 110 110 110 111 110 109 109 110 109 108 109 108 108 109 110 111 112 111 109 109 108 107 106 107 109 109 107 106 104 101 100 100 100 102 104 103 101 101 102 102 98 95 95 95 97 97 92 90 91 94 92 92 101 130 164 182 183 178 180 182 180 179 188 212 241 254 255 252 250 248 238 236 237 240 239 241 253 255 254 253 255 250 238 237 237 237 237 237
253 253 253 253 253 252 235 231 232 236 238 236 249 255 255 252 250 254 245 235 234 241 251 241 204 141 78 54 61 76 75 62 59 69 74 64 58 66 73 70 61 61 67 71 70 66 64 65 66 66 66 68 67 65 71 73 70 70 69 68 69 70 70 72 74 73 68 73 80 72 67 70 74 74 70 69 83 109 146 176 191 192 184 180 183 184 184 183 184 182 182 185 185 185 186 185 182 182 183 184 185 188 188 182 181 187 187 184 185 184 184 184 184 185 186 185 185 185 184 184 184 183 183 182 182 183 183 183 184 185 185 186 183 183 184 184 184 184 183 183 183 183 184 185 185 185 184 184 182 184 184 183 182 185 184 174 157 132 111 106 106 106 106 106 106 105 105 107 109 109 109 110 108 107 107 108 107 106 106 105 107 109 112 112 111 109 107 107 107 105 104 106 107 107 106 105 103 99 99 100 101 101 102 100 99 100 101 100 97 94 93 93 97 95 89 87 89 92 89 93 113 149 179 189 183 177 176 176 176 184 202 227 249 255 254 252 252 249 238 237 238 240 241 244 250 254 255 253 252 249 239 238 238 238 238 238
252 252 252 252 252 251 235 232 234 240 241 234 248 255 254 255 251 251 244 239 236 237 244 248 236 194 120 65 52 69 77 69 61 64 72 67 61 64 69 68 62 66 69 67 65 64 65 68 68 67 64 65 65 65 70 71 68 69 68 69 70 70 69 70 74 78 71 69 76 75 68 70 76 76 70 65 68 87 118 151 179 190 187 181 183 184 185 187 189 183 178 180 183 184 187 187 184 180 180 183 185 188 188 182 180 186 187 186 187 185 182 184 186 187 186 185 185 185 183 183 183 183 182 181 182 183 184 185 185 185 185 185 183 184 184 184 184 181 181 181 183 183 185 186 186 185 184 182 181 182 183 182 183 184 175 158 138 118 107 107 108 108 108 107 105 105 106 108 108 108 108 107 105 105 106 107 106 107 107 106 108 110 112 110 108 107 105 105 105 105 104 104 104 104 103 103 102 99 99 102 103 101 100 98 97 98 98 97 96 95 94 94 96 92 86 85 88 90 87 100 132 169 189 191 182 176 171 171 176 194 218 239 251 252 251 251 253 248 239 240 240 240 242 245 247 251 255 252 250 247 240 240 240 240 240 240
240 240 240 240 240 240 242 251 250 249 252 247 242 239 240 247 245 242 245 250 249 245 246 251 248 228 169 92 54 61 70 74 66 63 68 68 63 61 64 66 67 70 66 64 63 64 66 69 68 67 63 64 65 66 68 68 67 69 69 69 69 69 68 69 72 77 73 67 71 76 69 71 77 77 70 69 66 75 94 122 157 183 190 185 183 183 184 189 190 184 177 178 181 184 186 189 186 180 180 183 184 185 185 183 183 185 185 186 187 185 182 184 186 187 186 185 185 184 182 182 183 183 182 182 183 184 185 185 186 186 186 185 184 184 184 184 184 182 182 182 184 183 184 185 185 184 182 180 181 183 183 185 187 181 158 134 116 105 103 106 107 107 108 107 106 106 108 109 108 106 106 104 103 104 105 106 106 108 107 106 106 108 108 107 106 106 105 105 105 104 103 102 101 101 101 102 103 102 101 101 101 99 98 96 97 97 96 93 93 94 93 94 94 91 87 86 86 85 90 116 154 182 191 186 178 176 174 177 188 213 236 246 245 243 243 244 245 245 248 251 250 246 246 248 241 241 241 240 241 240 250 251 251 251 251 251
234 234 234 234 234 236 246 255 255 252 255 253 242 236 236 241 241 238 245 253 255 252 248 247 247 245 211 139 75 58 61 73 70 63 65 69 66 63 63 66 69 69 63 62 65 65 67 68 67 67 63 64 66 68 66 65 66 69 69 70 70 69 69 69 70 73 73 66 66 74 70 72 74 73 72 75 70 69 77 96 131 169 187 189 187 183 182 186 186 183 177 176 181 183 185 189 188 183 181 183 183 183 185 185 184 185 184 187 187 184 182 184 184 186 185 184 184 183 182 182 182 183 183 184 183 183 184 184 185 187 186 185 185 185 185 185 185 183 183 183 184 183 184 184 184 183 182 181 182 184 184 186 187 174 141 116 103 99 102 105 106 106 106 105 104 106 107 109 107 105 105 103 104 104 105 105 106 107 106 105 106 106 106 105 105 106 106 105 105 103 102 100 100 100 99 101 102 102 101 100 100 98 97 95 95 94 92 91 94 94 95 95 94 90 87 86 85 84 98 133 171 188 188 182 178 178 180 189 209 233 248 248 240 239 240 242 241 243 252 253 251 249 248 249 240 237 234 236 237 237 253 255 255 255 255 255
235 235 235 235 235 236 248 255 254 250 253 253 243 241 238 237 238 238 246 251 254 255 251 246 243 247 237 193 116 67 54 68 72 66 63 67 69 66 65 67 68 65 60 63 68 67 67 66 65 68 63 65 68 70 64 63 66 67 69 71 72 70 71 70 70 70 73 69 66 72 72 72 69 67 71 80 76 70 68 76 104 148 177 191 191 183 180 182 183 184 181 178 182 183 182 187 189 187 183 183 182 180 183 185 184 185 184 187 186 184 183 184 183 185 186 185 185 183 182 183 183 183 184 184 183 182 182 181 183 185 186 185 185 185 185 185 186 184 183 183 183 184 184 184 184 184 183 182 183 186 186 184 180 160 122 101 95 97 100 101 102 102 102 101 101 103 105 106 105 105 105 104 105 106 106 105 104 104 103 104 104 103 102 102 103 104 104 104 104 102 101 98 98 98 98 99 100 100 99 98 99 97 97 95 94 91 90 93 96 96 95 94 91 87 86 86 87 88 111 152 181 187 182 178 179 181 187 205 231 249 253 247 239 239 241 240 239 243 253 251 249 250 251 250 241 237 234 236 236 236 254 255 255 255 255 255
235 235 235 235 235 237 247 250 252 252 255 254 239 241 242 236 236 239 248 250 250 255 255 250 239 240 245 229 171 101 59 58 69 69 64 65 69 67 65 66 67 66 60 63 68 69 67 63 63 67 64 65 69 71 63 61 66 66 69 70 71 69 72 72 72 70 73 74 69 70 75 74 69 65 68 79 81 73 66 66 83 122 157 184 192 186 182 180 180 184 185 182 185 185 183 185 188 188 184 182 182 180 183 186 184 185 184 186 186 184 183 184 183 185 186 185 186 184 184 183 183 182 183 184 184 183 182 181 183 184 186 185 185 184 184 184 184 183 183 182 183 184 185 185 185 184 184 183 184 188 189 182 171 147 113 99 97 101 101 99 99 99 98 98 99 101 103 103 103 103 104 103 103 104 103 101 100 99 100 102 102 101 100 101 102 102 102 101 101 99 98 97 97 97 96 97 98 99 98 96 96 95 95 94 93 91 91 95 96 96 94 91 86 84 85 87 88 96 130 170 187 182 176 176 181 186 200 223 246 254 253 247 240 241 240 238 237 243 253 250 251 255 253 247 240 238 235 236 235 236 254 255 255 255 255 255
236 236 236 236 236 238 246 250 255 253 254 255 237 238 243 237 235 240 252 251 246 250 255 255 241 235 243 243 219 154 85 57 63 68 66 65 68 67 64 62 68 70 63 61 66 69 67 62 63 65 64 66 71 70 64 62 65 66 69 69 68 66 70 74 73 70 72 76 73 67 73 73 69 70 68 73 79 76 70 64 67 95 128 164 183 188 186 181 178 182 186 185 188 187 185 182 183 184 182 181 181 179 183 188 185 184 183 184 184 184 183 184 184 184 185 186 186 186 185 184 183 182 182 185 185 185 184 183 183 182 183 183 182 183 183 183 183 184 184 184 185 185 185 185 186 186 185 183 184 187 188 176 154 131 106 100 102 104 102 97 98 98 97 98 99 101 102 102 102 103 105 104 104 105 102 100 98 98 100 102 101 99 99 100 100 101 100 99 97 96 96 97 97 96 95 96 97 99 97 95 94 93 92 92 92 93 94 95 93 93 90 86 82 83 85 87 90 109 151 184 189 179 175 177 186 194 215 239 250 251 250 246 243 242 238 236 237 243 253 250 253 255 254 246 239 238 235 238 236 236 253 254 254 254 254 254
239 239 239 239 239 240 245 251 255 251 249 252 241 238 242 239 236 240 253 254 247 245 252 255 247 238 240 242 248 208 135 77 62 63 65 67 69 68 65 61 68 72 65 60 64 69 68 64 64 63 65 67 70 68 66 65 66 66 69 67 65 65 69 74 73 69 68 74 74 66 69 70 69 78 72 67 74 74 74 68 62 73 98 133 162 182 189 184 179 181 185 184 188 189 188 182 180 181 181 183 181 179 182 187 185 181 180 181 183 184 185 185 185 182 183 185 186 187 186 185 184 183 184 188 188 187 184 184 180 179 180 179 179 181 183 183 183 186 188 188 187 186 186 185 185 185 184 181 181 183 182 161 129 111 99 100 102 103 101 96 97 97 96 97 99 100 101 100 100 103 105 105 104 104 100 98 96 96 100 101 100 99 99 100 100 100 99 98 94 94 95 97 98 95 93 94 95 97 97 95 94 91 90 90 92 95 97 93 88 86 84 81 80 84 86 87 94 126 168 188 183 175 175 181 194 209 231 248 248 245 248 248 245 243 238 238 240 245 251 250 254 255 252 246 241 239 237 242 240 239 251 252 252 252 252 252
251 251 251 251 251 251 242 242 244 238 236 242 250 249 249 251 248 247 246 244 240 234 235 245 254 255 248 247 255 249 195 123 78 60 60 66 72 72 68 62 63 68 66 62 64 69 68 66 65 63 66 68 69 65 67 65 64 65 68 68 66 66 68 73 73 71 66 67 72 71 70 69 67 80 75 65 70 74 78 75 66 62 74 101 132 165 185 189 187 185 183 182 187 189 190 184 180 181 183 185 184 184 186 187 184 180 179 180 183 187 188 186 186 181 181 185 186 187 186 184 184 182 184 187 187 186 185 186 181 177 177 177 180 183 184 185 185 186 187 188 186 186 186 186 186 185 185 182 181 183 180 150 109 99 97 101 102 100 99 97 98 98 97 98 98 98 99 99 100 103 105 105 104 104 100 99 96 96 98 98 97 97 97 98 98 98 99 98 95 94 95 95 95 92 90 92 93 95 97 97 96 92 89 89 91 93 95 91 85 83 83 83 85 85 84 85 103 144 175 179 174 174 179 191 210 227 236 243 239 237 243 247 250 247 246 247 249 246 239 241 244 242 243 244 249 250 250 253 253 250 239 239 239 239 239 239
253 253 253 253 253 252 243 238 235 235 235 240 254 250 247 255 255 248 238 239 243 237 230 234 251 255 254 248 255 255 238 177 114 72 58 63 70 71 69 66 62 64 68 66 64 67 67 67 65 62 66 68 67 62 68 66 63 64 66 67 67 68 69 70 71 71 66 64 71 77 74 70 66 76 76 69 72 73 76 77 71 62 65 78 103 138 169 186 190 188 184 180 183 186 187 185 183 183 184 185 184 185 185 186 186 181 179 181 183 187 189 185 184 179 179 186 187 188 186 184 184 182 182 184 185 184 185 186 182 179 179 180 183 185 185 186 187 186 186 187 185 185 184 184 183 183 183 182 182 184 180 146 103 97 97 99 97 96 97 95 96 96 96 96 96 97 98 99 99 102 103 102 100 100 98 97 96 95 96 96 95 95 94 95 95 96 98 98 96 95 94 93 92 91 90 92 92 94 96 95 94 91 88 89 90 91 91 85 82 80 82 85 87 86 84 89 117 159 177 172 171 177 187 205 228 244 244 241 238 236 243 245 248 247 249 252 250 244 236 240 241 237 239 244 251 254 254 253 255 254 237 236 236 236 236 236
254 254 254 254 254 253 242 236 231 234 238 241 253 249 246 254 255 249 235 237 244 242 233 231 246 255 255 252 253 255 255 220 163 106 70 60 63 66 68 70 64 64 70 69 64 64 65 68 66 63 66 67 65 63 69 68 63 64 64 67 67 68 68 65 67 71 70 67 69 77 77 73 68 70 73 74 76 74 72 74 73 66 64 68 84 111 143 172 186 190 187 182 182 182 183 185 187 188 186 182 182 183 182 183 187 184 183 184 184 188 186 182 180 177 179 187 189 188 186 185 184 181 180 181 183 183 185 186 184 183 183 183 188 188 186 186 187 184 184 184 183 183 183 182 182 182 182 183 184 186 182 144 103 99 97 96 94 94 95 96 96 96 95 95 96 97 98 99 100 101 101 98 97 97 96 96 96 96 95 95 95 94 92 91 92 93 95 96 95 95 94 92 92 92 92 93 94 94 93 91 89 88 88 88 88 87 85 81 81 81 83 85 86 83 84 97 135 170 177 170 174 186 200 221 243 252 245 240 239 238 242 244 247 248 252 253 250 244 236 240 240 235 237 243 252 255 255 253 255 254 236 235 235 235 235 235
255 255 255 255 255 254 239 236 231 233 240 240 250 249 249 252 255 251 238 236 240 242 239 236 244 254 254 255 253 250 255 244 211 156 103 68 58 61 65 70 67 66 70 69 63 61 65 69 68 66 66 65 62 66 72 69 64 64 64 66 66 68 65 61 63 70 73 72 68 71 74 74 73 66 68 76 78 76 71 72 74 70 65 65 75 91 115 149 175 187 191 187 182 180 179 184 189 192 188 179 181 182 179 181 186 186 186 187 184 185 182 180 179 177 181 187 189 187 186 185 184 182 180 181 182 183 185 185 185 186 186 187 189 188 185 185 185 182 181 181 181 182 182 182 182 182 183 185 187 187 183 139 101 98 95 93 91 91 92 95 95 95 95 95 96 97 97 97 99 99 98 95 94 93 94 94 95 95 93 93 94 93 91 90 91 92 93 93 94 94 93 92 91 93 94 95 95 93 90 86 84 84 86 86 84 82 80 81 84 85 84 83 81 80 87 111 153 177 178 174 182 199 217 236 250 249 241 238 239 238 241 243 248 249 252 252 251 246 237 239 239 236 238 242 252 255 255 254 255 254 236 235 235 235 235 235
255 255 255 255 255 255 238 237 233 234 240 239 248 251 253 251 251 252 243 239 236 237 242 244 247 249 248 253 255 250 251 251 242 204 148 94 64 58 61 67 69 68 68 66 61 61 67 70 70 69 67 62 61 70 73 68 63 64 65 66 66 68 65 60 63 70 73 73 67 64 69 71 73 64 65 73 75 75 71 72 74 72 67 67 73 80 94 126 160 180 192 191 185 180 178 182 187 192 190 180 182 183 179 179 183 186 188 189 184 180 177 179 181 181 185 187 187 185 185 185 184 183 181 182 183 184 186 185 185 186 187 187 187 186 185 185 185 181 180 180 181 181 181 182 182 183 184 188 190 187 183 133 98 95 93 92 91 91 91 95 95 94 95 95 96 96 95 95 97 96 94 92 90 89 93 94 95 94 93 93 94 94 93 93 93 93 92 92 93 92 92 91 91 91 93 94 94 92 87 84 82 82 84 83 81 79 78 83 87 88 84 81 78 81 96 127 166 180 179 181 194 214 233 247 250 242 237 237 238 237 239 243 249 249 250 251 252 249 238 237 238 239 239 241 251 255 255 254 255 252 235 234 234 234 234 234
253 253 253 253 253 252 239 240 238 239 241 241 246 250 253 249 247 248 248 245 239 237 244 249 248 245 243 247 251 250 247 250 255 240 197 138 89 64 57 62 70 70 65 61 63 65 70 70 70 70 65 60 60 71 71 67 63 63 65 65 66 70 66 63 65 69 70 69 67 63 65 67 70 65 67 69 68 71 71 71 74 74 71 71 72 75 82 108 143 167 186 192 188 184 180 180 183 189 191 183 185 186 181 179 181 185 189 191 185 177 176 182 183 184 185 183 184 183 184 184 184 183 183 183 184 185 184 184 185 187 187 187 185 184 185 185 185 181 180 180 181 181 182 182 182 183 185 190 193 187 178 123 93 91 90 91 90 91 91 94 94 94 96 97 98 98 96 94 95 94 92 90 89 89 93 94 95 94 92 93 94 95 96 97 96 94 92 91 92 90 91 92 90 89 90 90 90 88 86 85 85 85 85 83 81 80 78 83 85 85 80 78 78 89 112 145 175 182 184 193 207 226 242 248 245 238 237 240 242 239 241 244 247 246 246 247 250 249 241 240 242 244 243 243 247 250 251 250 251 249 238 237 237 237 237 237
239 239 239 239 239 239 251 251 251 255 250 249 241 240 241 240 238 237 250 255 253 250 252 254 242 233 235 236 239 241 245 251 255 255 246 198 133 83 63 61 68 68 63 62 67 70 72 68 68 67 64 61 62 69 67 67 66 63 65 65 68 71 68 65 65 65 65 64 68 67 64 62 64 68 73 68 63 65 69 71 72 76 78 75 70 69 71 87 115 140 167 183 188 189 186 182 180 184 189 184 183 186 182 181 184 185 189 192 186 178 180 186 186 187 184 177 180 181 181 182 183 184 184 185 184 184 182 184 187 188 188 187 184 182 184 184 185 184 183 183 183 182 182 181 181 182 184 189 192 186 171 113 91 89 88 89 90 92 92 91 92 94 96 98 99 99 97 94 92 89 87 86 88 90 93 95 95 94 93 92 92 93 96 96 96 95 93 91 92 90 90 92 89 86 86 85 85 86 86 87 87 87 85 84 84 85 82 81 79 77 73 74 81 104 136 165 179 182 194 208 219 232 240 239 234 236 247 251 255 251 248 246 239 238 238 238 240 244 251 252 253 253 252 248 238 237 239 236 237 240 251 251 251 251 251 251
235 235 235 235 235 237 252 253 255 255 251 249 242 237 237 240 240 234 246 255 255 254 251 250 240 233 238 237 236 240 244 245 253 255 255 243 186 127 85 62 59 63 67 67 68 69 69 66 67 67 66 65 65 62 62 66 68 65 65 65 68 70 69 67 65 63 62 61 66 71 68 65 65 69 78 69 62 64 69 72 72 73 75 75 69 68 68 75 93 112 139 165 181 190 191 186 180 178 180 175 171 183 189 186 185 184 184 188 185 181 184 188 186 188 182 173 177 181 181 182 184 185 186 186 183 183 183 187 191 188 186 187 185 182 183 183 184 183 183 182 184 184 184 184 184 184 185 187 186 180 163 106 88 88 88 90 91 92 91 87 89 93 95 96 96 96 93 91 88 87 85 85 88 91 94 95 94 93 91 89 88 91 94 94 94 93 91 89 89 90 89 88 86 84 85 82 83 85 86 87 87 88 86 85 86 84 82 79 77 74 73 78 95 126 155 173 179 189 210 227 233 239 241 238 234 240 251 254 255 255 249 245 238 238 239 239 238 241 251 253 253 251 250 248 237 235 238 236 236 239 253 254 254 254 254 254
233 233 233 233 233 235 253 255 254 255 252 249 245 238 234 240 242 235 242 253 255 254 249 248 243 238 241 238 235 238 246 244 245 255 255 255 233 183 127 75 49 56 75 78 68 62 60 63 67 67 70 72 70 57 59 69 69 68 66 63 65 66 66 64 63 63 64 64 63 69 72 72 70 70 75 71 66 67 70 73 72 68 68 72 73 70 70 69 74 82 102 130 154 172 184 188 184 175 168 156 144 165 185 186 186 181 179 178 183 186 187 185 182 185 181 175 178 181 182 184 185 186 186 184 181 182 184 188 191 186 183 184 185 183 181 180 181 183 184 184 186 187 188 189 189 189 187 184 177 172 152 102 90 91 91 92 93 94 93 90 91 93 93 91 89 89 87 85 84 86 87 88 91 93 94 94 94 93 89 87 86 88 90 87 87 87 86 84 86 91 88 84 83 86 88 85 85 85 83 82 81 84 85 87 87 84 82 78 77 75 77 87 114 150 170 175 181 203 230 242 241 242 241 238 237 244 253 255 255 255 251 246 239 240 241 241 239 240 249 253 251 247 247 248 239 237 238 237 239 239 254 255 255 255 255 255
233 233 233 233 233 235 255 255 248 253 255 250 243 237 235 239 241 236 243 252 254 251 248 252 249 237 237 241 234 234 251 250 243 248 255 255 254 224 182 126 72 54 68 76 69 62 60 66 66 63 68 73 72 59 62 70 69 70 68 65 64 61 60 61 64 66 70 70 65 65 69 73 75 69 70 72 71 70 71 72 72 67 64 67 71 71 72 71 69 72 78 90 106 127 152 175 186 185 183 174 156 163 181 182 182 180 179 173 181 189 189 185 182 184 186 186 184 183 184 185 186 187 186 184 183 182 182 180 181 181 181 182 185 185 181 180 181 186 187 187 187 187 188 189 188 187 185 182 176 163 133 99 90 90 91 93 94 95 97 98 95 92 88 85 82 81 81 82 85 91 94 95 96 96 93 91 90 89 87 86 85 86 86 83 82 80 80 81 85 91 88 84 83 86 89 86 86 83 79 77 78 82 85 87 86 81 80 76 74 74 86 107 139 168 179 185 199 225 245 246 241 242 241 238 239 246 253 251 254 255 253 248 241 240 240 241 240 241 249 252 249 246 246 247 242 239 237 235 239 241 255 255 255 255 255 255
234 234 234 234 234 235 255 255 244 250 255 253 239 238 236 237 239 240 247 250 249 249 251 255 250 234 236 247 235 231 253 255 247 247 253 255 252 239 226 194 130 75 58 63 67 66 64 67 65 62 65 69 69 64 65 68 68 70 68 66 65 61 61 62 65 64 69 72 71 64 65 69 74 68 65 73 74 70 71 70 71 70 67 67 68 66 68 70 69 73 73 69 72 83 106 136 159 174 186 191 180 175 184 183 181 183 184 178 182 189 191 188 185 184 186 190 187 183 184 184 185 187 187 185 186 184 180 173 172 180 183 183 184 185 184 183 183 188 188 187 186 185 186 185 183 181 181 181 177 149 112 92 88 88 89 90 91 92 95 96 91 87 83 81 79 79 82 86 90 94 95 95 94 91 88 85 84 84 85 87 87 87 86 83 81 78 78 82 85 88 87 86 87 88 88 86 84 80 79 78 78 83 85 83 81 78 77 72 69 77 102 135 161 177 188 203 223 240 247 244 239 241 241 238 239 246 251 249 252 255 253 249 242 241 239 239 240 244 252 251 248 248 247 246 245 242 238 234 237 242 254 255 255 255 255 255
241 241 241 241 241 242 246 248 246 246 248 253 241 241 243 241 242 245 248 246 244 247 249 250 246 238 244 249 243 242 250 248 243 245 251 253 244 238 246 243 200 127 69 53 64 68 66 65 64 65 66 67 65 68 65 62 66 68 67 68 64 64 65 67 67 61 64 67 74 66 61 65 68 67 65 69 72 69 72 69 70 74 73 67 66 64 65 68 71 76 75 68 63 64 74 91 113 136 161 181 185 182 189 187 180 184 185 183 183 186 191 188 187 184 184 187 185 183 184 183 183 183 184 182 183 184 182 178 176 182 184 184 184 185 187 186 185 187 187 187 186 185 185 182 180 178 180 179 174 132 96 87 85 85 86 87 87 87 89 91 88 86 85 85 84 85 88 91 93 91 90 90 88 87 87 85 83 83 86 88 88 86 85 85 84 82 83 87 86 84 86 88 90 87 84 82 80 79 81 83 83 84 82 77 75 76 76 73 74 94 128 163 180 185 199 222 239 243 242 243 243 244 243 241 241 246 248 247 247 251 248 246 245 244 242 242 243 246 250 248 248 249 246 245 250 244 242 240 240 242 248 249 249 249 249 249
254 254 254 254 254 253 230 235 246 240 234 241 249 250 253 254 252 250 242 238 239 239 238 236 244 255 255 248 254 255 242 233 233 236 241 243 242 245 255 255 251 199 122 71 65 63 61 61 65 75 70 66 62 66 63 59 66 65 65 68 67 69 70 70 66 63 64 66 72 69 64 65 64 67 64 65 68 67 71 68 70 75 74 66 65 66 68 69 74 75 74 73 70 66 63 65 77 96 119 141 160 177 192 191 180 185 186 186 183 183 187 183 184 184 182 182 182 183 184 184 184 183 184 181 181 184 189 189 186 185 183 183 184 185 187 187 185 181 181 183 185 186 187 185 184 183 183 178 162 115 90 84 81 82 85 85 84 83 84 85 85 86 88 88 86 86 88 90 90 86 85 86 83 83 84 84 84 84 87 88 88 86 84 85 84 85 85 87 84 81 83 85 86 82 79 80 78 78 84 87 86 83 79 72 70 70 72 78 92 122 155 183 196 196 209 231 243 242 238 245 251 252 251 250 251 248 241 239 235 235 238 243 250 251 251 251 252 247 238 240 242 241 240 244 255 250 252 255 250 244 237 236 236 236 236 236
254 254 254 254 254 253 230 232 246 243 235 233 250 254 253 253 254 250 239 239 240 238 234 233 245 255 255 245 253 255 238 233 239 240 238 235 243 254 255 255 255 248 193 129 89 64 54 55 63 75 71 68 63 63 63 66 70 66 63 65 69 72 73 70 64 67 68 65 64 66 66 66 65 66 61 64 67 68 70 69 72 74 72 66 66 69 72 70 72 68 68 74 75 74 69 66 69 75 84 93 114 152 183 192 186 189 188 185 181 183 185 180 180 182 183 181 180 183 184 184 185 185 187 184 183 185 191 191 188 185 183 183 184 183 183 183 182 179 179 182 185 186 187 187 188 188 186 174 146 106 92 84 81 82 85 84 85 83 84 83 84 85 87 88 87 85 85 87 87 85 85 87 83 81 81 81 84 85 86 86 86 84 82 82 83 85 85 85 84 83 82 81 80 78 77 79 79 79 81 83 82 78 76 73 70 69 72 88 115 148 171 191 207 215 225 238 244 244 241 245 251 251 250 252 254 248 240 239 234 232 236 242 251 252 253 254 253 247 236 239 240 239 241 246 250 248 252 255 250 244 239 238 238 238 238 238
252 252 252 252 252 252 237 233 240 239 238 231 250 255 254 252 255 253 241 238 238 236 235 235 247 255 251 249 251 253 240 237 242 241 233 230 244 255 255 249 254 255 242 191 137 92 66 55 56 66 68 71 69 63 63 67 69 66 64 65 70 70 73 70 66 70 71 67 57 61 66 67 68 64 58 64 67 69 68 67 70 70 69 69 69 69 73 71 69 64 63 69 75 77 75 73 73 73 72 72 88 132 175 190 188 190 188 185 182 185 186 183 180 182 185 181 178 180 182 182 184 186 189 186 185 185 188 187 184 185 184 185 183 180 182 182 183 180 180 182 183 185 185 186 188 189 185 166 132 99 91 85 84 83 84 83 83 81 81 83 84 86 87 87 85 83 84 86 87 86 88 90 86 82 80 81 83 83 84 84 84 83 82 84 85 86 85 85 86 84 81 77 75 75 75 78 79 80 80 79 79 76 75 73 69 69 77 103 139 170 188 206 226 236 239 241 243 243 241 243 247 249 251 253 254 248 239 238 236 235 237 242 251 251 253 254 254 248 236 237 236 237 240 245 248 251 253 255 252 247 239 238 238 238 238 238
253 253 253 253 253 252 242 236 236 233 240 237 250 255 254 250 254 255 244 237 235 236 239 239 247 252 249 253 252 250 244 240 240 237 232 231 244 255 254 248 251 255 255 232 192 145 103 71 55 55 59 69 72 67 64 62 63 64 65 66 67 66 70 71 68 67 69 68 58 60 67 68 68 62 61 67 68 68 67 64 65 66 69 75 73 68 71 72 67 63 61 66 73 75 75 74 73 71 69 68 78 116 163 183 183 187 186 187 186 186 186 186 184 183 186 182 179 182 183 184 185 186 188 184 182 182 184 183 182 185 186 186 183 181 183 184 187 184 183 183 183 183 183 183 184 183 176 151 116 89 83 84 85 83 82 81 81 79 78 82 85 87 88 86 84 83 84 86 85 85 86 87 84 81 79 81 83 83 84 84 84 84 84 86 87 86 84 85 86 82 79 76 75 76 76 79 80 81 80 79 81 77 73 70 67 72 89 122 160 189 209 227 246 251 247 243 239 239 239 243 248 250 253 255 255 248 239 239 238 238 238 242 251 251 251 252 253 249 237 235 234 236 239 241 250 255 253 255 255 251 237 236 236 236 236 236
254 254 254 254 254 253 244 237 236 230 239 243 249 253 253 251 252 255 245 238 236 237 240 241 248 249 249 252 255 253 247 238 237 236 234 235 245 254 251 249 250 252 255 249 232 201 159 112 76 56 52 58 68 74 71 62 59 61 65 67 64 63 65 67 67 64 66 69 64 62 69 69 65 62 65 69 69 68 65 62 62 63 69 79 76 68 68 71 68 66 63 66 72 74 73 71 70 68 67 69 75 101 144 174 178 182 183 186 187 186 184 186 188 186 185 181 180 183 184 185 185 184 184 180 178 179 183 185 184 185 185 185 184 184 185 186 188 186 185 185 185 184 181 178 177 175 161 131 101 81 78 84 85 83 81 81 81 79 79 83 85 86 86 84 83 83 84 85 84 82 82 82 80 78 80 83 84 85 86 85 84 84 84 84 84 82 82 84 84 81 79 78 78 78 78 79 80 80 79 79 79 73 68 66 71 89 117 152 187 214 234 247 255 254 246 239 235 236 239 246 251 252 253 254 253 248 239 239 237 237 238 243 250 250 250 251 252 248 237 236 236 237 238 239 253 255 253 255 255 253 236 234 234 234 234 234
246 246 246 246 246 246 248 244 243 238 244 251 246 241 242 246 244 242 246 248 247 245 244 246 248 244 243 242 248 250 250 243 243 245 245 243 245 247 245 243 243 243 250 255 255 245 217 172 121 75 56 50 60 74 78 72 63 63 65 66 64 62 62 63 63 60 61 68 71 65 69 67 62 64 69 69 69 68 64 64 63 64 68 77 74 68 64 69 68 67 67 68 69 71 71 71 71 69 68 70 72 84 118 161 179 182 183 183 186 187 181 186 190 187 185 183 183 184 185 185 185 183 180 179 178 179 183 185 184 184 185 184 186 188 185 184 186 188 189 189 189 185 176 171 168 164 145 114 94 81 79 84 84 82 81 81 82 83 84 84 84 83 82 82 83 85 85 85 86 84 82 79 78 77 80 83 85 88 88 86 85 84 82 80 78 76 78 81 82 83 82 83 82 82 81 78 76 74 72 71 70 66 65 70 87 119 154 183 209 231 245 249 251 250 246 241 237 239 245 248 248 247 245 245 244 245 245 245 243 242 245 246 245 244 244 245 245 244 245 246 248 245 245 244 248 248 244 245 246 247 244 244 244 244 244 244
237 237 237 237 237 238 250 251 253 252 249 255 243 233 233 240 237 232 246 255 255 252 248 251 247 240 237 234 239 244 250 249 251 255 255 251 246 241 239 237 236 238 245 253 255 255 255 228 180 119 81 57 53 64 74 78 72 68 66 65 65 65 64 64 63 61 59 64 73 69 69 65 60 64 70 68 68 67 66 68 68 67 65 70 69 67 62 67 69 69 71 70 67 67 70 72 73 71 70 70 70 72 94 144 180 184 186 181 183 184 181 185 188 185 184 185 185 184 184 184 184 182 178 180 181 181 182 183 182 184 185 185 188 190 186 185 186 191 191 189 184 174 158 150 147 143 123 98 88 83 82 83 81 81 81 82 84 87 88 83 80 79 79 80 83 84 83 83 87 86 83 81 80 78 82 83 84 85 83 81 82 81 80 77 75 75 77 78 80 82 82 84 84 82 80 74 71 69 66 63 60 63 71 86 116 156 192 208 225 240 246 243 240 245 247 245 244 247 250 248 244 241 238 237 237 243 251 251 250 250 252 249 239 238 238 239 238 241 252 255 255 252 251 250 241 237 236 235 235 240 253 255 255 255 255 255
235 235 235 235 235 237 248 251 255 255 251 249 241 235 236 239 233 231 246 254 255 252 250 251 246 240 237 235 236 239 247 251 254 255 255 251 245 241 240 239 238 238 240 244 250 255 255 255 230 179 131 89 61 55 60 69 73 74 70 66 64 66 68 68 68 66 60 59 69 70 67 63 60 65 70 69 67 67 67 69 71 68 60 63 65 67 66 67 70 71 76 73 68 68 69 70 70 70 69 69 71 71 79 123 177 188 189 182 179 178 180 181 179 179 181 186 185 183 181 180 180 179 178 185 187 186 183 182 181 184 185 185 187 189 189 190 190 190 186 176 159 141 120 110 106 102 89 76 75 77 79 80 79 79 80 83 84 86 85 80 79 80 81 80 80 78 77 75 81 83 83 82 81 81 85 85 81 77 73 73 76 77 78 78 78 79 81 79 78 78 77 79 78 76 73 71 71 70 68 62 58 68 89 117 155 195 224 233 240 248 247 241 235 241 246 248 249 250 250 246 241 238 237 236 237 244 251 252 253 254 252 249 240 239 238 238 237 242 253 253 255 254 253 252 237 234 238 235 234 238 254 255 255 255 255 255
235 235 235 235 235 236 248 252 253 255 255 250 241 237 239 238 234 235 248 253 252 252 253 253 244 237 237 238 235 237 246 254 255 255 253 249 244 240 241 239 238 237 240 245 245 251 255 255 255 230 189 144 98 65 51 55 65 71 72 69 66 65 67 69 70 68 64 59 65 68 64 63 64 65 67 67 66 67 70 69 71 66 58 59 65 69 70 66 67 67 71 69 69 70 71 72 70 69 67 65 66 67 71 105 170 189 190 185 180 180 185 183 178 178 183 188 186 184 181 179 179 179 180 188 190 188 183 181 180 184 186 186 187 188 190 191 191 186 176 161 138 118 98 90 87 85 78 73 74 77 79 78 78 78 78 80 80 81 79 77 79 82 83 80 79 78 77 74 78 83 83 83 81 83 85 83 79 74 70 71 74 76 78 80 82 83 83 80 77 76 75 76 75 72 70 70 72 73 70 65 68 91 123 159 196 226 244 245 244 245 240 237 235 244 250 251 252 251 250 242 237 236 237 237 238 245 253 253 254 255 253 248 239 239 237 237 237 243 254 253 255 255 253 251 236 234 238 234 234 237 253 255 255 255 255 255
235 235 235 235 235 236 250 255 252 253 255 254 240 238 240 237 235 239 250 251 250 253 255 255 242 233 238 240 237 235 245 254 255 254 252 251 245 238 239 237 237 234 241 253 251 247 248 255 255 255 237 206 159 106 67 51 53 61 69 73 71 66 63 65 67 67 67 64 61 66 63 64 68 66 64 65 65 68 70 67 66 63 61 58 64 69 73 68 65 65 64 62 70 72 72 73 72 70 67 65 65 65 67 90 155 186 190 190 185 183 188 184 178 177 182 188 188 186 183 181 180 180 180 186 188 187 182 179 178 185 186 187 186 185 186 188 187 171 154 135 113 96 82 77 75 75 72 71 73 76 76 77 80 81 80 81 80 79 76 76 81 83 82 79 79 82 82 77 77 82 82 78 79 82 82 79 76 74 72 74 74 76 78 79 82 83 81 78 76 77 75 74 73 71 71 70 71 72 72 77 96 132 169 204 230 246 252 246 240 235 232 235 238 250 255 255 254 252 250 240 234 235 238 238 238 247 254 253 252 255 253 247 238 238 236 236 236 243 255 253 254 255 253 249 237 236 237 234 235 239 252 254 254 254 254 254
238 238 238 238 238 238 254 255 252 251 253 255 239 235 240 239 237 239 250 253 252 253 254 253 241 234 241 242 241 235 242 252 254 255 255 255 245 234 236 237 238 235 241 255 255 250 245 247 251 250 253 245 220 176 125 81 56 52 60 71 76 70 60 58 62 65 70 71 62 64 64 66 71 67 65 63 63 67 67 66 60 62 69 63 63 67 70 69 66 67 61 58 69 71 68 70 72 71 70 71 69 63 64 79 131 172 187 191 188 185 186 183 180 179 183 189 190 188 185 183 182 181 178 183 185 185 183 181 180 184 184 185 184 183 180 180 176 145 122 105 92 82 75 73 73 73 71 70 72 75 74 75 80 82 80 80 78 78 75 77 79 77 74 73 78 85 85 81 76 80 77 72 77 81 79 77 76 77 78 79 77 76 76 74 75 75 73 72 72 77 76 74 73 71 71 67 66 67 76 99 136 178 210 236 249 254 254 246 238 233 232 236 239 251 255 255 254 250 247 239 234 236 238 238 237 247 253 250 249 253 253 247 238 238 237 237 237 242 253 253 254 255 251 245 240 238 237 235 236 243 251 252 252 252 252 252
250 250 250 250 250 249 246 243 245 245 240 243 246 246 247 250 251 250 244 243 243 243 242 242 245 248 250 250 250 244 240 242 244 244 246 247 244 244 247 249 247 246 244 245 245 241 242 243 243 243 251 255 255 245 207 149 96 64 54 60 72 75 67 61 61 65 71 73 66 62 66 69 72 69 67 62 62 63 65 67 57 61 69 66 65 67 66 68 70 71 66 62 69 70 65 65 69 71 71 73 70 66 67 76 103 146 177 185 184 183 181 182 183 185 187 189 189 186 185 184 184 183 180 181 185 185 184 184 181 183 181 181 180 180 176 175 166 114 89 79 77 76 75 76 77 77 75 74 73 72 75 76 80 82 81 80 77 76 76 80 79 72 68 71 78 84 83 80 76 76 74 73 80 82 79 77 75 76 78 77 76 75 74 72 71 69 68 67 68 71 71 69 69 69 69 66 65 70 95 138 182 213 233 244 247 246 247 247 246 246 247 246 246 247 247 249 250 246 241 239 242 247 249 249 247 247 243 241 242 243 244 245 247 248 249 249 248 245 241 243 243 241 241 240 249 247 249 250 248 250 242 241 241 241 241 241
254 254 254 254 254 252 241 236 238 240 233 235 252 254 249 254 255 255 239 234 238 238 235 234 247 254 253 255 251 248 242 236 234 234 239 243 244 247 250 254 253 255 247 236 235 235 240 243 244 245 245 249 255 255 255 219 169 114 73 57 58 65 72 71 69 69 68 69 71 67 68 69 67 67 69 66 62 59 63 70 62 64 65 66 68 68 65 65 68 69 69 68 66 67 66 65 67 70 70 72 66 65 67 72 83 119 168 184 182 180 179 183 185 187 187 185 185 185 184 184 185 184 183 183 186 185 183 184 180 183 182 182 180 181 180 179 168 101 74 70 73 76 77 78 79 79 79 79 76 72 74 75 77 79 80 79 77 75 77 80 78 72 70 75 81 82 78 76 74 72 72 75 82 83 79 75 72 72 73 73 74 75 74 73 71 69 67 65 64 65 65 65 65 64 64 67 77 96 137 187 225 239 245 245 242 240 240 246 249 252 253 251 250 245 242 246 247 244 238 241 246 251 252 253 254 249 240 238 241 239 239 243 252 253 255 255 253 246 235 237 234 232 235 240 253 252 254 255 254 251 237 236 236 236 236 236
253 253 253 253 253 252 242 239 234 234 238 237 250 252 251 252 255 254 241 236 237 237 235 235 247 251 250 255 253 251 247 237 233 233 239 243 246 249 248 254 255 255 250 236 235 237 237 237 244 254 251 248 249 254 255 249 233 194 143 96 59 49 62 74 76 71 65 62 71 70 68 68 64 64 67 72 67 59 62 67 70 68 63 67 70 68 67 65 67 66 68 70 60 63 70 66 64 66 69 72 68 69 68 66 70 93 152 184 182 178 180 185 187 186 184 182 183 185 184 183 184 184 186 184 185 185 185 184 181 184 186 186 184 183 185 185 174 99 72 71 75 76 76 75 75 75 77 78 76 74 76 76 77 78 78 76 74 72 73 73 75 78 80 83 80 76 74 76 75 70 71 73 75 76 75 74 72 72 72 73 73 73 73 73 71 70 70 68 67 64 64 63 62 60 66 86 117 155 199 234 249 246 243 240 239 238 238 246 251 253 252 251 250 243 239 241 239 238 237 245 251 251 251 252 254 249 240 241 242 240 238 243 252 252 254 254 253 246 235 236 235 234 235 241 253 255 252 255 255 250 238 237 237 237 237 237
254 254 254 254 254 253 243 238 237 232 239 238 246 251 254 251 249 252 244 239 238 237 237 238 248 251 248 254 255 255 249 237 235 235 238 240 247 254 251 251 255 253 252 241 238 237 233 228 237 255 255 255 253 249 245 242 253 251 224 175 114 73 59 61 65 65 65 63 68 67 65 65 65 66 65 71 70 66 63 61 73 71 66 67 66 64 65 66 68 68 68 69 58 59 69 66 61 63 69 71 72 72 69 63 62 77 129 180 183 181 182 183 186 185 182 181 183 184 184 184 184 186 189 182 181 182 184 182 180 182 184 184 184 184 187 187 176 102 77 76 75 74 73 72 71 71 73 74 74 77 80 79 76 75 74 71 69 71 72 73 75 82 87 84 75 69 72 75 74 69 69 69 66 68 71 73 74 75 75 74 71 70 69 70 70 71 72 73 73 68 65 64 66 74 95 133 176 214 242 253 253 240 235 237 238 238 240 251 255 255 253 253 252 242 235 233 231 233 238 250 255 253 251 251 253 246 237 238 236 237 238 243 252 252 252 252 253 248 237 235 237 239 238 242 252 255 253 254 255 251 238 237 237 237 237 237
252 252 252 252 252 252 242 232 241 238 237 234 248 255 252 248 249 254 244 237 235 237 239 239 249 255 251 252 254 255 248 239 237 233 233 236 249 255 255 249 249 254 254 243 239 236 233 231 235 250 255 255 255 252 245 233 239 250 254 237 202 155 103 68 54 57 64 68 68 67 65 61 64 70 69 66 69 72 68 62 69 73 75 70 60 58 59 63 66 69 71 71 66 60 59 63 63 64 68 65 68 70 70 63 56 68 101 165 185 186 185 182 184 185 181 181 178 180 184 186 186 191 194 183 181 181 181 178 178 180 181 182 183 184 188 188 167 98 78 76 73 71 70 70 71 72 75 77 77 80 81 78 72 70 69 68 71 76 80 79 75 76 78 75 71 67 69 71 72 70 72 74 69 67 68 69 74 73 74 72 70 68 68 70 70 70 71 71 70 65 64 72 90 118 153 194 224 243 252 253 252 238 235 239 240 240 242 254 255 254 254 254 253 240 230 228 230 234 238 252 255 255 254 253 254 244 233 234 231 233 235 243 254 253 253 252 252 250 240 237 236 238 241 244 250 252 255 254 251 251 240 239 239 239 239 239
249 249 249 249 249 249 241 240 239 238 237 235 249 255 253 246 248 255 245 235 233 236 241 240 247 255 253 252 252 254 247 242 240 233 230 234 247 255 255 253 249 252 249 241 242 239 238 241 242 249 249 253 254 251 251 239 234 234 241 247 251 236 190 132 87 65 58 59 63 69 69 67 64 66 67 63 69 74 72 65 65 70 75 73 62 60 59 60 61 65 70 73 76 67 56 61 65 64 63 58 62 70 74 69 58 63 76 141 185 189 188 185 185 188 184 179 174 178 185 187 187 191 192 182 181 181 177 174 179 182 182 183 183 185 188 186 147 86 74 73 69 68 68 69 70 71 75 78 77 76 77 76 71 69 70 72 78 79 83 82 74 70 69 70 71 68 67 67 70 71 75 82 76 68 66 65 70 70 71 70 70 70 71 73 71 68 65 64 63 65 79 103 138 178 211 239 249 251 252 253 253 242 240 240 240 240 241 249 248 247 252 253 251 239 230 230 234 237 239 251 255 255 255 255 255 244 234 234 232 233 236 243 254 253 251 250 252 251 241 237 236 240 241 244 250 252 251 250 252 249 242 241 241 241 241 241
240 240 240 240 240 240 248 255 245 247 252 254 243 239 247 244 238 240 250 252 249 248 251 253 245 237 244 238 242 243 248 248 249 249 247 247 242 236 239 246 246 237 238 247 253 252 249 250 249 245 241 240 235 238 245 251 253 245 240 244 254 255 247 212 162 112 76 56 55 63 65 69 66 63 66 64 66 68 66 67 65 65 67 68 67 65 66 64 58 58 61 67 75 70 64 65 68 66 63 62 64 67 66 66 68 68 69 114 179 190 191 191 187 188 185 179 179 184 187 187 187 185 181 178 179 179 174 175 184 186 187 187 187 185 176 168 115 77 73 72 71 69 68 68 68 68 67 68 70 70 70 71 70 69 71 75 79 75 75 72 69 67 66 68 71 70 69 71 74 76 78 83 78 71 67 67 70 72 73 73 73 73 73 70 66 62 60 64 73 98 131 169 204 230 245 247 246 246 246 247 246 249 249 248 248 250 249 243 237 238 242 245 242 245 248 250 249 249 252 251 247 245 244 243 241 243 249 249 248 249 248 245 242 242 240 240 242 246 249 248 252 254 247 245 242 244 239 237 243 242 248 249 249 249 249 249
239 239 239 239 239 239 246 254 248 253 255 255 240 231 241 247 237 230 245 255 255 253 250 252 245 237 241 231 236 234 242 248 254 255 255 251 241 234 238 238 238 233 242 254 254 253 251 251 249 240 237 235 232 236 240 252 255 254 248 246 247 247 251 248 229 193 151 111 75 60 54 59 67 67 68 69 64 62 60 64 66 62 61 62 67 67 70 71 68 63 60 62 66 69 72 68 67 67 65 67 68 67 61 61 68 70 67 90 161 188 186 185 184 185 185 181 185 187 186 185 185 181 178 179 180 180 177 182 187 186 186 186 188 179 150 136 86 69 69 70 72 72 71 71 71 69 66 66 69 70 70 69 69 70 73 75 73 70 68 66 68 69 69 70 69 69 71 74 76 76 76 74 70 70 70 73 73 75 74 74 73 71 67 62 60 62 70 87 115 156 194 226 247 255 255 244 241 240 238 239 240 251 254 253 253 251 249 241 237 237 236 236 237 250 255 255 255 255 255 246 235 234 235 234 234 244 255 254 254 255 253 246 236 237 238 239 239 240 249 254 255 255 248 246 237 239 240 237 238 239 249 250 250 250 250 250
238 238 238 238 238 239 247 252 255 253 250 250 245 238 233 239 240 235 245 254 255 254 250 250 242 237 234 236 237 236 242 250 255 255 255 247 242 241 245 237 230 234 244 255 252 253 255 255 249 236 235 236 238 241 241 250 251 252 254 253 250 235 230 238 249 251 236 209 150 97 72 58 66 67 64 66 64 62 62 65 66 65 64 67 72 67 66 70 71 70 65 63 60 66 72 67 66 67 68 68 68 67 65 65 66 68 66 77 135 178 180 179 182 183 183 182 185 183 181 182 184 185 186 186 184 184 182 186 185 182 182 183 184 158 115 98 67 63 65 66 71 73 74 75 75 75 72 71 72 71 67 67 69 71 72 71 68 69 68 68 70 72 73 72 70 72 74 76 73 70 67 61 62 67 70 74 73 74 71 69 66 63 60 60 68 83 106 136 173 213 237 253 255 255 255 245 242 238 233 233 237 251 255 255 252 250 250 243 240 238 235 234 238 253 255 253 255 255 255 242 231 232 234 235 236 247 255 255 255 255 253 247 236 236 237 238 237 240 253 255 254 251 255 252 236 230 238 239 236 239 252 253 253 253 253 253
237 237 237 237 237 238 251 247 255 255 246 244 246 245 231 230 240 245 251 249 252 255 254 250 241 238 226 241 237 236 249 255 255 253 251 253 248 238 237 236 234 240 242 248 249 254 255 255 251 238 235 236 239 240 241 251 251 251 253 254 253 236 230 231 240 252 252 252 234 198 158 108 68 55 58 62 64 66 68 65 64 67 70 69 66 68 69 71 72 69 64 63 60 66 69 65 63 63 67 69 68 68 70 74 71 63 59 68 102 154 180 186 186 185 183 184 184 182 182 182 184 186 189 187 184 183 184 190 187 182 181 181 177 131 85 73 64 66 69 70 74 75 74 74 73 73 72 71 70 68 68 70 70 72 70 67 65 69 69 72 74 74 75 74 72 74 75 74 67 62 60 57 64 70 73 74 72 69 66 62 60 62 70 84 107 135 165 195 222 247 255 255 254 253 252 242 240 238 238 237 240 251 253 253 253 255 255 243 237 237 237 238 238 249 253 250 252 255 255 243 234 233 232 234 238 247 252 255 255 251 254 248 234 234 235 234 232 242 255 255 249 251 255 255 237 232 239 239 234 239 253 254 254 254 254 254
237 237 237 237 237 238 252 255 253 255 253 250 234 237 242 234 236 243 252 250 250 255 255 253 238 235 236 242 242 236 243 255 254 250 249 254 252 240 233 232 236 241 244 252 252 253 252 252 250 240 237 238 239 238 243 253 253 254 253 252 248 238 240 237 231 230 235 251 255 255 241 203 143 93 67 60 61 65 66 66 67 69 72 67 59 63 65 67 70 69 66 66 62 64 65 66 65 66 67 65 62 64 68 71 72 64 61 61 73 119 171 188 185 184 184 187 185 183 183 183 182 184 186 185 184 184 182 185 187 187 186 184 162 103 68 63 65 72 73 72 71 70 68 67 67 67 69 69 69 71 73 74 73 72 69 65 65 67 67 72 74 74 73 73 72 71 70 69 65 62 63 67 74 75 72 69 65 61 59 60 67 83 108 137 169 198 222 237 248 255 255 255 253 252 250 240 237 238 238 236 237 248 251 253 254 255 255 240 234 235 237 238 237 248 253 253 254 254 255 245 236 234 235 238 239 243 249 251 252 250 253 246 235 237 237 236 236 244 254 250 251 255 254 246 240 241 236 237 239 241 251 252 252 252 252 252
239 239 239 239 239 240 251 249 251 245 253 255 241 237 243 239 236 237 247 254 250 247 251 254 245 239 246 233 241 248 248 246 245 246 252 255 247 239 237 237 240 241 245 252 252 250 247 246 246 240 240 240 238 237 244 251 252 251 250 252 249 240 242 243 237 232 236 248 252 254 253 254 239 201 145 99 74 61 61 66 69 69 69 69 65 62 61 58 59 64 68 70 69 65 63 67 66 67 69 67 64 65 64 60 62 69 69 63 64 88 142 179 184 182 183 186 184 184 185 185 184 184 184 183 185 184 174 173 178 188 189 181 136 82 67 67 70 74 73 70 67 65 65 65 66 67 69 71 72 75 75 69 69 68 68 69 71 68 69 70 68 68 67 67 68 66 65 66 70 72 75 79 76 69 63 58 57 59 68 83 106 135 170 201 225 241 250 251 251 254 253 253 253 252 249 240 236 236 238 239 239 246 248 249 252 254 254 245 240 238 239 240 240 246 251 254 251 246 246 242 239 242 243 241 238 245 254 250 245 249 249 246 242 241 240 241 244 245 248 249 251 252 247 244 242 242 236 238 238 242 251 252 252 252 252 252
251 251 251 251 251 251 242 230 242 240 236 241 255 249 240 246 255 250 238 236 237 238 238 239 251 255 255 248 244 247 246 240 242 239 240 243 243 246 247 253 255 251 248 240 242 240 237 236 240 251 255 252 249 245 244 240 242 242 240 241 242 247 251 255 255 252 248 242 239 240 243 247 255 255 242 201 155 114 84 66 60 58 58 66 72 68 66 63 60 64 69 69 72 65 61 63 66 67 66 67 70 70 66 58 54 65 68 64 62 68 102 156 185 186 185 183 184 186 187 187 187 185 183 182 184 184 171 164 160 165 167 154 103 74 73 76 76 71 68 68 67 69 70 71 70 68 69 68 65 66 70 70 70 68 69 75 77 76 76 71 67 66 65 63 62 62 63 66 73 76 76 74 62 55 56 62 73 89 112 140 171 200 226 247 254 255 253 250 247 241 241 242 242 241 240 243 243 246 250 252 251 244 241 238 237 236 237 248 252 253 253 253 250 239 236 238 237 232 232 244 255 255 254 252 252 249 242 241 243 244 240 245 255 252 252 251 250 245 241 245 238 233 238 245 249 249 253 254 249 249 241 240 240 240 240 240
250 250 250 250 250 249 242 245 236 239 240 235 247 254 252 255 255 252 240 236 238 238 235 235 250 255 251 255 255 246 242 233 238 242 238 233 240 252 255 255 252 248 244 235 238 238 238 237 241 252 255 255 255 252 247 234 232 237 241 238 240 252 252 253 254 253 251 237 237 238 240 236 233 246 255 255 243 210 164 119 89 67 54 55 64 68 69 69 67 68 72 67 70 63 61 61 67 68 64 63 66 63 64 67 68 69 68 69 65 61 69 114 168 182 182 180 181 183 183 183 185 187 187 185 185 185 169 147 125 107 105 92 63 62 64 66 68 67 66 68 69 72 74 76 76 76 73 68 64 61 61 65 64 64 68 75 79 80 79 71 66 64 63 63 65 68 68 67 69 71 66 59 56 63 80 103 130 158 187 213 232 243 250 255 255 251 248 248 248 240 239 238 236 235 238 251 255 255 255 253 254 245 241 240 236 232 233 249 255 255 255 255 253 241 235 235 234 234 236 248 255 255 254 254 255 245 235 236 237 236 237 244 254 253 253 252 250 245 236 239 238 237 238 242 252 253 252 251 254 250 239 238 238 238 238 238
251 251 251 251 251 250 236 244 231 235 241 239 247 255 255 255 250 249 243 240 239 236 235 237 251 255 251 250 255 255 250 234 230 236 239 236 244 255 255 254 251 251 245 232 233 238 241 242 244 250 250 254 255 254 253 238 231 237 241 236 237 252 248 249 252 255 255 238 234 234 236 234 228 241 248 255 255 255 244 209 173 134 101 73 58 59 59 63 67 65 67 70 72 74 74 64 61 63 63 63 66 65 65 71 74 68 65 68 66 65 62 80 134 178 184 186 187 186 183 181 180 180 181 182 182 185 186 173 146 94 73 67 62 66 65 65 66 67 67 68 69 69 70 71 71 72 70 68 67 65 64 64 65 70 75 74 70 68 64 61 62 63 63 63 64 66 65 62 62 63 66 74 95 122 153 182 205 219 234 244 247 246 246 253 252 251 252 255 255 245 241 238 235 233 237 253 255 255 255 253 251 241 239 240 239 237 238 249 254 254 253 251 251 246 242 240 238 238 235 240 247 250 253 255 254 245 237 235 230 229 237 244 254 254 254 254 254 248 233 234 239 241 238 242 255 255 252 248 254 249 238 238 238 238 238 238
254 254 254 254 254 253 235 231 233 236 235 243 250 249 253 255 252 252 242 237 237 237 237 234 242 254 255 255 252 249 241 240 238 237 240 241 244 251 252 255 255 255 246 233 236 239 241 240 241 250 246 248 251 255 254 241 238 235 235 237 243 255 251 248 249 252 255 245 239 236 236 238 238 249 247 248 255 255 255 251 236 219 192 156 115 90 73 65 62 57 59 63 65 75 77 73 65 64 65 65 65 66 64 63 64 66 70 70 69 69 69 67 99 164 185 192 191 189 186 185 181 176 176 178 178 180 193 195 176 102 65 65 70 70 71 71 71 67 66 65 62 61 61 62 62 61 64 67 69 68 68 65 71 72 68 62 57 57 59 66 69 69 68 66 65 63 62 61 68 79 101 134 171 202 229 246 251 242 241 239 237 235 238 251 254 255 255 255 255 240 235 235 236 238 241 253 254 253 253 254 252 241 237 235 235 235 237 246 249 250 252 251 251 244 242 243 239 231 226 237 250 254 255 255 254 246 240 238 239 238 239 243 251 252 252 252 253 249 238 238 241 239 237 242 255 255 254 252 252 248 238 238 238 238 238 238
255 255 255 255 255 255 242 232 240 238 230 235 253 249 246 251 255 254 244 239 236 235 238 240 244 244 248 255 255 255 241 234 238 239 241 240 244 252 253 251 253 255 253 242 237 232 232 234 242 255 255 251 250 253 248 241 243 237 233 234 241 254 255 255 253 249 247 244 244 238 235 236 242 255 255 250 246 245 255 248 247 249 243 237 217 193 160 123 92 70 58 50 49 57 66 76 72 68 67 66 61 66 69 65 63 67 73 60 60 64 71 71 81 137 174 187 183 185 186 185 184 183 187 190 194 187 180 178 159 93 61 62 63 64 69 71 68 67 68 68 64 63 63 63 63 62 67 69 67 69 71 73 72 65 59 59 60 59 64 73 73 71 69 70 72 72 78 91 113 140 173 212 234 248 255 255 253 239 236 235 236 238 243 255 255 253 250 247 244 232 233 238 243 245 246 252 250 249 251 252 250 239 236 234 235 237 241 252 255 254 252 249 252 244 236 232 226 228 235 248 255 255 254 252 250 245 241 242 245 241 239 242 250 249 249 250 252 248 239 239 238 234 236 244 252 251 255 255 255 251 236 234 234 234 234 234
251 251 251 251 251 251 247 243 246 249 237 229 246 254 247 242 246 248 245 245 245 241 239 243 249 244 238 251 247 254 251 243 240 237 235 238 246 253 255 249 242 245 252 252 246 240 238 240 244 249 249 250 251 248 246 242 240 243 244 243 243 247 248 251 251 249 241 238 241 244 244 241 242 247 255 252 246 251 249 246 249 248 251 246 246 253 247 229 198 163 127 94 70 53 52 59 63 64 71 74 69 65 64 63 63 66 67 53 52 59 65 65 67 91 132 165 177 183 186 186 186 185 186 184 183 160 123 108 94 72 65 65 62 63 66 65 64 66 66 67 67 68 66 64 63 64 68 70 75 79 78 83 72 65 58 56 55 53 59 66 68 71 79 92 106 123 147 174 200 219 236 248 246 243 241 242 242 240 242 244 246 247 248 249 245 241 239 240 242 242 243 245 245 244 243 245 244 243 243 244 246 244 243 243 242 242 243 246 247 245 246 250 253 247 239 234 239 250 255 254 252 252 251 249 248 247 240 237 243 245 243 245 245 244 246 250 250 247 241 238 235 238 243 243 243 246 252 252 251 251 240 239 239 239 239 239
237 237 237 237 237 238 249 250 254 255 255 246 236 243 240 233 238 242 248 249 251 254 255 253 238 231 238 243 234 239 248 252 249 251 254 253 243 233 239 246 243 236 237 248 255 255 255 253 249 236 235 237 238 236 243 252 250 252 253 253 251 242 238 238 238 236 237 249 252 251 250 252 255 243 237 234 236 242 245 253 255 251 253 247 246 244 244 249 246 234 217 203 176 138 106 75 64 59 57 61 65 63 60 63 66 69 69 72 67 67 66 61 61 66 90 124 156 173 180 185 190 194 194 191 177 145 88 66 65 70 74 74 71 68 66 63 61 60 58 59 65 66 64 63 64 69 68 69 75 73 71 67 65 65 62 60 62 66 68 75 90 108 130 153 181 211 232 251 255 255 252 238 233 232 233 236 242 254 255 255 254 254 251 239 237 236 238 240 244 254 254 253 253 251 248 238 235 235 237 238 239 249 251 251 251 253 253 242 235 235 238 240 236 243 250 252 253 253 254 248 242 243 243 241 237 242 248 248 255 255 251 246 237 238 238 238 239 245 255 251 246 252 253 246 236 238 241 238 236 240 252 253 253 253 253 253
237 237 237 237 237 238 250 251 253 251 254 255 243 234 232 240 243 236 242 249 254 255 255 254 243 240 244 241 231 236 250 255 251 250 254 255 246 233 232 234 239 237 244 254 254 251 247 247 246 242 243 243 238 233 235 251 255 255 254 251 247 236 237 241 240 236 238 250 255 255 250 255 255 244 234 235 236 234 239 249 252 250 250 251 253 241 235 233 234 237 242 255 255 246 222 187 155 125 98 80 67 64 64 67 69 64 58 68 70 70 65 61 58 62 71 93 124 148 161 173 184 187 181 173 146 116 67 54 61 64 64 66 70 70 65 65 67 67 67 66 67 66 67 70 73 74 67 61 56 57 60 56 61 65 68 76 90 109 128 151 174 194 210 221 238 255 255 255 255 254 247 234 239 244 245 244 246 254 252 249 248 247 244 233 234 236 238 239 244 254 254 254 254 252 249 238 236 239 241 239 237 249 252 252 253 254 255 244 240 241 239 235 236 249 255 252 245 245 250 247 244 244 241 237 234 240 247 244 251 255 255 248 235 235 236 236 236 242 255 255 255 251 252 252 242 239 239 238 237 240 252 253 253 253 253 253
239 239 239 239 239 240 246 251 247 249 255 252 240 233 235 243 237 230 245 255 255 255 248 248 243 242 236 239 242 241 247 252 250 255 255 255 245 235 241 242 241 239 239 251 254 255 255 255 251 240 232 233 237 240 242 255 255 252 253 255 255 242 233 228 229 235 243 255 255 251 248 248 247 236 231 241 245 243 244 247 248 248 249 252 255 249 238 232 229 233 240 244 255 255 255 255 255 235 209 185 155 121 99 88 78 68 68 61 62 63 63 70 69 64 66 69 77 94 112 130 150 169 179 185 176 153 90 64 60 64 67 66 67 71 70 72 71 69 69 69 62 60 62 65 64 61 61 61 62 67 71 81 95 110 132 158 181 203 220 231 235 237 237 241 252 255 253 246 250 255 255 245 245 239 234 230 233 245 248 253 255 255 255 244 241 237 235 236 241 252 253 253 255 255 255 241 235 234 236 239 241 254 255 252 248 248 250 238 233 232 232 233 237 251 255 255 254 253 250 237 229 233 234 235 236 247 255 249 246 249 255 248 233 233 237 239 239 242 252 255 255 255 255 253 241 240 238 235 237 239 252 253 253 253 253 253
233 233 233 233 233 235 246 255 254 253 255 251 238 240 242 238 234 239 252 251 250 251 250 250 243 243 238 234 235 234 247 250 248 253 255 254 247 239 238 238 235 235 244 253 251 251 252 252 249 239 234 233 237 241 245 254 252 252 253 252 251 243 240 236 232 232 238 252 252 250 253 251 246 236 229 239 244 242 243 249 252 251 248 254 255 247 239 239 237 230 233 242 251 253 255 254 254 250 243 237 236 231 217 199 186 169 151 118 94 84 80 75 66 52 54 58 61 71 79 87 103 132 156 171 181 173 117 85 72 68 69 68 67 65 68 68 68 64 61 62 61 60 62 63 65 71 84 99 114 135 153 174 198 219 235 247 253 254 245 237 237 238 241 242 246 252 252 253 255 255 254 242 233 229 231 233 240 251 253 255 255 255 254 240 238 238 238 241 247 255 255 255 255 255 252 240 238 239 238 236 235 245 249 250 251 251 251 245 243 243 241 239 240 250 255 254 249 246 244 236 232 237 242 245 245 250 255 255 250 252 253 247 237 238 238 236 236 243 253 251 253 255 255 250 237 238 235 233 236 235 253 255 255 255 255 255
238 238 238 238 238 239 252 254 255 240 255 255 241 232 230 238 241 233 244 255 255 251 249 254 249 241 231 239 243 234 247 251 249 253 255 255 244 235 236 238 236 235 246 255 254 249 249 252 250 241 238 239 236 231 239 255 255 253 250 253 252 237 235 235 233 233 240 255 255 254 255 252 252 247 235 240 241 237 240 247 252 253 253 252 252 239 234 235 236 235 241 251 255 250 245 247 250 244 234 235 240 243 244 247 249 253 250 235 226 213 194 170 153 139 125 107 94 84 78 75 81 104 123 142 159 164 138 116 96 72 68 70 75 73 68 70 72 79 84 92 110 125 138 149 165 183 195 207 219 230 240 243 251 255 255 254 253 253 249 241 237 234 235 238 247 252 249 248 250 250 247 242 242 238 239 240 246 255 255 255 252 251 248 238 236 235 233 234 240 253 254 255 255 255 253 241 236 235 235 236 237 252 255 255 253 252 251 241 239 239 234 232 234 249 254 252 249 248 250 243 237 240 239 237 236 247 255 255 251 253 255 249 235 234 235 236 235 237 249 255 255 251 251 252 244 242 237 239 241 242 250 251 251 251 251 251
244 244 244 244 244 244 250 247 249 251 245 245 242 240 240 244 242 236 244 254 253 245 243 250 251 242 233 243 247 246 250 245 242 246 249 247 242 241 246 248 246 241 241 245 247 248 249 248 246 244 243 244 243 243 244 245 246 247 249 250 248 244 242 246 246 241 239 240 251 252 248 244 242 244 246 247 245 245 247 248 248 247 248 245 246 247 245 243 241 242 242 243 245 245 248 250 249 245 243 243 239 235 237 245 249 251 250 250 251 248 240 237 235 233 228 222 219 213 209 205 201 198 193 189 188 190 194 194 191 183 182 183 186 188 185 187 191 201 207 211 221 229 235 241 249 253 252 251 253 253 251 251 250 246 243 241 240 242 248 249 248 247 245 244 244 244 243 242 241 240 241 241 242 243 244 244 247 250 251 250 249 247 247 246 246 244 244 244 246 247 248 250 249 246 244 243 242 241 240 240 241 244 243 242 242 244 247 245 245 245 244 245 246 248 248 247 245 246 247 246 246 247 244 241 240 245 248 245 247 248 250 247 241 240 241 243 243 241 243 247 249 246 245 246 246 244 246 245 243 246 245 245 245 245 245 245
253 253 253 253 253 252 239 236 235 237 239 239 249 253 253 255 254 253 240 236 238 239 237 236 245 254 255 253 251 254 246 237 236 238 238 238 244 252 252 253 253 253 248 237 237 237 236 237 242 253 254 253 252 253 250 238 237 237 237 236 240 253 253 252 252 253 252 241 237 237 236 237 238 249 251 252 253 253 253 242 236 235 234 236 239 250 254 252 252 253 253 244 238 238 237 237 237 246 253 254 253 253 252 247 239 236 237 241 240 242 251 251 252 254 255 252 241 237 236 236 236 239 249 252 253 252 250 248 240 238 238 238 238 240 249 252 253 252 252 251 242 237 237 237 237 238 247 252 252 251 250 251 243 238 237 238 239 240 247 252 253 252 251 250 244 237 237 237 237 239 244 252 254 255 255 254 249 238 236 237 237 238 242 252 253 254 254 254 252 240 237 237 236 237 239 251 254 254 254 254 252 240 236 236 237 237 238 249 253 252 253 254 254 244 238 237 236 237 237 246 253 252 253 253 252 245 235 235 236 237 237 243 253 253 254 254 254 249 238 237 237 237 236 241 252 254 253 252 252 249 239 238 238 238 238 238
253 253 253 253 253 252 239 236 235 237 239 239 249 253 253 255 254 253 240 236 238 239 237 236 245 254 255 253 251 254 246 237 236 238 238 238 244 252 252 253 253 253 248 237 237 237 236 237 242 253 254 253 252 253 250 238 237 237 237 236 240 253 253 252 252 253 252 241 237 237 236 237 238 249 251 252 253 253 253 242 236 235 234 236 239 250 254 252 252 253 253 244 238 238 237 237 237 246 253 254 253 253 252 247 239 236 237 241 240 242 251 251 252 254 255 252 241 237 236 236 236 239 249 252 253 252 250 248 240 238 238 238 238 240 249 252 253 252 252 251 242 237 237 237 237 238 247 252 252 251 250 251 243 238 237 238 239 240 247 252 253 252 251 250 244 237 237 237 237 239 244 252 254 255 255 254 249 238 236 237 237 238 242 252 253 254 254 254 252 240 237 237 236 237 239 251 254 254 254 254 252 240 236 236 237 237 238 249 253 252 253 254 254 244 238 237 236 237 237 246 253 252 253 253 252 245 235 235 236 237 237 243 253 253 254 254 254 249 238 237 237 237 236 241 252 254 253 252 252 249 239 238 238 238 238 238
253 253 253 253 253 252 239 236 235 237 239 239 249 253 253 255 254 253 240 236 238 239 237 236 245 254 255 253 251 254 246 237 236 238 238 238 244 252 252 253 253 253 248 237 237 237 236 237 242 253 254 253 252 253 250 238 237 237 237 236 240 253 253 252 252 253 252 241 237 237 236 237 238 249 251 252 253 253 253 242 236 235 234 236 239 250 254 252 252 253 253 244 238 238 237 237 237 246 253 254 253 253 252 247 239 236 237 241 240 242 251 251 252 254 255 252 241 237 236 236 236 239 249 252 253 252 250 248 240 238 238 238 238 240 249 252 253 252 252 251 242 237 237 237 237 238 247 252 252 251 250 251 243 238 237 238 239 240 247 252 253 252 251 250 244 237 237 237 237 239 244 252 254 255 255 254 249 238 236 237 237 238 242 252 253 254 254 254 252 240 237 237 236 237 239 251 254 254 254 254 252 240 236 236 237 237 238 249 253 252 253 254 254 244 238 237 236 237 237 246 253 252 253 253 252 245 235 235 236 237 237 243 253 253 254 254 254 249 238 237 237 237 236 241 252 254 253 252 252 249 239 238 238 238 238 238
253 253 253 253 253 252 239 236 235 237 239 239 249 253 253 255 254 253 240 236 238 239 237 236 245 254 255 253 251 254 246 237 236 238 238 238 244 252 252 253 253 253 248 237 237 237 236 237 242 253 254 253 252 253 250 238 237 237 237 236 240 253 253 252 252 253 252 241 237 237 236 237 238 249 251 252 253 253 253 242 236 235 234 236 239 250 254 252 252 253 253 244 238 238 237 237 237 246 253 254 253 253 252 247 239 236 237 241 240 242 251 251 252 254 255 252 241 237 236 236 236 239 249 252 253 252 250 248 240 238 238 238 238 240 249 252 253 252 252 251 242 237 237 237 237 238 247 252 252 251 250 251 243 238 237 238 239 240 247 252 253 252 251 250 244 237 237 237 237 239 244 252 254 255 255 254 249 238 236 237 237 238 242 252 253 254 254 254 252 240 237 237 236 237 239 251 254 254 254 254 252 240 236 236 237 237 238 249 253 252 253 254 254 244 238 237 236 237 237 246 253 252 253 253 252 245 235 235 236 237 237 243 253 253 254 254 254 249 238 237 237 237 236 241 252 254 253 252 252 249 239 238 238 238 238 238
253 253 253 253 253 252 239 236 235 237 239 239 249 253 253 255 254 253 240 236 238 239 237 236 245 254 255 253 251 254 246 237 236 238 238 238 244 252 252 253 253 253 248 237 237 237 236 237 242 253 254 253 252 253 250 238 237 237 237 236 240 253 253 252 252 253 252 241 237 237 236 237 238 249 251 252 253 253 253 242 236 235 234 236 239 250 254 252 252 253 253 244 238 238 237 237 237 246 253 254 253 253 252 247 239 236 237 241 240 242 251 251 252 254 255 252 241 237 236 236 236 239 249 252 253 252 250 248 240 238 238 238 238 240 249 252 253 252 252 251 242 237 237 237 237 238 247 252 252 251 250 251 243 238 237 238 239 240 247 252 253 252 251 250 244 237 237 237 237 239 244 252 254 255 255 254 249 238 236 237 237 238 242 252 253 254 254 254 252 240 237 237 236 237 239 251 254 254 254 254 252 240 236 236 237 237 238 249 253 252 253 254 254 244 238 237 236 237 237 246 253 252 253 253 252 245 235 235 236 237 237 243 253 253 254 254 254 249 238 237 237 237 236 241 252 254 253 252 252 249 239 238 238 238 238 238
245 245 245 245 245 245 245 246 246 246 246 246 245 245 245 245 245 245 245 245 246 246 246 246 245 245 246 245 245 245 246 246 246 246 246 246 246 245 245 245 245 245 246 246 246 246 246 246 246 245 245 245 245 245 245 246 246 246 246 246 246 245 245 245 245 245 246 247 246 246 246 247 246 245 244 245 245 245 245 246 246 246 246 246 246 246 245 245 245 245 245 245 246 246 246 246 246 246 245 245 245 245 245 245 246 246 246 246 245 245 245 246 245 245 245 246 246 247 246 246 246 245 245 245 245 245 245 245 246 246 245 245 245 245 245 246 246 245 245 245 246 246 246 246 246 246 245 245 244 244 245 245 245 246 246 246 246 246 245 245 245 245 245 245 245 246 246 246 246 246 246 245 245 245 245 245 245 246 246 246 246 246 246 245 245 245 245 245 245 246 246 246 246 246 246 245 245 245 245 245 245 247 246 246 246 246 246 246 245 245 245 245 245 246 246 246 246 246 246 245 245 245 245 245 245 245 246 246 246 246 246 245 245 245 245 245 245 245 246 246 246 246 246 246 245 245 245 245 245 245 246 246 246 246 246 246
237 237 237 237 237 238 250 253 254 253 252 251 241 237 237 235 236 237 249 254 252 251 253 254 243 236 236 238 238 237 245 253 254 252 252 253 247 238 237 237 237 237 243 253 253 254 253 253 249 237 236 237 238 237 241 252 253 253 253 254 251 238 237 237 237 237 239 251 253 253 254 254 253 242 238 237 237 237 238 249 254 255 255 253 251 241 237 238 238 237 237 245 252 253 254 253 252 245 237 236 237 238 238 243 251 253 254 249 249 247 240 240 239 236 236 240 250 253 254 254 253 250 240 237 236 238 239 242 250 251 250 251 251 250 241 239 238 239 238 239 249 253 253 253 253 252 242 237 237 238 239 238 247 252 253 253 252 251 244 237 237 238 239 240 246 253 253 253 253 252 247 238 236 235 235 236 241 252 253 253 253 253 250 238 236 236 235 235 239 251 253 254 254 254 252 240 236 236 236 237 238 251 254 254 253 253 253 242 237 237 237 236 236 247 252 253 253 253 253 244 238 238 237 237 238 245 254 255 255 253 253 247 237 237 236 236 237 242 253 253 252 253 253 249 238 236 237 238 237 240 252 253 253 253 253 253
237 237 237 237 237 238 250 253 254 253 252 251 241 237 237 235 236 237 249 254 252 251 253 254 243 236 236 238 238 237 245 253 254 252 252 253 247 238 237 237 237 237 243 253 253 254 253 253 249 237 236 237 238 237 241 252 253 253 253 254 251 238 237 237 237 237 239 251 253 253 254 254 253 242 238 237 237 237 238 249 254 255 255 253 251 241 237 238 238 237 237 245 252 253 254 253 252 245 237 236 237 238 238 243 251 253 254 249 249 247 240 240 239 236 236 240 250 253 254 254 253 250 240 237 236 238 239 242 250 251 250 251 251 250 241 239 238 239 238 239 249 253 253 253 253 252 242 237 237 238 239 238 247 252 253 253 252 251 244 237 237 238 239 240 246 253 253 253 253 252 247 238 236 235 235 236 241 252 253 253 253 253 250 238 236 236 235 235 239 251 253 254 254 254 252 240 236 236 236 237 238 251 254 254 253 253 253 242 237 237 237 236 236 247 252 253 253 253 253 244 238 238 237 237 238 245 254 255 255 253 253 247 237 237 236 236 237 242 253 253 252 253 253 249 238 236 237 238 237 240 252 253 253 253 253 253
237 237 237 237 237 238 250 253 254 253 252 251 241 237 237 235 236 237 249 254 252 251 253 254 243 236 236 238 238 237 245 253 254 252 252 253 247 238 237 237 237 237 243 253 253 254 253 253 249 237 236 237 238 237 241 252 253 253 253 254 251 238 237 237 237 237 239 251 253 253 254 254 253 242 238 237 237 237 238 249 254 255 255 253 251 241 237 238 238 237 237 245 252 253 254 253 252 245 237 236 237 238 238 243 251 253 254 249 249 247 240 240 239 236 236 240 250 253 254 254 253 250 240 237 236 238 239 242 250 251 250 251 251 250 241 239 238 239 238 239 249 253 253 253 253 252 242 237 237 238 239 238 247 252 253 253 252 251 244 237 237 238 239 240 246 253 253 253 253 252 247 238 236 235 235 236 241 252 253 253 253 253 250 238 236 236 235 235 239 251 253 254 254 254 252 240 236 236 236 237 238 251 254 254 253 253 253 242 237 237 237 236 236 247 252 253 253 253 253 244 238 238 237 237 238 245 254 255 255 253 253 247 237 237 236 236 237 242 253 253 252 253 253 249 238 236 237 238 237 240 252 253 253 253 253 253
237 237 237 237 237 238 250 253 254 253 252 251 241 237 237 235 236 237 249 254 252 251 253 254 243 236 236 238 238 237 245 253 254 252 252 253 247 238 237 237 237 237 243 253 253 254 253 253 249 237 236 237 238 237 241 252 253 253 253 254 251 238 237 237 237 237 239 251 253 253 254 254 253 242 238 237 237 237 238 249 254 255 255 253 251 241 237 238 238 237 237 245 252 253 254 253 252 245 237 236 237 238 238 243 251 253 254 249 249 247 240 240 239 236 236 240 250 253 254 254 253 250 240 237 236 238 239 242 250 251 250 251 251 250 241 239 238 239 238 239 249 253 253 253 253 252 242 237 237 238 239 238 247 252 253 253 252 251 244 237 237 238 239 240 246 253 253 253 253 252 247 238 236 235 235 236 241 252 253 253 253 253 250 238 236 236 235 235 239 251 253 254 254 254 252 240 236 236 236 237 238 251 254 254 253 253 253 242 237 237 237 236 236 247 252 253 253 253 253 244 238 238 237 237 238 245 254 255 255 253 253 247 237 237 236 236 237 242 253 253 252 253 253 249 238 236 237 238 237 240 252 253 253 253 253 253
237 237 237 237 237 238 250 253 254 253 252 251 241 237 237 235 236 237 249 254 252 251 253 254 243 236 236 238 238 237 245 253 254 252 252 253 247 238 237 237 237 237 243 253 253 254 253 253 249 237 236 237 238 237 241 252 253 253 253 254 251 238 237 237 237 237 239 251 253 253 254 254 253 242 238 237 237 237 238 249 254 255 255 253 251 241 237 238 238 237 237 245 252 253 254 253 252 245 237 236 237 238 238 243 251 253 254 249 249 247 240 240 239 236 236 240 250 253 254 254 253 250 240 237 236 238 239 242 250 251 250 251 251 250 241 239 238 239 238 239 249 253 253 253 253 252 242 237 237 238 239 238 247 252 253 253 252 251 244 237 237 238 239 240 246 253 253 253 253 252 247 238 236 235 235 236 241 252 253 253 253 253 250 238 236 236 235 235 239 251 253 254 254 254 252 240 236 236 236 237 238 251 254 254 253 253 253 242 237 237 237 236 236 247 252 253 253 253 253 244 238 238 237 237 238 245 254 255 255 253 253 247 237 237 236 236 237 242 253 253 252 253 253 249 238 236 237 238 237 240 252 253 253 253 253 253
