P2
256 256
255
250 252 251 245 251 252 251 250 252 252 249 252 252 252 252 252 253 253 253 254 254 254 255 255 255 255 254 253 252 252 251 250 249 250 250 250 250 251 251 251 252 254 255 255 255 255 255 252 253 253 254 255 255 255 254 252 251 251 252 253 254 255 255 255 255 255 254 253 252 252 253 253 253 254 254 254 253 250 249 249 250 251 252 252 252 251 250 250 250 251 252 253 253 252 252 251 251 251 250 253 254 255 255 255 255 254 253 252 252 253 255 254 253 253 255 255 255 255 255 253 252 252 252 251 251 251 252 253 251 248 247 249 252 253 252 251 254 255 255 255 255 255 255 255 255 255 255 255 255 255 255 255 254 254 252 250 250 250 253 254 254 253 253 253 255 255 255 254 254 254 253 253 255 255 255 252 254 254 254 255 254 253 252 255 255 254 249 252 253 253 252 253 254 254 255 254 253 253 249 249 250 253 254 253 252 252 251 251 251 253 255 255 253 251 249 249 251 251 252 252 253 254 254 254 254 254 254 254 253 253 253 254 255 255 255 255 255 255 255 254 254 254 253 253 253 254 254 254 254 254 254 254 254 255 255 255
250 251 250 245 252 253 251 250 252 252 249 252 252 252 252 253 253 253 254 254 254 255 255 255 255 255 254 253 253 253 252 251 250 251 251 251 251 251 252 252 252 254 255 255 255 255 255 254 254 254 254 255 255 255 254 252 252 253 254 255 255 255 255 255 255 255 254 253 252 253 253 254 254 255 255 255 254 251 250 250 252 254 254 254 254 253 252 253 252 253 254 254 254 254 253 253 253 252 251 254 255 255 255 255 255 255 254 253 252 252 254 255 255 255 255 255 255 255 255 253 252 252 253 253 253 253 254 255 253 250 249 250 253 253 252 250 253 255 255 255 254 254 253 254 254 254 255 255 255 255 255 253 252 253 251 249 248 248 251 253 253 252 252 253 254 255 255 254 254 254 253 252 255 255 252 249 251 252 253 253 252 251 249 253 254 252 248 252 254 254 254 254 255 255 255 255 254 254 251 250 252 255 255 255 254 254 253 253 252 255 255 255 255 252 250 251 252 253 252 253 254 254 254 254 255 255 255 255 255 255 254 254 255 255 254 254 253 254 253 253 254 253 253 252 253 254 254 254 254 254 254 254 254 255 255 255
248 250 233 196 201 201 199 199 201 201 199 201 201 201 201 201 201 201 202 202 203 203 203 204 205 205 205 206 206 207 207 207 207 209 209 209 208 208 208 208 208 208 209 210 210 210 211 210 210 210 210 210 211 211 212 213 213 213 214 213 213 212 211 211 210 210 209 208 208 208 208 209 210 211 211 211 210 210 209 209 210 211 210 210 209 209 209 209 209 210 211 211 210 210 210 210 209 208 206 206 206 206 206 207 207 207 206 206 206 205 208 208 208 208 209 210 211 211 210 209 209 210 209 209 210 211 212 213 209 207 206 207 209 210 209 208 211 212 213 212 212 211 211 213 213 213 213 215 215 215 215 214 213 213 211 211 211 211 210 209 206 207 208 210 212 215 217 216 215 214 212 212 213 213 212 210 210 210 210 211 210 208 206 208 210 210 208 212 213 213 212 211 210 209 210 211 211 211 209 209 210 212 212 211 209 208 207 206 206 206 206 206 206 205 205 206 208 208 208 208 208 209 208 208 208 208 207 207 207 207 207 209 209 210 211 211 212 213 214 214 214 215 214 213 213 214 215 216 217 219 220 221 222 244 254 254
246 246 190 70 69 68 67 68 68 69 70 70 71 71 70 69 68 67 67 67 69 69 69 71 74 78 81 84 87 88 89 91 93 100 102 101 97 95 94 93 91 90 91 92 89 89 90 94 94 95 96 96 98 101 105 109 109 109 107 104 102 100 98 96 94 92 92 93 93 93 92 93 94 95 95 96 97 102 103 102 99 96 94 91 89 91 93 95 96 98 99 99 96 95 95 96 94 91 86 81 78 76 75 76 79 82 84 85 85 86 88 87 84 80 81 83 88 91 92 94 98 99 96 93 95 100 101 98 92 90 90 91 95 97 99 102 104 104 104 106 106 106 108 112 112 112 111 112 113 115 117 118 117 114 113 115 118 119 109 99 90 94 97 100 105 113 119 122 117 112 109 109 108 111 113 115 110 106 104 106 107 105 100 98 101 105 109 106 105 105 102 96 90 87 89 93 97 100 100 99 98 98 96 93 90 87 85 85 87 78 74 74 78 84 89 93 94 94 93 92 92 91 90 87 84 81 78 79 80 82 86 91 94 97 102 106 110 112 115 115 114 116 114 113 113 114 116 120 123 128 133 136 138 213 248 248
245 245 189 70 69 67 66 67 67 68 69 69 69 69 68 67 66 65 65 65 66 66 66 67 70 73 77 81 84 86 88 90 93 98 101 100 97 95 95 94 92 90 90 91 89 90 92 96 96 97 97 96 98 100 104 108 109 109 107 105 101 99 97 96 94 92 92 92 93 93 93 94 95 96 96 97 98 103 103 102 101 100 98 95 93 95 97 97 98 99 101 101 98 97 97 97 95 92 87 82 80 78 77 78 81 83 86 87 87 88 91 91 89 86 86 88 92 96 96 96 98 99 97 95 98 102 103 101 95 93 93 95 98 100 101 103 105 105 104 105 104 103 104 107 107 106 104 105 106 107 109 110 110 108 108 110 112 113 106 98 91 94 96 100 104 111 116 118 114 110 108 108 107 107 108 109 105 102 101 103 103 100 96 95 97 102 107 107 107 108 106 100 94 91 93 96 99 101 102 101 100 100 99 97 95 90 88 88 89 79 74 73 77 82 87 91 94 94 93 92 92 91 90 87 85 82 80 80 80 81 85 88 90 92 96 99 103 106 109 110 110 112 110 109 109 110 112 116 120 125 129 132 134 212 247 247
248 248 191 69 68 66 64 65 65 66 66 66 66 66 65 64 63 62 62 62 62 63 62 63 66 69 73 77 80 82 85 87 90 96 98 98 95 93 93 92 90 88 88 90 88 88 90 94 94 94 94 93 94 97 101 105 106 106 105 102 99 96 94 94 92 90 90 91 92 91 91 93 94 95 95 95 96 101 102 101 101 100 98 95 93 95 97 97 97 99 100 100 98 97 97 96 95 91 87 82 79 77 76 78 80 82 85 86 85 86 90 90 89 86 86 87 91 96 97 98 100 101 99 97 99 102 102 100 95 94 94 95 97 99 100 101 103 102 100 102 101 100 101 105 105 104 103 104 105 107 109 110 110 108 108 109 110 110 105 98 90 92 94 98 103 110 114 116 112 109 107 107 105 106 106 106 102 100 99 101 101 98 94 93 95 99 104 104 105 106 104 98 94 91 94 97 100 102 103 102 100 100 99 97 95 90 88 88 89 78 72 71 74 80 86 91 94 94 93 92 91 90 89 86 83 80 78 78 78 79 82 85 87 89 94 97 101 103 107 108 108 110 108 107 107 108 111 114 118 123 128 131 133 213 250 250
253 252 193 65 64 62 61 61 61 62 62 62 62 61 61 59 58 57 56 57 57 58 57 59 62 65 69 73 76 78 80 82 85 91 94 94 91 89 88 88 86 84 84 87 85 85 85 89 88 89 89 88 89 92 96 100 102 102 101 98 94 91 90 90 89 87 87 88 88 88 88 89 91 91 91 91 93 97 99 98 97 96 94 91 89 91 93 93 94 95 97 97 95 94 93 93 91 88 83 78 75 73 72 73 76 78 81 81 81 82 85 86 85 81 81 83 86 91 94 96 100 101 98 96 97 99 99 96 92 91 91 91 94 95 96 98 99 98 96 98 98 98 99 104 106 106 105 106 107 109 111 112 112 110 109 110 110 110 105 96 87 89 91 95 101 107 112 114 110 106 105 105 104 105 105 105 101 98 97 99 100 98 94 92 93 96 100 99 100 101 99 94 89 87 91 95 98 101 101 99 97 96 95 92 90 86 85 85 85 74 67 65 69 76 83 89 92 92 91 90 88 87 85 82 79 76 73 73 73 74 77 81 84 86 92 96 100 102 105 106 106 108 106 105 105 106 109 112 116 122 126 130 132 216 255 255
252 251 192 65 63 61 59 60 61 61 62 62 62 61 60 59 58 57 57 57 57 57 56 58 61 65 69 73 75 78 80 82 84 91 94 95 93 90 89 89 87 84 83 85 85 86 87 90 90 91 92 92 93 95 98 102 104 104 103 101 98 95 92 91 90 87 87 88 89 89 90 91 93 93 93 93 94 97 97 95 95 96 94 92 91 93 94 93 92 94 96 96 93 92 92 91 90 88 84 79 77 75 74 76 78 80 82 84 85 85 88 89 87 84 85 87 91 95 95 95 94 94 93 92 94 100 102 100 94 92 93 95 99 102 105 106 107 107 106 107 107 106 106 108 108 107 105 106 106 107 108 108 109 108 108 109 110 111 109 102 93 92 93 96 102 108 112 113 110 108 108 108 107 106 106 105 103 101 100 103 102 99 95 94 95 98 103 104 105 106 105 100 96 93 94 96 98 100 101 99 96 96 95 94 93 88 86 87 88 75 68 66 68 75 81 86 88 89 89 88 86 85 83 81 78 76 73 73 72 73 77 79 80 82 86 89 93 95 98 100 100 102 100 99 100 101 103 107 111 116 120 123 125 213 254 254
252 252 192 64 63 61 59 59 60 60 61 60 60 60 59 57 56 56 55 55 55 55 55 57 60 63 67 71 73 75 77 80 82 88 92 92 90 88 87 86 84 81 81 83 83 83 84 87 87 88 88 88 89 91 94 98 99 100 98 96 93 90 88 88 86 84 84 85 86 86 86 88 89 90 89 90 91 95 95 94 94 94 92 90 88 90 91 90 90 92 94 95 93 91 90 89 88 85 82 77 74 73 72 73 76 78 80 82 82 83 86 86 84 81 81 83 87 92 93 94 95 96 94 93 95 99 100 98 92 92 92 94 98 101 103 105 105 105 103 104 104 103 104 107 107 106 105 106 106 107 108 109 109 108 108 109 109 110 106 99 91 91 92 95 102 107 111 111 107 105 105 106 104 105 105 105 102 100 100 102 102 99 95 93 94 97 102 101 102 103 102 97 92 89 91 94 97 99 99 97 95 95 94 92 90 86 85 85 86 73 66 63 66 73 80 85 87 88 88 87 86 85 83 80 78 75 73 73 73 74 77 80 82 83 88 91 95 97 100 100 100 102 101 100 100 101 103 107 111 116 120 124 126 214 254 254
252 252 192 64 62 60 58 59 59 59 60 59 59 59 58 56 55 54 54 54 54 55 54 55 58 61 65 69 71 73 75 78 80 86 89 89 87 85 84 84 82 79 79 81 80 80 82 85 84 85 85 84 84 87 91 95 97 97 96 93 90 87 85 85 84 82 82 83 84 84 84 85 87 88 87 87 88 93 94 94 93 93 91 89 87 88 89 88 89 91 93 94 92 91 90 88 87 84 80 75 72 71 70 71 73 75 78 79 79 80 83 83 82 79 79 81 85 90 92 94 96 98 96 94 95 99 99 97 93 92 92 93 97 99 100 102 103 102 100 101 101 100 101 106 106 106 105 106 106 107 109 110 110 108 108 108 108 108 104 96 87 89 91 94 101 106 109 109 104 101 101 103 102 102 103 103 101 99 98 101 100 98 94 91 92 95 99 99 100 101 99 93 89 87 89 93 96 99 99 97 94 94 93 91 89 85 85 85 85 72 64 61 65 72 79 84 87 88 88 87 85 84 83 80 77 75 72 73 73 75 78 80 82 84 89 92 96 98 100 101 100 102 100 99 99 101 103 107 111 116 121 124 126 214 254 254
251 250 191 63 61 59 57 57 58 58 59 58 58 58 57 55 54 54 53 53 53 53 52 54 56 60 64 67 70 72 74 77 79 85 89 90 88 85 84 84 82 78 77 79 80 81 83 87 86 86 86 85 86 88 92 97 99 99 99 97 93 90 87 87 85 83 84 85 86 86 87 88 90 91 90 90 91 94 94 93 93 94 92 89 88 89 90 89 89 91 93 93 92 90 89 88 86 83 79 74 72 71 69 71 73 74 77 79 79 79 82 83 82 79 80 82 86 90 92 92 92 93 92 91 94 99 101 99 94 93 94 96 100 102 104 106 107 106 104 106 105 104 104 108 108 107 106 106 106 106 107 107 107 107 107 107 107 108 105 98 89 89 90 94 100 104 107 107 104 103 104 106 104 103 103 103 102 100 100 102 101 98 94 92 93 95 100 100 102 103 102 97 92 90 91 93 96 98 99 96 93 93 92 92 91 87 86 86 87 73 65 62 64 71 77 82 85 86 86 85 83 82 80 78 76 74 72 73 73 74 77 79 79 80 84 86 90 92 94 95 95 97 96 95 96 97 99 103 107 112 116 119 121 211 253 253
253 252 192 62 60 58 56 56 56 57 57 57 57 56 55 54 53 52 52 52 52 51 50 51 54 57 62 65 68 71 74 76 78 84 87 88 86 84 84 84 81 78 77 79 79 80 82 86 85 85 85 84 85 86 90 95 96 97 96 94 91 88 86 85 84 81 82 84 85 85 86 87 89 90 89 89 90 93 94 93 93 93 91 89 87 88 89 88 89 90 93 93 92 90 89 87 85 83 79 75 72 71 70 72 74 75 78 80 80 80 84 84 83 80 80 81 84 89 91 93 93 94 93 92 94 99 101 99 94 93 94 95 98 101 103 105 105 104 102 103 103 102 103 107 107 107 106 106 106 107 107 108 108 107 107 108 108 108 104 97 89 89 90 93 98 102 105 106 104 103 104 106 104 103 103 104 102 101 100 102 101 98 94 92 92 95 99 100 101 103 101 96 92 89 91 93 96 97 98 95 92 92 91 90 89 85 83 83 83 70 62 59 61 68 74 80 82 83 83 83 82 81 80 78 76 74 73 73 73 73 76 78 78 79 82 85 88 90 93 94 94 96 95 94 95 96 98 102 106 110 115 118 120 212 254 254
254 253 192 61 59 57 55 55 55 56 56 56 56 56 55 53 52 52 51 51 51 50 49 50 53 56 61 65 68 71 73 76 78 83 86 87 85 83 83 84 81 78 77 79 79 80 82 86 85 84 84 84 84 86 89 94 95 96 95 93 90 87 85 84 83 80 81 83 84 84 85 86 88 89 88 88 89 93 93 93 93 93 91 88 86 88 88 88 88 90 92 93 91 90 88 87 85 82 79 75 72 71 70 72 74 76 78 80 80 81 84 85 83 80 80 81 84 89 91 93 94 94 93 92 94 99 101 99 93 93 93 95 98 100 102 104 105 103 101 102 102 101 102 106 107 106 105 106 106 107 108 108 108 107 107 108 108 108 104 97 90 89 89 92 97 101 104 105 104 103 104 105 104 104 103 104 102 101 100 102 101 99 94 92 92 95 99 100 101 103 101 96 92 89 91 93 95 97 97 95 92 91 90 89 88 84 82 81 81 68 60 58 60 66 73 78 80 81 82 81 80 80 79 77 75 74 72 72 72 73 76 77 78 78 81 84 87 89 92 93 94 96 94 94 94 95 98 101 105 110 114 117 119 212 255 255
253 253 192 61 59 57 55 55 55 55 56 55 56 55 54 53 52 51 51 50 50 50 49 50 52 56 60 64 67 70 73 75 77 83 86 87 85 83 83 83 81 77 76 78 78 79 82 85 84 84 84 83 84 86 89 94 95 96 95 93 89 87 84 84 82 80 81 82 84 84 84 86 88 89 88 88 89 93 93 93 93 93 91 88 86 88 88 87 88 90 92 93 91 90 89 87 85 82 79 74 72 71 70 72 74 75 78 80 80 81 84 84 83 80 80 81 85 89 91 92 93 94 93 92 94 99 100 98 93 92 93 95 98 100 102 104 104 103 101 102 102 101 102 106 106 106 104 105 105 106 107 107 107 106 107 107 107 107 103 97 89 89 89 92 97 101 104 105 103 103 104 105 104 103 103 103 102 100 99 102 101 98 94 92 92 95 99 99 101 102 101 96 92 89 90 92 95 96 97 94 91 90 90 89 88 84 82 82 81 68 61 58 60 66 73 78 80 81 81 81 80 79 78 76 74 73 71 71 71 72 75 76 77 77 81 83 86 88 91 93 93 95 94 93 93 95 97 100 104 109 113 116 118 212 255 255
253 252 192 61 58 56 54 54 54 55 55 55 55 54 53 52 51 50 50 50 50 49 48 50 52 55 60 63 66 69 72 75 77 82 85 86 84 82 82 82 80 76 75 77 78 79 81 84 84 84 84 83 84 85 89 94 95 95 94 93 89 86 84 83 82 80 80 82 83 83 84 86 88 89 88 88 89 93 93 92 92 93 91 88 87 88 88 87 87 89 92 93 91 90 89 87 85 83 80 75 72 71 70 71 73 75 78 80 80 80 83 84 83 80 80 82 85 90 91 92 92 93 92 92 94 98 100 98 92 92 92 94 97 100 101 103 104 102 101 102 102 101 102 106 106 105 104 104 105 105 106 106 106 105 106 106 106 106 103 97 89 88 89 91 97 101 104 105 103 102 103 104 103 103 102 102 100 99 99 101 100 98 94 92 92 94 99 99 100 102 100 95 91 88 89 91 93 95 95 93 90 89 89 88 88 83 82 81 82 69 61 58 60 66 72 77 79 80 80 80 78 77 77 75 73 71 69 69 69 70 73 75 75 76 79 82 85 87 90 91 91 93 92 91 92 93 95 99 103 107 112 115 117 211 255 255
253 252 191 60 58 55 53 54 54 54 55 54 54 53 53 51 50 49 49 49 49 49 48 49 52 55 59 63 66 68 71 74 76 81 85 85 83 81 81 81 79 75 74 77 77 78 80 84 83 83 83 82 83 85 89 93 95 95 94 93 89 86 83 83 81 79 80 81 83 83 84 86 88 89 88 88 89 92 93 92 92 93 91 88 87 87 88 86 87 89 92 92 91 90 89 87 86 83 80 75 72 71 70 71 73 75 78 79 80 80 83 83 82 80 80 82 86 90 91 91 92 93 92 91 93 97 98 97 91 91 91 93 97 99 101 102 102 102 101 102 102 102 103 106 107 106 105 105 105 105 106 106 106 105 106 106 106 106 102 96 89 88 88 91 96 101 104 104 102 101 102 104 103 102 101 101 99 98 98 100 100 98 94 92 93 95 99 99 100 101 100 95 90 87 88 90 92 94 95 92 89 88 88 88 87 83 82 82 82 69 61 58 60 66 72 76 78 79 79 78 76 75 74 72 70 68 66 67 67 68 71 73 74 75 78 81 84 86 89 90 90 92 90 90 90 92 94 97 101 106 110 113 115 210 254 254
252 252 191 60 58 55 53 54 54 54 54 54 54 53 52 51 50 49 49 49 49 49 48 49 51 54 59 62 65 68 71 73 75 81 84 85 83 81 80 80 79 75 74 77 77 79 80 84 83 83 83 82 83 85 89 93 95 95 94 93 89 86 83 83 81 79 80 81 83 83 84 86 88 89 88 88 89 92 93 92 92 93 91 88 87 87 87 86 87 89 92 93 91 90 89 87 86 83 80 75 72 71 70 71 73 75 78 79 80 80 83 83 82 80 80 82 86 90 91 91 91 93 92 91 93 97 98 96 91 91 91 93 97 99 101 102 102 101 101 103 103 102 103 107 107 106 105 105 105 105 106 106 106 105 105 106 105 105 102 96 89 88 88 90 96 101 104 104 102 101 102 103 102 102 101 100 99 97 98 100 100 98 94 92 93 95 99 99 100 101 100 95 90 87 88 90 92 94 94 92 88 87 87 87 87 83 82 82 83 69 61 58 59 65 71 76 78 78 78 77 75 74 73 71 69 67 65 65 66 67 70 72 74 74 78 80 83 85 88 89 89 91 90 89 89 91 93 96 100 105 109 112 114 210 254 254
252 251 190 60 57 55 53 53 53 53 54 53 53 52 51 50 49 48 48 48 48 48 47 48 50 53 58 62 64 67 70 73 75 80 83 84 82 79 79 79 78 74 73 76 77 78 79 83 82 82 82 81 82 84 88 92 94 94 93 92 89 85 83 82 81 79 79 81 82 82 83 86 88 89 88 88 89 92 92 92 92 93 91 88 87 87 87 86 86 89 91 92 91 90 89 87 86 83 80 75 72 70 70 71 73 75 77 79 80 80 83 83 82 80 81 83 86 91 91 91 91 93 92 91 93 96 97 95 90 90 90 92 95 97 99 100 100 99 99 101 101 102 103 107 108 107 106 106 106 106 107 106 106 105 106 105 105 104 102 96 88 86 86 89 95 100 103 103 100 99 101 102 101 101 100 99 97 96 96 99 99 97 94 93 93 95 99 98 99 100 99 94 89 86 87 88 90 93 93 90 87 86 86 86 86 82 81 81 82 68 60 57 58 64 70 75 77 77 77 76 74 73 72 69 67 65 63 63 64 65 68 70 72 73 76 79 82 84 86 87 87 89 88 87 88 89 91 95 99 103 108 111 113 209 253 253
251 250 190 59 57 54 52 53 53 53 53 52 52 51 50 49 48 47 47 47 47 47 46 47 50 53 57 61 63 66 69 72 74 79 82 83 81 78 78 78 77 73 72 75 76 77 78 82 81 81 81 80 81 83 87 92 93 94 93 91 88 85 82 82 81 79 79 81 82 82 83 86 88 89 88 88 89 92 92 91 92 93 91 88 87 87 87 85 86 88 91 91 91 90 89 87 86 83 80 75 72 70 69 71 73 75 77 79 80 80 83 83 83 81 81 83 86 90 91 90 91 92 91 91 92 95 95 94 90 89 89 91 94 96 97 98 98 97 97 99 100 100 101 106 107 107 106 106 106 106 106 106 105 105 105 105 104 104 101 95 88 86 85 88 95 100 102 103 100 99 100 102 101 100 99 98 96 95 96 98 98 97 94 92 93 95 99 98 98 99 98 93 89 86 86 87 89 91 92 89 86 85 85 85 85 82 81 81 82 68 60 57 58 64 70 75 76 77 77 76 74 73 71 69 67 64 62 62 63 64 67 69 71 72 75 78 81 83 85 86 86 88 87 86 86 88 90 94 97 102 106 109 112 208 252 252
250 250 189 59 56 54 52 52 52 52 52 52 51 51 50 48 47 47 46 47 47 46 46 47 49 52 57 60 63 66 69 72 74 79 82 82 80 77 77 78 77 73 72 75 75 76 78 82 81 82 81 80 81 83 87 91 93 93 92 91 88 85 82 82 81 79 79 81 82 82 83 86 88 89 88 88 89 92 92 92 92 93 91 88 87 87 87 85 86 88 91 91 91 90 89 87 86 83 80 75 72 70 70 71 73 75 78 80 80 80 83 84 83 81 81 83 86 90 90 90 90 92 91 90 92 94 95 93 89 89 89 90 93 94 95 96 96 95 95 97 98 98 100 104 106 105 105 105 104 105 105 105 105 104 104 104 103 102 100 95 87 85 85 88 94 99 102 102 99 98 99 101 100 100 99 97 96 95 95 98 97 96 93 92 92 95 99 98 99 100 98 93 89 86 86 87 89 91 92 89 85 85 85 85 85 82 80 81 81 68 60 56 58 64 70 74 76 76 76 75 74 72 71 69 67 64 62 62 62 63 66 68 70 71 74 77 80 82 84 85 85 87 86 85 86 87 90 93 97 101 106 109 111 207 252 252
249 249 188 58 56 53 51 52 52 51 52 51 51 50 49 48 47 46 46 46 46 46 45 46 48 51 55 59 62 65 68 71 73 78 81 81 79 77 77 78 76 72 71 74 74 75 78 82 81 81 81 80 80 82 86 91 92 92 91 90 87 84 81 81 80 78 79 81 82 82 83 85 88 89 88 88 89 92 92 92 93 93 91 88 87 87 87 85 85 88 90 91 91 90 89 87 86 83 80 75 72 70 70 71 73 75 78 80 80 80 83 84 83 81 81 82 86 90 90 89 90 91 90 90 91 93 94 92 89 88 88 89 92 93 94 95 95 94 93 96 96 97 98 103 104 104 103 103 103 103 103 103 103 102 103 102 101 101 99 94 87 85 85 87 94 98 101 101 98 97 99 101 100 99 98 96 95 94 95 97 97 95 93 92 92 95 98 98 98 99 98 93 88 85 85 87 89 91 92 89 85 84 85 85 85 81 80 80 81 67 59 56 58 63 69 73 75 76 76 75 74 72 71 69 67 64 62 62 62 63 65 68 69 71 74 76 79 81 83 84 84 86 85 85 85 86 89 92 96 100 105 108 110 206 251 251
249 248 188 58 56 53 51 51 51 51 51 51 50 50 49 47 46 46 45 45 45 45 44 45 47 50 55 58 61 64 68 71 73 77 80 80 78 76 76 77 76 72 71 74 74 75 77 81 81 81 81 79 80 82 86 90 92 92 91 89 86 83 81 81 80 78 79 81 82 82 83 85 88 88 88 88 89 92 92 92 93 94 92 89 87 87 86 84 85 87 90 91 90 90 89 87 85 83 80 75 72 71 69 71 73 75 78 80 80 80 84 85 84 82 81 82 85 90 90 89 89 91 90 89 90 93 93 92 88 88 88 89 91 92 93 93 93 92 92 94 95 95 96 101 102 102 101 101 101 102 102 102 102 101 102 101 100 100 98 94 87 84 84 87 94 98 101 101 98 97 98 100 100 99 98 96 95 94 94 97 96 95 92 91 92 94 98 97 98 99 97 92 88 85 85 86 88 90 91 89 85 85 85 85 85 81 80 80 81 67 59 56 57 63 69 73 75 76 76 75 74 73 71 69 67 64 62 62 62 62 65 67 69 70 73 76 79 80 83 84 84 86 85 84 84 86 88 92 95 100 104 107 110 206 250 250
248 248 187 57 55 52 50 51 51 51 51 50 50 50 49 47 46 45 45 45 45 44 43 45 47 50 55 58 62 64 68 70 72 77 80 80 78 76 76 77 76 72 72 74 74 75 77 81 81 81 81 80 81 83 87 91 92 93 92 90 87 84 82 82 81 80 80 82 83 83 84 86 89 89 89 88 89 92 92 92 93 94 92 89 88 88 88 86 86 88 91 92 91 90 90 89 87 85 82 77 74 72 71 73 75 76 79 80 81 81 85 85 85 82 81 82 84 88 88 88 88 89 88 88 89 92 92 91 88 88 88 88 91 92 92 93 93 92 91 94 94 94 95 100 101 101 100 100 100 100 101 101 101 100 100 99 98 98 97 92 85 83 83 86 92 98 101 101 98 97 98 100 99 98 97 95 94 93 93 95 95 94 91 91 92 94 98 97 97 98 97 92 87 84 85 86 87 89 91 88 85 85 84 84 84 80 78 79 80 66 58 55 57 62 68 73 75 76 76 75 74 73 72 69 66 64 62 61 60 61 63 66 67 69 72 75 78 80 83 84 83 86 85 84 84 86 88 92 95 100 104 107 109 205 249 249
247 247 187 57 54 52 50 51 51 51 51 50 50 50 49 47 46 45 45 45 45 44 43 45 47 50 55 59 62 65 68 71 73 77 80 80 77 75 76 77 76 74 73 75 75 75 77 81 81 82 82 81 82 84 88 92 93 93 92 91 88 86 84 84 83 82 82 83 84 84 85 88 90 91 90 90 91 93 93 93 94 96 95 93 92 92 91 89 90 92 94 95 95 95 96 96 95 93 91 85 82 80 79 80 81 83 84 85 84 84 86 87 86 83 82 81 82 85 86 86 86 87 87 87 88 91 91 90 88 89 89 88 90 90 91 91 91 91 90 92 92 92 93 98 99 99 99 99 99 100 101 100 99 98 98 96 94 96 95 90 83 80 80 83 90 97 101 102 99 97 98 99 98 97 96 94 92 91 92 94 93 93 91 91 92 95 98 96 96 97 95 91 87 84 85 85 86 87 89 87 85 85 84 82 81 78 77 77 79 65 58 54 56 61 67 72 75 76 76 75 74 73 72 69 66 63 60 59 58 58 60 63 65 67 70 73 76 78 81 83 83 85 84 83 84 85 88 91 95 99 103 106 109 204 249 249
248 248 188 58 55 54 52 52 52 52 52 51 51 50 50 48 46 45 45 45 46 45 44 45 47 50 54 58 61 64 68 71 73 78 79 78 74 74 75 77 76 74 73 74 73 74 77 81 82 82 81 80 81 83 86 89 89 90 90 89 87 85 83 83 83 82 82 82 83 83 85 88 90 91 91 92 94 96 97 98 102 105 105 103 103 103 100 97 98 100 103 104 106 108 110 112 112 112 110 105 101 98 96 96 97 98 97 95 92 88 90 90 88 86 82 79 78 80 82 83 86 89 90 91 92 93 91 89 90 93 93 91 91 90 89 88 89 89 89 90 89 89 90 94 96 96 97 98 99 100 101 100 99 97 97 94 91 93 91 87 83 80 80 83 88 96 102 104 101 98 96 97 96 95 94 91 89 90 92 93 93 92 91 90 93 96 98 95 94 95 94 90 87 86 86 85 84 84 85 85 85 86 84 81 79 77 77 77 79 67 60 56 57 61 66 70 73 75 75 74 73 73 73 70 66 63 60 59 58 57 58 61 63 64 68 71 74 76 79 81 81 83 82 82 82 84 86 89 93 97 101 104 106 204 250 250
249 249 189 59 55 54 52 51 52 51 51 50 50 50 49 47 45 44 44 45 46 46 44 45 47 49 54 58 61 64 68 71 75 79 78 75 70 71 73 75 74 75 76 75 74 76 78 81 82 82 81 81 83 85 87 87 87 88 89 90 89 88 86 86 86 86 86 85 84 84 87 90 92 92 93 95 97 97 99 102 107 111 113 114 116 117 116 114 114 116 118 119 120 123 127 129 130 131 131 128 125 123 122 121 122 122 120 116 110 104 102 100 97 93 88 83 81 83 85 86 87 90 91 92 93 90 87 85 89 93 92 87 87 86 86 86 88 89 88 87 87 88 89 92 93 94 95 96 97 98 100 99 97 96 95 92 89 92 90 87 84 80 79 82 86 95 102 106 102 99 97 96 94 93 92 90 87 89 92 92 92 92 91 91 94 97 98 94 93 94 93 89 85 83 83 82 81 81 82 83 84 85 83 80 77 77 76 78 81 70 62 58 58 61 65 69 73 74 74 73 73 73 73 70 66 62 59 58 56 54 55 58 60 62 66 69 72 74 78 79 80 82 81 81 82 83 86 89 92 96 99 102 104 204 250 250
249 249 190 61 57 55 53 52 52 52 51 49 49 48 47 46 44 44 44 45 46 46 44 45 46 48 53 57 62 64 68 72 76 81 77 72 66 68 70 72 72 77 79 77 76 78 81 81 83 83 82 83 86 87 87 85 85 86 88 90 91 91 90 89 89 90 89 87 85 86 89 91 92 93 95 97 98 97 100 105 112 117 121 125 131 134 135 135 134 135 135 136 136 139 142 145 146 147 148 148 147 147 147 146 146 146 144 140 133 125 121 116 110 105 98 94 92 95 97 96 95 95 96 96 96 90 85 83 89 91 88 80 82 82 83 86 89 90 88 84 86 88 90 91 91 91 92 94 95 96 97 96 95 95 95 92 89 92 89 86 84 79 79 81 85 94 101 105 102 99 96 94 92 91 90 88 85 88 92 90 90 91 92 92 95 98 97 93 92 93 91 86 82 79 78 77 77 77 80 81 82 84 82 80 78 76 77 79 83 72 64 60 59 61 65 69 73 74 74 73 73 74 74 71 66 62 58 57 55 53 53 56 59 61 65 69 72 74 77 79 80 82 81 81 82 84 86 89 92 95 99 101 104 204 251 251
250 250 191 63 59 56 54 51 52 51 50 48 47 46 44 43 43 42 42 43 45 46 44 43 44 46 51 57 62 65 69 73 78 82 76 68 62 65 67 69 72 80 82 79 78 82 83 82 84 84 84 87 90 90 88 82 82 84 85 88 91 94 94 92 92 92 91 88 85 86 90 91 91 92 96 98 100 98 101 108 117 122 129 137 147 153 157 159 157 155 154 153 152 153 156 158 158 159 162 165 166 167 170 169 170 170 168 165 158 149 143 136 128 121 114 111 112 116 118 115 110 105 105 105 104 93 85 82 89 89 83 72 76 78 80 86 90 91 89 82 85 90 92 90 88 88 89 90 91 92 93 93 94 95 96 94 91 91 89 86 84 78 78 80 83 91 99 102 100 99 97 94 90 89 88 87 85 88 92 89 88 90 92 93 96 98 95 92 91 92 90 84 79 75 73 72 72 73 78 79 79 81 82 81 80 77 77 79 84 74 66 62 59 61 65 70 73 74 73 72 73 74 75 71 66 61 58 57 54 51 50 53 57 60 64 68 71 73 76 78 79 81 80 80 82 85 87 89 92 95 98 101 103 205 251 251
252 252 193 67 62 59 56 52 53 51 49 47 45 44 42 41 40 41 40 42 44 45 43 41 40 41 48 54 61 65 70 75 79 82 75 66 61 63 65 69 74 82 84 80 80 84 85 83 87 87 88 92 94 93 88 82 80 81 81 84 89 94 95 93 92 93 92 87 84 87 92 93 92 93 98 102 103 101 106 114 124 131 139 149 161 168 173 176 172 169 167 166 164 165 166 167 166 167 170 175 178 180 184 184 184 185 185 183 177 169 164 157 149 142 136 135 139 146 147 143 134 126 125 123 119 104 93 88 94 91 83 71 76 77 79 86 89 90 87 79 84 90 92 87 85 84 85 86 87 89 90 91 93 96 99 96 91 88 86 84 82 78 78 80 83 90 95 98 96 97 96 93 88 88 87 85 84 87 90 87 86 88 91 93 95 96 91 90 90 90 88 83 78 74 70 69 69 70 75 76 75 76 79 81 81 76 76 79 83 75 68 63 60 62 66 70 73 74 73 71 73 74 74 70 64 60 57 57 54 50 48 52 56 60 64 68 71 73 76 78 79 81 80 80 83 85 87 90 92 94 97 100 103 206 253 253
252 252 195 70 65 62 58 53 53 51 48 46 44 42 40 39 39 39 39 41 43 44 42 39 37 38 46 53 60 66 71 76 80 82 74 66 62 64 66 70 76 83 84 81 81 85 87 87 91 92 92 96 98 95 90 84 82 81 80 83 89 95 96 94 94 96 94 90 87 90 96 97 96 98 103 107 109 108 113 122 132 138 146 155 167 174 179 182 177 174 172 171 170 171 171 171 171 172 176 182 185 187 192 192 193 194 195 193 189 182 179 174 167 161 155 156 162 171 172 166 156 146 143 140 133 113 100 94 99 95 86 75 79 78 79 85 87 87 83 76 82 88 91 86 83 83 84 85 86 88 89 90 92 97 100 97 91 85 83 82 81 78 79 81 84 90 94 95 94 95 95 93 89 88 87 84 84 86 89 85 86 88 92 95 95 94 88 88 88 89 87 83 79 74 70 68 67 69 74 73 71 71 76 80 82 76 76 78 83 76 71 67 63 64 68 72 75 75 74 72 73 73 72 68 62 58 56 55 54 50 46 51 56 61 65 69 72 73 76 78 79 80 80 80 83 85 87 89 91 93 97 100 102 206 254 254
252 252 195 72 67 63 58 54 53 51 48 46 43 41 39 38 38 38 38 39 41 44 41 37 35 36 44 51 59 66 73 78 82 83 75 67 65 65 68 72 80 84 85 82 82 86 89 91 96 97 98 100 101 98 93 87 85 83 81 84 89 95 97 96 96 98 97 92 89 93 99 101 102 104 109 113 116 114 120 128 138 142 148 156 167 173 178 181 176 173 172 172 171 172 172 172 172 174 179 184 187 190 195 196 197 198 200 199 196 190 190 187 182 176 171 173 180 191 191 185 175 165 160 155 145 122 106 100 104 100 91 80 82 80 78 83 83 82 78 72 78 85 88 84 83 83 84 85 86 88 89 89 92 97 101 98 91 82 81 81 81 78 78 80 84 89 93 93 93 94 95 93 90 90 89 85 83 85 86 84 85 89 93 95 94 92 85 86 87 87 86 83 79 75 71 69 68 69 73 71 67 66 73 78 81 74 74 76 80 76 72 69 66 66 70 75 77 76 74 72 71 71 70 65 60 56 54 53 52 49 45 51 57 62 66 70 72 74 77 78 79 80 80 80 83 85 87 89 90 93 96 99 101 205 253 253
250 250 194 72 67 63 58 54 52 50 47 45 42 40 38 37 37 37 36 38 41 43 41 37 34 35 43 50 59 67 75 80 84 85 77 69 67 68 70 75 82 85 85 84 83 86 90 94 100 101 101 102 102 99 95 89 86 84 81 83 87 93 95 94 95 96 95 91 88 92 98 101 103 105 109 114 118 118 124 132 140 142 146 152 160 165 169 173 169 167 166 167 168 168 168 169 170 173 177 183 185 189 194 196 197 199 201 201 198 193 196 194 190 185 180 182 190 203 203 197 189 179 173 166 154 128 111 104 108 103 94 83 84 80 77 80 79 77 74 68 75 82 87 84 83 83 84 85 87 89 90 90 92 97 102 100 92 80 78 79 81 78 78 79 82 88 92 93 94 95 94 93 92 93 91 86 83 83 84 83 86 90 93 94 92 89 83 84 84 85 85 83 80 76 73 71 70 70 73 71 66 64 71 77 80 72 70 72 75 74 72 71 68 68 71 76 77 75 72 69 69 68 66 61 56 53 51 51 51 48 44 51 58 63 67 70 73 74 77 79 80 80 80 80 83 85 87 88 90 92 95 98 101 204 252 252
250 250 194 73 68 64 59 54 52 50 47 45 42 40 38 37 37 37 36 38 41 44 42 38 34 34 42 51 60 69 77 82 85 86 78 70 69 70 72 76 84 86 87 85 82 85 89 94 99 100 100 101 100 97 93 87 83 80 75 76 80 86 88 87 87 89 88 84 81 85 92 95 96 98 103 109 114 117 124 133 141 142 144 149 155 159 163 166 163 161 161 163 165 165 166 166 168 171 175 180 182 186 192 193 196 198 201 201 199 194 199 198 194 188 182 185 195 209 209 205 199 190 184 175 163 137 119 110 111 104 95 85 85 80 76 79 77 75 72 66 73 82 87 83 82 82 82 83 86 89 91 92 94 98 104 103 95 81 77 77 81 79 79 79 80 87 90 92 94 94 93 91 91 93 93 88 84 83 83 84 87 89 91 91 89 87 81 82 82 82 83 82 80 78 75 73 72 72 74 72 68 66 72 77 80 71 68 67 69 70 71 70 68 68 71 74 74 71 68 65 65 65 64 60 55 52 51 52 52 49 45 52 59 65 68 70 72 74 76 79 81 81 80 81 83 85 87 88 90 92 95 98 101 204 252 252
251 251 195 75 70 66 60 55 53 50 48 46 43 41 39 39 39 39 39 41 44 47 44 40 36 35 43 52 62 71 79 84 86 84 76 69 68 70 73 77 85 88 89 88 83 85 89 92 96 97 96 97 96 94 92 87 84 80 75 73 76 80 83 83 84 85 85 82 80 84 90 94 96 98 103 109 115 120 127 135 142 143 145 148 152 155 159 163 161 160 160 161 163 165 166 167 168 171 175 179 180 182 188 190 193 196 199 199 197 194 201 203 200 195 187 188 196 210 211 208 206 199 193 186 174 150 134 125 124 116 105 94 90 83 77 79 76 73 70 65 72 81 86 84 82 82 82 83 86 90 93 94 96 99 105 105 98 81 75 75 79 79 80 81 81 86 89 91 93 93 93 91 91 93 93 89 86 85 84 84 86 87 87 86 85 82 77 80 80 80 81 81 80 79 78 76 74 74 75 75 72 70 74 78 79 69 64 62 62 66 69 69 68 67 68 71 72 68 64 61 62 62 61 58 54 53 53 54 54 51 47 53 58 63 66 67 69 72 74 78 80 80 79 80 82 84 86 87 89 91 94 97 100 204 253 253
253 254 198 77 72 68 62 56 54 51 49 48 46 45 43 43 43 44 44 46 48 50 46 42 39 37 45 54 66 75 82 84 83 78 71 66 65 69 73 78 85 90 92 93 87 88 90 89 91 91 91 92 92 92 92 93 91 87 83 78 77 79 84 86 87 88 90 88 87 91 98 102 105 108 111 116 123 128 134 139 145 147 148 148 150 153 157 162 164 164 163 162 164 167 170 171 171 172 176 179 179 179 181 184 188 191 194 194 193 193 204 210 211 207 195 192 195 204 206 207 210 206 202 196 188 170 158 152 151 141 128 114 102 90 81 80 77 72 67 65 72 79 83 84 84 84 85 86 89 92 95 96 97 98 103 104 97 79 72 71 75 75 81 84 85 88 89 88 91 93 94 93 92 93 93 91 88 87 86 85 82 81 80 81 79 76 73 78 79 79 79 78 79 79 79 78 76 75 78 79 78 76 77 77 75 64 58 56 54 61 66 68 67 64 63 67 69 67 63 59 59 58 58 56 54 55 57 58 58 55 51 54 57 60 61 62 64 67 70 74 77 77 77 78 81 83 85 86 88 90 93 96 98 205 255 255
254 254 198 77 73 69 62 58 55 53 51 50 49 48 47 46 46 46 46 48 49 49 44 41 38 36 42 52 63 73 78 80 77 70 66 64 64 70 75 81 87 89 93 95 90 89 90 92 94 94 94 93 93 93 95 101 100 97 94 87 84 84 91 96 98 99 104 103 103 107 113 119 124 126 128 132 138 141 144 147 152 153 151 148 147 148 150 154 159 161 162 162 165 169 172 174 175 178 181 184 183 181 180 183 186 188 189 188 188 190 204 214 219 216 202 194 191 196 201 206 212 210 208 203 195 180 172 171 174 167 155 141 121 105 92 86 81 75 69 68 71 75 77 83 85 86 87 88 89 92 94 93 92 91 95 94 87 72 68 69 74 75 82 89 93 94 91 87 87 90 93 94 96 95 94 91 89 88 87 86 82 79 80 82 78 74 70 77 79 79 77 77 79 81 83 82 79 77 80 80 79 77 75 73 70 61 57 55 53 59 63 65 63 59 59 64 69 68 65 62 60 59 57 55 55 56 59 60 60 58 55 57 59 62 62 63 65 68 70 73 75 75 76 77 79 82 84 85 87 89 92 95 97 205 255 255
255 255 200 78 74 70 64 59 56 54 53 52 51 51 50 49 48 48 48 49 49 48 42 40 38 36 41 50 61 70 74 74 71 65 64 64 65 72 78 83 88 90 93 96 92 91 92 92 93 94 94 92 92 92 95 104 104 101 100 92 87 86 93 100 103 104 109 109 110 113 120 126 133 135 135 138 144 146 146 147 153 154 152 149 146 146 147 149 157 161 162 164 167 171 174 176 179 183 187 190 188 185 182 184 186 187 186 184 184 187 203 215 222 220 206 196 189 191 197 205 213 213 213 210 202 190 185 186 192 188 178 164 141 123 108 99 92 84 76 75 76 75 73 82 85 86 88 88 89 91 92 90 88 87 89 87 79 67 65 68 74 75 85 94 99 97 91 85 83 87 91 94 96 94 92 91 89 88 88 88 82 80 80 82 76 72 68 78 82 81 79 80 82 86 88 86 83 79 81 81 78 77 73 70 65 59 57 56 54 59 62 62 59 54 54 61 69 70 67 65 62 59 57 55 55 58 61 62 63 62 59 61 62 63 63 63 66 69 70 72 73 73 74 76 78 80 83 84 86 88 91 93 96 206 255 255
255 255 201 78 75 70 65 60 57 55 55 54 53 52 52 50 49 48 49 49 49 46 39 38 37 35 40 48 58 67 70 69 65 60 63 66 68 74 80 85 89 90 92 96 95 94 94 92 92 93 93 93 92 92 94 103 104 102 101 94 89 87 93 100 104 105 110 110 111 114 121 128 135 137 137 139 144 145 143 143 149 152 151 148 146 146 147 149 157 162 165 167 171 174 176 178 183 187 192 195 193 190 186 188 188 187 185 181 180 183 199 212 220 220 208 197 188 187 195 204 212 213 215 214 207 198 194 196 203 203 196 185 161 143 128 116 110 101 91 87 85 81 74 83 86 86 88 87 88 89 90 87 84 83 85 80 72 63 62 66 73 76 87 97 102 98 91 83 80 84 89 93 94 91 89 88 88 88 88 88 83 80 81 81 75 69 67 80 85 85 83 84 87 91 93 90 86 81 81 79 76 74 70 66 62 58 58 59 56 59 60 58 54 48 49 58 69 71 69 67 62 59 57 55 56 58 62 63 64 64 63 64 63 63 63 63 66 69 69 70 71 71 72 74 76 79 81 83 85 87 90 92 94 206 255 255
255 255 201 78 74 70 65 59 58 56 56 54 53 53 52 50 49 48 48 48 47 43 36 35 36 35 39 46 55 63 65 63 60 59 64 70 74 78 83 87 89 90 92 95 98 99 97 93 92 93 96 96 96 94 95 103 103 102 103 98 92 90 95 101 104 105 110 110 110 114 121 129 136 138 138 140 143 140 136 135 141 145 145 144 146 147 149 151 159 164 168 171 174 176 176 178 183 189 194 198 198 196 192 193 192 189 185 182 180 182 195 207 215 216 207 197 188 186 196 204 209 210 213 213 207 201 199 201 208 210 207 199 180 164 151 140 136 126 113 106 101 94 83 89 90 90 89 88 88 88 87 83 81 81 81 76 69 63 64 69 76 79 90 99 104 97 88 81 78 83 88 93 93 89 86 86 87 88 88 88 83 81 81 80 72 66 65 81 88 88 87 89 91 95 96 92 88 82 80 76 72 70 66 63 60 58 60 62 60 60 57 54 48 43 45 56 69 72 71 70 63 59 57 55 56 59 62 62 64 65 66 66 64 62 63 63 66 69 69 70 69 70 71 73 76 78 80 82 84 86 89 91 93 205 255 255
255 255 201 76 71 68 63 58 57 56 56 55 54 53 53 51 49 48 48 47 46 43 36 36 37 38 42 48 57 64 64 62 59 62 70 78 83 85 88 90 90 91 91 92 99 101 100 95 94 96 101 104 103 101 100 105 105 104 105 101 96 93 96 99 101 101 104 103 104 108 116 123 130 132 133 135 137 133 128 126 131 136 137 138 142 144 146 149 154 160 165 169 170 171 172 175 182 189 194 198 199 198 196 195 193 190 185 181 180 181 191 199 205 207 203 197 190 190 199 205 205 205 207 209 205 204 204 204 207 210 211 209 196 186 175 166 164 156 144 135 127 116 101 100 97 93 90 88 86 85 82 78 76 76 77 73 67 64 65 68 74 79 89 98 102 95 88 82 80 84 89 92 90 87 85 86 88 89 90 89 84 82 81 77 70 65 64 82 88 89 89 91 94 97 97 93 87 81 77 74 71 69 66 62 59 59 61 63 62 59 56 51 45 41 44 55 68 71 71 69 62 58 56 55 56 58 60 61 64 65 68 67 65 62 63 64 67 69 70 70 71 71 72 74 76 79 81 83 85 87 89 92 94 206 255 255
255 255 201 75 69 66 62 56 56 56 56 55 54 54 52 50 49 48 47 47 46 44 39 39 40 43 46 52 60 66 66 64 61 66 77 87 92 91 92 92 90 91 90 89 97 100 100 95 95 99 106 111 111 108 106 106 105 103 103 100 96 93 93 92 92 91 92 91 92 96 105 112 117 120 123 126 127 124 119 116 120 126 130 133 137 140 142 144 147 152 158 163 164 165 166 172 180 187 191 195 197 198 197 194 191 189 183 180 179 179 185 190 193 195 196 195 193 196 202 204 200 199 201 203 203 207 208 205 202 204 208 212 209 203 195 188 189 184 175 166 156 141 122 112 103 95 89 86 84 82 78 74 72 73 75 72 68 66 64 65 71 78 87 94 97 92 88 84 82 86 89 90 87 85 84 86 89 92 93 91 86 83 80 74 69 66 66 82 88 88 89 94 97 100 98 92 85 79 74 72 73 71 68 64 61 61 62 63 62 59 55 51 45 43 46 55 65 69 68 66 59 56 56 55 56 57 58 61 63 64 68 67 64 61 62 64 66 68 70 71 72 72 73 74 77 79 81 83 85 87 90 92 94 207 255 255
255 255 201 74 67 64 61 54 56 57 55 54 54 54 52 50 49 48 47 47 47 46 44 44 45 48 52 57 65 71 71 68 66 73 85 95 100 97 95 94 90 92 90 86 93 97 98 93 94 100 109 116 117 114 110 104 101 99 97 94 91 88 84 80 77 76 73 72 74 77 87 94 98 101 107 111 112 111 107 106 109 117 123 128 134 135 136 137 136 141 148 154 155 157 160 169 178 184 186 189 191 193 193 189 187 186 180 178 177 177 179 180 180 182 187 192 197 203 205 201 194 193 195 198 201 210 210 203 193 193 199 209 215 214 208 204 208 208 203 194 183 167 144 124 109 97 87 83 81 79 75 70 69 71 74 73 70 67 62 61 66 76 84 89 89 89 88 86 85 87 87 86 81 81 83 85 90 94 95 93 88 84 78 71 69 69 71 83 86 86 90 96 100 102 98 89 80 75 69 71 76 75 73 69 65 63 61 60 60 59 56 52 48 46 48 54 61 63 63 60 55 54 55 55 55 55 55 59 60 61 66 63 60 58 60 61 64 66 68 70 72 72 72 74 76 79 81 82 84 86 89 91 93 208 255 255
255 255 202 76 68 65 62 55 57 57 55 54 53 53 51 48 48 47 46 46 47 48 47 46 46 49 53 59 66 73 73 72 70 77 87 96 100 97 94 92 88 91 90 85 91 96 97 92 94 100 108 115 116 114 109 101 98 95 92 88 85 83 77 70 66 64 61 61 63 67 77 84 88 91 98 103 106 105 103 102 104 110 116 120 127 129 130 131 130 135 143 151 153 154 158 166 174 178 178 179 182 184 185 181 180 180 175 174 174 173 174 171 169 172 179 187 194 202 201 195 188 188 190 193 199 208 208 199 186 185 191 203 214 214 211 209 214 216 214 207 197 182 160 135 118 103 91 86 84 82 76 72 70 71 75 75 74 69 62 61 66 78 84 86 82 84 86 86 87 87 86 83 79 80 82 84 89 93 95 93 89 84 78 70 70 72 76 84 86 86 90 95 98 98 94 86 78 73 68 72 79 79 77 74 72 68 64 60 59 58 56 54 51 50 51 53 58 59 58 55 52 53 55 55 55 54 54 58 59 59 62 60 57 55 56 58 60 62 64 67 69 70 70 71 74 76 78 80 81 83 86 89 91 208 255 255
255 255 203 78 70 66 63 56 58 57 55 53 53 52 50 48 48 47 46 46 48 50 49 47 47 49 53 60 67 74 75 74 72 79 88 95 98 95 92 89 85 90 90 86 91 97 98 92 93 98 105 111 113 111 106 98 94 91 87 83 80 76 70 62 57 55 52 53 55 60 69 76 80 84 91 97 100 102 101 99 99 104 108 112 118 121 123 126 125 131 140 149 151 153 156 164 169 171 170 170 173 176 178 175 174 175 172 171 171 170 169 165 162 164 172 181 191 199 196 190 185 187 189 192 199 208 207 198 183 182 187 200 212 214 211 211 217 220 220 214 205 191 170 144 125 109 96 90 87 85 79 74 71 71 75 78 78 71 62 60 67 79 85 84 77 80 83 85 87 86 84 81 77 79 82 84 88 92 94 93 90 84 77 69 70 74 79 85 86 86 90 93 95 94 90 84 78 75 71 75 82 83 82 79 78 73 66 61 58 58 57 55 54 53 53 53 56 56 55 52 50 51 54 55 55 55 54 59 60 59 62 59 56 54 55 56 58 59 62 65 68 69 69 70 72 75 77 79 80 82 85 88 90 208 255 255
255 255 203 79 71 67 64 58 58 57 54 52 52 51 49 47 48 48 47 47 49 51 51 49 48 49 54 60 67 74 75 75 74 80 88 93 95 93 90 86 83 89 91 88 92 98 99 92 92 94 100 105 108 107 103 95 92 90 86 80 75 71 64 56 51 49 47 48 51 56 65 72 77 81 87 93 97 99 99 98 96 97 100 103 108 112 116 120 121 128 138 147 150 152 154 160 164 164 162 162 164 168 171 168 169 170 168 168 168 167 165 161 158 159 166 175 185 193 189 185 183 186 188 192 200 208 207 198 185 182 187 198 209 211 209 210 216 219 220 215 206 194 176 151 132 116 102 96 92 89 82 77 73 72 75 80 82 73 62 60 67 80 85 82 73 77 81 83 86 85 82 79 76 78 81 84 87 90 92 92 90 84 76 68 70 74 80 85 86 86 90 92 92 90 87 84 80 79 76 80 86 86 85 84 82 77 69 62 58 57 57 57 56 55 54 53 54 54 52 48 47 49 52 53 54 55 55 60 61 60 62 59 56 54 54 54 55 57 59 63 66 68 67 68 71 73 76 77 79 81 84 87 89 208 255 255
255 255 202 82 74 69 65 60 60 58 55 53 52 51 49 47 48 48 48 48 50 52 51 50 48 48 53 59 67 73 74 74 73 78 84 88 88 87 84 80 78 87 91 92 95 100 100 91 90 91 95 99 102 102 100 95 93 92 88 81 75 70 65 58 53 50 50 52 56 61 69 75 80 85 90 94 96 99 98 96 93 91 92 94 99 104 110 117 120 127 137 146 148 149 149 151 152 150 146 146 149 153 157 156 157 159 159 161 163 163 161 157 154 156 161 170 179 186 183 180 179 182 184 188 196 203 203 198 188 184 187 194 203 205 204 206 211 215 215 213 207 197 182 160 143 128 113 106 101 96 87 81 76 75 77 82 85 74 64 61 66 77 82 80 72 75 77 78 81 81 80 78 75 77 80 82 86 88 90 91 88 83 76 72 73 76 82 85 86 86 88 87 86 83 83 82 83 84 84 86 90 89 89 88 88 81 73 66 61 57 55 54 54 55 54 54 54 53 51 47 46 48 51 52 53 54 55 60 61 61 61 58 56 54 54 54 54 55 58 61 64 65 65 66 69 72 74 75 77 80 83 86 88 206 255 255
255 255 201 84 76 72 68 64 63 60 57 55 54 53 50 48 48 48 47 47 48 50 48 47 47 47 51 57 65 72 73 71 70 72 78 82 82 83 81 79 79 88 94 96 98 100 99 90 91 93 97 101 105 104 101 99 97 95 91 82 76 72 70 65 61 59 61 65 69 74 82 90 97 101 105 108 110 111 107 102 95 90 88 88 91 95 100 107 112 123 135 146 149 150 149 150 151 149 144 142 144 147 149 149 150 152 153 156 160 163 163 160 158 159 163 169 175 178 176 176 179 183 185 188 194 200 202 198 192 191 194 200 205 204 203 203 207 210 211 210 205 196 182 166 152 139 125 117 110 103 93 85 78 75 76 78 80 73 68 68 72 81 85 83 76 78 78 78 81 82 81 81 82 84 85 86 87 87 87 89 88 84 78 75 76 79 83 83 83 83 83 81 78 76 77 78 80 82 83 86 88 87 86 85 84 78 70 63 57 53 52 52 53 54 55 55 56 56 55 53 53 54 56 56 56 55 55 56 56 55 55 54 54 54 54 54 55 56 58 60 62 63 64 65 67 70 72 74 75 78 81 84 86 203 255 255
254 254 201 85 78 74 70 67 66 63 59 57 56 55 52 49 48 48 47 46 47 47 44 45 46 46 49 55 64 71 71 69 66 67 73 78 78 80 79 78 80 92 99 101 102 102 98 90 92 96 101 105 109 108 104 102 100 97 92 83 77 74 75 71 68 67 70 76 81 86 94 103 112 116 118 121 123 123 116 106 96 89 85 84 85 89 93 100 108 121 135 148 152 153 151 152 153 152 146 142 143 144 146 146 148 150 150 153 159 166 166 164 163 163 166 169 171 171 171 173 179 185 187 188 192 198 200 198 196 198 201 206 207 205 202 201 205 208 208 208 202 193 181 169 158 146 132 123 116 108 97 88 80 74 73 74 74 72 72 73 77 86 89 86 79 80 79 79 84 83 83 83 88 90 91 90 89 87 85 88 87 85 81 79 79 81 84 83 82 81 79 76 72 71 72 75 78 80 82 84 85 86 83 81 79 74 66 58 52 49 48 50 52 54 55 56 58 60 60 60 60 60 61 60 58 57 55 53 51 49 48 51 53 54 55 55 56 58 59 60 61 62 64 65 67 69 71 73 74 77 80 82 85 201 255 255
252 252 200 86 79 75 72 69 67 64 61 59 58 57 54 51 49 48 47 47 47 46 44 46 48 48 50 56 65 72 72 69 65 65 73 78 77 80 80 79 82 97 105 107 108 106 100 89 92 97 103 109 113 112 106 104 102 97 92 82 76 75 78 75 72 71 75 80 86 91 99 108 117 121 123 125 127 126 118 106 94 85 81 81 82 86 92 100 109 122 137 151 155 155 154 155 157 155 149 145 145 146 147 147 149 151 151 154 161 171 170 168 166 166 169 170 170 167 168 172 179 184 187 188 191 197 200 198 196 199 204 208 208 205 202 201 205 208 208 207 201 192 180 170 159 147 134 126 118 110 99 90 81 75 73 71 71 73 74 75 79 88 91 88 79 80 80 82 87 87 85 86 92 94 95 94 91 87 84 88 88 87 83 82 82 83 87 84 83 81 79 75 71 68 70 74 76 78 80 82 84 84 80 77 75 69 60 53 47 45 46 50 52 54 55 57 59 61 62 63 63 64 64 62 59 57 53 50 47 45 44 48 51 54 55 55 57 59 60 62 62 63 65 66 68 70 72 73 75 77 80 83 85 200 254 254
249 250 198 84 77 73 71 68 67 65 62 60 59 58 56 52 51 50 49 48 47 46 43 45 48 49 51 58 66 73 72 69 64 65 73 79 80 82 82 82 84 97 104 104 107 106 100 91 95 101 108 115 119 118 111 109 107 103 98 90 85 85 87 84 82 81 84 89 94 99 107 116 124 129 131 132 133 130 119 107 96 90 88 89 92 95 101 108 115 128 142 153 156 156 155 157 160 159 155 152 152 153 153 153 154 155 154 157 164 174 173 171 170 169 172 173 172 169 170 173 176 179 181 183 186 195 198 198 196 199 203 208 209 207 205 203 208 210 209 208 201 191 177 167 157 145 133 124 117 108 98 88 80 75 73 70 70 75 76 77 79 86 90 89 83 82 82 83 88 89 89 89 94 95 95 95 93 90 87 89 88 86 84 84 83 84 86 85 84 82 80 77 73 71 71 72 73 74 76 78 79 80 76 73 70 65 58 53 49 46 46 49 50 51 53 56 60 63 65 66 66 66 66 64 61 58 55 50 47 45 45 49 52 54 55 56 58 60 61 63 63 64 66 67 69 71 73 75 76 78 81 83 85 199 251 251
249 249 197 82 75 71 69 66 66 64 62 60 60 59 57 53 52 51 50 48 47 45 42 45 48 49 52 58 67 75 74 70 66 65 74 80 81 82 83 84 85 94 98 97 102 102 100 94 99 106 113 120 124 122 115 115 113 109 105 99 95 95 97 94 91 90 93 98 103 108 116 125 133 137 139 140 139 134 122 111 101 97 96 97 101 103 106 111 118 130 142 152 154 154 154 158 162 163 160 158 158 159 159 157 158 159 157 159 166 176 175 173 172 172 175 175 174 172 174 175 174 174 176 178 181 192 197 197 196 199 203 207 209 209 207 205 210 212 211 210 203 192 177 167 156 146 134 125 117 108 96 86 79 75 73 70 70 75 78 79 79 84 88 89 86 85 83 83 87 89 91 92 95 95 95 95 95 93 91 90 88 86 84 84 84 83 84 85 85 84 81 78 76 74 72 71 70 70 72 74 75 76 72 69 67 63 58 54 52 48 47 48 48 49 51 56 61 65 67 68 68 68 67 65 63 60 57 53 50 48 49 52 53 54 55 56 58 60 61 63 63 64 66 67 69 72 73 75 76 78 80 82 84 198 251 251
249 250 196 80 73 69 66 65 64 63 61 60 60 59 58 54 53 52 51 49 48 46 43 45 48 51 54 60 68 76 76 73 69 67 75 81 82 82 84 85 84 89 90 88 94 97 99 100 105 112 119 124 127 125 120 121 120 117 114 109 106 105 106 102 100 99 101 106 111 116 124 133 140 144 146 146 145 137 126 115 107 104 103 104 108 107 109 112 118 129 140 148 150 151 152 158 163 165 163 163 164 164 164 162 162 163 161 162 168 177 177 176 175 174 177 178 177 178 180 178 173 171 171 174 178 190 196 198 197 200 203 207 210 210 209 207 211 214 214 213 206 194 178 169 159 149 137 128 120 110 96 85 77 75 74 71 71 77 80 80 79 80 85 88 90 89 85 82 85 88 91 93 95 95 94 94 97 97 95 92 88 85 84 84 83 82 83 85 86 84 81 79 77 76 73 70 67 66 69 71 72 72 70 67 66 63 60 58 57 53 50 49 48 49 51 56 62 67 69 69 69 68 68 66 64 62 59 56 54 53 55 56 56 55 56 57 59 61 62 62 62 63 65 67 69 71 73 75 76 77 79 81 82 198 251 251
252 252 197 78 71 66 63 62 62 60 58 58 57 57 56 54 54 53 52 51 50 50 48 49 51 54 58 64 72 80 81 80 77 75 80 85 84 83 85 85 82 84 84 84 91 98 103 108 113 118 122 124 127 127 124 128 128 126 124 119 115 113 110 106 102 100 102 107 112 117 125 133 140 145 147 146 144 137 126 116 109 104 101 101 104 104 106 111 118 128 137 144 145 147 150 156 161 163 162 164 167 169 169 168 169 170 169 171 176 181 180 178 177 176 178 180 182 185 185 181 173 170 169 172 177 189 197 200 199 201 202 204 207 209 209 208 212 215 217 219 212 201 187 177 167 156 144 134 125 114 98 84 76 74 74 76 79 80 79 77 75 74 78 83 86 87 85 82 84 88 91 93 93 93 94 95 97 98 97 95 90 86 84 84 84 83 84 87 88 87 84 82 79 76 72 69 68 68 71 73 72 71 70 69 69 66 62 61 61 57 56 55 53 53 54 57 62 64 65 63 62 61 61 61 60 60 59 59 59 60 62 61 59 57 57 58 59 60 61 62 62 62 64 66 69 71 73 75 76 77 79 80 82 199 254 254
254 254 197 75 69 63 60 60 60 58 56 56 56 56 56 55 55 53 52 52 52 52 51 52 54 57 62 68 76 84 86 85 83 82 87 90 88 86 87 87 83 82 83 85 92 101 109 115 120 124 128 128 131 132 131 136 138 137 135 130 126 121 117 112 108 104 106 111 116 120 128 136 144 149 150 149 146 138 127 117 110 102 98 97 99 100 104 111 118 128 136 141 142 144 148 155 161 164 162 166 170 173 175 174 175 176 175 178 182 185 184 182 180 179 181 184 187 191 191 185 176 170 169 171 177 188 196 201 201 201 201 202 206 208 209 209 213 217 221 223 217 207 194 184 174 163 150 140 130 118 100 85 76 74 74 79 84 82 78 74 71 67 72 77 82 85 85 84 86 90 93 94 93 93 94 95 96 98 97 94 90 87 85 85 85 84 85 87 89 88 86 83 80 77 73 70 69 70 73 74 72 70 69 69 71 67 64 62 63 60 59 59 57 57 57 60 63 64 62 59 56 55 56 56 56 56 56 58 60 61 64 62 59 58 58 58 59 59 61 62 63 63 65 67 69 72 74 76 77 78 80 81 83 201 255 255
255 255 197 73 66 61 57 59 58 57 55 55 55 55 55 55 55 53 52 52 52 53 52 54 56 60 65 72 79 87 89 89 88 88 92 95 93 90 90 89 84 82 82 85 93 103 113 121 126 131 134 133 137 138 138 143 145 145 143 139 134 128 123 117 112 109 110 114 119 123 130 139 147 152 153 151 147 139 128 117 109 101 96 94 97 98 103 110 117 126 134 138 139 141 147 155 162 165 165 169 173 176 179 178 179 181 180 182 185 188 186 184 183 181 184 188 192 197 196 189 177 170 168 170 176 187 195 200 200 200 200 201 206 209 210 209 213 218 224 227 221 211 199 189 179 168 155 144 133 120 101 85 75 74 74 80 86 83 77 72 67 62 66 72 78 84 86 87 89 92 94 94 93 93 94 94 95 96 96 93 89 87 86 86 86 85 86 88 89 89 88 85 82 79 74 71 69 70 73 73 71 67 67 68 70 66 63 62 64 62 61 61 60 59 60 62 65 65 62 57 54 52 52 52 52 52 53 55 57 59 63 61 59 57 58 58 59 59 61 63 64 64 66 68 70 73 75 77 78 79 81 82 84 202 255 255
255 254 196 72 65 60 57 59 59 57 56 56 56 56 56 55 55 53 51 51 52 53 53 55 58 63 69 75 82 89 92 91 90 91 97 101 99 94 94 93 87 84 83 85 93 103 113 122 129 135 139 139 143 144 144 147 149 148 145 142 137 132 126 120 115 111 111 114 119 123 130 139 146 151 153 151 146 137 126 115 109 102 98 97 100 100 102 108 114 122 129 133 134 137 144 156 165 169 169 173 176 179 181 180 180 182 179 181 185 187 186 184 183 182 186 191 196 202 201 193 178 171 168 169 175 185 193 197 196 196 197 200 207 211 211 209 214 220 227 231 224 213 200 189 179 168 155 144 134 121 102 86 77 76 77 80 84 82 77 71 64 58 61 68 77 85 89 90 91 93 95 95 92 93 93 93 94 95 95 92 89 87 87 87 88 87 87 88 89 88 88 88 87 84 79 73 70 69 71 71 69 66 65 65 66 63 61 61 64 62 61 60 59 59 61 64 68 67 64 59 55 52 52 51 50 49 48 50 52 54 59 58 57 56 58 59 60 61 63 65 66 66 67 69 71 74 76 78 79 80 82 84 85 202 255 255
255 255 197 74 67 62 58 61 60 59 57 57 56 56 56 55 55 54 52 52 52 53 53 55 58 63 70 77 85 93 96 96 95 95 99 101 99 94 94 94 88 85 84 86 95 106 117 127 134 140 143 142 146 147 146 151 153 152 149 146 141 137 130 124 119 115 115 119 123 128 135 143 151 156 157 154 149 138 126 116 108 100 95 94 98 99 103 109 115 123 130 133 134 137 143 153 161 165 165 171 175 178 181 180 181 183 182 185 189 192 190 189 188 187 191 195 201 209 209 201 185 175 172 172 177 186 193 198 199 199 198 199 206 210 212 212 216 222 228 233 228 219 207 199 190 179 166 155 143 128 107 90 80 80 80 83 87 84 79 72 63 53 56 63 74 82 86 87 88 91 93 93 89 89 90 90 91 92 91 88 85 85 86 88 88 87 87 90 91 90 89 88 86 83 77 73 71 71 73 72 68 64 63 64 65 62 61 62 64 61 58 57 55 57 60 65 68 68 65 60 55 53 53 51 50 49 48 49 51 53 58 57 56 56 58 59 60 61 63 65 66 65 67 69 72 74 77 78 79 81 83 84 86 203 255 255
255 255 198 74 68 62 58 61 60 58 56 56 56 55 55 55 55 54 52 52 52 54 53 55 58 63 71 78 86 94 98 100 100 100 102 101 97 93 93 93 87 82 80 83 93 107 120 133 140 144 145 141 144 146 146 151 154 154 152 150 146 140 133 127 121 117 117 121 125 130 137 145 153 158 158 155 149 137 125 115 108 97 90 89 93 95 99 106 113 122 129 132 133 136 141 151 159 164 164 172 177 181 185 185 186 188 187 189 192 193 191 189 187 185 188 192 198 208 210 202 186 175 172 172 177 183 189 195 200 201 200 198 206 212 215 217 221 226 232 236 231 224 215 210 202 192 178 166 153 137 113 95 84 82 82 87 92 87 81 73 64 51 52 59 70 79 83 84 85 88 90 90 86 86 87 87 88 89 89 86 84 84 85 87 87 86 86 90 92 93 91 88 85 82 77 74 73 74 75 72 66 61 61 63 66 64 64 65 67 61 57 55 53 55 59 65 69 68 65 59 55 52 52 51 50 50 49 51 54 57 61 59 58 57 58 60 60 60 63 64 65 64 66 69 71 74 76 78 79 80 82 83 85 203 255 255
255 255 198 74 68 62 58 62 60 58 56 56 55 55 55 55 55 54 52 52 53 55 54 55 58 63 71 78 85 93 99 102 104 105 104 101 96 91 92 92 85 78 76 79 90 106 122 138 143 145 144 137 140 141 142 147 151 152 151 151 147 140 131 124 119 114 115 119 124 127 135 143 151 157 156 153 147 134 123 115 107 93 85 83 87 88 93 101 109 119 127 130 132 136 141 150 159 164 165 174 181 185 191 191 192 193 192 193 194 190 186 183 181 179 181 184 190 201 204 198 183 174 170 171 175 179 184 190 198 201 201 198 206 213 218 221 224 229 234 237 233 228 222 218 212 203 190 178 164 147 121 101 88 86 85 92 98 92 84 76 68 53 51 56 67 76 81 83 84 86 87 87 83 84 85 87 86 88 89 87 86 87 87 87 87 86 87 92 95 96 95 91 86 82 78 77 76 77 77 72 65 58 58 62 66 66 67 68 70 63 58 55 52 54 58 64 68 67 64 58 53 51 52 52 51 51 51 55 58 62 67 64 61 60 60 61 60 60 62 63 63 63 65 67 69 72 74 76 77 78 80 81 83 202 255 255
255 255 200 82 76 70 66 70 67 64 61 60 58 57 56 56 55 54 52 52 53 54 53 53 55 59 67 74 82 91 98 102 103 103 100 96 91 88 89 91 87 85 84 85 94 107 120 131 136 138 136 132 135 135 132 133 133 132 129 129 127 123 116 109 104 101 102 106 111 116 124 133 142 148 148 147 144 133 124 116 107 91 84 83 88 90 95 102 110 122 132 140 143 146 149 154 160 163 163 168 171 175 180 181 182 184 183 185 186 184 181 177 175 174 178 182 187 196 198 195 187 181 179 179 181 180 181 182 188 192 194 194 201 206 211 215 219 224 228 228 226 224 220 217 211 203 190 180 168 152 129 111 99 95 92 95 99 95 88 82 77 67 63 62 64 71 77 83 88 88 87 86 85 86 87 88 86 87 87 86 89 91 91 90 91 92 93 95 97 98 97 92 85 79 75 74 74 75 73 69 63 58 59 63 69 69 66 64 64 59 57 56 53 55 58 63 66 66 65 61 58 58 59 59 57 56 54 54 55 56 59 58 58 58 57 58 58 57 60 61 62 62 64 66 68 71 72 74 75 76 78 80 81 201 255 255
253 253 200 85 79 73 69 72 69 65 62 60 58 57 56 55 55 53 51 52 53 54 54 54 56 61 68 76 83 92 98 102 103 103 98 93 88 86 87 88 87 88 90 92 100 111 121 127 132 134 133 131 133 132 128 128 128 126 123 123 121 118 113 107 102 99 100 105 110 114 122 131 140 145 145 144 140 130 121 112 102 85 78 78 84 88 94 102 111 122 133 141 145 147 149 154 160 164 164 169 174 178 184 186 188 190 190 193 195 193 189 186 182 180 182 185 190 197 201 199 192 186 184 182 182 178 177 179 186 190 190 188 194 199 205 210 213 217 220 219 219 220 219 218 214 207 195 185 173 158 135 117 106 102 99 101 104 99 93 88 82 70 65 62 63 71 78 84 90 90 88 86 88 89 91 92 88 87 86 87 91 94 94 93 93 94 94 97 98 99 97 92 85 79 76 76 77 77 76 71 64 58 59 63 68 67 64 62 61 57 56 56 55 57 60 65 69 69 67 64 61 61 61 60 57 55 52 52 52 53 54 55 57 58 58 58 58 58 60 62 62 62 64 66 68 70 72 73 74 75 77 79 80 199 255 255
253 253 200 87 81 74 70 74 70 65 62 60 58 56 56 55 55 53 51 52 53 55 55 55 57 62 69 77 84 92 99 101 102 102 97 91 86 84 84 86 86 89 92 96 104 113 121 125 129 131 130 127 130 130 126 126 126 125 123 121 118 116 111 107 103 99 102 106 111 115 122 131 140 145 145 142 139 128 119 110 100 82 74 74 80 85 93 103 112 124 134 141 145 147 148 152 158 162 162 169 173 178 185 187 190 192 193 197 199 198 195 192 189 186 187 189 193 200 204 204 198 192 189 187 185 179 178 180 190 192 191 186 190 195 201 206 208 211 213 213 215 218 220 222 220 214 203 193 180 164 142 124 112 108 104 106 108 102 97 90 83 69 63 61 64 71 77 83 89 89 88 87 88 90 92 93 89 87 86 87 91 95 96 96 95 94 94 96 98 98 96 90 84 78 76 78 80 81 80 74 64 58 59 62 67 65 64 62 60 57 56 56 55 58 62 68 72 71 69 66 62 61 60 58 56 54 51 50 51 52 52 54 56 58 58 59 59 59 61 61 61 62 64 66 68 70 72 73 73 74 76 78 80 199 254 254
255 255 205 94 89 82 76 80 75 70 65 63 61 59 58 57 57 56 55 55 56 57 56 55 56 59 67 75 84 92 99 102 100 97 92 87 82 80 81 84 86 87 90 95 104 113 120 123 125 125 122 119 123 123 120 123 124 123 119 117 113 110 105 101 98 95 99 104 110 115 122 133 143 149 148 145 142 133 125 116 106 87 79 78 84 88 95 103 115 127 138 145 149 151 152 153 154 154 152 155 157 158 163 167 169 172 174 178 181 182 182 183 184 185 188 191 195 199 204 206 204 201 200 199 197 190 187 190 198 200 199 195 194 196 199 203 205 207 210 212 216 219 222 227 227 222 213 202 190 174 152 134 122 118 111 110 110 101 94 86 79 69 65 63 64 69 73 78 83 85 86 87 88 88 88 90 88 87 86 87 91 94 97 98 97 95 95 96 98 99 96 89 82 76 74 76 79 80 80 73 63 57 59 65 71 69 67 65 62 59 57 57 55 58 62 68 72 71 69 66 62 59 59 59 57 56 54 53 54 55 54 55 56 57 57 57 57 56 58 59 59 59 61 63 66 68 70 71 72 73 76 78 80 201 255 255
255 255 207 95 90 82 77 81 76 71 67 65 63 61 61 60 60 59 59 59 60 60 58 58 59 60 68 76 85 94 100 102 100 96 91 86 81 80 82 84 87 89 94 100 108 117 123 124 126 125 122 119 124 125 124 129 131 130 127 124 119 114 110 107 103 101 105 111 117 122 129 140 151 157 155 153 150 140 131 121 111 92 83 82 87 92 99 109 122 136 146 152 155 158 160 160 161 160 157 160 161 162 166 170 172 174 176 180 183 183 183 185 187 188 189 190 191 192 196 199 199 197 198 199 199 194 194 198 207 210 208 202 198 197 199 202 204 207 210 213 216 219 221 227 227 222 212 202 189 173 150 132 119 114 106 106 108 100 92 85 79 70 67 66 66 71 75 80 85 87 89 89 90 90 89 91 89 88 87 88 90 93 97 99 99 97 97 98 100 100 97 89 81 75 73 76 79 81 82 76 66 60 62 66 72 70 68 66 63 60 59 59 57 57 60 65 69 69 67 63 59 57 57 56 56 55 55 54 55 56 55 55 56 56 55 55 55 54 56 58 58 58 61 63 65 68 70 72 73 74 76 78 80 203 255 255
255 255 205 94 88 82 77 82 77 72 68 66 64 63 63 62 62 61 60 60 61 61 59 60 61 63 70 78 87 95 100 101 99 95 91 86 81 82 83 86 88 95 101 107 113 120 125 123 126 126 125 123 128 129 128 132 134 133 130 125 120 116 113 110 107 104 109 115 121 126 133 143 154 160 158 155 153 142 132 120 108 90 81 79 84 89 96 107 121 135 146 152 156 158 160 162 163 163 161 164 165 166 170 173 176 178 179 183 188 190 190 190 191 192 190 189 187 186 190 192 193 192 193 194 195 192 194 200 210 213 210 204 199 198 200 202 204 207 210 213 215 217 219 225 224 219 208 197 184 168 146 128 115 108 101 102 104 100 94 88 82 72 70 69 69 74 79 83 88 90 90 91 93 93 93 94 90 88 87 88 91 94 98 101 102 101 102 102 103 102 98 89 81 75 73 76 79 81 84 79 69 64 63 66 70 68 65 62 60 57 56 58 56 56 58 63 67 67 65 62 59 58 58 57 55 54 53 51 51 51 51 53 55 56 55 55 55 55 56 58 58 58 61 63 65 68 70 71 72 74 76 77 79 201 255 255
251 252 201 92 87 81 77 81 77 72 69 67 66 65 64 62 61 60 59 59 59 59 58 61 64 66 72 80 88 96 100 100 98 93 91 87 82 84 86 87 91 102 110 115 119 123 123 119 125 128 129 130 135 135 131 132 132 129 126 119 115 113 114 111 107 105 109 115 121 126 132 142 152 158 156 153 151 141 128 114 100 82 73 72 75 80 87 98 112 127 139 148 151 153 155 157 161 163 161 164 166 168 172 176 179 181 183 188 194 201 200 198 197 194 192 189 186 183 186 188 189 187 187 187 188 187 189 195 206 209 207 200 197 198 200 201 204 207 210 212 214 216 218 222 221 214 202 191 178 162 141 124 111 104 98 97 100 100 98 94 89 78 73 71 70 78 83 87 93 93 92 92 97 100 100 99 94 90 87 90 93 97 100 104 105 105 107 105 105 103 98 90 82 76 75 78 80 82 84 81 73 68 66 66 67 64 59 55 52 50 51 54 55 55 57 62 65 66 66 65 64 63 63 60 57 54 50 46 44 43 42 48 52 56 56 56 56 56 57 58 58 59 61 64 66 68 70 71 71 73 74 76 78 197 253 253
248 248 200 96 90 84 81 84 80 76 72 70 68 66 65 62 61 59 58 58 58 58 57 60 62 65 71 79 88 96 101 101 98 93 90 87 82 84 86 88 94 107 114 116 118 120 121 117 125 130 133 135 141 139 131 129 126 122 117 111 110 111 113 109 106 104 107 113 119 124 131 141 150 155 155 153 151 141 129 116 102 86 80 80 84 87 93 102 114 128 141 151 156 158 159 161 165 167 165 167 168 170 175 177 180 183 184 189 196 205 202 199 195 192 191 190 188 188 191 192 192 190 189 188 187 184 183 186 195 198 197 192 192 194 197 200 204 208 212 214 217 220 221 223 220 214 202 191 179 164 143 126 114 108 102 99 98 100 100 98 92 81 74 70 69 77 82 88 95 95 94 93 99 102 102 100 95 90 87 89 94 99 103 108 110 110 109 104 102 99 94 88 81 76 75 76 78 78 80 78 73 69 66 66 66 63 58 54 51 48 48 51 52 54 57 62 65 66 67 67 68 69 69 65 60 55 50 43 39 36 35 43 50 55 56 56 57 57 58 60 60 60 63 65 67 69 70 71 71 72 74 76 78 195 250 250
248 249 201 97 91 86 83 85 81 76 72 70 69 67 66 63 62 60 59 59 59 59 58 60 62 63 70 79 89 98 104 105 102 95 90 84 78 82 85 90 95 105 111 111 111 114 118 119 128 131 132 133 137 135 128 126 122 117 111 106 105 107 109 105 102 101 105 110 116 121 129 138 148 153 152 152 151 142 132 121 109 93 86 85 88 88 90 97 109 123 136 147 153 157 159 161 165 167 166 167 167 169 173 175 179 182 183 188 195 202 202 199 196 193 190 187 186 188 191 193 193 192 192 191 190 185 183 184 194 197 195 188 188 188 190 192 196 200 204 206 210 215 218 221 219 213 203 193 181 166 147 130 117 111 106 102 100 100 99 98 93 81 74 70 68 76 81 86 93 93 91 90 97 101 101 100 95 91 89 90 95 99 102 107 110 111 111 106 103 101 96 89 83 78 77 77 78 77 79 77 74 70 67 67 67 64 58 52 49 46 48 51 51 52 55 59 62 64 65 67 69 71 72 69 64 59 54 48 43 40 37 45 51 56 55 55 55 56 57 58 59 59 61 63 65 67 69 69 70 71 72 74 76 195 250 250
250 250 202 98 93 87 83 86 81 76 72 71 69 68 67 64 63 62 61 62 62 61 60 61 61 62 69 78 89 99 106 108 105 95 87 81 74 79 84 90 94 101 105 106 104 109 115 119 127 128 127 125 128 127 121 122 120 115 109 103 101 102 103 100 98 97 101 108 114 119 126 136 146 151 150 150 150 143 135 125 115 99 90 88 88 86 86 91 104 119 132 142 150 154 157 159 162 164 163 163 163 163 165 169 172 176 178 182 188 194 197 197 196 194 188 184 181 183 185 189 193 194 195 194 195 189 188 190 200 203 200 191 187 184 184 185 187 189 193 196 201 206 211 217 217 212 203 193 182 168 149 132 120 112 107 104 103 99 97 95 93 81 75 72 69 76 80 83 89 89 88 88 94 98 98 98 95 93 91 92 95 97 100 104 108 110 111 108 107 104 100 92 86 81 80 80 79 78 79 78 75 72 69 68 69 66 59 53 48 47 49 52 52 51 52 55 60 62 63 65 68 70 71 70 66 63 60 55 52 48 44 49 53 56 54 53 53 53 54 55 56 56 58 61 63 65 66 67 67 68 70 72 74 195 252 252
251 251 204 101 96 90 85 88 82 77 73 71 70 68 67 65 65 64 64 64 64 63 60 61 61 60 67 75 85 94 100 100 96 86 81 77 72 76 81 86 91 97 102 106 106 110 113 114 117 117 114 112 116 116 113 118 117 114 109 103 98 96 96 95 94 93 99 106 113 118 124 135 146 151 149 148 149 142 134 125 115 99 91 87 87 86 87 91 106 121 134 144 151 156 158 157 158 158 155 154 152 150 150 154 158 160 162 166 171 178 182 186 189 190 185 180 176 173 175 182 190 194 198 200 201 197 198 202 212 215 213 205 195 190 187 185 185 187 189 194 197 200 204 212 213 209 201 192 181 168 150 133 120 113 106 102 101 96 93 92 90 83 80 78 75 79 79 80 84 85 86 88 94 95 95 95 94 93 92 94 95 96 99 103 105 106 108 107 107 105 100 92 86 81 81 81 82 82 83 82 77 74 71 71 73 70 65 59 54 52 53 55 55 53 53 56 61 64 65 65 66 66 67 67 65 64 62 59 57 54 51 53 55 56 53 52 51 52 52 53 53 53 56 58 60 63 65 66 66 68 70 71 73 196 252 252
250 251 203 101 96 90 85 87 82 77 73 71 70 69 68 66 65 64 64 64 64 63 61 62 62 62 67 75 84 92 97 97 93 83 79 75 69 74 79 83 87 94 99 103 104 108 111 110 114 114 112 109 113 113 111 116 116 113 109 103 98 95 96 94 93 92 98 106 112 117 124 134 145 150 148 147 147 141 132 123 114 100 92 89 88 86 87 91 106 122 135 144 153 157 160 159 162 162 160 160 159 158 158 162 165 167 169 172 176 182 185 188 189 189 184 179 174 172 174 180 188 193 197 199 201 199 201 207 218 221 218 209 200 196 194 192 193 194 196 201 204 206 208 215 215 211 202 192 181 167 148 131 118 111 105 102 101 97 95 94 93 85 82 81 79 82 81 79 82 83 85 88 94 96 96 96 96 96 96 97 97 97 99 102 103 104 105 104 104 102 97 90 84 81 81 82 82 83 85 84 81 78 74 73 74 72 68 62 57 55 54 55 55 53 52 56 61 64 65 65 66 66 67 67 65 65 63 61 59 57 54 55 56 57 54 53 52 52 52 52 51 51 55 57 59 62 63 64 65 66 68 69 71 194 252 252
249 250 203 102 96 90 86 87 82 78 74 72 70 69 68 66 66 64 64 64 65 65 63 64 64 64 69 76 85 93 98 98 94 84 79 75 69 74 78 82 85 91 96 99 99 103 108 109 115 115 113 111 115 115 112 116 115 112 108 102 98 96 97 95 93 92 98 105 112 117 124 134 144 149 147 146 146 140 132 124 116 103 96 93 92 89 87 91 104 119 132 142 151 157 160 162 165 167 165 166 166 166 166 169 172 175 176 179 183 187 189 190 190 188 183 179 176 176 178 183 189 193 196 198 200 199 200 206 216 218 215 206 200 198 197 196 197 199 203 208 211 214 216 220 220 214 205 195 183 169 150 133 119 112 108 105 104 99 98 98 96 86 82 81 81 85 84 81 83 84 85 88 94 97 98 98 98 100 100 100 99 99 100 102 104 104 104 101 100 98 93 87 83 82 82 82 82 82 83 84 83 80 76 74 74 74 69 64 60 57 55 55 55 54 54 56 61 64 65 66 67 67 68 68 66 65 63 61 60 58 55 56 57 58 56 54 54 53 53 52 51 51 55 57 59 62 63 64 64 65 66 68 70 193 251 251
249 249 202 102 96 90 86 87 83 78 74 72 71 69 68 66 66 64 64 64 65 65 65 65 66 66 72 79 87 96 102 103 98 88 82 77 71 74 79 83 86 89 91 92 91 97 104 110 117 119 118 115 119 118 115 117 115 111 106 102 100 99 98 95 93 93 97 104 111 115 123 133 142 147 147 146 146 139 133 126 120 108 102 100 99 92 88 88 100 113 125 135 145 153 158 162 168 171 170 170 170 170 170 172 175 179 180 182 185 189 191 190 189 187 183 180 181 186 187 189 193 196 197 198 199 196 197 200 208 209 205 198 196 195 194 194 195 199 206 212 217 220 223 226 224 219 211 200 189 175 156 138 125 119 116 112 109 103 103 102 98 85 79 78 82 87 86 83 85 85 87 90 96 99 101 100 102 104 104 103 102 102 102 104 106 106 103 97 95 93 90 86 85 85 84 81 79 78 79 81 81 79 76 74 73 73 69 64 61 58 57 56 56 56 56 58 62 64 65 66 67 69 70 69 66 65 62 60 58 56 54 55 57 58 56 55 54 54 54 53 52 52 55 57 59 62 63 63 63 64 65 66 68 193 250 250
250 250 204 104 99 93 88 89 84 79 75 73 71 70 68 66 66 65 64 65 65 66 65 65 65 65 72 78 87 96 103 103 97 87 83 80 77 76 80 85 88 85 84 85 86 93 100 108 114 115 113 111 113 113 112 114 112 108 102 100 97 95 91 89 88 88 91 98 104 109 117 128 139 144 144 144 144 138 133 129 124 115 110 107 105 97 89 86 96 109 120 129 139 148 155 159 164 166 164 161 157 154 152 154 156 159 160 161 164 166 171 175 179 182 181 181 184 189 191 193 198 203 205 205 205 200 199 199 202 202 201 198 194 191 187 185 185 190 198 206 211 215 217 222 223 220 214 205 196 184 166 150 138 133 128 121 113 105 102 99 94 84 78 77 81 86 86 84 86 87 90 93 98 100 100 99 103 106 107 105 105 106 106 107 107 105 101 96 94 92 91 91 92 93 89 84 79 76 74 75 75 72 71 71 72 73 70 67 64 64 62 61 60 59 60 63 66 68 68 67 65 65 66 66 64 63 61 60 59 58 56 56 56 55 54 54 53 53 53 52 52 52 54 57 58 61 62 63 63 63 65 66 68 193 251 251
251 252 206 107 102 96 91 91 87 82 77 74 73 71 69 67 66 66 66 66 65 65 63 63 63 63 70 77 84 93 100 98 89 81 82 85 84 79 81 87 90 82 79 81 87 93 97 102 104 105 105 104 106 107 107 110 108 104 98 97 93 89 83 80 80 80 83 90 97 101 111 123 135 140 140 140 140 135 130 125 122 116 112 109 109 100 91 85 94 106 117 124 133 142 149 153 155 154 149 140 132 125 121 122 124 126 126 128 131 134 142 151 161 171 177 181 185 188 190 194 199 207 211 212 211 208 206 203 198 198 202 207 201 196 190 185 185 189 197 207 211 213 212 218 220 218 214 208 200 189 174 160 150 146 138 126 114 105 101 94 87 83 79 79 82 84 84 84 86 89 93 98 100 99 97 96 103 107 108 106 106 107 109 108 106 102 98 94 92 92 92 95 98 99 93 85 78 74 70 68 67 65 66 68 70 72 72 70 68 68 66 63 60 61 63 67 71 73 72 70 64 61 61 62 61 61 59 57 57 58 57 55 54 52 52 52 52 52 53 53 52 53 55 57 58 61 62 63 64 65 67 68 70 195 253 253
252 253 208 111 106 100 95 94 90 85 80 76 75 73 70 67 67 67 68 66 65 63 61 60 61 62 69 75 81 90 96 91 78 72 81 90 93 82 82 88 92 82 77 80 91 95 95 92 91 93 96 98 100 102 103 107 105 100 94 93 88 82 73 71 70 71 74 81 88 93 103 117 130 136 136 135 134 130 124 119 115 113 111 109 111 103 93 85 92 104 115 120 127 135 141 143 142 137 128 114 101 90 83 83 85 86 85 88 93 98 110 125 141 158 171 180 185 185 187 191 198 208 215 218 217 218 216 210 196 196 204 218 212 204 196 188 189 194 202 213 217 215 210 216 218 217 214 209 202 193 180 168 161 159 146 129 114 106 100 91 80 84 83 82 84 82 82 84 86 91 97 103 103 99 95 94 104 108 108 106 106 108 110 109 105 99 95 92 91 91 93 98 103 104 96 86 78 73 67 63 61 58 62 66 69 72 73 73 71 70 68 63 60 61 65 71 75 77 77 73 62 57 56 58 58 58 56 53 54 56 56 54 50 48 49 49 50 51 52 53 53 53 55 57 58 61 63 64 65 67 69 71 73 197 255 255
254 255 210 113 108 102 98 97 94 88 82 78 77 75 72 68 68 68 70 67 65 62 60 60 61 63 70 75 81 89 93 84 69 64 79 94 100 85 83 87 93 83 79 82 96 98 92 82 79 81 88 96 99 100 102 106 103 97 90 88 82 75 66 63 62 63 65 72 81 86 97 111 124 131 131 130 128 124 116 109 104 105 105 104 108 101 92 83 89 101 111 114 119 125 131 131 126 117 104 85 68 55 46 45 47 48 48 53 61 71 85 102 122 144 164 178 185 182 183 187 194 205 213 218 218 225 224 215 193 191 202 224 219 212 203 195 197 203 212 224 227 224 215 219 220 218 215 210 203 196 185 175 170 169 153 133 114 110 103 90 75 85 86 85 86 81 81 83 86 93 101 107 105 99 94 93 106 109 107 106 105 107 111 110 104 98 95 91 90 89 91 99 104 104 95 85 76 71 64 60 57 55 60 65 68 71 72 73 71 69 65 61 57 61 66 73 77 80 79 74 62 55 53 55 55 55 52 48 48 51 53 50 46 43 46 48 49 50 53 54 54 55 57 58 59 62 64 66 68 70 72 75 76 199 255 255
254 255 210 113 108 102 97 96 94 88 82 78 77 75 71 68 68 69 70 68 65 63 61 62 64 66 73 78 83 90 93 84 68 64 79 95 101 85 81 85 92 84 80 84 98 99 90 77 72 76 84 93 97 99 100 104 101 96 89 86 80 73 64 61 60 60 62 69 77 82 92 106 119 125 125 124 121 118 110 102 97 99 100 100 104 98 90 82 88 99 108 110 113 119 124 125 119 110 96 77 61 48 39 39 40 42 43 49 58 68 82 99 118 140 161 176 184 181 182 185 192 203 211 216 216 224 224 215 191 186 196 217 214 208 201 194 196 202 212 225 229 227 219 223 224 222 219 214 207 200 189 180 176 175 159 139 121 116 108 93 76 85 85 85 87 82 82 85 87 94 103 109 106 100 95 95 108 110 108 107 106 108 111 110 104 97 94 90 88 88 90 97 103 104 95 85 77 73 67 62 58 56 60 65 67 69 71 72 70 68 63 59 55 60 67 74 77 79 78 73 60 52 50 52 52 51 49 45 45 48 51 49 45 43 47 49 50 51 54 56 55 56 57 59 60 63 65 67 68 71 74 76 78 200 255 255
254 255 210 112 107 101 97 96 93 88 82 78 76 75 72 68 68 69 70 68 66 65 64 65 67 69 76 80 85 92 94 86 71 68 81 95 100 85 81 83 90 84 81 85 97 98 90 76 72 75 83 92 95 98 99 101 98 92 86 84 78 71 62 59 58 58 59 66 74 78 88 101 114 120 120 119 117 114 107 101 96 98 98 97 101 95 87 80 86 97 106 108 112 119 125 127 124 116 104 87 72 60 52 52 54 56 56 61 68 76 88 102 119 138 157 170 178 177 178 183 191 202 210 214 214 220 220 211 188 183 192 211 209 204 198 192 194 200 210 222 227 227 221 226 227 225 223 218 211 204 193 184 179 178 163 144 127 122 113 98 82 88 86 84 86 84 85 88 90 96 102 107 105 101 97 97 108 111 109 108 109 110 112 109 103 98 94 89 87 86 88 96 103 105 97 88 80 75 68 65 62 60 62 64 65 69 70 71 69 66 62 57 55 60 66 72 75 77 75 70 58 51 50 51 51 50 47 44 45 48 51 49 47 45 48 50 52 53 55 57 56 57 58 59 60 63 65 67 68 71 73 75 77 200 255 255
253 254 209 110 105 100 96 96 92 87 82 78 77 75 73 70 69 68 69 69 68 68 68 68 69 71 78 82 86 93 97 91 79 77 85 94 97 85 82 85 89 84 82 84 93 94 90 80 78 80 85 91 94 96 97 95 91 87 82 80 76 69 60 57 56 57 58 64 71 74 84 97 109 115 115 115 115 113 109 104 101 101 100 99 100 92 83 75 82 94 104 110 117 126 134 139 141 137 129 114 101 91 84 84 86 87 85 87 89 91 100 111 124 138 151 161 167 168 171 178 189 204 211 213 213 216 212 203 185 184 191 206 205 200 195 190 192 198 207 216 222 224 222 227 228 227 225 221 215 208 197 186 179 176 163 146 132 126 116 104 93 94 88 83 84 86 90 94 95 97 99 103 103 102 100 99 107 110 110 110 112 114 112 106 102 98 95 88 85 85 88 97 103 107 102 93 84 78 68 66 67 64 64 63 62 68 70 69 66 65 61 57 55 59 63 69 72 73 72 67 57 52 52 53 52 51 47 46 46 49 53 52 50 48 51 53 53 54 56 57 57 57 59 59 60 63 64 65 66 68 70 72 74 198 255 255
253 253 208 109 105 100 96 95 91 87 82 78 77 75 73 71 70 69 69 70 71 72 73 73 74 75 82 86 90 97 102 97 85 81 85 89 89 81 79 82 86 81 79 80 84 86 84 78 78 80 83 87 90 92 94 91 86 81 76 75 71 66 57 54 53 54 55 61 67 70 79 91 103 107 108 109 111 111 109 107 106 106 105 103 101 91 79 69 77 88 98 105 116 127 138 146 150 150 144 130 118 109 102 102 104 107 104 104 103 102 110 119 128 139 146 153 158 162 165 172 186 202 209 211 210 210 206 197 183 181 186 195 193 188 184 179 180 187 198 207 215 220 222 227 229 229 228 224 219 212 201 190 182 176 165 150 136 128 117 106 95 93 85 80 83 89 94 97 96 94 94 97 99 101 101 101 108 112 114 113 115 115 113 106 104 102 97 87 83 82 85 93 101 107 104 94 84 78 68 69 74 72 68 64 61 67 69 67 64 65 62 58 57 59 62 66 69 70 68 64 56 54 54 55 54 52 49 48 48 50 53 52 51 50 53 54 55 55 56 56 55 56 57 58 59 61 62 63 64 66 67 69 71 197 255 255
254 255 209 110 105 101 97 96 91 87 82 78 77 75 73 71 70 69 70 71 72 74 75 75 75 75 82 86 91 98 104 100 89 81 82 83 80 74 74 79 82 76 73 73 72 74 76 75 77 77 78 79 81 84 87 85 81 75 69 68 64 59 51 49 49 51 52 58 64 67 75 87 98 102 103 104 107 109 110 112 113 113 112 109 105 90 74 61 69 80 90 97 110 124 138 146 150 150 144 130 118 107 99 98 101 105 103 101 99 98 107 116 125 135 138 143 148 154 156 165 182 199 206 208 208 205 199 191 179 177 179 184 180 174 167 162 162 169 182 193 203 210 216 223 228 229 229 226 222 216 206 195 186 179 169 154 138 127 115 104 95 91 82 79 84 92 96 96 92 88 89 92 95 98 100 100 108 114 117 115 116 116 112 106 106 105 100 87 81 80 82 90 99 107 104 94 83 76 66 70 77 76 72 66 61 68 69 67 64 65 62 57 57 59 61 64 67 68 67 64 58 56 57 58 56 54 51 51 52 53 54 53 52 51 53 55 55 55 56 55 53 54 55 56 57 59 60 61 62 64 66 68 69 197 255 255
255 255 211 111 108 103 98 97 92 87 83 79 77 76 74 71 70 69 71 72 74 75 76 75 74 72 80 85 90 98 106 102 90 79 77 76 72 67 69 76 81 71 67 67 62 63 67 71 73 72 70 68 70 74 79 79 75 68 61 60 56 52 44 43 44 46 49 55 61 64 71 83 93 98 98 100 104 109 113 117 121 122 120 115 108 89 69 52 61 72 81 87 103 119 133 139 142 140 133 116 101 88 78 78 82 86 86 84 81 81 93 105 116 127 128 131 137 143 145 155 176 196 203 205 204 198 191 182 172 169 169 172 164 154 145 139 137 144 158 173 185 195 204 216 223 227 230 228 225 220 212 202 193 186 175 158 139 125 112 101 91 88 80 77 84 93 96 94 87 83 84 90 93 96 98 99 108 114 119 116 116 116 113 108 110 109 103 88 81 80 81 88 98 106 104 93 82 74 65 70 79 79 74 67 62 70 70 68 64 65 61 56 57 58 60 62 65 66 66 64 59 58 60 61 59 57 55 55 55 55 55 54 53 52 54 55 56 56 56 54 52 53 54 55 56 58 59 60 61 63 65 68 69 198 255 255
255 255 212 113 111 105 100 99 93 88 83 79 78 76 74 72 71 71 74 75 76 77 77 75 73 69 78 84 91 99 109 106 92 76 72 69 65 61 65 74 81 71 66 68 59 59 62 67 68 65 60 57 58 64 72 77 73 66 57 54 49 45 39 39 42 44 48 55 61 64 71 81 93 97 96 98 104 111 118 124 129 130 126 119 109 88 66 48 59 68 75 79 95 112 126 129 127 121 111 91 72 55 42 45 50 55 57 56 55 56 75 92 107 119 118 119 123 127 129 142 169 191 199 201 199 190 181 173 162 156 153 153 137 122 110 102 99 105 120 139 156 170 185 204 216 224 230 230 229 226 222 214 205 197 185 166 144 125 111 98 86 84 77 76 82 91 94 92 85 83 85 91 95 97 98 97 107 113 116 114 114 114 113 112 115 115 108 91 83 81 81 87 95 104 102 93 82 76 68 73 81 81 77 71 65 71 70 67 62 63 61 56 58 59 60 62 64 65 64 61 58 57 59 60 59 58 56 56 55 54 52 51 51 51 52 53 53 54 55 54 53 54 55 55 56 58 60 61 63 66 68 71 73 200 255 255
253 254 208 107 106 100 95 95 88 83 80 77 75 74 73 72 71 71 73 76 78 80 80 78 76 72 81 88 94 101 111 110 100 84 74 66 59 60 65 73 79 73 72 75 64 64 67 70 70 64 57 51 53 59 69 73 71 66 61 57 52 47 43 46 48 50 55 61 65 66 71 81 91 94 92 93 100 107 115 123 129 127 122 114 103 86 68 54 68 76 81 83 99 117 132 136 136 135 130 116 100 86 76 80 86 90 91 88 82 78 93 108 120 126 115 108 107 111 117 134 165 186 193 194 192 178 169 164 161 155 147 137 116 101 91 85 80 84 95 111 129 149 171 196 212 222 230 231 231 228 224 216 207 197 186 172 154 133 116 103 94 83 74 72 78 90 96 97 92 87 87 91 96 99 101 102 106 112 116 115 115 115 113 111 113 113 106 91 85 83 83 88 96 106 108 101 93 86 78 81 89 87 78 69 61 67 67 64 57 60 59 56 57 57 58 60 62 62 59 57 54 54 56 58 57 57 57 59 58 57 55 54 54 54 54 54 54 55 55 56 55 56 57 58 58 60 62 63 64 66 69 71 73 198 255 255
252 253 206 103 102 96 91 92 85 80 77 74 72 72 73 72 72 72 74 77 80 82 82 81 78 75 84 91 97 103 113 113 105 88 74 63 54 58 64 71 78 77 80 84 71 71 73 71 70 63 53 47 50 58 67 73 72 69 66 61 55 49 49 53 56 57 63 68 71 71 75 83 92 95 91 92 99 106 114 122 128 124 118 109 98 84 71 63 79 87 89 89 103 121 137 141 142 142 141 132 119 106 98 104 110 115 115 112 104 97 111 125 134 135 117 104 97 99 108 128 160 180 187 187 185 170 162 160 163 156 143 124 98 83 75 71 65 66 74 87 107 131 159 189 207 219 229 231 231 228 225 218 208 197 186 176 162 141 121 109 100 83 73 71 77 90 98 101 97 92 91 94 98 102 105 107 108 112 117 115 116 115 112 110 112 113 106 93 88 87 86 89 96 105 109 105 99 91 84 87 94 90 79 67 57 62 62 58 51 56 58 57 58 56 55 58 61 60 57 53 52 53 55 56 56 57 59 61 61 59 57 55 55 55 54 53 53 54 55 56 57 57 59 59 60 62 63 64 65 67 69 71 73 196 254 254
254 255 207 102 102 96 91 93 85 79 77 74 73 73 74 74 74 74 78 81 82 83 82 82 79 75 85 93 101 107 115 115 104 84 69 58 49 55 61 69 80 82 87 91 78 76 74 67 63 56 48 45 50 57 68 77 77 74 70 63 55 50 53 57 61 62 70 75 79 80 82 89 99 102 97 97 104 111 117 122 126 122 117 108 98 87 78 72 90 96 96 92 103 119 134 136 132 128 126 116 101 87 77 85 93 98 102 101 97 96 113 129 140 142 123 107 97 94 101 121 154 173 179 181 181 170 164 165 166 154 137 115 84 67 58 55 48 48 55 70 93 119 148 182 202 215 226 228 228 226 225 219 211 200 187 178 165 145 125 110 99 82 76 76 79 91 98 101 99 97 97 99 103 105 107 111 111 114 116 115 112 110 110 112 114 115 110 99 95 93 89 89 93 99 102 99 94 88 85 89 93 90 79 67 58 58 55 51 45 52 57 59 60 56 55 57 61 60 57 54 54 54 56 57 58 59 61 62 60 58 54 51 51 51 50 49 49 50 52 55 56 57 59 60 61 63 64 66 67 69 71 73 75 199 255 255
255 255 209 106 106 100 93 96 88 81 78 74 73 72 72 73 74 76 80 82 84 83 82 80 75 70 81 90 99 106 115 115 103 80 64 52 45 48 54 64 79 80 86 93 81 78 73 61 55 45 37 36 41 49 60 72 73 69 64 57 50 45 47 52 56 57 66 72 77 79 80 88 98 101 96 97 104 113 120 125 127 123 116 109 100 93 86 82 99 105 103 94 101 114 125 120 107 96 90 76 58 42 32 43 52 59 68 72 72 74 95 115 129 135 119 107 101 95 98 116 149 167 174 176 175 162 156 154 149 132 113 92 60 41 33 33 25 24 30 48 75 105 139 175 197 212 224 226 227 227 228 226 220 212 197 188 177 156 135 118 104 92 87 85 84 91 95 97 98 99 102 105 107 107 107 108 111 111 112 112 108 106 108 113 115 115 114 104 101 99 94 89 88 89 89 88 87 85 87 88 87 84 78 74 70 65 60 55 51 56 61 64 65 61 59 61 62 61 57 54 53 53 54 56 57 60 62 62 60 57 52 50 49 49 47 46 46 48 50 54 57 57 59 60 61 63 65 67 69 72 74 77 79 200 255 255
253 254 208 108 109 102 95 99 90 83 79 74 73 71 71 72 73 76 81 83 83 83 82 77 72 66 78 86 94 101 111 111 100 78 61 49 44 45 49 59 77 80 86 94 86 82 74 56 46 36 28 30 35 41 51 62 63 60 55 49 44 41 42 47 50 51 60 67 72 75 76 83 93 96 91 92 100 109 117 121 122 117 112 106 100 97 94 92 107 113 111 101 104 112 119 107 89 76 69 54 36 22 13 25 34 42 55 62 64 67 88 107 121 129 117 109 104 99 99 115 146 163 170 172 170 155 147 143 134 115 95 76 47 31 26 29 21 17 20 35 65 99 136 172 194 209 221 224 226 226 229 228 226 220 205 198 189 169 151 135 122 111 105 99 93 95 95 97 98 102 105 108 110 109 107 107 109 109 108 110 107 106 107 112 112 112 114 109 108 106 100 92 86 83 82 83 85 86 89 87 80 77 76 77 79 73 67 63 59 61 64 66 66 62 60 62 62 61 59 55 54 53 53 55 57 60 62 61 60 58 54 52 52 51 49 48 48 49 52 55 57 58 60 61 61 64 66 68 70 73 76 78 80 200 255 255
250 252 207 110 111 105 98 102 93 85 81 75 73 71 70 71 73 76 80 81 82 81 81 75 68 63 74 82 88 94 103 105 97 78 61 49 46 45 48 57 77 81 88 95 92 88 77 53 41 31 24 29 32 36 42 49 48 46 43 41 38 37 37 40 44 46 53 60 65 68 69 76 85 88 83 85 93 101 109 114 114 109 105 102 101 102 101 101 115 121 120 111 112 115 116 100 81 68 61 48 34 22 17 29 37 44 59 67 70 71 89 104 116 124 115 111 110 105 105 118 147 163 170 172 167 150 140 133 121 103 85 69 47 37 36 43 35 28 27 36 66 102 139 172 193 207 218 222 224 225 227 228 227 224 210 205 199 183 169 156 145 135 126 115 104 100 97 97 99 103 107 110 112 111 108 107 109 107 106 110 110 110 110 110 108 108 114 115 115 113 108 98 89 81 80 83 87 89 92 85 74 70 73 79 85 80 75 71 69 65 65 65 63 60 59 61 62 62 60 58 56 55 55 56 58 60 62 61 60 61 58 58 57 57 55 53 52 53 55 57 58 59 61 62 62 64 66 68 70 73 76 78 81 198 253 253
250 252 209 114 114 108 101 104 96 88 83 77 75 72 70 70 72 75 78 79 79 79 78 71 64 59 70 77 82 87 97 99 93 77 61 50 49 47 48 57 77 83 89 93 93 92 80 53 41 32 27 34 36 37 37 38 36 34 31 32 34 35 34 35 37 40 46 52 57 61 63 70 78 80 78 80 89 95 103 108 109 105 103 104 108 110 112 113 123 131 133 127 126 126 121 102 83 72 67 56 46 38 36 47 53 59 75 83 86 85 99 108 116 123 119 119 122 120 120 131 154 168 176 178 172 154 142 132 119 103 89 77 65 61 64 76 69 61 55 58 87 121 154 180 196 207 216 219 220 220 221 222 223 222 210 205 201 189 178 169 161 153 141 126 111 101 95 93 96 101 105 108 111 110 107 107 110 108 107 113 115 115 113 110 106 106 113 119 120 119 114 103 92 82 79 83 88 90 90 81 69 64 70 80 90 87 83 79 77 68 63 60 56 53 53 56 58 60 61 61 60 59 60 61 62 64 65 64 65 65 64 65 64 63 60 58 57 57 58 58 58 59 61 62 63 65 66 68 69 72 75 77 80 198 253 253
249 251 208 114 113 107 101 102 95 87 82 76 73 71 69 70 71 74 77 79 80 82 83 76 68 64 75 83 89 94 103 107 102 86 65 50 46 46 47 55 75 87 94 97 93 92 81 54 45 37 33 41 44 45 42 38 35 33 30 31 34 38 38 38 39 42 47 52 56 60 62 67 73 75 74 77 86 92 101 109 111 108 108 111 115 119 121 124 133 138 138 132 132 132 130 114 98 89 87 81 74 70 71 81 89 96 112 120 122 120 130 133 134 136 128 127 132 136 135 143 162 173 178 179 173 153 139 129 117 98 78 61 53 53 60 76 70 64 60 62 94 131 167 188 201 211 218 221 221 220 221 221 222 222 213 212 209 194 184 175 167 153 137 122 108 103 98 97 100 104 107 107 110 112 111 110 112 111 110 114 116 115 112 109 107 108 113 115 115 113 109 98 89 81 79 83 87 90 92 87 77 73 77 85 92 87 81 76 74 66 62 60 57 55 55 56 56 56 56 56 59 60 61 62 62 63 63 62 61 60 58 60 61 62 59 58 56 56 57 58 59 60 61 62 64 65 67 67 68 70 73 75 78 197 253 253
249 250 208 114 112 106 100 100 94 87 81 76 73 70 69 70 72 74 77 80 83 86 90 82 75 71 82 90 97 102 111 115 111 94 69 50 44 46 47 53 74 91 99 99 91 90 80 53 48 41 38 47 52 52 48 39 35 33 29 31 36 42 43 42 42 44 48 51 54 58 60 64 67 68 69 73 83 88 100 110 116 116 118 124 128 130 133 137 143 145 143 137 137 141 142 132 120 114 116 114 110 108 112 122 130 138 153 160 159 154 160 159 154 149 136 134 140 150 148 152 168 176 180 179 174 153 137 127 117 94 68 44 41 44 53 72 67 64 63 64 98 140 178 194 205 212 219 222 222 221 221 221 222 222 217 218 216 199 188 180 171 149 131 115 104 106 104 102 106 108 108 106 108 113 114 112 113 114 115 115 116 115 111 108 108 110 112 111 108 106 102 94 88 83 82 84 87 89 93 92 88 84 85 88 91 85 78 73 71 65 62 60 58 57 55 55 53 52 51 50 56 59 61 61 60 59 59 59 57 54 52 54 57 59 57 56 54 54 55 58 59 60 61 62 64 65 66 66 67 68 70 72 74 196 252 252
250 251 209 115 111 106 101 99 94 88 82 77 73 71 70 71 73 75 78 81 85 90 95 87 79 75 87 94 101 105 114 118 116 100 73 52 44 47 48 53 73 93 102 98 88 88 79 51 48 42 40 50 55 56 50 35 29 27 25 29 36 43 45 42 42 45 46 47 48 52 55 57 59 59 61 67 77 82 95 110 122 126 134 142 148 149 149 151 155 155 152 145 147 153 159 153 145 144 150 152 151 151 156 163 170 178 190 194 189 179 181 175 165 157 141 136 143 157 156 159 171 179 183 183 179 155 139 128 119 96 67 39 42 47 58 77 74 73 72 70 105 147 185 196 204 210 217 220 221 221 221 221 222 223 221 222 219 202 191 185 177 150 129 114 105 110 110 108 108 109 108 104 104 110 113 110 113 117 120 118 119 117 112 107 108 111 111 108 105 102 99 95 93 91 90 90 90 90 92 94 95 92 90 89 88 85 80 75 73 66 61 57 55 52 51 50 49 47 46 46 53 58 61 60 58 57 56 57 55 51 49 51 55 57 56 55 54 53 54 56 58 58 59 60 63 64 65 65 65 65 66 69 71 195 253 253
252 254 211 117 114 108 102 101 95 88 82 77 73 71 69 71 73 76 80 83 86 91 95 88 80 76 87 95 102 107 113 116 113 96 71 51 45 48 47 51 74 101 115 113 104 102 86 46 40 34 33 48 54 54 47 33 28 25 22 22 27 35 38 35 34 36 38 40 43 47 49 51 53 53 55 61 71 77 89 99 104 106 112 122 130 138 146 155 160 162 158 151 149 151 152 142 128 123 127 128 127 128 134 144 153 162 178 186 186 181 184 177 169 161 147 143 149 157 154 157 172 179 184 185 183 163 148 138 126 99 69 43 43 49 62 85 82 78 75 72 107 150 188 199 205 209 214 216 216 216 217 220 221 222 218 222 223 206 194 185 177 155 137 119 103 105 104 104 109 112 110 105 105 111 114 114 116 116 116 117 117 114 109 106 107 111 115 116 114 111 106 98 90 83 83 86 90 93 98 99 96 93 92 93 93 85 75 68 65 60 59 59 58 55 53 51 49 47 47 46 54 59 61 61 59 59 59 59 56 52 48 50 53 56 54 53 51 51 53 56 59 60 61 62 64 66 67 67 67 68 70 72 75 199 255 255
254 255 214 120 117 111 105 105 98 91 85 79 76 74 73 73 75 78 82 84 87 90 94 88 81 77 87 95 102 106 111 112 108 92 71 55 51 55 53 56 79 106 120 119 112 107 88 45 37 31 32 48 54 53 46 33 28 25 21 19 22 27 31 28 27 29 32 36 39 43 46 49 53 54 55 61 71 78 88 95 97 98 103 111 118 126 134 142 149 153 153 148 146 148 147 136 123 116 118 116 113 112 117 127 135 144 160 168 169 168 173 170 164 160 148 145 149 153 149 155 174 185 192 194 192 177 164 152 138 113 88 66 65 68 78 98 95 90 85 81 114 153 188 199 205 208 212 214 215 215 217 219 221 220 214 217 217 203 191 184 177 161 144 125 106 106 104 105 110 112 110 105 107 112 115 115 116 115 115 117 118 114 108 104 104 109 117 120 119 116 112 103 95 88 88 91 94 96 99 99 97 93 92 92 92 84 74 65 61 57 57 59 58 55 52 50 50 49 49 49 56 60 62 62 61 60 60 59 56 52 49 51 54 55 53 52 51 51 53 56 59 60 61 62 64 66 67 67 67 69 71 73 76 200 255 255
255 255 216 122 119 115 110 109 102 96 91 85 82 80 78 78 79 81 84 86 87 89 92 87 82 78 87 93 98 102 107 106 99 87 73 63 62 64 62 65 85 108 119 118 113 108 87 45 36 31 34 50 55 54 47 34 28 24 21 19 20 24 26 24 24 27 30 34 38 41 45 51 56 57 58 64 75 81 89 94 97 100 105 111 115 120 122 125 133 139 143 142 143 146 147 138 128 124 126 119 113 110 110 118 124 131 143 148 149 148 156 157 156 157 148 145 145 145 143 152 175 193 202 206 205 194 182 170 154 135 118 105 101 101 107 119 116 110 104 99 127 158 185 197 203 206 210 213 214 215 217 219 220 217 210 207 204 195 186 180 176 165 150 132 113 111 108 108 110 110 108 105 108 112 114 113 116 116 116 120 121 118 111 103 102 107 117 122 122 118 116 111 107 102 102 102 101 99 96 95 95 92 89 86 85 82 74 66 62 58 56 56 55 51 48 49 52 54 55 56 58 61 62 63 62 61 60 58 55 53 53 55 56 56 55 54 53 53 54 56 58 59 60 61 63 64 65 66 66 68 70 73 75 201 255 255
254 255 216 124 120 116 112 109 104 99 93 87 84 82 80 79 79 81 84 85 85 85 87 85 82 82 88 92 95 95 93 88 81 75 70 68 70 68 63 63 83 111 124 121 127 121 92 35 22 20 28 51 58 55 45 28 23 22 23 24 26 28 29 27 28 31 32 34 36 39 44 49 53 54 56 60 65 66 68 72 78 89 103 118 132 142 149 154 158 163 165 162 161 161 160 153 145 144 148 145 142 139 139 143 146 149 156 159 157 154 157 156 155 157 156 153 149 142 144 153 170 185 198 207 207 202 194 184 169 155 143 134 135 139 147 160 159 152 141 129 151 175 191 198 201 203 207 209 209 209 211 214 217 217 206 198 192 192 185 178 171 162 150 135 118 110 106 106 107 110 110 108 106 106 108 111 118 122 124 125 125 122 118 108 103 104 112 124 126 124 122 120 117 114 111 108 104 100 95 92 90 87 83 80 77 78 77 75 72 64 58 53 47 44 45 51 59 64 67 67 65 64 64 64 64 63 60 59 56 55 57 55 53 51 52 53 54 54 55 55 55 57 58 60 62 64 65 65 66 67 69 72 74 200 255 255
253 255 215 124 119 115 112 108 104 99 93 86 83 81 79 78 78 80 83 83 83 83 85 84 83 84 88 90 91 89 84 77 69 67 67 68 72 70 62 60 80 114 129 127 135 127 93 29 15 15 27 54 62 59 46 28 22 22 25 26 27 30 32 29 30 33 33 34 36 39 44 49 53 54 56 59 62 60 59 61 66 80 96 114 132 145 155 162 166 171 174 172 169 168 166 159 153 152 156 155 153 152 151 154 156 158 163 165 164 160 159 155 153 155 157 155 149 138 140 149 164 178 192 203 204 203 197 188 174 163 154 148 151 156 166 178 180 174 162 148 167 186 196 200 200 200 203 204 204 203 204 208 210 212 199 188 182 186 180 173 166 160 149 135 118 110 106 106 107 111 112 111 109 109 110 114 123 127 129 129 129 128 125 115 109 108 113 123 125 122 121 120 117 114 111 108 105 100 96 93 90 88 83 79 75 77 78 77 75 65 58 53 46 44 46 53 62 67 71 71 67 65 64 64 63 62 59 56 54 53 55 54 52 51 53 54 55 55 56 55 54 56 58 59 62 64 65 65 65 66 68 71 73 199 255 255
251 254 214 123 117 113 110 106 103 98 91 85 82 80 78 76 76 78 81 81 81 80 83 83 84 84 87 89 89 86 78 69 61 60 63 68 73 70 61 57 78 117 135 133 143 132 94 25 11 12 27 57 66 64 50 31 25 25 28 27 28 30 34 31 31 34 35 36 38 41 46 51 54 55 56 59 61 58 55 54 57 71 88 108 128 144 157 166 170 175 179 177 173 170 167 160 153 151 154 153 152 152 153 156 157 158 163 167 168 167 163 157 153 154 158 157 151 137 138 146 160 172 186 197 199 201 198 190 177 165 157 153 157 164 173 187 190 185 174 160 177 194 201 201 199 198 199 199 197 195 197 201 204 205 193 181 175 181 176 169 161 156 147 134 117 108 105 106 108 113 116 115 113 113 115 119 127 131 132 132 133 132 130 122 115 112 115 122 122 119 117 116 113 110 107 106 104 101 98 95 92 90 86 80 75 76 77 76 73 64 58 53 47 46 48 55 62 67 71 71 67 65 63 63 62 60 56 53 50 49 51 51 50 50 53 55 55 55 56 55 54 56 58 60 62 64 65 66 65 66 68 71 73 197 255 255
250 252 212 123 116 112 109 104 102 97 89 83 81 79 76 75 75 78 81 81 79 79 81 83 84 86 88 90 90 86 75 63 54 54 61 68 75 71 60 55 78 122 143 142 153 140 97 20 5 8 26 61 72 70 55 36 30 30 33 30 30 33 39 36 36 37 38 39 41 45 49 52 54 56 57 58 58 54 48 45 46 62 81 103 126 146 163 177 179 183 184 180 173 168 162 153 144 140 141 142 141 142 144 147 149 150 157 164 169 174 168 162 157 158 164 165 159 143 144 149 159 167 180 191 195 200 200 194 178 163 153 149 155 163 175 189 194 190 179 167 184 200 204 202 198 194 193 193 190 187 190 195 200 203 191 179 172 179 175 166 153 150 143 132 117 107 103 104 108 117 122 122 119 117 118 124 133 136 135 134 133 133 133 129 121 115 117 122 122 119 115 114 111 107 103 103 103 102 103 100 95 93 89 84 77 75 75 75 72 62 56 52 47 48 52 58 64 69 72 72 68 64 62 61 60 58 54 49 46 45 45 47 47 48 52 54 55 55 56 56 56 58 59 61 64 67 68 68 68 69 71 74 76 197 254 254
249 252 212 120 114 111 109 103 101 96 90 84 82 80 77 76 76 77 79 80 79 78 81 83 85 87 88 90 90 86 75 65 57 61 67 74 80 78 67 61 82 127 148 146 156 144 102 27 14 18 36 69 80 77 60 38 31 31 34 32 33 37 43 39 38 40 40 40 41 45 50 54 56 57 59 61 62 57 52 48 49 63 81 103 124 144 161 175 178 183 186 186 180 175 170 163 159 158 162 164 165 168 171 173 174 174 178 183 186 187 180 170 163 163 167 167 160 144 146 153 163 173 185 195 197 201 199 191 177 166 159 157 164 173 184 198 203 199 187 171 185 199 203 198 193 189 188 188 186 183 186 190 194 196 185 174 168 177 173 166 159 155 146 133 115 107 106 110 115 121 122 121 120 121 123 127 133 135 134 135 137 138 137 129 121 117 118 124 123 120 118 118 115 111 108 108 107 104 102 99 95 92 87 80 74 73 73 72 69 61 56 53 48 48 51 57 63 68 71 71 68 66 64 62 60 58 53 49 45 44 46 50 52 53 56 59 59 60 60 60 60 62 63 65 67 70 70 70 70 71 72 75 77 197 253 253
249 251 211 119 112 109 108 102 100 96 90 84 82 80 78 76 76 77 79 80 79 79 82 85 87 88 89 90 89 85 74 64 57 62 69 75 81 80 69 62 82 129 151 149 158 145 104 30 18 21 39 72 83 80 63 40 33 33 36 34 34 38 44 40 39 41 41 41 41 44 49 53 55 56 59 61 63 58 53 49 49 61 78 100 120 141 159 175 179 184 189 190 186 180 175 170 167 167 171 174 177 180 184 186 186 186 189 192 194 194 183 172 163 160 165 164 156 140 141 149 161 171 183 192 195 199 196 189 177 169 163 161 169 178 188 202 209 205 193 176 188 201 203 197 191 186 184 183 181 179 181 185 188 188 177 167 164 173 167 161 156 154 146 132 113 106 107 112 118 121 122 119 120 122 125 130 134 135 135 137 140 141 139 131 124 120 121 124 123 119 117 116 113 109 107 108 108 105 101 99 96 94 87 80 73 73 73 71 68 61 57 55 50 49 51 56 62 66 69 69 67 65 64 62 60 57 52 49 45 45 48 52 55 57 60 62 63 63 63 62 62 64 65 67 69 71 72 72 72 72 74 76 78 197 252 252
247 250 209 118 110 108 106 101 99 95 88 83 81 79 77 76 76 77 79 80 80 81 84 87 89 90 90 90 89 83 71 60 54 60 67 74 78 78 66 58 78 129 153 152 160 146 104 27 15 19 37 70 83 81 65 42 35 36 39 35 34 38 44 40 38 39 39 39 40 43 47 51 52 53 56 59 60 56 50 46 44 55 73 95 116 138 159 176 181 187 192 194 189 183 177 172 168 167 169 172 175 179 183 185 185 185 188 191 193 194 180 166 156 153 158 157 150 131 131 139 152 162 174 184 189 195 194 188 177 169 163 161 169 178 189 203 212 210 200 184 195 206 207 198 190 183 179 178 175 172 174 178 181 180 168 160 158 167 159 151 146 148 142 129 108 104 106 112 117 120 120 117 118 122 126 132 135 136 136 138 141 142 141 134 128 124 124 123 120 116 113 110 106 101 100 103 104 104 102 101 99 98 90 82 75 74 73 71 68 62 59 57 53 52 53 56 60 64 66 66 64 63 62 60 58 55 51 48 45 45 47 52 56 58 62 64 64 64 65 63 63 65 66 68 70 73 73 73 73 74 75 78 80 197 251 251
247 249 208 117 109 106 105 99 98 94 88 82 81 79 77 76 76 77 79 80 82 83 88 91 94 95 94 94 93 86 73 61 54 61 69 77 80 80 67 57 75 128 153 152 158 144 102 26 16 21 40 74 89 88 72 48 42 42 45 39 37 40 46 40 37 38 38 37 38 41 46 48 49 51 55 57 58 54 49 44 42 54 73 95 116 137 157 175 179 184 189 191 187 182 179 177 174 172 172 175 179 183 187 187 188 189 191 194 197 198 182 166 154 150 156 157 152 134 131 136 147 157 169 179 187 196 197 191 180 170 164 163 173 183 194 208 218 220 215 202 212 220 217 203 191 181 175 173 169 166 167 170 172 171 160 153 151 160 150 141 135 139 134 123 105 104 108 114 117 119 118 115 116 120 126 132 135 138 139 138 140 141 140 134 130 127 126 119 114 109 106 105 102 98 97 99 101 101 101 104 106 105 97 87 77 75 74 72 69 64 61 60 58 58 58 59 61 63 64 64 63 62 61 59 57 53 49 46 43 42 44 49 53 57 61 64 65 64 65 64 63 66 67 68 71 73 74 74 74 75 76 79 80 197 250 250
246 248 207 114 106 104 102 97 96 92 86 81 79 79 77 76 76 77 80 82 84 86 91 96 99 99 97 97 96 88 73 61 53 60 69 76 78 79 65 54 72 125 152 151 156 141 99 23 14 19 39 72 88 90 76 53 47 48 51 43 40 41 47 41 38 39 39 38 38 41 45 48 49 51 55 58 58 56 50 45 42 54 72 94 113 135 155 173 178 184 188 188 184 182 181 182 180 178 177 179 182 186 188 188 189 191 192 194 196 197 181 165 153 149 154 155 150 130 126 131 144 154 166 176 185 196 199 194 183 172 165 163 172 180 189 201 212 216 213 203 212 219 216 201 189 179 173 170 167 163 165 168 169 166 155 148 147 156 142 130 124 130 128 119 102 105 111 117 118 118 116 113 114 119 126 132 135 138 139 138 139 139 138 133 130 128 125 114 107 102 98 97 95 92 92 93 95 96 98 102 107 107 97 85 73 71 70 68 66 65 65 65 64 63 62 61 62 63 63 60 59 57 56 54 52 48 44 43 41 41 43 48 52 56 62 65 66 66 67 65 64 66 67 69 71 74 75 75 75 76 77 80 81 196 249 249
247 248 206 112 105 102 100 95 94 90 84 80 78 77 76 76 76 78 80 83 86 89 93 99 102 102 99 99 97 88 72 59 52 58 68 75 76 78 63 52 69 123 152 154 158 142 99 22 11 16 34 66 83 86 77 57 52 54 59 48 42 41 47 43 41 41 41 41 41 43 46 49 51 53 56 58 58 57 51 46 42 54 70 90 108 130 151 171 178 184 187 186 183 182 183 185 183 181 179 181 184 187 189 189 191 192 193 194 195 195 179 165 154 149 153 151 144 122 118 125 142 154 166 177 186 197 202 200 191 180 171 167 170 175 183 193 203 207 205 197 206 213 210 197 187 177 172 169 166 163 164 167 167 162 151 146 145 151 136 123 116 123 122 115 101 106 113 119 118 117 115 113 113 119 126 132 134 137 139 138 138 138 137 133 129 126 123 110 102 98 94 93 92 91 92 95 98 100 103 108 112 112 101 87 73 71 70 69 67 67 68 69 69 67 65 64 64 64 62 58 55 52 50 49 47 45 42 42 41 42 44 48 52 57 63 66 67 67 68 66 65 67 68 70 72 75 76 76 76 77 79 81 83 197 250 250
250 252 210 115 107 103 100 95 94 89 83 79 77 76 76 76 76 78 81 83 86 89 93 99 102 101 98 97 94 84 67 54 48 56 68 76 77 80 65 51 68 124 159 168 171 154 106 24 8 10 26 55 72 78 73 58 57 61 69 54 43 37 45 44 43 42 45 45 44 45 48 51 53 54 54 54 54 53 47 42 40 51 64 80 97 121 145 167 178 183 186 185 183 182 181 181 178 175 174 178 183 187 189 192 193 193 194 195 195 193 179 167 159 153 152 146 134 111 109 120 142 156 170 183 192 202 209 213 211 200 188 179 175 178 183 190 197 199 197 190 199 205 203 196 187 179 173 170 166 162 164 166 165 159 150 145 144 145 132 122 116 117 117 112 102 107 112 117 116 117 117 116 116 120 125 130 132 135 138 140 139 139 139 135 130 125 121 110 104 101 97 98 99 101 107 116 122 125 130 132 133 131 118 102 86 83 83 81 74 71 69 69 69 70 69 68 68 66 62 56 51 47 45 44 44 44 44 45 45 46 47 49 53 57 62 64 64 64 65 64 64 66 68 69 72 74 76 76 77 78 81 83 85 200 253 253
253 255 212 116 107 104 102 95 94 90 84 80 78 78 78 78 78 79 81 84 86 88 91 99 102 100 96 96 93 82 64 51 47 57 70 80 80 88 73 56 70 131 171 184 183 164 114 26 8 8 22 48 65 73 71 59 60 67 78 58 40 31 43 46 46 43 48 48 47 47 48 51 53 52 49 47 47 48 41 36 40 51 62 74 86 110 135 157 170 175 177 179 180 180 181 180 178 177 178 183 188 193 196 200 201 199 197 196 194 190 175 164 156 146 137 123 104 83 90 108 134 153 169 183 195 207 218 226 231 222 208 192 184 186 191 195 201 201 198 192 199 204 202 199 190 180 173 169 164 160 162 164 162 154 148 144 140 137 131 125 120 112 108 105 100 106 111 116 119 121 123 122 122 123 124 127 129 133 137 140 139 137 135 132 126 120 115 103 98 97 95 101 109 120 134 148 157 159 163 167 169 168 148 123 100 97 98 92 77 66 60 58 60 65 68 70 69 65 60 54 50 47 46 46 48 50 50 51 49 47 47 47 50 55 58 58 58 58 61 64 66 68 70 72 74 76 78 79 79 82 84 87 89 203 255 255
255 255 213 116 107 104 102 94 94 91 86 82 80 80 80 80 80 80 82 84 87 88 90 99 102 99 94 94 92 80 60 48 46 58 73 82 82 94 79 60 71 135 178 194 189 168 117 28 8 6 18 40 57 68 69 58 61 71 84 61 40 27 41 47 47 43 50 49 48 47 48 50 52 51 46 43 44 46 40 36 43 56 65 73 80 103 127 148 163 168 170 174 178 181 183 183 182 182 185 190 194 199 203 207 207 203 198 194 189 181 164 154 145 133 117 96 72 53 65 89 121 145 163 179 193 208 220 232 242 235 220 201 189 189 193 195 200 200 198 192 196 200 199 197 188 177 171 167 162 158 162 163 160 149 146 142 137 131 129 128 125 110 103 101 98 107 113 119 124 127 128 127 127 126 126 125 127 132 138 142 140 136 132 128 123 117 109 95 91 92 92 102 116 134 155 171 181 183 186 192 197 196 171 140 110 109 109 102 80 64 54 50 54 62 68 71 69 63 57 51 48 46 46 47 50 54 55 56 52 49 48 47 50 54 56 54 53 53 58 64 68 71 72 74 76 78 80 81 82 84 87 89 91 205 255 255
255 255 213 114 105 103 102 93 93 91 86 83 82 82 82 82 82 82 83 86 88 90 91 99 103 98 92 92 89 76 57 46 45 59 75 84 83 97 82 62 70 133 177 194 187 167 117 29 8 5 14 33 50 63 68 57 61 72 88 65 41 26 40 46 47 43 51 50 48 46 47 50 52 50 44 42 43 46 42 40 51 64 72 77 81 102 123 142 158 163 166 172 178 183 187 189 190 191 195 198 201 206 209 212 211 206 196 190 180 168 148 137 129 116 96 71 43 25 40 68 103 133 154 170 186 202 215 228 241 236 223 202 188 187 189 188 193 195 194 189 191 193 192 190 182 172 166 163 160 156 161 162 158 145 143 140 134 128 127 129 130 111 103 100 99 109 118 125 131 131 131 130 131 129 127 124 125 131 139 144 142 138 132 126 122 116 107 90 85 86 89 101 119 142 166 184 194 195 197 204 212 213 184 149 116 118 119 111 87 68 55 50 54 63 68 71 68 61 54 47 44 44 45 47 51 55 57 58 54 51 51 49 51 55 55 53 52 52 57 64 70 72 74 75 77 79 81 81 83 85 88 90 92 205 255 255
255 255 216 119 110 107 105 96 96 93 88 84 82 81 81 82 82 82 84 86 90 92 94 100 101 96 89 86 81 66 49 40 42 60 77 88 89 99 83 63 69 127 170 192 189 171 122 36 13 8 14 30 45 58 65 55 61 75 92 72 48 30 39 46 48 44 50 49 47 45 46 49 51 49 43 40 40 43 40 43 59 75 83 87 94 113 132 148 161 166 170 177 184 187 188 185 185 186 189 193 199 206 211 213 210 203 195 190 179 162 142 130 123 113 99 78 55 39 48 69 99 129 152 170 185 195 207 220 236 233 222 204 195 195 197 193 195 197 198 194 196 196 193 188 178 167 160 156 152 149 153 153 150 141 143 141 133 124 130 137 141 123 112 109 111 119 123 125 126 128 132 134 134 131 125 116 121 132 144 152 152 150 145 139 134 127 118 102 98 100 104 117 134 156 177 194 205 209 212 215 217 217 196 168 142 146 149 142 119 93 73 62 63 72 77 77 71 63 54 46 40 38 39 41 47 52 56 60 59 58 58 55 57 60 60 56 53 51 55 60 64 67 69 70 72 74 76 77 79 81 84 87 89 206 255 255
255 255 216 124 115 110 106 100 97 93 86 80 77 76 75 78 80 81 82 86 91 97 101 105 105 100 92 85 74 56 40 33 38 63 84 97 101 102 82 60 65 110 152 183 192 177 130 45 16 8 12 22 35 51 63 56 65 83 104 88 60 34 32 41 44 40 45 45 42 39 40 46 52 51 44 40 40 41 40 44 61 75 80 83 94 117 136 150 160 166 172 180 189 191 190 186 187 187 187 189 195 202 208 211 206 198 192 187 173 147 127 119 117 118 114 103 86 66 62 74 101 133 158 175 185 187 195 209 225 226 221 213 205 203 200 190 188 190 196 196 195 192 187 182 173 163 157 154 150 147 149 149 146 140 142 140 132 118 124 134 141 130 119 115 117 126 131 132 129 130 135 140 139 135 126 112 120 134 150 162 166 167 164 155 145 135 128 112 110 116 125 137 151 166 180 194 206 214 217 213 207 206 196 183 168 172 178 176 159 137 118 107 106 112 112 107 98 86 73 59 42 33 30 33 41 49 54 62 67 72 71 63 61 62 64 59 55 51 54 56 57 61 63 64 66 68 70 72 73 76 79 81 84 203 255 255
253 254 214 127 119 112 105 104 98 91 84 76 71 69 69 74 76 78 78 83 91 99 106 110 110 106 98 86 69 49 35 28 32 66 92 108 116 106 81 59 62 92 130 170 194 182 135 51 17 6 9 16 26 44 62 58 71 91 115 104 73 37 25 35 41 37 40 41 38 33 35 44 55 56 48 43 41 40 38 42 56 68 71 74 91 117 137 150 155 161 168 177 187 191 190 189 193 193 189 187 191 197 200 203 199 190 185 179 160 127 108 106 114 125 135 133 120 92 77 82 107 141 167 181 186 180 185 199 214 218 222 226 215 211 203 185 179 182 191 195 191 183 174 173 167 160 157 155 152 151 151 150 148 144 144 139 128 112 117 125 133 130 122 117 119 129 138 143 137 136 140 146 144 138 127 111 120 136 156 171 178 181 180 167 150 136 133 118 119 130 145 156 166 175 181 190 200 210 213 202 187 186 188 187 183 188 196 200 191 180 168 160 158 160 157 148 137 123 106 85 53 34 28 31 40 49 56 64 76 85 84 68 60 59 64 62 57 51 55 54 53 57 59 60 61 63 65 67 69 72 75 77 78 200 255 255
252 253 213 126 120 112 105 105 97 90 83 73 68 66 66 70 71 72 72 78 84 92 99 106 111 113 104 89 71 50 35 24 24 63 95 118 129 109 82 62 64 82 113 155 190 179 130 47 11 2 8 17 25 41 61 60 73 93 118 111 78 39 22 35 43 41 42 43 40 33 36 49 62 65 56 49 45 41 33 32 43 57 63 68 90 117 136 145 146 150 156 165 175 181 187 194 201 203 198 191 189 188 185 188 185 176 166 157 136 102 88 96 113 134 152 154 137 101 86 91 115 150 174 186 184 179 184 196 208 217 229 243 227 219 208 184 176 177 185 189 181 167 154 161 161 159 161 162 162 161 163 162 161 158 151 135 117 109 115 117 116 119 114 113 119 128 142 153 146 143 146 152 147 137 125 111 123 139 157 171 176 180 180 164 141 123 121 113 119 133 152 167 178 185 185 186 189 195 194 181 165 165 170 172 169 174 187 197 195 197 194 190 189 190 189 185 181 169 152 128 84 56 44 46 54 60 64 68 80 90 86 63 49 46 58 60 57 52 58 56 54 58 60 61 62 64 66 68 71 74 76 77 79 199 255 255
248 250 210 122 116 108 100 101 93 87 81 72 67 65 65 71 72 73 73 78 83 89 96 102 108 113 106 92 74 57 44 34 33 68 99 122 135 111 87 69 66 67 86 123 164 161 124 56 19 8 14 20 24 37 57 59 73 93 117 116 87 48 24 36 43 41 41 42 40 33 37 49 62 65 58 51 47 41 34 34 46 62 70 78 101 126 141 145 141 142 145 150 159 167 176 187 195 199 198 192 188 185 179 182 179 171 160 148 125 89 78 89 111 134 156 161 146 114 102 104 120 150 171 183 182 183 189 199 204 212 227 246 232 226 218 197 188 187 191 191 180 163 147 153 154 154 158 161 162 163 163 162 164 164 155 140 123 114 116 114 110 113 112 114 120 123 136 149 144 143 147 152 142 129 118 113 130 149 166 174 173 171 167 146 121 103 105 110 122 139 160 177 187 192 186 180 177 178 174 162 149 148 157 163 163 167 180 192 194 204 205 202 200 199 197 196 197 189 174 151 103 75 64 68 78 86 91 96 109 118 114 79 55 45 56 59 57 53 59 59 58 62 63 64 65 67 69 72 74 76 77 78 79 197 252 252
246 247 206 117 113 104 96 96 89 85 80 72 68 66 67 73 76 77 77 80 85 90 95 99 104 110 107 95 80 66 59 51 50 80 103 121 134 108 90 77 66 52 59 88 132 140 119 70 33 20 21 22 22 32 50 56 72 92 115 120 95 57 29 37 43 41 40 42 41 35 39 49 61 64 59 53 50 43 38 40 54 72 81 90 114 135 147 147 139 136 136 138 145 154 166 178 186 191 193 190 188 184 176 179 177 170 160 147 120 81 73 85 106 129 150 155 144 119 109 109 116 139 159 171 175 183 192 201 200 207 221 240 230 230 227 212 203 199 198 194 181 163 146 150 150 150 155 159 160 160 158 156 158 162 154 145 133 122 120 116 111 112 114 118 122 119 128 139 136 138 142 146 129 114 106 109 132 155 172 174 163 153 143 120 96 82 89 110 129 149 171 184 192 193 182 172 164 163 158 148 140 141 152 160 164 167 177 188 193 206 210 207 204 199 196 196 203 200 189 168 122 97 88 96 109 119 126 134 146 153 148 100 65 46 54 57 56 52 58 60 61 64 66 67 69 71 73 76 78 79 79 79 79 196 249 249
245 247 205 114 110 102 93 94 88 84 81 74 71 69 71 78 81 83 84 86 89 93 96 97 99 106 107 98 87 78 76 74 76 96 107 116 124 102 91 83 65 38 34 54 98 118 115 88 52 34 28 23 18 25 42 52 69 90 112 122 103 67 35 39 42 40 40 42 43 38 41 50 59 62 58 55 53 46 45 51 67 84 94 105 128 145 153 149 138 133 130 130 136 146 160 170 175 179 185 187 187 183 175 179 178 173 166 150 121 78 70 80 97 117 133 137 129 112 105 102 102 119 137 152 164 179 191 199 197 202 213 227 222 228 233 227 219 212 206 198 183 167 151 151 150 149 151 155 157 155 148 145 147 152 146 146 143 130 127 123 118 114 120 124 124 115 118 125 125 129 133 133 110 92 87 99 128 154 172 168 147 127 111 86 67 62 78 113 140 162 182 189 190 187 174 161 152 149 147 143 140 143 155 166 174 174 180 188 194 205 209 206 202 194 189 190 202 205 198 181 143 123 119 129 145 157 166 176 186 190 182 122 75 48 52 54 53 50 56 60 63 67 68 70 72 74 77 80 82 83 82 82 82 196 248 248
249 251 208 114 112 104 95 98 91 88 86 78 75 74 75 80 84 86 86 88 90 92 94 92 93 100 103 98 90 85 89 93 99 113 113 112 113 96 92 89 67 35 24 38 78 106 116 105 71 49 35 23 17 21 35 45 63 85 105 119 104 71 37 39 41 39 40 43 44 41 44 51 60 63 60 59 59 51 53 62 79 92 102 112 135 148 151 144 132 128 127 129 137 150 164 172 173 176 183 183 182 178 169 174 174 169 162 144 110 63 54 61 75 94 103 103 93 80 75 73 74 92 111 128 145 159 169 176 181 192 202 211 209 219 229 228 222 213 205 193 178 164 152 153 153 152 154 158 159 155 146 140 138 142 136 138 139 130 131 130 128 120 123 124 117 109 113 120 121 121 121 117 93 73 68 82 111 139 158 153 129 107 88 64 53 57 81 122 153 176 194 193 188 180 168 156 148 144 144 143 145 152 164 175 184 185 188 192 198 202 202 199 195 187 182 184 201 208 206 194 163 148 148 159 173 183 190 198 203 202 190 126 76 46 47 49 49 46 53 59 64 69 70 71 73 76 79 82 85 86 86 86 86 200 252 252
254 255 211 114 112 105 98 101 94 91 89 82 79 77 77 82 84 86 86 87 89 91 92 88 87 93 98 95 89 87 97 107 118 130 120 109 105 92 94 95 70 36 21 29 63 95 116 120 91 66 46 27 19 21 32 39 55 75 94 112 101 72 36 35 37 36 36 40 41 39 41 49 57 59 58 59 61 54 60 74 93 101 109 119 139 148 145 132 120 118 122 129 141 155 168 173 172 175 182 181 180 177 169 174 173 169 161 141 104 53 41 42 52 67 72 70 61 54 51 50 51 71 90 109 127 136 141 145 156 173 186 191 195 208 221 226 221 214 205 190 176 165 158 157 156 156 156 160 160 156 145 136 132 133 128 132 135 129 132 137 140 129 127 121 109 103 109 118 120 115 110 104 81 62 57 69 96 125 147 142 121 99 78 55 52 64 92 132 163 186 202 196 187 176 165 154 146 144 142 144 150 158 171 183 195 197 197 197 202 197 193 188 184 177 172 174 190 200 202 194 171 163 167 178 189 197 201 208 209 204 190 127 79 50 48 49 48 45 53 60 66 71 71 72 74 77 80 83 86 88 89 89 90 204 255 255
255 255 213 115 113 107 101 103 97 94 92 85 82 79 79 82 83 84 84 85 88 91 91 85 83 87 93 91 87 88 102 117 132 141 123 104 95 87 93 97 72 38 21 24 50 84 113 129 105 80 55 32 22 23 30 31 45 63 79 99 94 70 35 31 32 32 32 35 37 34 37 43 50 52 53 55 60 55 65 83 103 108 115 125 143 146 138 120 108 108 116 128 144 158 170 172 171 175 182 179 180 178 172 176 176 172 164 144 107 54 39 33 36 47 48 44 38 38 34 32 34 55 75 92 111 114 114 115 132 153 166 168 180 196 211 219 216 211 204 188 176 168 166 162 160 159 158 160 160 156 143 132 126 125 123 127 131 127 134 144 152 138 129 118 104 102 109 116 117 108 99 91 72 57 52 62 86 116 139 135 118 97 76 55 58 77 107 141 169 190 205 195 182 170 161 151 144 142 141 145 155 166 178 190 202 207 203 200 203 191 181 174 171 165 161 161 176 188 193 190 175 173 180 190 198 202 203 209 207 198 182 125 82 54 51 52 50 47 53 60 65 71 71 71 73 76 79 82 85 87 89 89 90 206 255 255
255 255 215 118 114 109 104 105 99 96 93 87 83 80 78 80 81 82 81 83 87 91 94 89 86 89 94 94 91 91 104 120 134 137 114 90 75 73 81 87 66 41 27 25 41 70 98 116 100 79 55 34 25 24 26 23 34 50 61 79 78 61 32 28 28 29 29 33 34 33 34 37 41 42 43 47 53 48 61 80 101 108 119 132 148 146 134 114 99 99 108 123 142 157 168 170 170 174 181 180 183 184 177 181 183 183 179 161 127 83 66 54 48 52 47 41 37 41 32 25 26 45 63 81 101 101 100 103 126 144 150 142 160 179 197 208 205 202 197 184 177 174 174 167 162 159 156 156 154 149 137 126 118 117 119 122 124 124 139 152 158 140 130 120 110 113 115 113 105 94 85 78 62 52 51 59 85 115 138 132 113 92 73 56 66 89 120 146 169 187 197 182 168 156 149 139 134 134 139 150 166 180 189 196 203 205 199 194 197 180 168 161 162 157 153 151 166 180 189 191 186 187 193 199 203 203 200 204 198 185 164 114 77 55 53 55 54 51 55 57 60 67 66 67 69 71 75 78 80 83 85 86 88 207 255 255
255 255 218 121 117 111 106 106 102 98 95 88 84 81 78 78 79 80 80 82 85 89 94 93 94 96 99 100 99 99 107 117 127 120 94 67 47 52 62 70 57 48 41 36 40 59 77 87 78 63 45 32 27 24 21 17 26 38 46 57 57 49 31 29 30 33 34 38 40 39 37 36 37 37 38 41 45 40 50 67 88 102 120 138 156 151 136 115 98 96 104 118 137 153 165 167 167 171 178 180 185 185 175 180 186 191 192 177 152 124 110 95 83 78 63 51 43 45 32 22 21 36 53 73 97 99 103 114 144 154 146 123 141 162 181 194 191 188 183 175 174 175 177 170 164 159 154 151 147 140 129 119 112 110 115 113 111 119 147 160 156 133 125 123 124 129 122 106 87 76 69 64 50 43 45 54 84 115 136 124 98 75 60 53 69 95 127 149 168 182 182 163 148 139 134 124 119 121 137 159 181 198 200 197 193 190 183 178 181 161 147 141 147 145 141 141 160 179 193 201 204 206 208 210 208 203 196 193 182 163 136 92 61 44 46 51 53 52 53 51 50 57 58 58 61 64 67 71 73 76 79 81 83 207 255 255
255 255 218 124 118 112 107 104 101 98 93 88 84 81 78 77 78 80 81 83 86 88 94 97 100 101 103 106 109 109 111 116 119 100 72 45 24 33 46 55 49 51 48 40 35 47 58 60 56 46 34 29 27 23 17 16 24 33 36 40 40 38 31 30 31 35 39 43 47 47 42 38 36 36 37 39 41 37 44 58 77 97 120 143 160 153 139 119 101 96 101 110 128 146 160 163 162 165 172 175 181 181 165 172 183 193 199 186 171 158 149 134 119 108 85 68 57 56 42 31 29 38 54 75 103 113 125 142 173 173 152 116 130 150 170 185 182 178 172 170 174 177 178 172 165 158 152 146 140 133 124 114 108 106 113 108 104 116 148 158 145 119 118 125 134 139 122 95 69 63 59 56 42 37 42 57 92 123 140 121 84 57 44 45 63 90 123 143 160 170 163 141 127 121 117 108 103 104 132 162 191 212 207 195 180 170 160 155 158 140 129 127 138 136 132 133 157 179 197 209 218 221 220 220 215 208 200 193 178 155 122 78 49 34 38 46 50 50 50 45 42 50 52 53 56 60 64 66 69 72 75 77 79 206 255 255
255 255 216 124 117 110 103 98 96 93 89 85 82 79 77 77 79 82 84 85 87 89 94 99 103 103 105 112 118 121 118 117 112 81 53 29 8 20 35 45 41 47 45 33 23 32 41 41 39 31 23 23 23 19 13 20 28 34 34 30 29 30 30 30 30 33 41 47 52 55 48 42 39 39 40 42 44 43 48 57 72 96 122 146 159 152 139 123 106 98 97 100 115 135 153 158 153 153 160 166 172 169 149 158 172 187 198 188 180 180 178 167 153 138 110 90 79 78 65 56 53 56 68 90 122 145 166 188 210 197 165 123 129 146 167 184 181 175 169 172 178 181 180 173 165 156 150 143 136 128 121 114 108 107 114 112 109 114 142 145 123 100 110 126 138 138 114 80 56 57 59 58 41 37 47 71 111 142 153 128 77 41 26 31 48 71 102 124 142 151 138 117 106 103 100 90 85 85 120 159 194 216 206 188 165 146 132 125 126 121 120 124 138 135 129 129 156 180 199 212 225 227 226 227 224 221 216 208 193 167 130 80 45 29 32 40 46 48 47 43 41 48 50 53 57 61 65 67 69 71 73 74 76 202 255 255
248 247 208 123 117 109 100 93 90 87 84 80 78 76 75 76 79 83 85 86 88 90 94 98 99 97 98 106 114 119 115 110 98 63 38 18 2 15 30 39 34 35 30 19 7 15 26 31 27 19 11 12 11 8 6 18 27 30 28 19 16 15 17 18 19 21 32 41 48 52 47 43 41 42 44 48 55 61 66 73 81 100 121 140 145 137 126 115 103 95 92 95 109 130 149 156 150 148 153 158 161 155 134 144 160 176 188 179 173 176 179 174 163 149 123 105 98 97 88 86 93 97 104 120 150 181 205 224 232 211 179 143 138 148 165 182 178 172 166 171 175 175 173 165 157 149 143 139 135 129 124 120 115 112 118 121 122 115 129 127 109 98 116 135 140 132 104 72 57 61 66 67 55 53 66 98 138 164 171 144 88 45 22 22 31 47 70 91 109 118 107 91 84 85 84 76 71 71 104 145 184 205 195 176 152 129 112 101 99 113 125 136 153 145 135 132 156 178 195 206 216 219 218 224 226 228 228 226 214 191 155 99 59 38 40 46 50 53 52 49 49 54 57 60 63 67 70 71 72 73 73 73 74 194 250 250
242 242 203 116 111 103 93 87 83 80 79 76 74 73 72 74 77 81 84 85 88 89 92 95 97 95 96 100 106 111 104 94 79 45 26 14 4 13 25 34 28 24 16 5 0 6 15 18 12 6 3 6 5 2 1 16 23 25 23 16 13 12 13 14 15 18 29 39 46 50 46 43 43 45 48 52 59 67 72 75 78 96 116 134 137 129 121 113 105 99 95 95 106 124 141 149 147 147 150 157 159 153 129 138 152 168 180 171 166 171 179 178 170 161 142 131 126 122 114 115 127 130 134 146 171 204 229 245 241 219 192 165 156 161 175 189 184 174 164 168 169 166 160 153 148 143 140 139 137 133 130 128 125 122 123 129 132 123 124 115 99 103 128 148 152 136 103 69 51 57 64 70 60 61 79 118 155 178 182 156 101 58 32 24 25 34 53 77 95 103 92 78 71 70 67 58 51 49 75 110 146 164 155 139 119 100 88 82 84 109 127 138 152 140 127 124 150 172 187 196 200 198 196 203 209 213 217 220 216 202 173 118 76 53 56 62 67 70 65 58 53 57 60 63 67 70 73 73 73 73 73 72 73 190 245 245
242 244 201 107 105 97 87 83 78 76 77 73 72 71 71 73 75 78 81 83 86 87 90 93 96 97 95 95 95 96 86 73 56 30 19 14 11 13 22 29 25 16 5 0 0 3 7 7 0 0 0 8 6 1 0 13 18 18 17 16 16 16 14 16 18 23 31 40 46 48 45 43 43 46 50 54 58 65 68 69 69 85 106 127 132 125 118 112 106 104 102 100 107 118 129 136 141 145 148 158 164 158 132 137 148 161 174 164 159 165 178 178 173 169 162 160 158 148 139 141 154 155 158 167 183 213 235 247 239 221 203 188 179 182 191 201 195 181 164 162 161 155 143 141 139 139 140 141 141 138 136 136 135 134 129 133 138 135 124 109 95 115 145 167 172 148 110 70 41 44 54 65 60 65 88 132 166 186 188 165 119 81 57 42 34 37 54 83 101 105 92 76 66 61 53 41 31 26 41 65 91 103 97 88 77 68 66 70 80 108 124 130 137 120 107 107 139 161 176 185 180 173 167 173 179 184 189 197 204 201 185 138 100 77 84 90 95 98 88 69 56 61 64 66 69 72 74 75 75 75 74 74 74 191 245 245
250 252 207 105 106 99 90 88 82 80 82 79 77 75 75 74 75 77 79 83 85 87 89 93 96 98 93 86 80 73 62 49 35 19 14 14 15 14 20 28 28 19 7 0 4 6 6 5 1 3 8 17 13 5 0 7 8 6 5 12 19 22 21 23 27 34 40 45 49 50 46 43 42 45 49 51 52 56 60 62 61 74 96 121 130 120 111 102 100 105 110 111 118 120 116 114 127 135 136 153 164 163 137 137 142 151 167 159 155 164 178 175 167 166 172 178 181 165 152 153 167 166 170 177 180 195 209 220 221 216 210 204 202 204 210 215 207 188 164 155 153 146 129 131 135 139 142 144 144 142 139 139 139 140 131 128 130 138 122 106 99 135 165 187 197 169 123 70 20 19 32 52 55 69 97 142 171 188 192 176 147 123 107 89 77 76 90 118 130 128 110 87 68 56 46 33 24 19 22 31 41 46 47 46 45 53 65 80 96 112 114 109 109 89 78 82 120 145 162 175 167 155 146 147 149 151 154 168 185 194 188 164 138 119 130 138 142 143 125 88 61 67 70 72 74 76 78 79 80 81 82 83 84 200 253 253
255 255 211 109 110 104 96 93 87 85 86 84 82 79 78 76 75 76 78 82 86 88 89 93 95 94 85 75 65 55 42 29 17 7 7 10 13 14 19 26 32 30 24 15 18 12 6 3 3 8 15 23 20 12 3 7 3 0 0 3 12 19 22 24 30 38 43 48 51 52 48 44 43 45 49 51 50 56 63 67 65 74 93 116 122 108 95 86 89 100 113 121 131 126 110 98 115 124 119 137 152 153 131 128 129 135 154 149 150 165 178 170 158 158 169 181 188 170 153 154 175 175 181 185 181 183 189 199 208 210 211 211 211 211 210 210 202 184 162 155 154 147 129 132 136 141 144 145 143 142 141 141 140 139 129 123 120 129 113 101 102 149 176 196 208 181 131 68 8 4 20 48 63 84 114 154 177 192 197 188 174 162 152 138 125 120 127 139 142 133 111 84 63 50 42 33 28 27 24 23 25 26 29 32 36 53 71 88 103 108 100 86 83 64 53 56 89 113 131 147 141 131 121 120 118 118 120 138 159 174 175 172 161 151 161 167 170 170 145 98 62 69 72 73 74 77 78 79 80 81 84 86 89 204 255 255
255 255 213 111 112 106 98 95 89 87 88 85 83 81 78 76 74 75 78 82 87 91 92 94 93 88 76 64 52 38 24 13 4 0 3 9 12 16 18 23 33 40 41 38 35 23 11 3 5 11 17 24 23 18 10 10 5 0 0 0 8 16 21 24 30 38 43 48 51 51 48 45 44 46 49 51 51 60 69 75 72 77 92 109 111 95 81 74 82 100 118 131 143 133 108 88 104 111 101 118 135 141 123 118 115 119 141 140 145 162 172 161 146 146 160 177 188 169 149 150 177 182 189 192 184 177 178 187 199 205 209 213 215 211 205 200 191 177 160 157 158 152 136 136 139 143 144 143 140 139 139 139 137 134 127 121 117 122 105 97 108 161 184 199 212 187 135 68 3 0 17 50 74 101 130 161 178 190 197 196 195 192 187 175 163 155 154 150 143 130 106 78 57 45 41 38 39 43 37 30 24 22 27 33 41 63 84 100 111 105 88 69 63 46 34 32 57 75 90 106 103 95 85 83 81 81 84 106 131 152 158 172 174 171 180 182 182 180 153 100 60 68 70 71 72 74 75 76 76 79 83 86 89 206 255 255
255 255 212 110 110 103 96 93 87 84 84 82 80 78 76 74 74 75 78 83 89 95 97 95 90 80 67 54 40 23 10 1 0 0 5 13 19 23 20 20 31 45 56 62 58 43 25 7 6 10 14 19 21 21 19 18 14 10 8 10 14 16 20 23 28 35 40 45 48 48 45 44 45 47 49 50 51 64 76 83 82 82 89 99 97 82 72 70 85 107 127 141 153 139 107 81 94 97 83 100 118 127 116 111 106 107 130 134 140 153 159 146 131 132 148 167 182 166 141 140 172 183 193 197 188 176 175 184 195 199 204 210 213 207 197 188 179 169 159 161 164 161 148 144 144 144 143 139 136 134 135 134 131 127 124 125 126 122 102 100 119 173 190 199 209 188 137 71 8 4 24 59 88 116 141 160 171 181 190 198 206 210 207 195 182 172 166 150 137 122 100 74 55 44 44 48 56 67 60 47 33 27 34 45 58 82 103 117 123 107 82 58 50 34 20 12 24 33 42 53 51 44 36 35 36 40 47 74 104 130 143 167 178 179 184 181 178 174 146 94 55 62 65 66 67 68 69 70 71 73 78 81 85 204 255 255
255 255 210 110 110 103 94 92 86 83 82 81 79 77 76 76 77 79 81 85 91 97 97 89 79 66 56 44 31 16 8 7 10 15 21 28 35 42 39 35 41 51 63 76 73 66 54 37 29 24 19 14 14 16 20 21 21 22 24 26 25 21 20 23 26 30 36 41 45 46 43 43 44 45 45 47 49 64 81 93 95 89 88 89 83 72 66 68 85 108 129 144 155 138 100 65 72 72 60 78 98 112 111 108 100 96 121 127 130 132 135 121 107 109 123 141 157 150 129 131 162 177 189 195 188 174 171 179 190 195 201 209 212 208 199 192 182 170 159 159 161 160 152 146 144 142 138 134 131 129 128 126 124 122 124 136 142 123 104 109 140 184 194 195 197 172 123 65 16 18 40 73 100 123 141 154 163 173 184 199 212 215 209 195 182 171 166 156 147 136 120 96 78 69 73 85 99 112 102 82 60 50 61 78 98 121 137 144 140 113 82 55 43 28 15 5 9 12 17 25 24 22 20 24 32 42 55 87 118 144 160 180 187 185 181 171 163 158 134 90 58 64 67 68 69 70 71 72 73 76 80 84 87 203 255 255
251 252 208 112 111 105 96 91 86 83 83 82 81 79 78 79 81 83 84 87 90 93 90 78 64 51 43 35 27 16 15 19 27 31 35 40 50 61 61 58 59 63 73 85 81 81 77 67 53 42 30 16 12 14 19 22 24 26 30 30 27 21 19 21 23 25 32 38 42 44 42 42 43 43 42 44 49 65 85 101 108 99 92 86 76 64 59 60 78 100 121 138 151 133 93 51 51 50 42 59 79 94 99 99 89 82 104 112 113 109 112 101 90 92 100 113 127 127 116 123 153 170 183 191 188 174 171 176 185 193 202 211 213 208 201 195 184 171 158 154 154 154 150 145 143 140 135 131 128 127 127 126 124 122 128 144 150 120 102 116 154 186 189 183 176 148 103 56 27 35 58 89 113 130 142 153 162 171 183 201 215 217 207 193 180 170 165 163 158 152 141 123 109 102 110 125 140 151 136 113 89 77 88 106 127 148 157 155 140 106 73 45 32 19 8 0 0 0 4 12 16 20 25 34 47 62 79 111 138 159 172 185 188 182 168 152 141 136 115 84 61 66 68 69 70 72 72 73 74 76 80 84 87 201 253 253
248 249 207 115 113 108 100 91 87 85 85 86 85 83 81 82 84 86 87 86 86 85 78 63 48 34 31 28 26 22 27 37 47 46 47 51 62 78 84 84 80 78 82 89 83 88 95 95 79 62 43 24 15 14 17 21 22 24 27 27 25 19 18 19 19 19 29 35 39 43 43 43 43 41 41 44 51 67 88 107 118 110 100 90 75 61 52 49 66 86 106 127 142 126 86 40 35 33 29 44 60 74 83 84 75 65 82 91 91 84 88 81 74 76 76 82 90 97 99 112 141 158 173 183 184 174 170 172 179 190 202 213 212 207 201 198 188 173 156 148 146 146 146 142 140 137 133 130 128 128 129 129 128 128 135 149 151 112 99 119 161 179 177 165 149 117 78 44 38 54 77 104 126 134 141 152 164 174 185 203 214 213 201 188 178 170 164 170 172 169 164 152 143 140 149 163 175 179 159 137 116 105 114 130 149 165 167 154 127 90 58 32 19 9 1 0 0 0 3 14 25 37 49 63 79 97 115 144 161 173 180 185 181 169 146 126 114 109 93 74 62 66 69 70 71 73 73 73 74 76 79 83 86 198 250 250
247 248 206 117 114 110 103 92 90 89 88 89 88 87 85 85 86 88 88 85 80 75 65 49 34 22 23 25 29 32 43 56 68 61 57 58 67 87 100 105 97 88 83 82 75 88 104 117 100 80 55 33 21 16 15 18 19 20 21 24 25 22 20 19 18 17 27 33 39 45 45 45 44 42 42 46 54 67 88 108 122 116 108 98 84 69 56 46 60 77 95 118 134 121 85 38 26 23 23 33 44 54 64 66 57 46 59 66 65 56 59 54 49 51 47 46 48 57 69 87 110 126 142 155 163 159 154 152 158 174 190 202 201 199 197 200 192 177 157 145 140 140 143 139 138 136 134 132 131 131 132 133 133 133 139 148 145 108 100 123 164 170 164 147 122 88 56 38 51 71 93 115 131 131 134 148 164 175 185 199 205 201 188 178 173 169 164 179 187 189 187 178 169 165 172 183 190 188 166 148 133 125 132 147 165 176 170 150 117 79 50 28 14 7 2 0 1 8 20 35 53 71 89 106 123 140 156 178 184 185 184 178 167 149 120 99 87 84 73 66 64 67 69 71 72 74 75 74 75 76 79 82 85 197 249 249
249 250 208 118 114 112 106 94 93 92 91 91 91 89 86 84 84 85 85 79 72 63 53 40 28 20 23 28 35 42 56 69 79 69 63 62 70 90 107 116 107 96 86 77 72 86 105 122 108 88 65 45 31 21 14 15 14 14 14 19 23 24 22 20 19 20 29 36 42 48 49 49 48 45 45 49 57 65 82 99 113 111 108 102 92 76 59 44 51 65 83 109 126 116 84 41 27 25 28 33 39 46 54 57 49 40 48 55 54 47 50 46 42 43 37 30 25 32 48 65 81 96 113 128 139 140 137 133 140 160 178 190 193 194 197 202 197 181 159 143 137 136 139 137 136 135 133 132 132 132 133 134 135 136 139 140 132 106 111 137 172 168 158 139 111 78 51 41 65 85 104 121 133 127 127 142 161 173 181 191 192 185 173 165 164 166 166 187 200 205 205 196 187 181 185 190 191 185 165 152 144 140 147 158 172 179 167 144 112 74 49 32 21 17 16 18 23 37 55 74 94 114 133 149 162 175 185 196 192 183 174 161 144 124 96 77 67 66 59 59 62 65 67 69 70 73 73 73 73 75 78 80 83 198 251 251
252 252 210 119 114 113 109 96 95 94 92 92 90 88 84 80 79 78 78 71 62 51 42 33 27 23 26 32 41 51 63 75 83 71 65 65 72 90 108 120 113 103 89 76 73 85 101 118 107 91 72 57 42 28 15 13 10 9 7 13 20 24 25 23 23 24 33 39 45 51 52 52 50 47 47 51 57 60 71 85 99 103 106 106 101 86 66 46 45 55 73 100 117 111 84 47 34 33 39 40 41 45 50 53 48 41 46 51 52 50 52 49 46 47 39 29 19 24 42 57 64 77 93 108 119 123 121 117 125 147 166 178 184 189 195 201 198 183 160 143 136 135 135 135 135 135 134 133 133 133 134 136 138 140 143 132 116 102 121 148 173 160 147 129 104 74 52 48 75 96 112 126 134 125 121 135 158 170 177 183 179 171 162 157 159 162 165 189 204 212 212 205 198 193 193 193 189 179 162 155 152 153 158 165 173 175 161 138 108 72 50 37 30 30 34 40 50 69 91 113 134 152 168 181 190 196 200 200 187 170 153 136 118 99 75 60 54 53 49 54 60 63 65 67 68 70 71 71 72 73 76 79 82 199 253 253
253 253 211 121 114 112 109 95 96 94 91 89 87 82 77 72 70 68 67 60 50 39 32 28 27 27 30 37 45 55 65 73 76 66 65 68 74 88 105 117 114 108 95 80 78 84 93 104 98 87 75 67 54 37 20 14 9 6 3 8 15 23 28 28 29 31 38 42 47 53 54 53 50 47 47 48 50 49 56 67 83 96 106 112 114 99 78 55 45 50 66 92 110 107 85 55 45 46 53 51 50 51 54 57 54 49 51 55 59 63 65 63 61 61 55 44 33 38 57 69 68 76 89 103 111 113 110 106 116 136 153 163 172 180 187 193 190 177 157 142 137 135 134 135 136 136 137 136 135 135 138 141 145 150 152 128 100 93 123 148 160 138 124 111 97 72 55 53 80 100 117 130 135 122 117 128 155 168 172 174 168 162 158 158 160 161 160 179 194 202 204 203 201 201 200 195 186 173 161 157 158 161 165 166 166 165 153 133 105 71 49 38 35 43 53 65 78 98 122 145 162 176 187 196 198 199 196 187 168 145 122 107 92 77 59 50 47 48 46 52 59 62 63 65 66 69 70 70 71 73 76 79 82 200 255 255
254 253 212 123 115 114 113 97 99 97 91 88 85 79 72 65 61 58 57 50 41 32 28 29 32 35 38 43 49 58 64 68 70 65 67 71 76 86 98 109 113 115 106 91 88 85 84 86 86 83 79 79 68 50 28 14 5 0 0 0 9 21 30 31 33 36 40 43 47 51 53 51 47 43 44 45 45 41 44 53 69 86 102 114 120 108 87 62 45 47 62 91 110 108 90 67 62 64 71 64 62 62 65 67 66 64 63 67 73 82 81 75 70 67 64 56 47 52 70 77 71 77 88 96 98 93 86 80 93 113 129 137 154 165 174 179 179 170 155 141 140 139 137 138 138 139 140 138 137 137 142 146 152 157 159 124 87 90 132 157 158 133 113 101 97 80 69 69 91 107 120 131 137 126 119 125 150 160 163 163 161 160 161 163 165 165 160 169 178 187 188 191 193 196 196 190 180 168 159 159 162 169 171 168 161 158 148 132 108 74 53 43 45 61 77 91 103 123 147 170 185 195 200 202 197 189 179 161 138 112 85 78 71 65 56 53 53 54 54 58 63 67 67 68 69 71 72 72 73 76 80 83 87 202 255 255
255 254 213 124 114 114 114 100 101 99 92 88 83 77 69 61 56 52 49 44 37 31 30 35 41 45 46 49 54 60 64 66 67 69 74 79 83 88 96 105 112 121 118 105 101 91 82 77 80 82 83 88 79 62 39 18 7 1 0 0 7 19 29 30 32 37 38 40 43 45 48 47 44 40 42 43 43 39 39 46 59 76 93 107 117 107 87 62 41 43 61 93 113 113 99 83 82 85 90 78 74 74 76 77 77 77 74 77 83 92 88 80 73 69 69 63 56 58 71 75 70 78 87 93 90 81 70 62 75 97 114 124 146 158 165 169 170 166 156 145 144 144 141 139 138 138 138 137 136 137 142 147 152 155 158 117 75 87 134 159 155 131 108 94 93 86 84 88 106 115 122 130 138 130 123 121 141 150 152 154 157 160 163 165 169 169 165 163 167 175 178 183 187 191 191 184 174 163 157 159 166 174 176 170 159 155 146 131 111 80 62 55 62 82 99 112 121 139 161 182 194 201 202 199 188 175 159 135 110 83 56 54 55 55 53 54 57 58 59 63 67 71 71 71 71 73 73 74 75 78 83 87 90 204 255 255
255 255 213 122 113 113 114 101 102 98 91 86 81 74 67 58 53 48 46 42 38 34 36 43 50 55 54 56 58 62 65 66 67 76 84 90 92 95 98 103 112 126 127 119 114 101 86 74 79 83 87 93 87 73 51 26 14 8 1 2 9 18 25 26 28 32 32 34 36 37 40 42 41 39 40 42 44 41 40 44 53 67 82 95 105 97 80 57 36 40 61 96 118 121 111 101 104 108 109 92 86 85 88 87 88 89 84 85 90 97 89 80 73 71 74 71 64 61 67 69 68 82 91 94 90 78 64 54 68 91 111 125 147 157 161 160 163 164 160 152 150 148 143 140 136 134 133 131 131 133 139 143 146 146 148 106 65 81 127 151 148 130 106 89 86 89 97 107 123 123 124 128 138 134 126 119 133 139 142 148 156 162 165 166 171 174 172 160 159 167 173 178 182 185 185 178 169 160 155 158 167 177 178 172 160 155 144 130 113 89 77 75 85 105 120 128 132 147 165 182 190 194 193 187 173 157 138 113 88 63 36 39 44 49 51 55 58 59 61 65 69 74 72 71 71 73 73 74 76 80 85 89 92 206 255 255
255 254 212 122 112 111 110 99 97 93 86 80 75 69 62 55 50 46 44 42 41 41 45 52 58 62 61 60 61 64 66 66 67 79 90 97 100 100 99 101 110 123 127 125 122 108 91 76 79 83 87 92 88 77 60 35 24 18 11 10 11 15 18 19 21 24 23 25 27 27 31 35 36 36 38 41 43 44 44 46 51 61 73 83 92 88 75 56 38 43 64 100 122 126 119 115 120 123 122 105 99 99 102 102 104 106 101 102 106 111 103 95 91 93 100 102 98 91 89 88 91 108 116 116 110 95 80 70 80 100 121 139 157 162 161 155 157 160 162 158 155 151 146 139 134 131 128 127 127 130 136 139 141 139 141 104 65 73 109 129 130 121 99 82 76 86 99 114 129 125 123 126 138 138 132 124 135 139 143 152 163 170 172 172 175 176 174 156 154 161 171 177 180 182 180 172 162 156 150 153 160 168 172 169 159 152 139 125 110 100 97 100 113 127 136 139 138 147 159 171 173 173 172 166 154 140 124 103 83 61 35 37 42 48 51 55 57 56 59 63 66 71 69 69 69 70 70 71 73 76 81 85 88 204 255 255
253 252 211 125 116 112 110 99 95 90 82 76 70 64 57 52 48 45 42 41 42 44 49 55 61 65 64 64 64 68 70 70 70 81 89 96 100 97 96 98 107 116 120 119 119 107 92 80 82 84 87 91 85 74 57 34 24 18 11 9 10 12 14 15 17 20 19 21 23 23 27 30 32 32 35 38 41 42 43 46 49 57 68 79 90 88 78 62 43 45 65 101 124 129 122 119 125 129 128 115 112 113 117 119 123 127 124 126 130 134 128 121 118 120 129 134 134 128 122 118 119 132 136 134 126 106 89 80 90 108 126 144 160 164 162 157 157 159 161 158 155 152 147 140 135 132 129 128 128 130 135 138 141 141 143 108 69 69 100 118 119 112 94 79 73 82 95 109 126 123 122 125 137 138 135 131 143 149 152 160 169 175 176 175 175 173 170 155 155 164 174 180 182 181 177 168 159 153 148 150 156 163 171 171 164 153 139 125 111 112 116 123 137 149 155 155 154 162 172 182 181 179 176 171 161 149 135 116 98 77 47 43 45 50 54 57 58 58 60 62 65 69 68 68 68 70 70 70 71 74 78 81 84 202 255 255
251 250 211 131 121 116 111 100 95 88 81 74 67 60 53 50 48 45 42 41 43 46 51 57 62 67 66 66 67 72 75 75 75 84 88 91 95 93 93 97 104 108 109 109 111 103 93 87 88 87 87 87 78 66 50 31 22 16 9 8 8 10 11 13 15 18 18 20 22 22 25 28 29 30 33 36 37 38 42 46 48 54 65 78 91 91 83 69 47 47 65 101 126 131 124 119 126 131 131 124 123 126 131 135 140 145 145 147 150 153 149 144 142 144 151 158 160 155 149 144 142 150 152 148 138 113 96 89 103 119 134 150 162 166 165 162 159 159 159 155 152 149 146 141 137 135 132 131 131 132 136 139 142 142 146 112 72 63 91 107 107 101 86 74 69 76 87 100 117 116 118 122 132 133 133 135 152 159 162 167 173 176 177 175 173 169 165 156 160 171 182 186 186 183 177 168 159 153 150 151 155 161 173 177 172 157 143 129 114 123 133 143 158 167 172 172 174 182 192 202 199 194 191 188 179 169 157 140 125 102 67 55 51 53 57 60 61 60 61 63 65 69 68 69 69 71 71 71 71 73 77 80 83 200 254 254
250 248 212 136 128 120 113 102 95 88 80 73 66 59 53 51 49 47 44 44 46 50 54 59 64 68 68 69 71 76 81 83 84 89 88 88 90 89 92 98 102 98 97 99 103 99 97 99 97 91 85 78 67 55 41 28 23 20 13 12 11 9 8 12 14 16 20 22 23 24 25 27 28 30 32 33 34 35 40 46 50 52 61 75 89 90 83 70 48 47 63 99 127 134 127 121 126 131 133 131 131 134 138 145 151 157 158 158 158 157 155 153 153 156 161 165 166 161 157 154 153 158 159 156 146 119 102 100 122 138 152 163 169 171 170 167 162 159 156 153 148 144 142 141 140 140 138 137 136 135 136 137 139 139 142 110 69 51 76 90 90 83 73 66 62 67 76 89 105 107 110 115 123 122 123 133 154 164 169 172 172 173 173 173 169 165 161 159 168 183 193 194 192 188 183 174 166 160 158 159 161 167 181 187 184 167 153 138 121 136 149 161 176 184 188 189 193 203 213 223 217 212 209 208 202 195 186 172 157 133 91 70 59 56 59 61 61 60 61 62 64 68 68 69 71 73 73 73 73 75 78 81 84 199 252 252
249 247 211 137 128 119 109 100 91 83 75 68 60 53 48 48 48 46 43 45 49 55 60 64 69 72 73 73 75 79 84 86 88 93 90 88 90 88 90 94 96 90 90 98 103 102 102 107 102 93 84 73 62 52 43 35 33 31 25 21 16 10 7 12 14 15 19 22 23 23 23 25 27 30 31 32 32 34 40 46 46 42 49 61 75 80 78 70 51 48 63 98 126 134 128 123 128 132 133 135 138 142 148 157 165 171 175 176 175 171 170 170 171 174 179 185 188 182 175 171 171 173 172 166 157 126 110 112 137 151 162 171 172 172 170 166 159 156 155 155 150 145 144 144 144 143 140 138 136 134 132 132 133 132 135 108 70 42 59 70 69 66 61 56 54 61 72 85 101 103 106 112 119 119 123 137 157 168 173 176 175 174 175 175 169 162 158 156 167 183 194 193 188 183 177 171 166 162 163 163 162 167 183 193 191 170 155 140 123 148 168 184 201 206 207 205 208 214 221 227 218 210 206 206 203 198 193 183 172 149 105 78 63 60 62 64 64 62 63 63 65 69 69 70 72 74 75 75 75 76 79 82 85 199 251 251
249 247 210 135 127 116 104 96 86 78 70 63 55 48 44 46 47 46 42 45 50 58 64 68 72 76 76 77 79 83 88 90 92 96 92 88 89 87 89 92 93 84 86 97 102 102 105 112 106 96 84 71 60 51 45 42 41 40 35 28 20 12 8 12 14 13 19 22 23 23 22 23 26 29 30 30 30 33 40 45 44 36 40 51 65 71 73 68 50 46 59 93 121 130 125 121 127 131 132 137 143 149 155 166 175 183 188 190 189 185 185 187 188 190 195 202 206 200 191 185 186 185 181 175 165 134 119 124 151 162 169 176 173 172 169 165 157 153 153 155 150 146 145 146 146 145 140 138 135 132 128 128 128 127 131 108 73 37 48 55 54 52 50 48 48 57 68 81 96 98 102 109 115 116 123 139 160 171 176 179 176 173 173 174 167 160 155 154 166 184 194 192 187 180 174 169 166 162 165 165 163 165 182 193 193 169 153 137 120 152 176 196 214 217 215 211 213 218 222 226 214 205 200 202 201 198 196 188 181 159 113 82 66 62 64 65 64 62 62 63 64 67 68 70 72 74 75 74 74 76 78 81 84 198 251 251
251 248 209 131 123 111 99 91 81 73 65 60 52 45 41 44 46 45 41 44 51 59 66 70 74 77 79 80 83 87 92 95 96 98 93 88 89 88 89 92 92 82 82 94 98 99 104 114 109 99 87 72 60 52 48 47 47 46 40 32 22 13 9 14 15 13 18 21 22 22 21 22 23 27 27 27 27 31 38 44 42 34 37 47 58 64 65 62 44 40 51 83 111 121 117 115 122 128 130 139 146 152 159 170 181 190 197 200 199 197 199 202 204 204 206 212 218 214 204 197 196 193 187 180 172 142 130 136 162 169 174 178 174 171 169 164 154 150 150 154 150 146 146 147 147 145 140 137 133 130 126 124 124 123 129 110 76 36 43 48 46 42 41 42 45 56 66 77 91 94 98 105 110 113 121 140 162 173 177 180 174 170 169 170 163 156 153 154 167 184 194 192 187 181 175 169 165 161 164 164 162 163 179 189 187 162 145 129 112 146 173 194 212 214 211 207 209 212 216 219 208 198 194 196 196 195 195 190 183 162 116 84 66 61 63 63 62 60 60 60 62 65 66 68 70 72 73 73 72 74 76 79 82 199 253 253
254 251 208 122 114 103 91 83 74 67 61 56 49 43 40 43 43 42 38 41 47 55 62 68 73 77 79 81 85 89 93 94 94 94 91 88 89 89 91 93 93 86 87 97 97 97 100 108 104 97 88 76 65 58 53 52 51 48 41 30 20 12 11 16 16 13 19 22 23 23 21 21 22 26 26 25 25 29 35 38 35 28 31 39 47 52 53 51 35 30 40 70 98 107 105 106 115 123 127 135 142 148 154 166 176 186 193 196 198 200 204 207 208 205 204 208 212 209 202 197 196 192 185 178 172 147 138 145 168 172 174 177 172 170 168 163 154 149 149 153 150 146 147 148 148 145 140 136 133 129 126 125 124 123 129 111 78 39 44 46 42 34 34 37 42 54 65 76 91 94 99 105 110 114 124 144 164 173 175 177 171 166 164 165 158 152 148 149 160 175 185 185 182 179 175 169 163 157 159 160 160 160 171 175 169 143 125 109 91 126 154 175 194 197 195 192 195 199 202 205 196 188 184 185 185 184 183 178 171 150 107 78 62 58 59 60 59 58 58 60 61 64 65 67 69 71 72 72 71 73 75 78 81 200 255 255
255 253 206 110 102 92 82 75 67 61 56 52 46 42 39 42 42 41 37 40 45 53 60 67 74 79 81 83 87 90 92 90 88 90 91 92 95 94 93 93 94 91 94 103 102 98 97 99 97 93 89 81 73 67 63 61 58 54 47 34 24 16 17 21 20 16 20 23 24 23 21 21 22 25 24 23 22 27 30 30 27 22 25 31 37 41 43 42 29 25 34 59 83 91 90 93 105 114 119 128 134 140 146 156 167 176 183 187 192 198 205 209 209 205 204 207 211 208 201 196 195 190 184 177 172 154 147 154 170 171 171 175 171 169 166 160 152 147 148 152 150 147 147 148 148 144 138 135 131 128 126 126 126 125 131 114 84 48 48 46 39 31 31 35 43 57 69 79 91 94 98 104 110 116 127 146 163 169 170 172 167 163 162 162 156 150 146 147 155 167 175 177 177 176 172 165 157 149 148 148 148 145 151 152 142 118 103 88 71 104 131 151 169 171 170 168 171 173 175 178 169 161 157 157 157 156 155 151 146 129 93 70 59 56 59 60 59 59 59 59 61 63 64 66 67 69 70 70 70 71 74 77 80 201 255 255
255 254 203 96 88 79 71 65 59 54 52 49 44 41 40 43 43 42 39 42 47 53 61 68 75 80 83 85 88 90 90 87 84 87 92 97 102 100 97 94 96 96 101 108 106 102 97 93 91 90 91 87 82 77 74 71 68 63 56 42 31 24 25 27 24 20 21 23 23 22 20 20 20 22 22 20 19 24 26 25 22 20 22 26 29 32 34 35 27 24 31 50 69 75 74 79 92 103 108 119 126 132 139 147 155 164 170 177 185 193 201 206 206 202 201 205 209 207 200 195 192 187 181 176 173 161 158 163 171 168 167 172 170 168 164 158 150 146 147 151 151 149 149 149 148 143 137 134 130 128 127 127 128 127 133 120 95 61 52 46 38 29 29 35 44 60 72 80 88 91 96 101 106 115 128 146 159 163 163 166 164 163 163 162 157 151 147 148 153 160 167 171 173 173 168 159 150 140 134 132 130 123 124 122 112 92 80 68 53 81 102 119 133 133 132 131 133 133 133 134 126 120 116 116 117 117 118 119 116 105 81 67 60 59 61 60 60 59 59 58 58 60 61 63 64 66 67 67 67 69 72 75 78 201 255 255
255 254 198 80 73 66 59 54 50 48 48 47 45 43 44 48 49 47 46 49 54 60 67 71 75 79 84 86 88 89 89 87 86 90 97 103 109 108 103 98 99 101 107 112 107 105 101 94 91 92 94 92 89 87 87 82 77 71 66 53 43 36 35 33 28 22 20 20 19 19 16 15 14 15 16 15 13 19 23 26 27 27 28 29 28 28 30 33 31 30 34 45 58 61 59 62 76 88 95 110 120 128 137 142 147 152 159 168 176 183 193 196 194 189 189 193 199 202 196 189 186 180 177 175 178 171 169 171 172 164 162 168 169 167 162 156 150 147 148 151 153 155 155 152 148 143 136 132 129 128 127 128 128 129 135 131 114 77 53 41 38 29 28 33 43 60 71 76 79 83 88 94 97 109 125 142 151 155 157 161 164 166 167 165 162 158 154 156 157 158 163 168 171 172 166 156 145 134 120 113 107 95 92 87 80 68 60 50 35 53 66 75 81 78 75 73 73 70 67 66 62 60 60 63 66 70 76 85 89 86 76 72 70 70 67 63 61 60 58 56 55 56 57 59 60 63 63 63 63 65 69 72 75 200 255 255
255 254 195 71 65 59 54 48 46 46 46 47 46 46 48 51 52 51 49 52 56 61 67 68 70 74 80 83 87 88 89 89 89 92 99 106 113 114 109 104 103 108 111 111 104 104 103 97 95 96 97 97 94 93 92 84 77 71 64 54 47 42 40 34 27 21 17 15 14 14 13 10 7 8 10 10 8 15 22 28 32 34 35 35 31 28 28 30 33 33 35 43 53 54 50 50 64 76 85 102 112 121 133 135 137 140 146 156 164 170 180 182 178 173 171 176 184 192 189 184 180 173 171 172 178 175 172 170 165 156 154 163 167 166 162 159 155 152 152 152 156 159 160 154 148 142 136 132 129 129 129 130 131 133 138 138 125 86 53 38 38 29 27 30 38 54 65 70 73 79 85 90 92 105 122 141 148 152 154 158 165 169 170 168 167 165 159 162 160 157 161 168 173 173 168 157 144 130 109 100 94 78 72 66 60 53 47 37 21 31 37 40 40 36 33 32 32 28 25 24 26 29 33 37 42 48 55 70 75 76 74 76 78 77 71 64 61 60 57 55 55 55 56 58 59 62 63 62 62 64 68 71 75 200 255 255
255 255 194 67 60 56 51 45 44 45 46 48 47 48 49 52 53 52 51 53 56 59 65 65 66 70 77 82 86 87 89 90 90 92 100 108 115 116 112 107 106 110 112 108 101 103 103 97 96 97 100 100 98 96 94 85 76 69 62 53 48 45 43 35 27 20 15 13 11 12 11 8 4 5 8 8 6 13 21 27 32 35 37 37 33 29 27 29 32 33 34 40 48 47 42 41 53 64 73 89 99 107 119 120 121 123 130 141 150 156 167 168 163 158 158 164 174 183 181 177 171 163 161 164 172 171 168 163 154 145 145 156 163 163 160 159 157 155 154 152 157 161 162 154 148 141 136 132 130 130 131 133 135 137 141 141 130 92 54 38 38 29 28 29 34 50 61 67 72 79 85 90 91 104 122 141 148 151 153 157 165 170 171 169 170 169 163 166 163 159 162 169 173 172 166 154 139 125 101 90 84 67 61 55 50 46 39 29 13 19 23 24 22 17 15 15 14 11 9 9 13 19 25 30 35 41 49 65 70 71 73 78 80 79 71 64 60 59 57 56 56 56 57 58 60 62 63 63 63 65 69 72 76 200 255 255
255 255 194 66 60 55 51 45 45 45 46 47 47 48 49 51 52 51 51 52 54 56 62 63 65 69 77 81 86 88 90 90 89 91 99 108 116 114 111 107 107 109 108 103 98 100 101 96 95 96 100 102 100 97 93 85 76 68 60 52 49 46 43 34 26 19 15 13 12 13 12 9 6 7 10 10 8 13 20 25 27 30 32 33 31 28 26 27 29 30 31 36 42 41 36 33 43 52 58 72 79 86 97 98 100 102 109 121 132 141 151 153 149 146 150 158 168 174 172 166 159 150 148 151 159 162 159 153 140 132 134 149 157 159 157 157 156 155 154 153 157 160 161 153 148 142 137 133 131 131 132 135 138 141 142 141 129 95 58 39 37 31 30 31 33 47 59 68 75 83 89 94 94 106 123 143 151 153 154 156 164 169 171 170 171 171 165 169 166 162 165 170 172 168 159 146 131 117 94 83 77 61 57 53 50 44 37 26 13 20 25 27 26 22 20 20 19 18 17 18 22 27 33 38 43 48 54 67 71 71 73 76 78 76 68 62 59 59 57 57 57 58 58 59 61 63 64 64 65 67 70 74 77 201 255 255
255 255 193 62 57 52 48 45 44 44 46 48 48 49 51 53 55 55 54 55 57 59 64 65 66 71 79 83 87 88 90 91 90 90 98 106 112 111 108 104 103 104 103 99 96 99 100 96 93 93 95 97 96 95 93 88 81 74 67 60 56 52 47 37 28 22 18 17 17 18 16 14 11 13 15 14 11 16 22 25 24 26 27 28 26 24 24 26 30 31 32 35 38 36 31 27 33 39 43 55 61 66 75 77 78 81 89 101 112 121 130 131 129 128 133 140 148 150 145 139 133 125 124 130 142 150 152 147 133 124 127 143 150 151 151 153 153 152 151 152 156 159 160 154 149 144 139 136 133 132 133 135 138 140 138 139 132 102 62 41 37 33 34 35 35 47 60 70 77 85 91 95 95 105 122 143 150 153 154 156 162 166 168 168 170 172 170 174 172 168 169 169 167 159 148 135 122 110 90 79 72 57 53 52 51 45 37 27 16 22 28 31 29 23 19 18 17 17 16 17 21 26 32 38 44 50 56 70 74 75 78 79 78 74 67 60 57 56 55 55 56 57 57 59 60 63 64 64 65 68 71 75 78 201 255 255
255 253 190 57 53 49 46 45 44 45 48 50 51 53 56 58 59 59 60 60 61 61 66 67 70 75 83 87 90 91 92 92 91 91 99 108 114 111 109 106 102 101 97 91 90 96 99 96 91 90 92 95 96 95 94 91 85 79 73 68 63 58 50 38 29 23 18 18 19 20 18 15 13 15 18 17 14 19 22 24 21 23 25 26 25 23 23 24 30 31 32 32 33 32 29 27 31 35 37 45 48 51 56 58 58 60 67 77 86 93 100 102 101 102 109 117 122 118 113 108 103 97 98 107 123 140 145 139 121 115 122 141 148 150 150 153 156 157 157 157 158 159 159 153 148 144 139 137 135 135 136 138 140 141 134 135 132 108 63 38 34 34 38 38 33 45 61 76 85 91 96 98 96 105 122 146 153 156 157 158 162 165 165 165 169 173 174 177 175 171 172 171 165 154 141 126 112 100 78 70 65 51 47 46 46 41 33 24 16 24 31 35 32 24 19 17 17 18 18 19 23 29 36 43 50 56 62 76 79 80 85 83 79 73 65 59 56 55 55 57 58 59 59 61 62 65 66 67 68 71 74 77 79 200 255 255
253 251 188 53 49 47 46 45 45 47 50 53 55 58 61 63 64 64 65 65 64 64 67 70 73 80 88 91 93 95 96 95 93 92 102 112 116 113 112 109 102 98 91 81 83 91 96 95 89 88 90 95 96 96 96 93 87 81 76 73 70 64 52 39 29 23 18 18 19 19 18 16 14 17 20 20 17 21 23 23 18 21 24 26 26 23 21 21 28 30 30 28 28 28 29 30 32 34 35 39 39 37 40 39 39 40 43 52 58 62 68 69 70 73 82 89 91 83 79 76 73 70 73 84 105 130 138 130 108 104 116 140 147 149 151 155 160 163 164 163 162 160 157 151 147 143 141 140 139 139 141 143 145 144 133 133 133 115 64 36 31 34 41 40 30 42 63 84 94 99 101 101 97 105 122 149 156 159 161 160 162 163 162 160 167 173 175 178 176 172 173 171 164 151 135 118 102 88 65 58 58 46 40 38 39 36 27 18 14 23 33 39 34 25 19 17 18 21 23 23 27 34 43 51 58 64 69 83 85 86 93 88 80 71 63 58 55 56 57 60 62 64 63 65 66 68 70 71 73 75 78 80 82 200 254 254
255 253 188 48 46 44 44 45 45 48 52 55 58 62 65 66 66 66 68 67 65 63 66 69 74 82 89 93 95 98 99 98 94 93 103 112 115 112 112 110 101 94 83 70 72 82 89 93 88 86 88 93 95 96 95 93 88 82 76 76 74 68 55 41 30 25 20 21 22 22 21 19 18 21 24 24 22 25 26 25 19 22 25 27 25 21 18 16 23 25 24 21 20 22 26 29 31 31 31 31 27 22 21 20 20 21 21 28 32 35 38 39 40 44 54 59 59 48 48 48 48 47 50 62 86 118 128 119 93 92 106 133 139 142 146 152 160 165 166 165 162 159 157 152 149 148 147 148 148 148 149 152 153 151 135 134 136 124 71 39 31 36 43 41 29 41 65 90 103 106 106 105 100 106 123 153 158 162 163 160 160 159 156 153 161 169 171 173 171 168 169 166 159 145 129 111 93 78 54 50 55 45 36 31 31 30 21 13 10 20 30 36 32 24 18 17 20 25 28 29 34 43 53 61 68 73 76 88 89 89 98 90 80 69 61 57 56 57 59 64 68 69 68 69 70 73 74 76 77 80 82 85 86 202 255 255
255 253 189 52 48 46 46 46 47 49 52 54 57 60 62 63 63 64 65 63 61 59 63 67 73 82 90 95 97 101 103 101 96 93 103 113 117 111 110 110 103 95 82 69 72 80 87 92 89 90 94 101 102 101 99 97 91 84 76 76 75 72 61 47 37 31 26 27 29 29 28 26 24 27 30 29 25 26 26 24 18 23 28 32 32 27 22 19 21 20 19 15 13 15 18 21 22 22 22 22 17 12 11 11 13 15 18 27 36 44 50 53 54 58 70 78 81 73 70 66 58 52 53 63 84 113 123 114 87 83 95 120 130 135 140 146 153 157 159 161 160 159 157 153 151 149 149 149 148 148 150 153 155 156 143 138 135 125 79 48 34 35 40 41 34 46 67 89 102 108 110 110 104 109 125 152 160 164 163 158 157 156 156 155 163 169 171 173 172 169 170 168 161 148 129 110 91 77 56 53 55 46 40 38 37 32 23 16 15 25 35 42 39 34 30 31 34 39 43 45 49 56 63 70 75 77 79 88 86 85 90 83 74 64 59 56 56 57 60 65 68 69 69 70 70 73 75 76 78 81 83 86 87 203 255 255
255 254 191 57 53 49 48 48 49 50 52 53 55 57 58 60 60 61 61 60 58 57 63 68 75 84 93 98 101 104 105 102 96 90 99 110 114 106 105 106 104 97 87 77 79 83 86 88 88 92 98 107 108 105 102 101 96 88 78 75 74 73 66 54 45 39 34 36 38 39 36 32 30 32 34 31 25 26 24 20 14 22 29 34 36 32 27 24 21 18 14 10 8 8 10 12 12 12 12 13 10 8 8 10 15 21 29 42 57 74 83 86 87 89 99 108 113 109 101 88 72 60 58 66 84 110 121 116 92 81 85 105 117 124 130 136 140 144 147 154 157 159 159 156 153 151 148 146 144 143 144 147 152 156 148 141 134 123 89 61 40 33 38 43 45 57 72 88 97 107 113 115 109 114 128 151 164 167 164 159 154 154 157 162 168 172 175 177 176 174 172 170 163 150 131 111 94 83 70 67 67 58 55 54 53 41 30 24 23 31 42 50 51 48 46 46 49 54 58 61 66 69 73 77 80 81 81 86 82 79 78 72 65 59 56 55 55 56 58 62 64 65 65 67 67 70 72 74 75 78 81 84 86 203 255 255
255 255 193 65 58 53 49 50 50 50 50 52 53 53 54 56 58 59 59 58 57 58 67 74 82 90 97 102 106 108 106 101 94 84 91 101 104 98 96 96 100 101 98 94 92 89 85 80 82 88 98 109 110 107 103 105 101 93 83 74 71 72 71 62 54 48 45 47 50 51 45 39 34 36 35 31 23 23 18 13 7 19 27 33 37 34 31 30 23 17 12 6 4 3 3 2 1 1 2 8 9 10 13 18 26 36 52 71 94 121 132 135 132 129 134 141 148 144 128 107 83 65 60 67 84 107 121 125 107 87 79 87 100 109 117 122 122 124 130 143 152 158 161 159 155 151 146 140 135 132 133 136 142 150 149 143 133 120 102 78 51 34 38 48 60 75 82 85 90 104 115 120 115 121 133 152 168 172 168 162 153 152 159 171 177 180 184 185 183 180 175 170 163 150 132 115 101 95 95 94 90 82 81 80 75 55 42 35 33 40 50 61 66 65 63 61 62 66 71 74 80 82 80 82 83 83 83 83 78 72 64 59 56 54 52 52 52 53 54 55 56 57 58 60 61 65 66 68 70 73 76 79 81 203 255 255
255 255 193 65 58 51 47 49 49 48 48 50 50 50 52 55 57 58 58 58 58 61 72 79 86 93 99 105 109 110 108 105 100 88 91 96 96 93 91 90 95 101 104 103 97 93 89 82 86 92 100 109 111 110 107 110 107 101 92 79 75 76 78 71 62 55 53 56 60 60 51 44 39 39 37 32 24 23 20 14 8 16 22 26 29 27 28 31 24 17 11 6 4 2 1 0 0 0 0 9 15 21 26 34 44 57 76 98 123 150 159 156 149 138 137 142 149 149 129 104 77 57 50 56 74 94 111 121 110 86 69 67 82 95 105 113 112 114 122 138 151 161 169 167 162 155 148 139 132 127 126 128 132 141 145 145 140 123 111 92 64 38 38 50 66 83 88 87 91 106 117 123 120 127 139 154 169 172 169 164 154 151 158 174 180 184 189 186 184 181 174 166 157 145 130 118 110 108 115 116 111 103 102 101 94 69 54 45 42 45 54 66 74 75 72 67 64 66 70 73 83 85 83 84 84 84 85 85 79 71 61 57 55 56 54 52 52 52 53 54 55 56 58 60 61 64 66 67 69 72 75 78 81 203 255 255
255 255 192 61 54 47 43 45 45 44 45 47 46 46 48 52 54 55 54 54 56 60 71 78 84 92 99 104 107 108 107 108 108 97 95 95 93 92 90 88 92 99 103 104 96 94 93 90 95 100 105 110 111 110 107 110 108 104 96 85 81 83 86 79 70 62 61 63 66 66 56 47 41 41 38 31 24 23 19 15 10 15 19 22 24 23 27 32 25 17 11 7 5 3 0 0 0 2 8 23 34 43 54 62 73 85 105 127 149 172 176 169 156 140 134 136 144 150 132 106 77 54 45 48 64 79 95 107 103 79 59 50 68 85 100 111 108 110 117 131 145 159 172 171 166 160 151 142 134 127 124 124 128 136 145 150 148 129 121 105 77 42 37 47 66 86 90 89 94 108 119 124 122 130 142 155 167 170 166 163 154 152 157 171 177 181 185 183 181 180 173 164 155 144 132 124 119 119 128 127 120 111 109 108 102 76 62 53 48 47 54 65 74 77 76 71 67 67 70 73 84 87 85 85 85 85 86 87 82 74 63 59 59 61 58 56 55 55 55 57 57 58 60 62 63 66 68 69 70 73 76 79 81 203 255 255
255 253 189 55 48 41 38 41 40 41 42 44 43 42 45 50 51 50 48 49 51 56 68 74 81 90 97 102 104 104 105 109 113 107 101 96 93 93 91 88 90 95 100 101 93 95 97 98 103 107 110 111 111 109 105 105 105 103 98 90 88 90 93 87 78 69 68 69 70 69 59 50 42 41 37 30 22 19 16 14 12 14 16 19 21 22 27 34 26 17 11 8 8 5 2 0 6 15 26 46 62 75 90 98 107 118 137 155 173 188 188 177 160 139 128 127 134 145 133 109 77 52 41 42 54 64 77 90 93 73 52 38 59 80 99 112 109 108 112 121 135 152 169 171 169 164 156 148 139 132 126 125 128 136 148 156 155 137 131 118 92 47 36 44 66 86 92 92 98 110 119 123 122 131 143 154 164 165 163 161 155 153 157 167 171 174 177 178 179 179 173 166 157 148 139 133 130 128 134 131 121 110 108 106 100 78 66 58 53 48 52 60 68 73 74 72 69 69 72 75 86 89 87 87 86 86 86 88 84 76 68 64 65 66 63 61 59 59 59 60 61 62 63 65 66 68 70 71 72 74 77 79 82 202 255 255
254 251 185 49 43 37 34 38 37 38 41 43 41 41 44 49 49 47 45 47 49 53 65 73 81 92 99 102 102 100 101 106 113 110 102 95 91 93 91 88 88 94 98 98 92 95 98 97 103 106 108 108 107 103 99 96 96 96 95 92 91 93 96 93 86 77 75 75 74 71 60 51 42 39 34 27 18 12 8 7 9 12 16 19 22 24 29 36 28 19 13 10 11 9 7 9 23 39 57 83 101 116 132 139 147 156 170 183 194 202 200 186 166 141 125 117 118 129 124 104 73 49 38 38 46 51 63 78 90 76 55 35 55 78 99 113 108 103 101 102 116 135 155 164 166 164 160 154 146 138 132 130 132 140 152 159 159 145 142 131 106 51 37 45 70 91 98 99 101 110 117 120 119 129 142 154 160 163 163 160 157 156 158 163 166 167 169 177 180 181 177 170 164 157 151 144 139 134 135 129 118 105 99 93 85 69 63 59 55 48 48 54 60 65 68 71 73 74 77 82 90 92 90 88 86 85 85 86 83 77 71 68 68 69 67 66 64 63 63 62 61 62 64 66 66 68 69 70 70 73 75 77 79 199 254 254
250 248 183 46 41 36 34 38 37 38 42 44 42 42 47 52 51 47 45 47 50 53 66 75 84 97 103 105 104 101 102 107 115 114 106 98 95 96 95 92 91 96 100 100 94 97 99 98 103 107 109 109 107 103 98 93 93 93 94 93 93 94 98 96 90 82 79 77 75 70 60 51 43 39 33 26 18 10 6 5 9 13 17 22 25 27 31 37 30 21 14 12 13 12 13 19 37 58 80 108 126 141 155 162 169 177 187 197 204 208 205 193 173 147 129 117 113 123 120 104 75 53 42 41 47 49 59 74 89 79 59 37 55 77 97 109 103 96 91 88 102 121 142 156 161 162 161 157 151 144 138 137 139 145 156 161 160 149 145 134 110 53 36 44 70 93 103 106 107 113 117 119 118 128 142 155 158 161 162 160 158 159 160 163 164 166 167 178 182 183 181 176 171 166 160 151 142 134 130 123 113 99 90 81 72 60 56 54 52 47 48 54 59 62 66 71 76 79 82 86 92 92 90 87 84 82 81 83 80 75 70 68 68 69 68 68 67 66 65 64 63 64 65 67 67 69 69 70 70 72 74 76 79 196 251 251
248 246 181 44 40 36 34 38 37 39 44 45 43 44 49 54 52 48 45 48 50 53 65 75 86 100 106 107 105 102 102 107 115 116 109 102 99 100 99 96 94 99 103 103 98 99 100 98 102 107 110 110 108 104 99 94 93 94 96 96 95 96 100 99 95 87 84 82 79 73 63 54 47 42 36 28 21 12 7 6 10 14 18 21 23 25 29 34 29 20 13 11 13 13 15 24 46 70 94 121 138 152 166 172 178 185 193 200 205 207 205 195 176 150 129 114 106 114 114 101 76 55 45 43 47 49 58 72 90 81 63 41 55 75 93 103 96 88 81 76 89 109 131 149 157 160 162 159 154 149 144 143 144 149 159 162 160 152 148 137 114 55 37 44 71 95 107 113 114 117 120 121 121 132 145 157 158 160 160 159 160 161 162 162 162 163 165 177 182 183 182 179 176 172 167 157 146 135 128 120 110 96 84 73 62 52 50 49 47 45 48 54 58 61 65 72 79 82 85 89 92 92 89 85 82 80 78 79 76 71 69 68 68 69 69 69 69 68 67 66 66 66 68 69 69 70 71 71 72 73 75 77 79 195 249 249
248 246 181 41 37 34 33 38 36 38 44 46 44 45 50 55 52 47 45 47 49 51 62 73 85 99 105 106 104 100 100 104 111 113 108 103 101 103 102 98 97 102 106 108 102 102 101 96 101 105 109 109 107 104 101 98 97 98 101 100 97 97 103 104 101 93 91 89 86 80 70 62 56 51 43 35 28 20 12 8 11 14 16 16 15 17 22 26 24 16 9 7 9 10 13 24 47 72 97 122 137 149 162 169 175 181 187 192 197 199 199 191 175 148 125 106 93 98 102 94 72 55 45 41 44 48 58 74 91 85 68 45 54 72 89 96 88 79 71 66 78 97 120 143 155 159 163 161 157 152 148 147 149 152 161 163 161 155 153 143 120 59 40 47 74 98 111 119 123 125 127 129 130 140 152 163 161 160 159 160 161 162 162 161 159 159 160 172 178 179 178 177 176 175 172 163 152 140 131 122 112 98 83 69 56 47 45 45 43 41 45 52 57 60 66 74 82 84 87 91 92 91 88 84 81 78 77 75 71 68 67 66 67 68 68 69 68 68 68 69 69 69 70 71 71 72 72 73 73 75 77 78 81 196 249 249
250 249 182 41 37 34 34 38 36 38 44 46 44 45 51 55 52 46 44 46 46 46 57 68 81 94 99 101 100 96 97 102 109 110 105 101 99 103 104 101 99 105 110 111 105 104 103 99 103 107 110 109 106 103 99 96 95 97 101 99 97 96 104 107 104 97 96 95 92 85 76 69 64 58 49 41 35 26 17 13 16 19 19 18 16 17 21 25 24 17 11 12 16 18 21 31 54 80 106 130 144 155 167 174 179 184 187 191 194 195 194 186 171 144 118 95 77 79 87 84 65 51 42 38 40 44 54 70 91 89 74 51 56 71 86 92 84 75 66 59 70 88 113 139 153 159 164 164 160 155 152 151 151 153 161 160 156 152 151 144 124 60 40 45 71 93 109 120 128 131 133 135 138 147 157 167 164 163 163 163 165 167 168 167 165 163 162 173 178 180 180 180 180 180 178 170 158 145 134 125 116 102 86 70 55 48 46 44 40 38 42 50 55 58 64 74 81 85 88 93 96 95 93 89 86 84 82 79 73 68 65 65 66 66 65 65 64 64 65 66 68 68 70 71 71 71 72 72 72 74 75 77 79 196 251 251
252 251 183 40 36 34 33 38 35 37 43 45 44 45 51 54 51 44 42 44 43 43 52 64 78 91 96 97 96 93 94 98 105 107 103 99 97 104 106 103 101 108 113 115 109 106 105 102 106 110 112 109 107 104 101 99 98 100 105 102 99 98 107 112 110 103 104 103 100 93 84 78 74 69 59 50 44 34 23 17 20 20 19 16 11 13 16 20 22 16 12 15 20 23 27 38 63 89 116 139 151 160 172 178 183 187 187 190 192 193 191 185 172 144 117 89 66 64 75 76 62 49 41 37 37 40 50 68 93 95 83 60 59 70 83 86 78 68 59 52 61 78 103 134 151 159 166 166 162 158 155 153 152 152 158 154 148 146 146 140 121 57 36 42 67 90 108 123 134 136 138 141 146 154 164 174 168 165 165 167 170 173 175 175 172 169 164 173 178 180 180 181 182 183 183 174 162 148 135 126 117 102 84 67 51 45 43 41 35 36 42 51 56 59 65 75 84 87 91 96 98 98 95 92 89 86 83 79 72 65 63 63 65 65 63 63 62 62 63 66 68 68 70 71 71 71 71 71 72 73 74 75 77 197 252 252
252 252 184 38 35 32 33 37 34 36 43 45 43 45 51 54 49 43 40 42 41 40 48 62 77 90 94 95 93 90 91 94 100 103 101 99 97 105 107 105 103 109 115 119 112 109 107 105 109 113 114 110 108 106 104 105 104 105 111 108 102 100 111 118 117 110 112 112 109 101 92 89 86 81 70 60 54 43 31 23 23 21 17 12 6 7 10 14 19 15 13 17 24 28 33 46 72 100 127 148 158 166 176 183 187 190 187 189 190 191 190 186 175 148 119 88 60 53 66 71 61 50 43 37 36 38 48 67 96 103 94 71 63 71 80 79 71 60 51 45 52 67 93 129 149 159 167 168 165 160 157 155 153 150 153 147 139 140 140 135 118 54 34 40 64 88 109 127 140 141 142 145 154 161 170 179 171 166 166 169 175 179 182 182 178 173 166 172 177 179 181 182 183 184 184 176 163 147 134 123 113 99 80 61 45 40 38 37 32 36 45 56 61 63 68 79 88 92 95 100 100 99 96 92 88 85 83 76 69 63 60 61 63 64 63 62 61 61 62 65 67 67 69 71 70 70 70 70 71 72 73 74 75 197 253 253
255 254 186 38 35 33 33 39 34 36 43 45 43 45 51 54 50 43 41 43 42 40 48 62 77 90 94 94 91 88 90 93 97 101 99 98 97 102 105 104 102 104 109 113 110 107 105 104 108 111 113 109 106 104 103 106 105 107 113 112 107 103 111 119 120 114 116 116 114 105 97 95 95 90 79 70 64 53 40 31 30 29 25 19 14 14 15 17 23 20 19 23 30 35 41 55 82 110 135 154 162 167 175 181 185 188 184 184 185 184 185 184 176 153 127 96 67 56 65 70 62 54 48 43 39 40 50 68 97 105 98 77 66 71 78 73 64 53 44 38 44 59 83 122 144 156 166 168 166 162 159 156 153 151 152 144 137 140 140 136 120 60 42 48 71 94 114 132 142 141 141 145 154 162 169 177 168 164 165 168 174 179 182 181 176 171 166 173 178 180 182 182 182 181 179 167 153 137 123 112 101 88 70 54 41 37 37 37 37 44 54 65 69 68 72 82 92 96 99 103 100 96 92 88 84 81 79 72 66 62 60 61 62 62 62 62 62 61 62 63 64 64 67 68 67 68 68 68 68 70 71 71 73 197 255 255
255 255 188 39 37 35 35 42 35 37 44 45 44 46 52 55 50 43 41 44 43 42 49 62 76 88 92 91 89 87 90 94 98 101 99 97 96 100 104 106 103 99 101 106 104 102 102 106 110 113 113 106 103 101 102 106 105 106 111 112 107 102 107 115 117 112 114 115 113 105 98 98 101 97 86 78 75 65 53 44 43 40 33 26 18 16 14 13 20 20 21 27 35 42 50 65 93 120 144 158 164 166 171 176 181 183 179 177 175 173 176 178 174 155 131 101 72 57 63 68 65 62 57 51 46 45 52 68 95 106 102 85 70 70 73 65 54 43 35 30 36 50 74 114 138 152 164 166 166 164 161 158 154 150 149 141 134 139 136 133 122 68 51 54 74 97 118 136 145 140 139 142 153 161 168 175 164 160 162 167 174 179 181 178 174 170 168 175 179 181 184 183 181 178 173 159 142 127 111 99 90 77 61 48 39 37 36 36 39 51 64 76 79 74 74 83 93 97 100 103 98 94 89 85 82 79 76 71 66 63 62 62 62 62 61 61 61 60 61 61 62 62 64 65 64 64 64 65 66 67 68 68 70 198 255 255
255 255 190 40 39 37 37 44 37 38 46 47 45 48 54 56 52 45 44 47 46 44 51 63 75 87 91 90 87 87 91 95 98 100 99 97 97 100 105 108 105 97 96 100 99 98 100 107 111 113 113 106 102 101 103 106 105 104 110 112 108 102 104 112 115 112 113 114 112 104 98 101 105 101 92 86 85 76 65 57 56 54 48 40 32 28 23 19 26 27 29 35 44 52 61 78 105 132 154 165 167 166 169 173 177 178 173 170 166 163 168 173 172 158 135 107 78 60 64 68 68 68 64 59 53 51 56 68 92 104 104 91 73 69 67 56 45 35 28 23 28 40 63 103 127 143 156 160 162 162 162 159 155 151 148 139 131 137 132 128 121 74 59 62 77 99 122 141 149 142 139 143 154 162 169 174 163 160 163 168 175 181 183 178 174 171 170 176 180 182 186 185 182 177 169 151 132 115 97 86 78 67 53 43 36 35 34 35 41 57 73 86 87 78 75 82 93 97 100 102 95 91 87 83 80 77 75 70 66 64 65 64 63 62 61 61 61 60 61 61 61 61 64 65 64 64 64 64 65 66 67 67 68 199 255 255
255 255 191 42 42 40 40 46 40 42 50 50 49 52 59 60 56 50 50 52 51 48 54 64 76 87 91 91 88 88 91 93 93 95 97 100 102 103 108 112 110 101 97 98 100 99 99 102 105 109 111 110 106 105 106 108 105 104 109 114 111 107 108 115 118 116 116 115 113 105 101 104 107 105 97 93 92 83 72 66 68 73 71 66 61 57 51 45 51 50 49 51 57 65 76 94 119 144 166 175 174 170 170 173 175 175 168 164 160 157 164 171 172 162 144 118 89 67 69 72 69 69 67 63 58 59 63 72 88 98 100 92 73 66 61 49 39 30 23 17 21 31 50 86 109 125 141 148 152 156 159 160 159 158 152 140 130 139 130 125 119 79 68 71 84 103 126 146 155 151 148 151 160 167 172 178 169 168 171 174 179 185 188 184 179 174 171 179 182 183 187 189 186 181 168 145 121 103 84 74 68 58 46 37 31 31 30 34 44 63 80 92 90 78 74 80 91 96 99 100 92 87 84 81 78 76 74 70 66 64 67 66 64 61 60 61 61 61 62 63 64 64 66 67 67 67 67 68 68 69 69 70 70 200 255 255
255 255 192 46 45 43 43 46 42 44 50 50 50 53 59 61 58 55 56 57 55 50 55 63 74 85 88 87 83 81 81 79 77 79 85 93 99 96 98 103 105 100 94 91 103 102 96 87 85 90 98 106 106 104 102 102 99 100 107 116 117 114 114 118 121 122 119 116 112 106 104 105 107 105 101 97 95 83 73 69 75 92 102 107 114 115 113 109 110 105 98 91 89 95 105 119 138 158 178 187 185 179 176 176 176 174 168 164 160 156 160 167 171 166 157 137 110 82 79 75 64 59 59 61 58 63 68 74 81 87 89 86 70 63 58 49 42 34 26 16 19 26 36 63 81 98 116 124 131 138 146 152 157 162 153 137 127 140 127 117 110 82 81 88 96 107 126 145 152 154 157 160 163 164 168 177 175 178 182 180 180 185 194 192 185 177 171 180 184 184 187 188 183 172 151 123 98 80 66 56 50 41 36 33 32 31 33 42 60 79 96 104 96 80 73 78 91 98 100 100 90 83 79 77 77 76 75 72 69 69 72 69 63 57 58 59 61 61 62 63 63 63 66 67 68 69 70 71 71 71 71 71 71 200 255 255
255 255 193 49 47 44 43 46 41 42 47 46 46 49 54 56 55 53 56 57 55 51 53 60 68 78 80 78 74 71 69 65 62 64 72 81 88 83 85 91 95 92 88 84 102 103 94 79 74 77 86 98 100 98 95 96 94 96 103 114 117 115 111 114 117 120 117 112 108 103 103 104 106 107 105 102 99 85 76 74 79 98 112 125 140 147 150 150 150 145 136 126 122 125 132 142 155 169 184 194 191 184 179 179 177 173 169 165 160 154 155 161 166 167 165 151 125 88 79 71 60 52 55 60 58 63 67 71 77 83 88 90 72 62 55 48 44 38 29 18 19 22 26 45 61 77 96 104 112 120 130 137 144 152 138 121 112 126 106 93 89 78 86 94 94 101 119 138 144 149 154 158 158 157 161 174 175 182 187 182 180 187 199 200 192 183 175 182 185 185 187 182 170 151 124 95 72 59 48 39 30 24 25 30 35 33 36 48 70 94 113 122 110 89 78 80 93 100 102 100 88 81 76 76 76 77 77 76 75 76 78 71 62 55 56 58 59 60 61 60 58 59 62 64 65 68 69 70 70 70 69 69 69 199 255 255
255 255 193 50 48 44 42 46 39 38 41 40 40 42 47 49 48 49 51 53 52 49 50 55 62 69 70 67 63 60 57 54 52 54 60 67 73 69 72 78 84 84 81 79 100 101 93 79 72 71 77 89 92 91 88 90 89 91 98 109 112 108 103 104 108 111 110 105 101 98 98 101 104 108 108 107 104 91 84 81 80 93 107 123 143 155 163 167 169 167 162 155 151 152 156 162 169 178 187 195 192 186 179 179 177 173 170 166 161 153 150 154 159 165 169 159 133 86 70 62 56 48 53 60 58 59 60 64 74 84 93 99 77 62 53 46 44 40 32 22 19 18 19 33 48 62 79 87 94 102 112 119 124 129 111 96 89 103 75 61 65 71 87 93 82 88 107 129 135 139 142 147 149 149 154 171 170 177 184 180 179 188 202 206 200 190 182 184 186 186 185 172 151 124 93 66 48 39 33 23 12 8 16 28 41 37 38 49 74 105 130 142 129 103 86 83 94 101 103 100 87 79 76 76 77 78 79 80 81 82 80 72 63 55 56 58 58 58 58 55 52 53 56 58 60 63 65 66 66 66 66 66 66 197 255 255
255 255 192 52 51 48 46 50 42 40 44 41 42 44 48 49 48 48 51 53 53 50 51 55 60 65 64 62 59 58 57 56 55 58 62 66 70 70 74 82 88 93 92 89 106 105 97 85 81 81 85 95 99 97 91 89 86 85 89 98 101 99 95 94 98 102 101 99 95 93 94 98 104 108 110 112 114 105 99 93 85 90 99 113 130 142 151 156 162 165 168 168 166 166 167 171 177 183 188 192 188 182 176 176 174 172 170 167 163 158 154 155 158 165 169 161 136 84 61 53 54 53 58 63 61 57 54 55 65 80 95 105 82 64 50 42 41 38 32 21 16 13 14 24 36 48 62 70 77 86 97 103 106 107 88 75 73 91 63 54 68 87 102 101 77 85 108 133 141 137 135 137 146 150 157 170 163 165 171 173 178 188 201 205 203 199 197 194 192 191 189 170 142 108 77 53 37 32 26 17 8 7 16 31 48 42 36 41 67 103 133 151 140 110 88 79 87 94 97 96 88 83 80 79 78 77 76 76 76 75 72 69 65 59 60 61 61 60 60 56 53 54 57 59 61 63 65 66 66 66 66 67 67 196 255 255
255 255 191 49 49 46 45 51 42 40 44 42 43 46 49 49 48 47 50 53 53 52 53 57 61 64 63 63 62 63 63 64 65 67 68 68 69 74 78 85 92 102 104 99 111 109 102 93 92 92 96 106 110 108 99 96 90 87 88 94 97 96 92 90 91 95 95 94 92 90 92 98 105 110 114 119 125 119 113 103 86 82 86 97 111 125 137 146 154 163 170 176 174 172 172 176 180 184 186 186 182 177 173 174 174 173 173 172 170 168 163 160 160 164 168 160 136 82 54 45 52 54 58 61 61 60 56 53 61 77 93 104 83 65 51 44 46 45 39 27 20 17 19 23 30 38 47 53 61 70 80 85 86 82 64 59 65 88 58 52 74 100 116 108 72 83 110 138 150 140 130 127 141 150 158 169 153 150 154 160 167 176 185 189 192 195 201 196 192 189 187 161 126 87 58 37 25 23 19 14 9 9 18 34 52 41 27 27 54 93 130 155 148 115 88 75 79 85 89 89 86 84 83 81 79 76 73 71 69 67 64 65 64 61 60 61 61 61 61 59 57 59 61 63 64 66 68 69 70 70 71 71 71 197 255 255
254 255 189 45 45 43 42 50 40 38 43 40 42 45 49 48 47 46 49 53 54 54 56 59 63 65 63 64 65 67 69 71 74 75 73 70 69 75 81 86 93 106 110 106 112 110 105 99 100 101 104 113 119 116 108 103 97 92 90 93 95 95 91 86 86 89 89 91 91 89 91 98 107 113 117 125 135 134 127 112 87 74 73 79 89 104 119 133 144 157 169 178 175 173 173 178 182 184 183 180 176 173 170 172 174 176 177 177 177 178 171 164 161 163 165 158 136 81 49 39 51 56 58 59 61 63 60 55 59 75 91 103 83 65 52 47 50 51 46 35 27 23 26 25 28 32 36 42 49 57 66 70 67 60 43 46 62 88 55 52 79 112 127 114 68 83 113 144 159 142 126 119 137 150 160 168 145 137 139 149 157 164 168 171 178 187 200 192 187 183 180 149 109 66 39 22 14 16 14 13 11 12 20 36 56 41 19 14 41 85 128 159 157 122 91 72 73 77 81 81 82 83 83 80 77 73 70 67 65 62 60 63 64 62 61 61 62 62 62 62 62 63 65 67 67 69 70 71 73 73 74 74 75 198 254 254
252 253 186 41 41 39 38 48 37 35 40 38 40 44 47 47 46 45 48 52 55 58 61 64 66 66 64 64 66 69 72 75 78 80 75 69 65 74 79 84 88 101 106 104 107 105 103 102 106 107 108 113 119 119 113 110 104 98 95 95 94 93 87 82 81 84 85 89 91 89 90 99 110 116 121 131 143 146 141 123 91 71 63 64 68 81 97 113 128 144 160 173 171 170 171 179 184 185 180 175 172 169 167 169 173 177 180 180 180 182 173 165 159 160 161 155 136 81 44 33 51 61 60 58 61 65 63 58 61 76 92 104 84 65 51 44 47 50 50 42 32 28 32 29 29 31 31 36 43 50 58 59 53 42 28 38 62 87 52 49 82 119 135 119 68 87 118 149 163 142 121 113 136 153 164 170 142 131 132 144 154 159 157 158 167 180 197 185 177 172 170 135 92 48 23 9 4 9 10 11 12 15 22 38 59 42 16 7 35 85 133 169 169 133 97 72 70 72 74 73 75 77 78 75 72 68 65 64 63 62 60 65 67 67 65 65 65 65 64 64 63 65 66 68 68 69 70 71 72 73 74 74 75 196 252 252
252 252 185 38 39 36 35 45 33 31 37 35 37 41 44 45 44 43 45 50 55 59 63 65 66 65 63 63 65 68 73 78 81 81 75 68 63 70 76 81 82 89 93 94 94 94 97 105 110 110 109 110 115 116 114 114 109 104 100 100 98 94 87 82 81 83 85 89 92 90 92 101 113 119 123 133 146 152 147 132 100 79 68 65 64 74 87 101 115 131 147 161 162 162 166 175 181 182 177 171 169 167 164 166 171 177 180 181 180 180 172 164 158 158 158 154 138 89 49 36 54 64 62 58 61 65 63 59 62 75 89 99 79 61 45 37 39 43 47 44 35 32 37 33 33 34 33 37 43 50 56 55 48 36 26 40 64 84 50 49 82 118 132 118 71 92 122 149 161 138 118 111 135 153 164 168 140 130 132 144 153 156 152 152 161 174 191 175 167 162 161 127 86 44 20 6 2 10 12 15 17 20 28 46 67 49 23 13 41 91 139 174 176 140 103 75 70 70 70 68 70 72 72 70 67 65 63 64 65 65 64 66 68 68 66 65 65 64 63 62 62 63 64 65 66 66 68 69 70 71 72 72 72 195 252 252
253 253 185 39 39 35 33 43 32 31 36 34 36 40 43 44 43 43 45 50 55 60 65 66 65 64 63 63 66 70 77 83 87 86 78 69 63 70 76 81 81 83 85 86 85 86 94 108 115 115 112 110 114 116 116 116 113 107 103 102 101 96 87 82 81 83 84 89 92 90 92 100 112 118 123 133 147 153 151 138 110 90 78 73 71 76 85 96 108 123 138 152 154 156 161 172 179 180 175 168 166 165 162 164 170 176 181 181 180 179 173 165 159 158 157 153 142 100 58 41 56 66 63 59 62 65 62 59 61 72 83 91 75 58 42 34 34 40 47 47 39 36 41 35 33 33 31 34 40 47 51 50 42 32 26 41 65 82 51 52 84 116 129 116 74 97 124 148 157 135 115 108 131 149 159 160 134 126 129 141 148 149 144 145 155 169 187 170 162 158 157 125 86 47 23 9 4 12 17 22 26 29 38 56 77 58 31 21 49 96 141 174 177 142 106 77 71 70 69 66 69 72 72 70 67 65 64 66 67 66 65 66 67 67 65 64 63 63 62 61 61 62 63 64 64 65 67 68 69 71 71 71 72 196 254 254
255 255 187 41 41 37 35 44 34 33 38 36 38 41 44 45 45 44 46 51 56 62 67 67 65 64 63 65 68 74 82 90 95 93 83 73 65 72 79 85 84 82 82 82 78 82 93 112 121 121 116 112 115 117 117 117 113 108 103 103 102 98 88 82 81 83 82 87 90 88 90 98 109 114 119 130 144 151 151 142 118 102 92 86 83 85 90 96 104 117 132 145 149 152 158 169 176 178 173 167 165 164 161 163 169 176 181 182 180 179 174 167 160 160 156 154 146 111 67 47 56 66 64 60 65 66 63 60 61 69 78 84 73 57 42 33 33 39 47 49 42 39 44 35 31 30 27 29 35 42 47 44 38 29 27 44 66 80 55 59 90 117 128 116 79 102 127 146 153 131 112 104 124 142 151 148 126 121 126 136 141 140 135 136 149 165 185 171 163 159 159 129 93 56 32 16 10 18 24 31 37 42 51 68 88 69 42 31 58 100 140 171 174 141 106 77 70 70 69 67 72 75 76 73 71 68 67 69 69 67 64 64 65 65 63 61 60 60 60 60 60 61 62 63 64 65 66 68 69 71 72 72 73 198 255 255
255 255 189 47 46 43 41 49 40 39 44 42 43 46 49 49 49 48 50 55 60 65 71 70 68 67 66 67 70 75 84 93 98 97 87 77 70 76 84 90 88 83 81 81 76 80 92 113 121 121 116 110 110 112 114 113 109 105 101 102 100 95 84 80 80 82 80 84 87 84 86 93 103 107 112 123 137 144 146 141 125 115 106 100 97 94 93 93 98 110 124 137 144 149 156 166 175 179 176 170 168 167 163 164 169 176 180 180 177 174 172 165 160 160 155 151 144 114 70 48 55 66 67 65 71 70 67 64 67 75 83 88 78 64 47 36 33 38 46 48 42 39 42 33 29 27 24 27 33 41 47 44 38 32 33 47 65 78 61 69 100 122 131 120 89 113 134 147 148 126 108 102 120 136 143 137 120 118 126 136 139 138 132 133 147 165 186 175 168 165 167 140 107 75 52 33 25 31 36 44 52 57 66 81 99 82 57 47 73 107 141 167 170 138 105 78 72 72 72 71 76 79 79 77 74 71 70 73 72 70 66 66 66 65 63 62 61 60 60 59 58 60 61 62 62 63 65 67 69 70 72 73 74 198 255 255
254 254 190 51 50 46 45 51 43 43 48 46 47 49 52 52 51 50 52 56 61 66 72 72 70 68 68 67 68 71 80 88 94 95 89 82 78 82 88 94 90 81 78 81 76 79 91 110 117 118 113 106 104 107 111 110 108 106 104 106 103 96 84 83 84 86 84 87 89 85 86 93 102 105 108 117 129 135 138 137 130 128 122 115 111 103 95 88 90 99 112 125 133 140 148 159 171 178 179 172 171 170 166 166 169 174 177 175 171 165 166 162 158 159 153 148 140 116 74 50 53 65 69 69 74 73 71 70 75 84 90 93 86 73 56 39 34 37 46 50 44 40 41 32 29 27 26 27 34 42 49 46 41 38 44 55 66 78 71 84 113 125 130 123 104 127 142 147 143 124 110 107 122 135 139 128 116 119 129 139 141 140 135 135 147 163 183 174 168 166 170 150 126 100 79 58 47 51 55 62 70 75 83 95 109 96 76 70 93 117 141 159 160 132 103 79 75 75 75 73 75 76 76 73 71 69 68 71 71 69 67 66 66 65 63 61 60 59 58 56 55 56 57 58 59 60 61 63 65 68 69 70 71 197 255 255
254 254 190 52 50 47 46 50 45 45 50 48 49 51 53 53 52 51 51 55 59 63 70 70 69 68 67 65 64 65 73 81 87 91 90 88 86 87 92 97 91 78 75 81 78 80 89 107 113 115 112 104 101 104 110 111 110 110 111 114 109 100 89 90 92 95 91 93 94 90 91 97 105 106 107 113 123 127 129 131 134 142 139 130 125 112 98 85 83 89 100 111 121 129 137 149 165 175 179 173 173 173 168 167 168 172 172 170 165 158 161 159 157 159 151 144 136 120 80 54 50 63 68 70 75 74 74 76 83 90 94 96 93 82 64 43 35 37 47 53 48 42 40 33 29 27 27 28 34 43 49 47 44 45 56 63 67 78 84 102 127 126 127 124 119 141 150 147 138 124 115 115 128 137 136 118 113 120 133 141 142 141 137 137 145 158 175 169 165 164 169 158 143 127 108 85 70 73 76 82 88 93 99 109 119 109 95 92 113 124 137 148 147 125 101 81 77 77 76 73 73 72 70 67 65 63 63 65 65 65 64 63 62 62 60 58 57 55 55 53 51 53 54 55 55 56 58 60 62 65 67 68 69 196 255 255
255 254 189 51 47 44 43 45 43 45 49 47 48 50 51 52 50 48 48 51 54 57 64 65 65 65 64 62 60 60 67 74 81 87 92 95 96 94 97 100 93 78 75 83 81 82 89 104 110 115 115 108 104 107 116 116 117 118 122 125 119 109 99 102 105 106 101 102 103 98 99 105 111 110 110 113 120 121 121 125 137 154 153 143 138 122 104 87 79 82 90 99 108 116 125 138 156 169 176 171 172 173 170 167 167 169 168 166 162 157 160 159 158 158 150 142 135 127 92 62 48 58 64 67 71 72 75 81 87 91 92 92 96 88 72 48 38 41 52 60 55 48 43 35 30 27 27 26 31 40 46 43 43 48 66 69 68 78 99 121 140 125 120 122 131 152 155 147 136 127 124 127 135 141 134 109 109 119 133 140 139 137 136 136 142 151 165 160 157 157 164 162 157 149 132 107 91 93 97 102 106 111 116 122 128 120 110 109 128 126 128 131 130 114 97 81 77 75 73 70 68 65 62 58 56 55 54 54 54 54 54 54 55 55 54 52 51 50 50 49 49 50 52 52 52 53 55 58 60 63 65 66 67 196 255 255
254 252 188 53 47 44 43 42 43 45 47 47 47 48 50 50 49 47 47 48 50 53 60 61 61 61 60 58 56 56 62 68 73 78 85 91 93 91 93 96 90 75 72 80 77 77 84 98 105 112 113 106 102 106 115 116 117 119 123 125 120 112 104 108 112 113 107 107 107 103 104 108 111 109 108 110 114 112 113 121 141 166 170 161 156 137 115 94 82 82 86 91 101 109 118 130 147 161 170 168 170 171 170 166 165 165 165 165 162 158 161 161 159 157 147 139 134 134 102 69 47 53 59 64 68 70 75 83 90 90 87 83 90 85 70 46 36 40 53 65 63 57 50 41 35 32 32 30 33 41 47 45 46 56 78 77 69 74 102 126 138 113 106 114 134 154 152 138 125 123 127 134 139 141 132 105 112 126 141 144 140 139 141 145 150 155 161 153 148 148 155 159 161 161 144 119 102 103 109 115 119 123 127 130 132 126 119 121 136 125 118 114 111 100 88 74 69 68 66 62 62 60 57 53 51 51 50 50 49 48 48 49 50 52 50 48 46 44 45 44 43 44 46 47 48 49 51 53 56 58 60 62 63 194 254 254
253 251 188 54 47 43 42 40 42 45 46 46 46 47 48 49 47 46 46 47 48 51 57 58 57 57 57 56 54 54 59 65 69 72 81 87 89 87 89 92 87 73 71 78 75 75 81 93 101 109 111 104 101 105 114 116 117 120 125 127 122 115 109 113 116 117 112 111 110 107 108 110 112 109 108 108 109 106 107 118 144 174 181 173 170 148 124 102 88 84 86 88 97 106 114 124 140 153 163 163 166 168 167 163 161 161 162 163 163 160 163 162 159 156 145 137 134 140 109 74 46 48 54 61 67 68 75 85 93 89 82 74 85 82 68 45 35 39 55 69 69 64 57 46 39 35 36 32 34 41 46 44 47 60 84 81 70 72 105 129 137 105 97 108 137 156 149 130 115 119 127 136 138 139 127 98 111 128 143 144 137 137 142 149 154 156 158 149 143 143 149 156 162 166 150 125 108 108 118 123 127 131 135 137 137 130 127 130 142 123 109 101 97 89 80 68 63 60 58 55 56 55 51 48 47 46 46 47 45 43 42 44 46 48 46 43 41 39 40 39 39 39 42 43 44 46 48 50 52 55 57 58 59 192 253 253
254 252 188 54 46 43 41 39 42 44 45 45 45 46 46 47 47 46 46 46 47 49 56 56 55 54 55 54 54 53 58 64 69 71 79 85 87 85 87 89 86 73 72 80 76 77 82 92 99 106 109 103 101 105 114 116 119 123 128 130 125 118 113 116 120 120 114 113 112 110 111 112 113 110 108 107 107 103 104 116 144 177 185 178 177 156 133 111 96 91 90 90 97 105 113 121 134 146 156 157 160 163 163 159 158 158 159 162 163 161 164 163 160 157 145 137 134 142 112 75 42 42 49 58 65 67 75 86 95 88 77 67 79 79 66 46 35 40 56 71 73 69 62 50 42 37 37 31 32 38 43 41 45 60 85 83 71 72 108 133 138 102 94 106 137 155 146 124 110 117 127 136 135 134 121 90 105 124 139 138 130 129 137 146 151 154 156 147 142 142 147 154 161 165 149 125 109 111 124 130 132 135 140 142 142 134 131 135 146 122 104 92 87 82 74 64 58 55 53 50 52 51 47 44 43 43 43 43 41 38 37 38 41 43 41 38 36 34 35 36 35 36 39 40 41 44 46 48 51 54 56 57 59 192 254 254
255 255 191 56 47 43 42 38 42 45 45 45 45 46 46 47 47 46 46 46 46 47 53 53 53 52 54 54 55 55 58 63 68 69 77 84 87 86 87 89 88 82 83 90 86 85 86 88 94 102 105 104 103 107 113 115 117 121 126 126 121 117 115 119 121 121 116 114 113 112 112 111 111 108 106 105 105 100 100 111 138 171 181 176 177 161 143 125 110 104 100 99 103 109 115 120 129 140 150 152 156 160 162 159 158 158 160 165 168 168 169 166 162 156 143 133 129 137 110 76 43 40 46 55 63 67 76 87 93 84 71 59 71 71 62 46 37 41 55 68 70 68 63 51 43 37 37 32 34 40 46 46 52 68 92 90 78 79 114 137 139 101 93 105 133 149 141 123 115 126 137 146 144 140 127 98 113 130 142 141 132 130 138 149 153 154 153 145 141 141 145 153 161 165 151 130 116 118 131 137 139 142 146 146 143 132 128 130 138 113 96 87 82 79 74 65 58 56 54 52 56 56 53 50 49 49 49 48 43 38 36 37 39 42 38 36 34 33 35 39 41 42 44 46 47 50 52 54 56 59 61 63 64 196 255 255
255 255 191 53 44 42 40 37 41 44 45 45 46 47 47 48 47 47 47 46 46 45 51 53 54 55 56 57 58 58 59 62 65 65 74 82 85 85 87 89 89 85 86 90 87 84 83 84 90 99 106 108 107 109 114 115 117 120 124 124 121 119 120 123 125 125 121 119 118 116 116 114 113 109 108 106 105 100 97 105 129 163 174 172 174 161 145 130 115 107 103 99 100 104 110 116 125 135 146 150 154 157 158 155 155 155 158 163 168 172 174 172 167 159 146 136 130 135 111 79 45 38 42 50 57 65 76 87 92 82 68 56 67 68 61 47 40 42 52 62 65 63 57 47 40 35 37 33 34 41 49 51 58 73 95 92 81 85 117 136 135 99 94 108 136 149 140 124 117 129 141 150 147 144 133 110 124 138 148 145 134 132 139 150 153 153 151 146 143 142 145 151 156 159 144 123 109 110 123 129 131 134 136 135 131 119 114 117 127 106 93 86 82 78 73 67 63 63 63 62 66 66 62 58 57 57 56 53 48 43 40 41 43 45 43 42 41 41 43 46 48 48 51 52 54 56 58 61 63 65 67 69 70 199 255 255
255 255 189 47 40 37 37 34 38 41 43 44 45 46 48 48 47 46 47 46 45 43 48 52 56 59 60 60 61 62 61 62 62 60 70 80 84 82 85 88 89 84 81 82 81 78 76 78 86 97 106 113 112 112 114 116 117 118 121 122 122 122 124 126 128 129 124 122 121 120 119 117 115 112 111 110 108 102 97 101 120 153 166 167 171 159 145 132 117 109 103 97 96 99 105 113 123 134 145 150 153 154 153 150 150 152 154 159 166 173 177 174 170 162 152 143 136 135 111 80 46 36 38 44 51 63 76 86 86 76 64 56 65 66 60 48 42 42 49 57 58 55 48 40 35 32 35 33 36 43 52 55 63 78 96 91 82 92 118 131 127 97 97 112 137 148 141 126 120 131 142 150 149 147 139 123 136 148 155 150 137 134 141 151 153 151 150 148 146 144 144 148 150 148 130 107 90 89 101 107 109 112 114 113 110 97 93 98 113 100 93 89 85 79 73 68 68 71 73 73 76 75 70 66 64 62 61 57 52 48 47 47 48 48 48 48 49 50 51 52 53 53 55 57 58 61 63 65 67 69 70 72 73 199 255 255
255 255 186 40 33 31 31 29 32 35 39 39 41 43 45 45 44 44 45 44 42 40 45 49 54 59 61 61 62 63 63 62 59 56 66 77 82 77 80 86 86 77 70 65 70 69 69 73 81 92 105 115 115 114 113 114 113 112 113 118 122 123 122 122 123 125 119 118 117 116 116 116 115 114 115 116 115 107 100 101 114 145 160 164 170 160 148 136 122 115 109 101 96 100 108 120 131 142 153 155 155 154 149 145 146 148 150 153 159 167 171 170 167 163 159 153 145 137 111 80 47 35 35 41 47 63 76 81 73 64 57 56 63 63 56 46 42 43 48 53 53 49 41 33 29 29 35 35 40 48 58 62 71 86 96 91 85 101 115 121 117 97 101 115 131 140 137 130 126 135 144 150 149 148 144 134 145 155 160 153 140 136 143 149 150 148 148 149 146 144 145 145 143 134 109 80 59 55 63 69 73 76 79 82 83 70 66 72 95 95 98 100 94 82 71 65 68 73 76 76 77 74 69 66 64 62 60 56 52 50 51 49 46 43 44 46 48 49 50 51 51 51 53 55 56 59 60 62 64 65 66 66 66 196 255 255
249 247 180 37 30 27 25 24 26 28 30 31 32 35 37 38 38 38 40 39 37 35 39 41 45 50 53 55 57 60 61 60 57 53 62 72 77 73 76 82 83 75 66 61 69 71 74 81 87 96 105 115 116 116 115 117 116 115 115 120 124 124 121 118 118 120 115 111 110 110 112 111 111 113 115 115 113 103 98 99 110 138 153 160 171 165 156 148 137 129 121 112 107 112 121 131 138 145 153 157 155 152 149 145 145 145 146 149 154 160 161 162 162 162 161 158 150 137 113 83 49 34 34 41 48 61 70 74 69 62 59 61 63 58 49 40 39 43 51 56 54 48 39 29 26 27 33 33 36 44 52 56 64 78 83 75 66 75 76 75 72 60 70 85 95 106 112 114 116 128 137 142 138 136 133 129 140 151 157 148 136 137 148 160 162 158 152 148 144 143 143 143 137 124 96 66 45 41 48 53 54 56 62 69 74 60 55 61 82 91 99 103 95 80 68 61 62 65 67 64 64 63 60 59 58 58 57 56 52 48 46 42 37 34 34 35 36 36 39 42 44 43 46 48 50 54 56 57 58 59 59 60 60 189 248 248
244 241 176 37 29 25 23 22 24 25 26 27 28 30 32 34 35 36 38 37 35 33 36 37 39 43 47 49 52 55 56 56 55 51 59 67 71 67 71 78 79 72 65 61 71 76 80 86 90 97 104 111 113 113 113 117 117 117 119 124 127 127 122 119 119 120 115 112 109 111 112 112 111 114 116 115 111 100 95 98 108 133 148 156 170 168 163 158 148 141 132 121 116 118 123 129 131 136 142 149 149 147 145 143 141 141 143 149 154 158 159 159 160 162 163 161 155 140 115 84 49 31 31 40 47 56 64 69 68 62 58 60 61 55 46 39 38 43 50 56 54 49 40 30 27 27 32 31 33 39 45 48 56 71 74 67 59 64 61 60 57 47 60 75 84 93 99 101 104 118 130 135 130 126 123 120 132 143 150 141 131 134 150 165 167 162 155 151 148 147 146 142 133 116 86 59 42 39 49 49 45 46 56 68 77 63 58 65 85 91 98 101 91 75 63 56 56 58 58 55 55 53 51 51 51 52 53 54 51 48 45 41 37 33 31 31 31 31 34 36 38 38 41 44 46 50 52 54 55 56 56 57 57 184 243 243
243 241 176 38 32 27 24 25 26 27 28 29 30 31 33 35 36 38 40 39 37 36 38 37 38 41 44 46 47 48 50 52 54 51 56 63 67 63 66 72 75 68 64 64 77 83 85 86 88 93 99 106 108 107 107 113 116 118 122 128 132 132 127 125 125 126 121 119 117 119 118 117 116 118 119 116 111 98 94 96 108 131 144 152 168 168 167 165 155 148 141 128 119 115 114 112 112 115 121 132 136 139 139 138 136 135 143 152 159 164 165 163 162 162 164 163 159 147 119 84 45 25 27 37 43 49 58 67 69 61 54 52 56 55 51 46 43 43 46 50 51 49 42 34 31 31 34 31 31 35 39 41 49 67 73 72 70 77 82 84 83 69 79 94 104 108 104 97 94 110 124 132 127 122 117 111 123 134 141 136 126 129 145 161 161 157 156 159 159 157 153 143 129 109 80 58 46 49 62 58 46 44 58 76 90 77 74 83 104 98 96 94 82 67 56 50 50 53 53 51 51 48 45 43 45 47 49 51 51 51 50 48 46 43 40 39 38 38 38 37 36 36 40 43 45 49 51 54 55 56 58 58 59 185 242 242
252 251 183 40 34 30 27 30 30 31 32 32 33 34 36 38 39 42 43 43 41 39 42 41 42 45 48 49 49 48 48 51 53 51 55 61 67 61 62 67 73 70 68 68 83 87 84 78 78 83 92 103 105 103 101 105 107 110 114 122 127 129 125 123 123 124 120 118 118 119 118 117 116 117 118 117 113 102 96 96 103 125 138 147 164 169 172 173 164 159 152 138 125 118 113 108 107 109 115 125 131 134 136 136 135 135 147 157 165 170 169 164 160 159 162 163 160 146 116 82 45 26 27 35 40 48 58 65 61 51 43 40 49 52 52 51 48 46 44 44 48 49 45 38 35 35 38 36 38 42 48 52 62 80 85 89 94 107 113 116 114 104 112 122 126 125 118 109 106 121 134 141 137 135 130 123 132 140 145 141 132 133 145 155 153 150 154 161 162 159 154 141 122 98 70 51 43 48 63 57 43 41 57 77 93 79 76 85 109 102 101 100 88 73 61 54 56 59 61 59 59 55 51 48 49 51 52 53 54 56 59 58 55 52 51 50 50 49 49 47 45 45 48 51 53 56 58 61 63 64 65 66 67 193 252 252
255 255 188 43 38 33 30 34 34 34 35 35 35 36 37 40 41 43 45 45 43 42 45 44 44 48 52 52 52 51 51 55 59 58 60 64 69 62 62 67 73 71 69 71 87 91 88 80 78 82 90 100 102 101 99 104 107 111 115 124 129 130 126 124 124 125 122 120 119 120 119 117 117 118 118 116 113 103 98 97 103 120 132 141 159 167 173 177 168 163 156 142 128 119 112 106 103 104 110 119 126 130 132 134 133 134 147 157 164 167 166 160 155 153 156 159 157 144 117 84 50 31 31 37 39 45 53 60 57 47 38 34 42 47 50 52 49 45 42 41 45 49 49 45 43 44 48 47 48 52 57 61 71 89 93 98 105 118 124 125 122 111 118 126 130 128 122 114 111 124 136 142 138 135 131 124 131 137 141 139 131 132 142 151 148 145 151 159 161 160 155 139 118 93 67 52 48 55 70 62 45 43 59 80 99 84 82 91 115 107 105 104 93 80 70 65 66 69 70 68 66 61 56 53 54 55 56 57 59 62 65 64 61 59 59 59 59 59 59 57 54 55 57 59 61 64 67 70 72 73 75 76 77 200 255 255
255 255 191 46 42 37 33 38 37 36 37 36 36 36 38 40 41 44 45 45 44 43 45 44 45 49 53 54 54 53 54 59 65 67 67 68 70 64 64 68 74 72 72 77 92 97 94 87 85 86 91 99 101 100 99 105 109 114 119 127 131 131 127 126 126 126 124 122 121 122 120 118 118 119 119 116 113 103 99 98 102 114 123 132 150 161 170 177 169 164 157 145 131 121 113 105 100 99 104 113 119 124 128 131 131 132 145 154 160 161 159 154 149 147 150 152 151 140 116 87 56 38 36 40 40 40 45 52 54 46 37 31 38 43 47 51 48 43 39 38 43 48 51 50 51 53 57 56 57 60 64 67 76 92 95 100 107 117 122 121 117 107 113 120 124 123 119 115 112 124 134 139 136 132 127 122 125 129 132 132 127 130 140 149 145 143 148 156 159 159 154 136 114 89 67 57 57 65 80 70 50 48 65 87 105 91 89 98 120 110 107 107 98 88 81 77 78 80 80 78 74 69 63 60 60 60 61 61 63 66 67 67 66 65 66 67 67 67 68 66 63 64 66 68 70 73 76 79 81 84 86 87 89 206 255 255
255 255 191 49 46 40 36 42 39 38 38 37 36 35 36 38 39 40 41 41 40 40 41 40 41 45 48 50 50 50 52 57 65 70 69 68 70 67 66 69 77 80 84 91 105 107 103 95 92 92 94 100 102 101 99 105 110 114 118 123 125 125 124 124 124 124 124 123 122 123 121 120 120 122 121 118 116 108 103 99 96 99 103 111 128 144 160 172 166 164 161 154 141 129 117 105 97 94 95 102 109 115 121 125 126 128 140 151 157 160 155 149 144 140 144 146 144 129 108 85 61 43 40 41 39 35 37 44 50 47 41 37 40 43 47 52 50 45 39 36 39 43 47 49 51 53 54 54 54 56 59 63 70 82 84 89 96 106 111 112 110 106 112 116 113 113 113 114 117 126 134 138 138 135 129 124 122 122 122 126 125 130 140 150 146 143 149 154 157 159 153 132 106 79 61 59 64 76 92 80 57 55 73 95 115 98 93 99 116 108 109 113 107 100 94 91 90 91 91 90 87 82 76 72 70 70 69 67 68 68 66 68 69 70 72 73 74 74 75 75 73 74 76 77 79 81 84 87 90 93 96 98 100 209 255 255
255 255 192 49 46 41 37 43 40 38 38 37 36 36 36 38 39 41 41 41 40 39 39 39 40 43 46 48 50 51 52 58 67 71 68 66 66 66 66 68 77 84 92 100 113 114 108 97 93 91 93 99 102 100 98 106 111 115 119 121 122 123 124 125 125 123 126 127 127 128 125 125 126 128 126 124 123 117 110 102 93 89 89 95 111 133 155 173 170 170 168 163 148 134 119 104 93 86 86 93 100 106 114 121 123 125 139 151 158 163 156 149 142 136 138 138 134 116 98 79 61 44 39 39 36 34 37 44 51 48 42 36 36 40 46 54 53 47 38 33 35 40 47 51 53 54 55 54 54 55 58 62 69 77 78 87 100 111 115 116 116 114 121 122 112 109 110 115 124 133 139 141 144 140 135 132 125 119 117 123 123 125 133 143 139 136 144 150 155 157 149 124 94 64 50 54 66 80 98 86 62 60 77 100 120 99 91 93 108 103 108 116 113 106 100 97 95 95 96 95 94 90 85 81 79 79 79 75 74 74 70 72 73 74 75 76 76 77 79 81 81 82 83 85 86 88 91 94 97 101 104 105 107 212 255 255
255 255 192 48 45 39 35 42 38 36 36 36 35 35 36 38 39 41 42 41 40 39 38 37 38 40 43 46 49 51 52 58 67 70 66 63 63 65 65 67 74 84 93 101 114 115 109 99 93 90 91 96 100 99 97 107 114 119 123 123 122 123 125 126 125 123 128 130 131 133 130 130 132 134 132 130 131 126 119 108 94 86 84 88 102 127 153 175 175 176 174 169 153 137 121 106 92 83 82 88 95 102 110 118 121 123 138 150 158 162 155 147 139 132 132 131 126 107 90 75 60 44 38 36 35 36 41 49 53 50 43 36 34 37 44 55 54 48 38 33 34 38 46 50 51 52 51 51 51 52 55 59 65 72 72 86 103 114 115 116 118 119 127 127 111 106 107 116 130 140 145 146 149 146 141 138 129 121 116 124 121 121 126 134 130 127 135 141 147 150 142 115 83 53 41 49 64 80 100 89 66 64 81 104 124 101 89 89 102 101 109 121 119 111 105 100 97 97 97 96 95 92 88 85 85 86 87 83 82 81 77 76 76 77 76 76 77 78 81 84 86 87 89 90 92 93 96 99 103 105 108 110 111 213 255 255
255 255 189 44 41 35 31 37 33 32 32 32 32 33 34 36 38 40 41 40 39 38 36 35 35 36 38 42 46 48 50 55 64 66 63 60 61 63 64 65 70 78 86 95 107 110 107 99 93 89 88 92 96 97 98 111 118 124 128 127 125 123 125 126 125 123 128 131 132 135 132 133 136 138 136 136 137 134 128 116 102 92 88 89 100 125 152 176 178 178 176 170 154 139 125 111 96 86 83 89 95 101 109 118 121 123 137 148 155 158 149 141 134 126 126 125 120 102 86 72 59 44 37 35 35 41 49 56 57 52 46 40 35 36 43 53 53 48 40 36 35 37 44 45 45 45 43 43 43 45 48 53 58 64 65 82 103 109 107 108 112 116 127 127 109 103 105 115 133 144 149 150 154 150 145 143 133 125 120 127 122 119 120 128 122 118 124 128 134 137 131 105 75 46 35 45 61 78 99 91 70 69 85 108 127 102 89 87 100 102 113 127 125 118 109 102 97 95 94 91 91 89 86 84 87 90 92 90 90 89 86 81 78 77 75 74 74 75 79 85 89 89 91 92 94 96 98 101 104 107 109 110 111 212 255 255
255 255 189 44 41 35 31 35 32 30 31 31 31 32 32 35 37 39 39 39 38 37 35 33 32 32 34 38 42 45 48 53 61 64 62 59 60 62 64 65 67 70 76 85 96 100 101 100 94 89 87 88 91 93 96 110 118 124 128 127 124 122 122 123 123 121 127 130 132 134 133 134 138 140 139 139 142 141 136 126 113 103 98 97 105 126 150 171 173 173 171 167 154 142 130 118 104 94 90 93 97 102 109 116 119 121 132 141 146 146 137 130 124 118 117 117 114 98 85 73 62 50 42 39 38 44 51 57 56 52 48 45 38 38 42 50 50 47 42 40 37 37 42 42 42 43 42 43 44 46 49 54 59 63 65 82 100 103 100 102 107 113 124 124 108 101 104 115 135 146 151 153 157 153 147 145 136 129 125 130 125 120 120 125 118 112 114 115 120 125 121 98 72 46 37 45 61 77 97 91 73 74 90 112 131 107 93 91 103 107 120 133 132 125 117 108 101 98 96 92 91 89 87 87 90 94 97 96 96 96 92 85 80 78 75 74 74 75 79 86 91 91 92 94 95 97 99 102 105 107 109 110 111 212 255 255
255 255 189 46 42 37 32 35 33 31 32 32 32 32 33 35 37 38 39 38 37 36 33 30 29 29 31 35 39 43 45 51 58 61 59 57 58 61 63 65 66 66 70 79 89 93 96 99 95 90 87 87 89 91 95 109 117 122 126 125 123 121 122 124 124 122 129 132 134 136 136 138 141 144 143 143 146 147 143 134 121 112 106 104 110 128 150 168 170 171 170 167 155 144 133 122 108 98 94 97 99 103 110 117 119 120 130 138 141 140 130 124 118 111 110 110 107 94 83 74 65 54 45 40 38 44 50 55 54 51 49 46 39 37 41 48 49 46 42 41 37 36 41 42 42 44 44 45 47 50 53 58 62 66 68 83 100 101 99 101 107 114 124 125 109 102 104 115 136 147 153 156 162 158 152 150 141 134 130 135 129 125 123 127 119 111 109 106 110 116 112 92 68 45 37 46 61 77 96 90 75 76 92 113 130 108 95 93 103 108 120 132 132 126 118 110 102 99 97 94 93 92 90 91 94 98 101 100 100 100 96 89 85 82 79 78 78 79 83 89 94 94 95 97 98 99 102 104 107 109 111 111 112 212 255 255
255 255 189 48 44 39 34 36 34 33 33 34 34 34 34 36 37 38 38 37 36 35 31 29 27 27 29 32 36 40 43 49 55 56 54 53 53 57 61 63 64 65 69 76 83 87 91 97 95 91 88 87 89 91 94 107 114 118 122 122 122 122 124 126 126 125 133 136 138 140 141 142 145 147 146 147 150 150 147 139 128 118 113 111 115 131 149 167 169 170 169 167 157 147 135 124 111 101 97 100 102 106 112 118 120 121 130 137 140 140 129 121 113 105 104 103 102 91 83 76 68 57 47 41 37 41 46 51 51 49 47 45 37 36 39 47 48 47 44 44 41 40 46 46 48 50 52 53 55 57 60 64 69 72 74 87 101 101 100 102 109 114 124 124 111 103 104 114 135 147 155 160 168 164 158 157 148 141 137 140 136 132 130 134 126 116 108 100 102 107 103 85 63 43 37 46 62 77 95 90 75 77 92 111 128 107 96 94 103 107 116 126 126 122 116 108 100 97 96 94 95 94 93 93 96 99 102 101 101 100 96 92 89 87 84 82 82 84 87 92 96 96 97 99 100 101 103 106 108 110 111 111 112 212 255 255
255 254 189 53 48 43 38 39 37 36 35 35 35 35 34 35 37 38 37 37 36 35 31 29 27 26 27 31 35 39 42 46 52 52 49 47 46 51 55 58 60 62 67 73 77 80 85 94 95 92 88 86 90 92 94 105 111 114 116 117 118 120 124 126 126 125 133 136 138 141 142 143 145 147 147 147 148 148 146 141 131 122 117 116 119 131 147 162 165 166 165 165 158 149 138 126 114 105 99 102 105 109 116 121 122 123 131 139 143 142 128 117 107 97 96 97 98 91 85 79 71 58 49 42 37 37 41 46 48 47 44 40 36 35 39 48 51 53 55 59 57 59 66 65 67 70 71 71 71 72 73 76 79 83 84 93 102 99 98 99 104 105 113 114 105 99 99 109 130 144 154 161 171 168 164 162 154 149 146 148 145 143 144 150 143 129 112 94 92 96 91 75 58 41 36 46 62 77 95 91 78 80 94 112 126 108 99 97 103 104 111 118 118 117 113 104 94 90 89 88 91 92 92 92 94 96 98 97 97 95 90 88 88 89 85 83 82 83 85 90 93 92 94 95 96 98 100 101 103 104 105 106 106 208 255 255
255 255 195 64 57 51 47 47 45 42 39 39 38 37 36 36 38 39 39 38 38 39 37 34 32 30 32 36 40 44 48 53 57 53 47 41 37 41 45 49 53 56 61 67 69 72 78 89 93 90 84 82 87 90 91 100 105 107 108 110 113 116 119 120 119 120 127 131 134 138 140 142 144 147 146 146 146 144 144 141 134 124 120 119 122 129 139 150 153 155 156 157 154 149 141 129 118 108 101 102 104 107 114 119 121 122 132 139 143 141 124 110 99 89 87 90 94 92 87 80 73 62 53 46 40 36 38 43 47 45 40 33 32 34 40 51 55 62 72 81 85 92 105 106 109 113 114 113 110 107 104 104 104 106 107 112 116 109 110 111 110 104 104 104 100 98 99 107 127 140 151 160 171 170 165 161 157 154 153 153 151 151 154 161 155 140 118 89 83 87 82 68 54 41 36 46 61 77 96 94 83 85 99 116 129 114 106 104 109 106 108 113 114 116 114 104 91 87 86 85 89 91 92 91 91 92 93 90 89 86 79 79 81 83 80 78 76 77 78 81 83 83 84 86 87 89 90 92 93 93 94 94 95 207 255 255
255 255 198 70 63 56 52 53 51 47 43 42 40 39 37 38 39 40 40 39 40 41 41 39 37 35 37 40 43 46 51 55 58 53 46 39 34 36 40 44 49 52 57 63 64 67 72 81 86 84 78 76 82 86 88 95 98 101 102 105 108 112 113 113 113 115 121 126 130 134 136 139 143 145 144 143 142 140 140 139 134 127 124 123 125 128 133 140 142 144 145 147 147 145 141 131 121 113 106 105 104 106 113 117 119 121 130 137 140 136 118 104 93 84 82 85 90 91 85 78 71 64 57 50 44 38 39 43 47 44 37 29 31 35 41 52 55 65 80 93 102 113 130 133 137 143 145 143 139 135 130 127 127 129 129 130 129 122 126 127 122 108 102 100 101 102 103 110 128 141 153 163 174 174 168 160 159 159 159 157 157 158 162 168 162 147 121 87 78 81 77 68 58 48 43 50 63 77 96 95 86 88 101 116 127 116 110 109 114 108 107 108 109 113 112 102 87 82 81 79 83 85 85 85 84 83 83 79 77 75 68 69 72 75 72 70 68 67 68 71 72 72 74 76 77 79 80 81 81 82 82 82 82 204 255 255
255 255 196 69 60 55 52 52 50 47 44 42 40 40 39 39 40 40 40 40 40 40 42 41 39 38 40 41 41 43 47 50 50 46 44 42 40 39 40 43 49 50 55 62 65 66 66 68 72 72 70 71 77 82 85 89 92 95 98 103 106 107 107 108 110 112 117 122 125 128 131 135 140 141 139 138 138 134 132 132 132 133 132 130 131 129 130 132 133 135 135 135 136 137 136 131 125 120 116 112 110 109 114 116 117 119 125 131 132 126 110 98 90 83 82 83 85 86 78 70 63 61 57 51 45 43 45 49 48 43 37 31 34 37 42 48 49 59 76 89 99 112 128 132 138 145 150 149 147 144 141 139 140 144 145 142 138 135 143 146 140 119 109 106 110 112 113 119 135 149 161 172 183 181 173 161 161 163 165 164 164 165 168 171 162 145 120 86 76 79 78 75 71 66 59 60 67 79 93 93 85 87 98 110 119 111 108 109 116 108 105 104 103 107 105 95 81 76 74 70 71 71 70 70 69 69 67 64 62 61 59 59 62 64 62 60 58 56 58 61 62 62 64 66 66 68 69 70 70 70 69 69 69 199 255 255
254 252 191 61 53 49 46 47 46 43 41 38 38 38 37 38 38 38 39 39 39 40 43 42 41 40 40 40 39 40 42 43 41 39 40 42 43 39 38 41 47 48 52 59 63 62 59 56 61 64 67 72 78 84 87 89 91 94 97 102 104 105 103 104 106 108 111 117 121 123 126 132 138 139 137 137 139 136 133 130 130 135 135 132 133 130 128 129 129 132 133 132 132 132 134 133 130 126 122 115 111 110 112 113 114 116 122 128 130 126 111 99 91 86 87 89 92 89 74 61 53 54 51 47 42 45 49 51 43 36 32 30 34 37 39 42 43 54 72 86 96 106 119 119 123 128 133 132 131 131 130 129 130 135 137 136 135 138 147 152 148 131 121 118 120 122 123 127 141 152 162 172 185 185 176 160 159 161 164 163 163 163 165 166 157 142 120 86 74 75 76 74 70 63 53 49 53 65 79 80 75 78 89 101 110 103 99 101 113 108 107 108 106 106 100 87 71 66 64 59 59 57 56 55 54 53 52 48 47 49 50 52 55 57 56 55 52 51 52 54 55 55 57 59 59 60 61 62 62 62 61 61 60 193 254 254
251 250 188 56 48 43 42 43 42 40 38 36 35 36 36 36 36 37 38 37 38 39 44 43 42 41 40 38 37 37 38 37 35 34 38 43 45 41 38 39 46 48 54 61 65 62 56 49 54 59 65 72 80 86 90 92 93 95 98 102 103 102 100 101 103 106 108 114 118 119 123 129 135 136 135 136 139 137 133 129 128 135 135 132 132 128 126 127 127 130 132 131 129 130 132 134 132 128 123 114 110 108 110 109 110 113 118 124 128 126 111 99 92 88 90 92 94 88 69 53 45 48 46 42 38 46 53 54 42 34 30 30 35 36 36 36 38 49 69 84 92 100 109 106 106 109 113 113 113 115 116 116 118 124 127 128 129 135 145 150 149 135 127 124 124 128 129 132 145 155 164 174 187 188 179 160 159 160 163 163 162 161 161 161 154 139 120 85 72 72 73 72 68 62 49 44 47 59 74 77 75 79 89 100 109 100 94 96 110 108 109 112 110 108 99 84 67 61 58 52 52 50 48 46 46 45 43 40 39 41 44 47 50 53 52 51 49 48 49 52 53 52 54 56 56 57 58 59 59 59 59 58 57 190 252 252
250 249 186 53 45 41 39 39 39 38 36 34 34 35 35 35 36 36 37 37 37 39 44 44 43 41 39 37 36 36 35 33 31 31 38 45 47 44 41 41 47 51 59 67 69 63 55 47 52 58 65 73 81 88 93 95 97 98 101 102 101 99 99 100 101 104 106 112 116 117 121 126 133 133 133 134 138 138 134 129 126 135 135 130 128 125 124 125 125 127 130 129 127 128 131 134 132 127 121 111 106 105 105 105 106 109 114 121 125 125 111 100 92 87 89 91 92 84 63 46 39 43 41 38 36 48 56 58 45 35 31 33 36 36 34 32 33 46 66 83 88 93 99 92 90 91 94 93 95 98 101 103 105 110 115 117 119 125 136 143 143 133 128 125 125 130 131 135 148 157 165 174 188 190 181 161 159 160 161 163 160 158 157 159 152 139 121 83 69 69 71 70 67 61 50 45 48 61 78 84 84 89 97 107 113 102 93 94 108 107 111 115 116 113 103 85 67 60 57 51 51 49 47 45 45 44 43 39 38 39 42 45 49 52 52 51 49 48 50 53 55 54 57 58 58 59 60 61 62 62 62 61 60 191 251 251
252 250 187 53 45 41 39 38 38 38 36 35 35 36 36 35 36 36 36 36 37 38 42 43 42 40 37 36 36 36 35 33 32 33 41 48 50 49 47 46 51 57 66 74 72 65 58 53 58 64 69 76 83 90 96 99 101 102 104 101 98 97 99 100 102 103 107 112 116 117 119 124 129 129 129 131 134 138 134 129 126 134 132 126 122 119 118 120 120 122 125 127 127 127 129 130 127 122 115 105 101 100 102 102 103 106 111 118 123 125 111 100 91 84 84 85 86 80 60 45 39 43 40 36 35 47 56 58 47 39 35 37 40 38 35 32 34 46 67 84 86 88 92 83 79 79 79 78 80 83 89 91 93 97 104 107 107 110 122 130 133 125 122 121 121 127 129 133 147 156 164 173 188 190 181 162 160 159 161 163 160 157 156 159 154 141 122 83 69 70 71 70 68 64 56 54 59 73 90 98 99 105 112 119 123 109 99 97 107 106 109 115 118 117 108 90 71 64 61 56 58 58 56 54 54 53 52 48 46 46 46 49 54 59 58 56 55 54 56 61 63 63 65 66 66 67 68 69 70 71 71 71 70 195 252 252
253 250 187 52 44 41 39 37 38 38 37 36 37 37 37 36 36 36 36 36 36 38 41 43 42 39 36 35 35 35 34 33 32 34 44 51 53 54 53 52 54 60 67 74 70 62 57 56 63 70 75 79 85 91 97 99 100 101 102 98 96 95 98 100 101 102 105 110 113 114 117 120 124 124 124 126 130 135 133 129 127 134 133 126 121 116 114 114 112 114 118 123 124 124 124 125 124 120 113 103 100 101 102 102 103 105 110 116 121 125 111 99 89 81 80 81 83 79 59 45 39 43 39 34 34 45 54 56 47 40 38 41 45 43 39 35 37 49 67 83 84 82 84 72 67 66 66 65 67 72 78 81 84 87 96 99 98 101 114 123 128 123 121 121 123 129 130 132 144 152 160 170 185 188 181 163 160 160 161 164 161 158 156 158 154 142 124 86 72 72 73 73 71 68 62 60 64 77 94 101 105 111 117 123 125 111 101 98 106 105 108 113 117 117 108 91 73 66 64 61 65 65 64 62 61 60 59 55 53 52 51 56 62 66 65 64 63 63 64 67 69 69 70 71 71 72 73 75 76 77 78 78 78 197 253 253
253 250 186 51 42 40 39 35 37 37 37 37 38 38 38 36 36 35 35 35 36 37 40 42 42 39 35 34 34 34 33 32 32 35 45 53 55 57 56 56 57 61 66 72 65 58 54 58 66 73 78 82 87 92 96 98 98 98 98 95 93 93 97 98 99 101 104 108 110 111 113 116 118 118 119 122 126 132 131 128 126 134 134 127 120 114 110 109 106 108 113 119 122 121 121 123 123 120 114 105 103 103 105 103 104 106 110 115 120 124 111 98 87 79 77 79 81 77 59 44 39 42 38 32 32 44 52 54 45 41 41 45 50 48 43 38 40 51 69 83 80 76 75 62 55 53 53 53 56 61 69 73 76 79 89 91 90 94 106 116 122 121 121 122 124 130 130 131 142 148 156 166 182 186 180 165 162 162 163 165 162 159 156 158 154 143 125 88 74 75 76 75 73 71 65 63 66 78 92 101 106 113 118 123 124 111 100 97 104 104 107 112 116 117 108 91 75 70 68 67 72 73 72 70 68 67 66 63 60 59 57 62 68 72 72 70 70 70 70 73 74 75 75 76 76 77 77 79 80 82 83 83 83 199 253 253
252 249 185 49 41 39 38 34 35 37 37 37 38 39 38 36 36 35 35 35 36 37 39 42 42 40 35 34 33 34 32 30 30 34 44 53 55 58 58 58 57 60 64 67 61 53 51 58 66 74 79 82 86 90 94 96 95 94 94 91 90 91 94 96 97 99 101 105 107 107 109 111 113 113 115 118 123 129 129 126 124 133 134 129 122 115 111 109 105 106 111 119 122 122 121 124 126 124 118 110 108 109 108 106 106 109 111 115 119 123 111 98 86 77 76 78 80 75 57 43 39 41 36 31 31 44 52 53 44 42 44 51 55 52 46 41 44 54 70 82 77 69 65 50 43 41 41 42 46 52 62 67 70 72 82 83 82 87 96 106 114 117 120 122 124 129 130 130 140 145 152 162 177 182 179 167 165 165 166 167 164 159 155 156 153 143 125 89 76 77 77 76 74 71 65 62 64 74 87 97 104 111 116 120 121 108 97 94 102 104 109 115 120 119 110 93 79 75 75 74 79 81 80 78 76 74 73 71 68 67 65 69 73 77 77 76 76 77 77 78 78 79 79 80 80 80 81 83 84 86 87 87 87 200 252 252
252 250 186 50 42 40 39 34 36 37 37 37 38 39 38 37 36 36 36 36 37 38 39 41 42 39 35 34 34 35 32 30 29 32 43 51 52 56 57 57 56 60 65 67 60 53 52 60 68 74 78 81 87 91 95 98 98 97 97 93 92 93 97 98 99 101 104 107 109 110 111 112 114 114 116 120 123 130 130 127 125 133 134 131 125 120 118 118 115 116 119 127 129 129 128 129 129 125 118 111 109 109 109 107 107 109 111 114 118 122 108 95 84 75 74 76 78 71 55 44 40 41 35 30 31 44 52 54 48 46 49 55 57 53 47 43 47 58 73 86 79 70 64 49 42 40 40 40 44 50 59 65 68 69 77 78 76 78 83 90 97 104 111 116 117 122 124 125 135 142 149 160 174 178 176 168 166 167 168 168 163 159 157 160 157 146 125 87 74 75 74 71 69 65 60 58 61 72 86 96 104 111 117 120 120 106 97 94 101 104 110 116 121 120 112 96 82 78 78 77 83 85 84 83 82 80 80 78 76 74 70 73 77 80 80 80 80 81 81 82 82 83 83 84 84 85 87 88 90 91 92 92 93 202 252 252
254 251 187 52 44 42 40 34 37 38 37 38 39 40 39 37 37 37 37 37 38 38 38 40 41 38 33 33 34 35 31 29 29 31 41 49 49 54 56 56 55 61 65 67 61 54 54 63 71 76 79 82 88 93 97 101 102 101 101 96 96 98 103 103 103 105 109 111 112 114 116 116 117 118 121 123 125 131 132 130 127 134 136 134 130 127 126 128 126 126 129 135 137 136 134 134 131 125 116 111 109 109 109 106 106 107 109 112 116 120 105 92 80 71 72 74 76 69 55 46 43 40 35 30 32 44 52 55 50 49 52 58 58 53 47 45 51 63 79 92 84 74 67 52 45 43 43 43 46 51 60 65 68 69 74 74 72 71 73 76 82 93 103 110 111 115 117 120 130 138 147 158 172 175 174 169 168 169 170 168 163 160 159 165 163 150 126 86 72 72 70 66 62 58 53 53 59 70 85 95 101 109 115 118 118 105 97 94 100 103 108 114 118 118 110 95 81 77 77 77 83 86 86 85 84 83 83 82 81 78 74 77 81 84 84 84 84 85 85 86 86 87 87 88 88 90 91 93 94 96 97 97 97 204 253 253
255 252 188 54 46 43 42 36 38 39 38 39 40 41 40 38 38 39 39 38 39 39 38 39 39 36 32 33 34 35 31 29 29 30 39 46 45 51 54 54 54 61 66 68 61 56 56 66 74 78 80 83 90 95 99 105 106 105 104 100 100 103 109 108 108 110 115 116 117 120 122 122 122 123 127 128 129 134 135 133 131 136 138 138 135 132 133 136 137 137 139 143 145 144 141 138 133 125 115 110 109 108 108 106 105 105 106 109 114 118 102 88 76 67 68 71 73 66 55 48 45 41 35 31 33 44 52 55 52 52 55 60 59 54 48 47 55 68 84 97 90 80 74 59 53 52 52 51 53 57 64 69 72 72 75 74 70 68 66 67 71 84 95 103 105 109 111 115 126 135 146 158 170 173 172 169 168 169 170 167 162 161 163 171 169 155 126 83 69 69 65 60 56 52 48 50 57 69 84 93 98 105 111 115 115 103 96 95 100 101 104 108 111 112 106 92 78 75 74 74 81 84 85 84 84 83 83 83 82 79 75 79 84 88 87 86 87 88 88 88 88 89 89 90 91 93 95 96 98 99 100 101 101 206 254 254
255 253 190 57 49 46 44 39 41 41 39 41 41 42 41 39 39 39 39 39 39 39 36 38 39 35 32 33 35 35 32 30 28 28 37 42 39 47 50 51 51 58 63 65 59 54 55 66 74 77 77 78 86 91 96 103 105 106 106 102 102 105 111 112 113 115 121 123 123 126 128 129 129 131 133 134 133 137 137 136 133 136 138 137 134 133 134 138 140 141 142 146 149 149 147 144 139 130 120 116 114 112 111 109 108 107 107 108 111 113 96 83 73 63 63 64 64 56 52 50 51 46 41 37 37 44 51 56 58 60 62 64 59 52 48 48 55 68 84 98 91 83 79 70 68 70 72 72 73 75 81 84 85 84 84 80 74 70 66 63 65 76 87 96 100 103 106 112 123 134 145 158 170 172 171 171 169 171 171 167 163 162 166 174 170 153 121 76 62 62 57 53 51 49 46 50 59 69 84 92 96 102 106 109 108 99 95 95 98 100 102 104 107 110 106 95 83 79 79 78 84 87 88 87 86 86 86 86 85 82 77 81 85 89 89 88 89 90 90 90 90 90 91 92 93 95 96 98 99 100 101 102 102 207 255 255
255 255 193 61 54 51 48 43 44 44 42 43 43 43 42 40 40 40 41 40 40 39 36 39 40 38 35 36 38 38 35 33 30 31 38 42 39 45 48 50 51 57 61 64 60 56 57 67 73 74 73 73 81 87 93 101 104 104 105 103 103 105 111 113 115 117 124 124 125 127 129 130 131 133 134 133 132 133 134 133 132 134 136 137 135 135 136 140 143 144 144 146 149 151 150 147 142 133 123 120 115 112 110 109 107 106 105 104 105 104 87 77 68 60 60 60 58 49 50 53 56 51 46 41 40 43 48 53 58 62 65 66 57 49 45 46 53 66 81 94 90 84 83 81 83 89 94 95 95 96 101 103 104 102 98 89 80 75 67 61 59 67 77 87 93 97 103 111 122 133 145 159 169 169 168 171 170 172 173 167 164 165 171 179 174 155 119 74 61 62 57 54 53 52 50 54 62 71 84 89 92 97 101 103 102 95 95 96 99 101 102 104 106 110 109 101 91 87 86 85 88 90 90 90 89 88 88 88 87 84 78 81 84 88 88 89 90 91 91 91 91 91 92 93 94 96 97 99 100 101 102 103 103 208 255 255
255 255 195 64 57 54 51 46 47 46 44 44 44 44 43 42 42 42 42 42 42 41 37 40 42 41 40 40 42 42 39 36 34 34 40 43 40 44 48 50 51 55 59 61 60 57 58 67 72 72 70 70 78 85 90 99 102 103 105 105 105 107 112 114 116 118 125 125 125 127 129 131 131 134 134 132 129 129 130 130 130 132 134 137 137 137 139 142 147 146 144 144 148 151 152 150 144 136 127 124 118 113 110 110 108 106 103 102 99 95 79 70 64 57 57 56 54 45 50 56 60 56 50 46 42 43 47 51 57 62 65 65 54 47 44 46 53 66 81 94 91 88 90 93 99 107 115 117 117 118 121 123 124 121 114 102 89 82 72 62 55 60 69 79 87 91 100 111 124 135 148 161 170 168 167 172 171 174 175 168 166 169 176 183 177 156 116 72 59 62 57 56 57 57 55 59 66 73 83 87 88 92 96 97 95 91 93 97 99 101 102 103 104 110 111 106 97 94 93 91 91 91 92 92 91 90 89 89 88 85 79 81 83 86 87 88 89 91 92 92 92 93 93 94 95 97 99 100 101 102 103 104 104 210 255 255
255 255 197 67 59 56 53 48 50 49 46 47 46 46 46 44 45 44 44 44 44 43 39 42 45 44 44 45 46 46 44 41 37 37 43 46 42 45 48 50 50 53 56 57 57 56 58 66 71 70 68 69 77 84 90 98 101 103 106 107 108 110 114 115 117 119 126 126 125 127 130 131 132 134 134 132 128 126 127 128 130 132 136 139 140 140 142 145 150 148 144 142 146 150 153 153 148 141 133 130 124 117 115 114 112 109 105 102 98 91 73 64 59 52 52 51 48 41 51 61 65 59 54 49 45 47 50 53 58 62 65 65 54 48 47 51 60 73 88 100 99 98 102 107 116 126 135 138 138 138 140 142 142 139 130 116 103 94 80 66 56 56 64 74 84 88 98 113 127 139 152 164 171 169 168 175 176 179 180 171 169 171 178 184 176 153 110 66 54 57 53 55 58 60 59 62 68 73 81 84 86 89 91 91 87 86 91 96 98 100 101 99 99 107 110 108 100 97 95 92 91 91 92 93 92 91 91 91 90 88 83 83 83 85 87 89 90 91 93 94 94 95 95 96 97 99 101 102 103 103 104 104 104 211 255 255
255 255 196 65 58 55 53 48 49 49 47 47 47 47 47 46 46 46 46 46 45 44 41 44 46 46 47 48 48 48 47 44 41 41 45 47 43 45 48 50 50 51 51 52 52 53 56 66 70 69 67 67 74 81 87 95 98 101 105 108 110 111 114 116 118 119 126 126 124 126 129 131 131 133 133 130 127 125 126 129 133 136 140 143 143 142 143 145 150 147 142 139 142 147 152 154 151 146 140 139 133 127 125 124 122 119 114 109 102 92 75 66 59 51 50 47 45 41 53 63 67 62 56 51 46 48 51 54 58 61 62 61 51 46 47 53 61 72 87 97 97 98 104 111 120 131 142 146 146 146 148 149 150 148 139 127 114 105 91 77 66 62 67 77 88 91 102 115 129 141 153 166 171 169 169 176 176 181 182 172 169 171 175 178 170 146 104 62 51 55 53 56 61 64 64 66 71 74 80 83 85 88 89 87 84 84 90 96 98 100 99 97 96 103 107 106 99 96 94 90 89 89 90 91 91 91 91 92 92 91 88 86 85 86 88 89 90 91 93 94 95 95 96 96 97 99 101 101 102 102 102 102 102 210 255 255
255 255 195 64 57 54 52 47 49 48 47 47 47 47 47 47 47 46 46 46 46 45 42 44 46 47 48 49 49 49 48 47 44 45 47 48 44 46 49 51 49 48 47 47 47 50 56 67 70 69 66 65 72 78 85 91 94 98 103 108 111 112 114 115 117 119 125 124 123 125 128 129 129 130 130 128 125 123 125 129 135 138 143 145 145 143 143 144 148 145 139 136 139 144 150 153 151 149 145 146 141 135 134 133 130 127 121 116 107 94 76 67 60 51 48 45 43 42 55 65 67 63 57 51 46 48 50 53 56 58 59 56 49 46 48 55 62 72 85 93 94 97 104 112 122 133 145 149 150 150 151 153 153 152 144 134 123 114 100 88 77 70 72 81 93 95 104 117 131 142 154 166 171 168 168 175 175 180 183 173 169 170 172 172 163 140 99 61 52 56 54 58 64 69 68 70 73 75 79 82 84 86 87 85 82 85 91 98 101 101 99 95 94 100 104 104 98 95 93 89 87 87 89 91 91 91 92 93 94 94 93 90 88 87 88 89 90 91 92 94 95 95 95 96 97 98 100 100 101 101 101 100 100 208 255 255
255 255 194 62 56 53 51 47 48 48 47 47 47 47 47 47 47 46 46 46 46 45 42 43 45 46 48 48 48 48 49 48 48 49 50 49 46 47 50 53 49 45 43 42 44 49 56 68 72 70 67 65 70 76 81 87 90 94 100 107 111 112 113 114 116 118 123 122 121 122 125 127 127 127 128 126 124 121 124 129 136 140 145 147 147 145 143 143 146 142 137 134 137 142 147 151 150 150 149 150 146 142 141 139 137 134 128 122 112 96 78 68 60 51 47 44 43 45 57 66 67 62 57 51 45 46 47 49 52 54 55 52 47 46 50 57 63 72 84 89 91 94 104 111 121 133 144 149 151 151 152 153 154 154 148 139 130 121 109 99 90 78 79 85 97 98 107 119 132 143 154 165 170 167 167 172 173 178 181 172 169 169 169 167 157 135 96 62 54 59 59 63 69 73 72 73 75 77 79 81 83 84 86 85 83 87 94 101 104 103 99 94 92 98 102 102 96 94 92 89 86 87 89 90 91 91 92 94 95 96 96 92 89 87 88 89 89 90 91 92 93 93 94 94 95 97 98 98 99 99 98 98 97 207 255 255
254 253 191 61 55 52 50 46 47 47 46 46 46 46 47 47 46 45 45 45 45 44 41 41 42 43 45 46 46 46 48 49 49 49 49 47 44 46 49 52 49 46 43 42 44 49 57 69 72 70 66 65 70 75 80 85 88 92 98 106 111 113 113 114 116 118 123 123 122 123 127 128 128 128 128 127 126 123 126 131 138 142 145 147 146 144 143 144 147 144 139 135 138 142 147 149 148 147 147 148 145 142 142 141 139 135 131 125 115 99 80 69 60 50 45 42 40 44 57 65 65 61 55 48 42 42 43 45 46 49 48 44 40 40 45 54 59 68 79 84 86 92 103 110 121 132 144 149 151 151 151 153 154 154 149 142 134 126 115 107 99 85 83 88 98 98 106 118 134 145 156 167 172 170 169 173 172 177 179 171 168 168 167 164 154 132 94 61 53 58 58 62 67 71 70 72 75 77 80 81 82 83 85 86 85 88 94 100 103 101 97 92 89 95 99 98 92 89 88 85 83 85 87 89 90 90 91 93 94 94 95 92 88 87 86 87 87 87 88 91 92 92 93 93 94 96 96 97 97 97 96 96 95 204 254 254
252 251 190 61 55 52 50 47 48 48 47 47 46 46 47 47 47 45 45 45 44 43 40 40 41 42 43 43 43 44 45 46 47 48 47 45 42 45 48 50 48 46 45 44 46 51 58 68 71 68 65 63 69 73 77 82 85 89 96 104 109 111 113 114 116 118 123 124 123 125 128 130 130 130 130 129 128 126 128 132 138 139 142 143 142 142 142 145 149 147 143 141 142 144 147 147 146 146 146 148 145 143 145 144 141 138 133 128 118 102 83 70 60 49 44 40 38 41 55 64 66 62 56 49 43 43 45 46 48 50 50 46 42 43 49 59 65 72 80 83 85 92 103 111 121 132 143 148 149 149 149 151 152 151 146 142 137 131 122 115 109 96 93 96 103 101 107 118 134 145 156 166 173 171 169 173 171 174 176 169 167 166 164 160 149 127 91 60 53 58 57 60 63 66 66 70 75 78 81 81 81 82 84 85 85 89 94 100 103 99 94 89 86 92 95 95 88 86 85 83 82 83 86 88 89 90 90 93 93 95 97 94 91 89 88 88 88 88 89 91 93 93 93 94 94 96 96 97 97 97 96 95 95 203 252 252
252 251 191 62 56 53 52 48 49 49 48 48 47 48 48 47 47 46 45 45 44 42 39 39 40 41 41 41 40 39 40 41 42 45 45 44 43 45 47 49 46 46 45 45 49 54 60 66 68 66 63 63 68 71 74 77 81 86 93 102 108 110 111 112 114 116 122 123 123 124 128 130 131 131 131 130 129 126 127 129 133 133 135 138 138 139 141 145 150 150 148 148 148 148 148 147 146 146 147 149 148 148 150 148 145 141 137 132 121 105 84 70 58 47 44 41 38 40 54 64 66 63 58 52 45 48 50 51 53 58 60 57 55 59 67 77 83 89 94 94 94 99 108 115 123 133 143 147 148 147 146 147 147 147 142 139 137 135 129 124 120 109 106 107 111 105 108 118 133 143 154 164 172 170 168 172 169 171 173 167 166 165 161 154 142 120 87 60 55 59 58 59 61 62 63 68 75 79 81 80 78 79 82 84 86 91 97 103 106 100 93 86 82 88 92 92 87 86 86 85 83 84 87 88 89 90 91 93 94 97 101 98 95 92 92 91 91 91 92 92 92 93 93 94 94 95 96 97 97 96 96 95 95 202 252 252
252 252 193 64 58 56 55 52 53 53 53 52 51 51 51 50 49 47 46 45 44 42 39 39 40 43 42 39 36 34 32 33 35 43 46 48 48 48 49 48 44 45 44 44 53 59 62 64 65 64 63 65 69 72 71 71 75 81 90 102 107 109 108 108 109 111 116 118 119 120 125 128 129 129 129 129 127 122 120 120 122 122 125 130 133 136 140 144 148 151 154 156 156 153 149 147 149 150 150 153 155 157 159 156 151 145 141 135 124 106 82 64 51 41 44 44 42 43 56 65 66 65 62 58 52 58 62 63 64 74 81 83 89 97 108 119 126 131 132 127 123 123 126 127 132 138 145 148 148 145 140 140 140 139 134 132 134 139 136 134 133 126 122 121 123 113 111 117 129 138 148 158 167 165 164 167 165 168 170 166 166 164 158 146 132 112 84 62 58 63 62 61 61 60 61 68 75 80 80 77 74 75 79 83 87 96 104 111 116 104 93 83 78 84 89 91 89 90 92 91 88 88 90 91 92 92 91 94 97 102 109 106 102 98 98 98 98 98 97 94 92 93 93 94 94 95 96 97 97 97 96 96 95 203 253 253
254 254 195 68 61 60 59 55 57 57 56 55 54 54 53 52 50 48 48 47 45 43 41 41 42 44 42 40 36 34 32 32 35 42 45 46 46 47 48 47 43 47 47 45 54 59 61 62 63 63 64 66 71 72 69 67 70 75 83 95 102 106 106 105 106 108 113 115 117 118 123 126 126 126 126 126 124 119 117 117 118 117 121 127 130 132 136 141 145 149 154 158 158 154 147 143 146 148 148 152 157 160 163 159 154 149 146 141 132 116 91 70 54 42 45 46 46 48 61 69 71 70 67 62 57 64 68 69 71 81 88 90 99 110 123 136 144 147 147 141 138 137 139 138 141 146 151 153 151 147 142 140 139 139 135 134 137 144 143 142 142 136 131 128 129 117 112 115 124 133 143 154 164 164 164 169 167 170 172 168 169 166 158 146 133 113 86 65 61 64 62 60 58 57 59 67 75 81 81 78 76 77 80 83 87 97 106 112 116 101 87 76 71 78 83 85 83 86 89 91 90 91 93 93 94 93 92 94 98 103 110 110 107 103 103 103 103 103 100 95 91 93 93 93 94 95 95 96 96 96 96 95 95 204 255 255
253 253 195 71 65 63 61 58 59 58 57 56 55 54 53 51 49 47 46 45 45 44 42 41 42 44 42 40 37 35 34 34 38 44 45 44 44 45 46 46 44 48 48 46 52 56 59 61 65 66 67 69 73 73 68 65 66 70 76 87 96 102 103 103 103 106 111 113 115 117 121 124 124 123 124 125 124 120 119 119 120 118 121 126 128 129 132 137 140 145 150 156 157 152 144 139 143 145 145 151 156 162 166 163 159 155 154 150 143 129 105 83 65 51 53 56 60 67 80 87 88 86 81 74 65 68 70 70 71 79 84 84 96 109 123 137 144 147 147 141 140 142 146 145 147 152 155 157 155 150 144 142 142 142 140 140 142 147 149 149 148 141 134 131 133 121 113 112 120 128 139 151 163 164 166 169 167 168 169 166 168 165 157 144 130 111 84 62 57 60 57 55 53 53 57 66 75 81 82 79 76 76 80 84 88 97 105 111 114 98 83 72 69 77 83 84 82 85 88 91 91 92 94 94 93 91 89 92 95 101 108 110 109 108 108 109 108 108 104 98 93 94 94 95 95 96 96 97 97 96 96 96 96 204 254 254
249 249 193 74 68 65 63 59 59 58 57 55 53 51 49 47 46 44 42 42 42 43 42 41 40 42 41 40 38 38 39 40 43 49 46 43 44 44 44 45 45 47 47 45 48 51 55 62 69 71 71 73 75 73 69 63 63 65 69 80 90 98 101 101 102 105 109 111 113 115 120 123 123 122 124 125 125 124 125 127 127 123 124 128 128 127 129 134 135 139 144 151 153 148 139 134 139 142 143 148 155 161 167 165 163 162 163 161 155 144 124 103 84 70 71 77 87 102 114 119 119 114 105 93 78 73 69 66 66 70 71 70 83 96 109 123 128 131 131 127 130 137 145 145 149 154 158 160 158 154 148 147 147 148 149 150 149 149 153 154 152 144 133 129 135 123 114 111 118 125 135 147 161 166 167 167 164 163 162 160 164 162 154 140 125 105 76 54 48 50 49 47 48 50 54 64 74 81 82 78 73 73 79 84 89 96 104 109 111 97 84 74 72 82 90 91 87 88 91 93 93 93 93 92 89 86 84 86 90 96 101 107 110 111 112 113 113 113 109 102 96 97 97 97 98 98 98 98 97 97 97 97 97 202 251 251
249 249 195 79 73 69 66 62 61 59 57 55 52 50 48 47 46 44 42 42 43 44 44 43 42 43 43 42 42 43 45 45 45 48 45 43 46 44 44 46 50 51 51 51 52 52 53 58 65 68 71 74 75 72 68 64 62 62 64 72 82 90 95 97 99 102 107 110 112 114 119 123 124 123 125 127 129 130 131 132 132 129 129 132 131 129 130 134 134 137 141 147 149 145 138 134 139 142 143 147 151 156 161 161 160 162 166 166 163 156 143 128 113 100 101 107 118 132 141 145 146 142 131 116 98 88 83 78 74 72 70 68 77 86 95 106 108 108 109 106 113 123 134 137 142 149 154 157 157 155 152 152 154 156 159 158 155 151 157 159 156 148 138 134 140 129 118 113 120 127 137 150 164 169 170 168 165 162 159 158 161 159 150 137 120 99 73 53 48 50 49 50 51 54 57 65 72 78 80 76 71 70 77 84 88 91 96 102 104 97 90 83 83 91 97 98 95 94 96 98 96 94 92 89 86 83 82 82 86 91 94 100 104 106 109 110 110 110 106 100 95 95 95 95 96 96 95 95 95 95 95 95 95 201 251 251
251 252 198 82 77 73 68 64 63 60 59 56 53 51 50 49 48 46 45 45 46 46 46 45 44 45 45 45 45 47 48 46 43 43 41 42 46 44 45 47 54 54 55 57 59 56 54 53 58 61 65 69 70 68 65 64 63 62 64 70 76 83 89 93 97 101 106 110 113 115 120 124 127 127 127 129 132 134 134 134 133 132 133 134 132 130 131 135 135 138 142 147 149 145 140 137 141 144 146 148 150 153 156 156 157 160 165 165 164 161 154 145 134 124 123 126 134 143 150 155 159 157 148 134 115 107 103 101 94 90 85 81 83 87 93 100 99 96 95 94 101 111 122 129 136 144 150 154 155 154 154 155 157 160 162 160 156 152 158 161 158 151 144 142 147 134 121 114 120 128 139 152 166 171 170 169 167 164 160 160 160 155 147 134 116 94 71 57 54 56 55 56 57 60 62 68 74 78 81 78 73 72 78 83 87 87 91 95 98 97 93 89 90 95 99 100 98 98 100 101 97 93 90 87 86 84 84 83 87 92 94 98 99 100 103 104 104 105 101 95 90 90 91 91 92 92 92 92 92 91 91 91 92 202 254 254
255 255 202 85 80 76 71 67 64 62 61 58 56 54 53 52 52 50 50 50 50 50 49 49 48 48 48 48 48 50 50 46 40 38 38 40 46 45 46 49 56 57 58 62 64 60 54 49 51 53 58 63 64 63 62 64 64 64 66 69 73 77 84 90 95 99 106 111 114 116 120 125 129 129 128 130 134 137 136 133 132 133 134 134 131 129 130 133 135 139 142 146 148 146 142 139 144 147 149 151 151 152 151 153 154 157 162 162 162 161 159 154 148 139 136 135 137 141 147 154 162 163 157 145 129 126 126 125 119 113 107 101 96 96 98 102 98 93 89 89 95 104 114 124 132 140 148 151 153 153 154 156 158 160 161 158 155 152 158 161 159 153 149 150 154 139 123 114 118 127 139 152 166 169 169 169 169 166 163 162 158 151 142 129 110 90 71 62 61 63 62 62 64 67 69 73 77 80 83 81 77 77 80 83 85 84 87 91 94 96 95 93 93 95 97 98 99 101 103 104 99 94 90 88 88 88 89 88 92 97 98 98 96 95 97 98 99 100 96 90 85 85 87 88 88 89 89 89 88 88 88 88 89 204 255 255
255 255 204 85 81 77 72 68 65 64 63 61 59 58 58 57 56 54 54 55 54 53 52 52 52 52 51 51 51 53 51 47 41 37 37 40 45 46 48 51 56 56 58 61 62 58 53 48 49 51 54 59 59 58 58 64 65 65 68 70 71 74 81 89 94 97 105 111 115 116 119 125 129 128 127 128 133 137 135 132 131 133 133 132 126 123 123 125 130 134 138 142 144 143 140 138 143 148 150 152 154 153 150 152 154 157 162 160 159 159 159 156 150 141 135 131 130 132 139 149 160 164 159 150 136 138 141 143 138 132 126 118 109 108 110 112 107 100 94 93 98 105 113 124 133 140 147 151 152 152 153 154 155 155 156 156 154 151 158 161 160 155 153 155 161 144 125 112 114 122 134 147 161 164 165 167 168 167 164 163 156 146 134 121 102 84 69 64 65 67 64 64 66 70 74 78 81 83 86 86 83 84 84 84 84 83 86 90 92 94 93 90 90 91 91 93 98 101 104 105 100 95 92 91 92 94 95 96 100 106 108 105 100 97 99 99 100 101 96 90 85 85 87 88 88 89 89 89 89 89 89 89 89 205 255 255
255 255 203 84 80 76 71 68 65 64 64 62 61 60 59 58 57 56 56 56 56 55 54 54 54 54 53 53 53 55 54 50 44 40 40 43 48 49 51 54 57 55 55 57 57 54 51 48 49 52 56 59 59 58 58 64 64 64 66 68 70 73 80 87 91 95 102 108 113 114 117 122 126 125 124 126 132 137 136 133 132 134 133 131 123 119 117 117 121 126 130 134 137 136 133 132 138 144 146 148 149 149 145 147 149 153 158 156 155 155 157 154 148 139 132 129 130 134 141 150 161 166 160 150 137 140 144 145 137 130 124 117 110 110 112 114 108 101 93 92 97 103 110 121 129 136 142 146 149 150 151 152 153 153 156 157 157 155 162 165 165 160 159 161 166 149 129 115 115 122 132 145 159 163 165 167 168 166 162 162 154 142 128 112 94 77 65 63 64 66 64 64 66 71 75 79 81 83 85 85 85 85 85 84 83 83 85 89 91 93 92 90 91 91 92 94 99 102 106 108 103 98 94 93 94 96 98 99 104 110 113 110 105 101 103 104 105 106 101 94 89 89 90 91 91 91 92 92 92 92 93 93 93 206 255 255
255 255 202 82 80 76 71 68 65 64 65 63 61 60 60 59 58 56 56 56 56 55 55 55 55 55 54 54 55 57 57 54 48 45 45 48 53 53 55 57 60 55 54 55 55 52 50 49 50 53 58 62 60 59 59 63 63 62 64 66 69 72 78 84 88 91 98 104 109 110 113 118 122 121 120 123 130 137 136 134 133 135 135 131 123 118 115 115 117 121 125 130 131 130 128 128 135 140 143 143 144 144 140 142 144 149 154 152 151 151 154 151 144 135 130 128 131 138 144 151 162 167 160 149 136 140 143 142 129 121 116 111 107 108 110 113 107 99 92 90 94 101 108 117 123 130 136 141 144 146 148 151 153 153 157 160 161 160 167 171 171 167 165 165 169 152 133 119 120 125 134 145 159 163 165 166 166 163 159 159 152 139 122 104 86 71 61 61 63 65 64 65 68 72 76 79 81 82 84 84 85 86 86 86 86 84 85 88 91 94 93 92 94 94 95 96 101 105 108 110 105 101 97 96 97 98 99 100 105 110 114 111 105 101 104 105 106 108 103 97 93 93 94 94 94 94 94 95 95 96 96 96 96 207 255 255
255 255 201 81 78 75 71 67 65 64 65 63 61 60 59 58 57 56 55 55 55 55 55 54 54 55 55 55 56 60 60 57 52 50 50 53 59 57 58 61 63 57 54 55 55 53 51 50 51 54 60 65 63 61 60 62 61 60 61 65 68 71 76 81 85 88 93 99 104 105 109 114 118 117 117 121 130 137 137 135 133 136 136 133 125 121 119 119 119 122 125 129 129 128 127 128 134 138 142 140 139 139 136 138 141 146 151 150 148 148 150 147 141 132 128 128 133 141 146 152 160 165 158 146 133 138 140 135 117 108 103 101 100 102 106 110 105 97 90 86 91 98 105 112 117 122 128 134 139 142 146 150 153 155 159 163 166 166 174 178 178 175 171 169 169 153 135 124 128 132 139 148 161 165 166 165 164 160 156 156 148 134 116 97 79 66 58 60 63 65 66 68 70 73 76 78 79 80 82 83 85 87 88 89 89 86 85 87 91 94 96 96 98 99 99 100 103 107 110 111 107 103 99 98 99 99 100 99 103 108 113 108 102 98 101 102 104 106 103 99 96 96 97 97 97 96 97 97 97 98 98 98 99 207 255 255
254 255 201 81 78 75 71 67 65 64 65 62 60 59 58 57 56 55 55 54 54 54 54 52 51 52 53 54 56 60 61 59 55 54 53 54 61 58 59 61 63 59 57 57 59 58 55 52 51 54 59 65 64 61 59 60 59 59 60 65 68 71 75 79 82 85 90 96 100 101 106 111 115 114 115 120 129 136 136 134 132 135 135 133 128 126 126 127 126 129 132 136 135 134 132 134 137 141 145 142 142 142 141 142 146 150 154 153 150 147 147 142 134 126 122 122 126 135 140 146 154 159 153 142 130 136 137 131 112 103 98 96 97 101 107 114 110 103 95 90 94 101 109 113 117 121 126 132 137 140 144 148 151 153 158 163 167 168 176 182 182 178 172 167 164 147 132 125 133 138 143 150 161 163 162 161 160 156 152 152 144 130 110 91 74 62 55 59 62 66 68 69 71 74 76 79 81 83 84 86 89 91 93 95 95 91 88 89 92 95 96 97 99 100 101 101 104 107 110 110 107 103 101 100 101 102 102 101 103 107 111 105 98 93 95 96 98 100 98 97 96 96 97 97 97 97 97 97 98 98 98 98 98 207 255 255
254 255 200 80 76 73 70 66 64 64 64 61 59 59 58 57 56 55 55 54 54 54 54 52 51 52 53 54 56 60 61 60 56 56 55 56 62 60 60 61 63 61 59 58 60 60 57 51 50 52 58 65 64 62 60 58 57 57 59 64 68 71 73 76 79 81 86 91 95 97 102 107 111 109 111 117 126 133 133 132 131 135 136 134 130 130 131 133 132 134 136 140 138 136 136 137 140 144 148 145 145 145 145 147 150 154 158 156 152 147 145 139 131 122 118 119 124 133 138 143 150 156 150 139 129 136 136 129 107 97 92 91 94 100 107 115 112 106 98 92 97 104 112 113 115 119 124 130 135 139 142 147 151 154 158 165 170 171 178 183 184 179 173 166 160 144 131 127 137 141 146 151 160 162 162 159 158 155 150 151 143 128 108 88 71 60 54 57 61 64 67 70 72 74 76 79 80 82 84 87 90 92 94 96 97 91 88 88 92 94 96 97 98 99 100 99 101 103 105 105 102 99 98 98 99 99 100 99 101 104 109 102 94 90 91 92 94 96 95 95 96 96 96 96 96 96 96 97 97 97 97 97 98 207 255 255
253 254 199 78 74 72 68 64 63 63 63 60 59 58 57 57 56 55 55 55 55 55 56 54 52 53 55 56 58 61 62 60 57 57 56 58 64 61 60 60 62 62 60 59 61 61 57 48 47 50 56 65 65 63 61 58 56 57 59 64 67 71 72 74 76 78 82 87 91 92 97 102 105 104 106 113 122 130 130 130 129 135 137 136 132 133 135 138 136 137 139 141 138 136 137 140 143 146 150 147 147 148 148 149 152 156 160 159 154 148 145 137 128 118 115 116 122 133 136 140 146 151 146 136 127 136 137 128 104 92 86 85 91 97 105 115 113 109 102 95 100 108 116 114 114 116 120 127 132 136 141 146 151 154 159 167 173 174 179 183 185 179 173 165 158 143 132 129 140 144 148 152 160 162 162 159 158 155 151 151 143 127 106 86 70 59 54 56 59 62 66 69 71 73 75 77 79 81 83 86 91 94 95 96 96 91 86 86 90 93 95 96 97 98 98 96 96 98 99 98 96 94 93 93 95 96 96 96 97 101 107 99 92 87 88 89 91 93 92 94 96 96 96 96 96 96 96 96 97 97 97 97 97 206 255 255
254 255 199 76 71 69 66 61 61 62 62 59 58 58 57 56 56 55 55 55 55 56 58 55 54 55 57 58 59 63 63 61 58 59 59 61 66 63 61 60 61 62 60 58 60 60 56 47 46 49 57 67 68 67 64 59 58 59 61 65 69 72 73 74 75 77 79 84 88 90 95 100 102 101 104 111 120 128 129 128 127 134 137 137 133 134 137 140 136 137 138 140 136 135 137 141 144 147 151 147 147 148 149 149 152 157 160 158 154 148 142 132 121 112 109 111 118 129 132 133 137 143 137 127 121 133 136 126 99 86 80 80 88 97 106 117 117 114 109 103 107 114 121 114 112 112 115 121 127 131 136 142 147 150 156 166 174 175 181 185 185 180 173 166 158 145 135 133 144 149 151 153 161 163 163 159 158 155 151 151 141 125 102 81 67 57 52 53 55 58 63 67 70 72 74 75 77 80 83 89 96 100 100 100 100 93 87 86 91 93 96 98 100 101 100 97 96 97 98 96 95 94 93 93 94 95 95 95 96 99 105 97 89 84 86 87 89 91 91 95 98 97 97 97 97 97 97 98 98 98 98 98 98 207 255 255
252 253 198 79 74 72 69 65 65 65 65 62 62 62 61 60 60 60 60 59 60 60 62 60 58 58 60 62 64 68 69 66 63 63 63 64 69 66 64 63 64 67 66 62 64 64 60 49 49 52 59 71 72 72 69 64 63 63 64 68 71 74 74 73 74 76 78 82 86 88 93 98 101 100 103 111 120 128 130 129 129 136 140 141 138 139 142 144 141 141 142 143 138 138 141 145 145 146 148 143 142 142 142 143 146 150 154 153 149 143 137 127 117 109 107 110 118 129 129 129 133 139 134 127 123 137 140 129 100 86 80 81 90 98 107 118 120 119 116 111 115 122 127 118 114 113 115 120 125 130 135 140 145 148 154 163 171 173 177 179 180 176 171 163 153 142 134 133 144 148 150 151 157 159 158 154 154 152 148 147 137 121 100 81 69 62 58 57 58 61 65 68 71 72 73 74 75 78 82 90 99 103 104 104 103 95 89 86 91 93 96 97 99 101 99 95 92 93 94 92 91 92 92 92 94 94 94 94 94 96 102 94 86 82 83 85 86 88 90 94 98 97 97 97 97 97 98 98 99 99 99 99 99 206 255 255
252 253 199 81 76 74 71 67 67 68 67 65 64 64 63 62 63 63 63 63 63 64 66 63 61 61 63 65 67 71 71 69 65 65 64 65 69 67 64 64 65 68 67 64 64 65 61 50 50 52 60 71 73 73 71 66 65 66 67 69 73 76 75 74 74 76 78 82 86 89 94 98 101 100 104 111 121 129 131 130 129 137 141 142 139 140 143 145 142 143 144 144 139 139 142 147 146 145 146 141 139 139 139 139 143 148 151 150 147 142 136 126 115 107 105 109 117 127 127 127 131 137 133 126 124 139 143 133 104 89 82 83 92 101 109 121 123 122 120 116 121 127 131 121 115 114 115 120 125 129 134 139 143 146 151 161 170 172 174 176 177 175 171 163 154 143 134 133 143 147 149 149 155 157 156 153 154 152 149 147 136 119 99 81 70 64 61 59 59 62 65 67 69 71 71 72 74 78 83 92 102 107 107 107 106 98 90 88 93 95 97 99 101 102 100 95 92 93 94 92 92 93 93 94 95 96 96 96 96 98 104 96 88 84 85 86 88 90 91 96 99 99 98 98 99 99 100 100 101 102 102 102 102 207 255 255
255 255 202 81 77 74 71 67 67 68 68 66 65 65 64 64 64 64 64 64 65 66 68 66 64 65 65 66 68 71 70 67 63 63 63 65 69 66 64 63 62 65 65 62 63 63 59 50 49 52 59 69 72 72 71 68 68 69 70 72 74 77 77 76 77 78 81 86 91 93 97 101 103 102 106 113 122 132 133 131 129 136 139 139 134 136 139 143 140 141 142 143 139 138 141 146 146 146 147 143 143 144 143 144 147 153 157 156 152 147 140 129 118 108 105 108 116 127 126 127 132 138 133 125 123 141 146 138 110 96 88 88 97 106 115 126 128 127 124 121 124 128 132 122 116 114 115 120 125 129 133 138 142 144 150 162 173 174 177 179 180 179 176 170 162 150 139 135 145 148 150 152 159 162 163 161 161 159 156 154 142 123 100 81 69 62 59 57 58 61 64 65 67 69 71 74 77 82 88 97 108 113 113 111 110 101 94 92 97 100 102 105 108 109 107 102 100 100 101 100 99 99 99 100 102 103 104 105 106 109 114 105 96 91 92 94 96 98 98 101 104 104 103 103 104 104 104 105 106 106 106 106 106 211 255 255
249 251 235 200 203 204 202 199 201 201 200 201 201 201 201 201 201 201 202 202 202 203 204 203 202 202 202 202 202 203 203 202 200 201 201 201 202 201 201 201 201 203 203 202 203 204 202 198 198 198 201 204 205 205 204 201 201 201 202 203 205 206 205 204 204 205 204 205 205 206 208 210 211 211 212 215 217 218 217 217 219 221 222 223 221 221 222 223 221 222 223 223 222 222 222 224 223 222 222 221 222 222 223 223 223 224 223 222 221 219 219 216 213 211 213 215 218 220 218 217 218 220 219 217 217 222 223 221 210 204 202 204 208 211 212 215 217 219 219 217 217 218 219 217 215 214 214 217 219 220 220 221 221 222 222 224 227 228 230 231 232 232 231 229 226 224 222 221 224 225 224 223 226 227 225 222 223 223 222 222 219 213 205 202 200 198 195 198 199 199 201 201 202 203 204 204 203 205 204 206 211 214 215 214 213 211 208 207 208 210 213 214 213 211 209 208 208 209 209 208 209 210 210 210 211 212 213 212 212 213 214 212 210 208 208 208 209 210 210 212 213 213 212 211 212 212 213 213 213 214 214 214 214 242 255 255
248 250 249 245 252 253 251 250 252 252 250 253 253 253 253 253 254 254 255 255 255 255 255 255 255 255 254 254 253 253 253 252 252 253 252 253 252 253 253 253 253 255 255 255 255 255 255 254 254 254 255 255 255 255 254 252 252 253 254 254 255 255 255 254 254 254 253 252 251 251 252 253 253 254 254 254 254 251 250 250 253 254 254 254 253 253 252 253 252 253 254 254 253 253 253 253 252 252 251 253 254 254 255 255 254 253 251 250 250 249 251 251 252 252 255 255 255 255 254 252 252 252 252 252 253 253 253 254 251 248 247 249 252 252 251 250 252 255 255 254 253 253 252 253 253 253 253 255 255 255 255 253 253 253 251 250 249 250 252 253 253 253 253 253 254 255 255 255 255 255 253 252 255 254 251 248 250 250 251 251 251 249 247 250 251 250 246 251 253 253 253 253 255 255 255 255 254 254 250 250 252 255 255 255 254 253 253 252 252 254 255 255 254 252 250 250 252 252 252 252 253 254 254 254 255 255 255 255 255 255 254 255 255 255 255 254 254 254 254 255 255 255 254 254 254 255 255 255 255 255 255 255 255 255 255 255
251 253 251 244 251 252 250 249 251 251 249 251 252 252 252 252 253 252 253 253 254 254 254 255 255 254 253 253 252 252 250 250 249 250 250 250 250 251 251 251 251 252 253 254 255 255 254 252 252 252 253 253 253 253 252 251 251 252 253 254 254 255 255 255 255 255 254 253 253 253 253 253 254 255 254 254 254 251 249 250 252 253 253 253 251 251 251 251 250 251 252 252 252 252 251 251 251 251 251 254 255 255 255 255 255 255 254 253 252 252 254 254 254 253 255 255 255 255 253 252 252 252 252 251 251 252 253 255 253 249 248 249 252 253 252 251 253 254 255 253 252 252 252 253 254 254 254 255 255 255 255 254 253 253 252 251 251 251 254 255 255 255 254 255 255 255 255 255 255 255 254 253 255 255 254 251 253 254 254 255 253 251 248 251 251 249 245 250 252 252 252 252 253 255 255 255 255 255 252 251 253 255 255 255 254 253 253 253 252 255 255 255 255 253 251 252 254 254 254 255 255 255 255 255 255 255 255 255 255 255 255 255 255 255 255 255 255 255 255 255 255 255 254 254 254 255 255 255 255 255 255 255 255 255 255 255
